/* XPM */
static char * 404_xpm[] = {
"100 100 58 1",
" 	c #FFFFFF",
".	c #F1E5E5",
"+	c #BE6565",
"@	c #B20000",
"#	c #FAF6F6",
"$	c #B31C1C",
"%	c #FEFDFD",
"&	c #CF9A9A",
"*	c #E6D0D0",
"=	c #C67F7F",
"-	c #F3E9E9",
";	c #E1C5C5",
">	c #BC5858",
",	c #BC5A5A",
"'	c #EBD8D8",
")	c #ECDBDB",
"!	c #C17070",
"~	c #B73D3D",
"{	c #CA8A8A",
"]	c #F6EEEE",
"^	c #CD9494",
"/	c #FCFAFA",
"(	c #C98888",
"_	c #C37777",
":	c #FBF8F8",
"<	c #B94D4D",
"[	c #B52E2E",
"}	c #EAD7D7",
"|	c #BE6262",
"1	c #BB5656",
"2	c #E0C3C3",
"3	c #DDBABA",
"4	c #BD5F5F",
"5	c #F9F4F4",
"6	c #B94545",
"7	c #ECDCDC",
"8	c #FCF9F9",
"9	c #DBB7B7",
"0	c #C78080",
"a	c #C57C7C",
"b	c #B84949",
"c	c #EEDFDF",
"d	c #D7AFAF",
"e	c #FDFBFB",
"f	c #B53535",
"g	c #FDFDFD",
"h	c #CB8E8E",
"i	c #B52626",
"j	c #CD9595",
"k	c #FBF7F7",
"l	c #B63B3B",
"m	c #B42222",
"n	c #B84747",
"o	c #DCB9B9",
"p	c #F5EDED",
"q	c #BA5151",
"r	c #DFC0C0",
"s	c #E8D4D4",
"                                                                                                    ",
"                                                                                                    ",
"                                                                                                    ",
"                                                                                                    ",
"                                                                                                    ",
"                                                                                                    ",
"                                                                                                    ",
"                                                                                                    ",
"                                                                                                    ",
"                                                                                                    ",
"                                                                                                    ",
"                                                                                                    ",
"                                                                                                    ",
"                                                                                                    ",
"                                                                                                    ",
"                                                                                                    ",
"                                                                                                    ",
"                                                                                                    ",
"                                                                                                    ",
"                                                                                                    ",
"                                                                                                    ",
"                                                                                                    ",
"                                                                                                    ",
"                                                                                                    ",
"                                                                                                    ",
"                                                                                                    ",
"                                                                                                    ",
"                                                                                                    ",
"                                                                                                    ",
"                                                                                                    ",
"                                                                                                    ",
"                                                                                                    ",
"                                                                                                    ",
"                                                                                                    ",
"                                                                                                    ",
"                                                                                                    ",
"                                                                                                    ",
"                                                                                                    ",
"                                                                                                    ",
"                                                                                                    ",
"                                                                                                    ",
"                                                                                                    ",
"                                                                                                    ",
"                                                                                                    ",
"                                                                                                    ",
"                                                                                                    ",
"                                             .+@#                         $                         ",
"                                      $%     &*                           $                         ",
"                                      $%     =-                           $                         ",
"                        @;>,'  )!~{] ^@@@/  (@@_ )!~{] :<  %[  @;>,'  }|12$                         ",
"                        @3/)4 567890  $%     a- 567890 :<  %[  @3/)4 5bc8d$                         ",
"                        @e  fg}h  gi8 $%     a- }h  gi8:<  %[  @e  fg}j  k$                         ",
"                        @   le}h  gi8 m%     a- }h  gi88n  8[  @   le}j  k$                         ",
"                        @   le567/o0  <p     a- 567/o0  qc/9[  @   le5bc8d$                         ",
"                        @   le )!l{]  r6@/   a-  )!l{]  s1,;[  @   le }|12$                         ",
"                                                                                                    ",
"                                                                                                    ",
"                                                                                                    ",
"                                                                                                    ",
"                                                                                                    ",
"                                                                                                    ",
"                                                                                                    ",
"                                                                                                    ",
"                                                                                                    ",
"                                                                                                    ",
"                                                                                                    ",
"                                                                                                    ",
"                                                                                                    ",
"                                                                                                    ",
"                                                                                                    ",
"                                                                                                    ",
"                                                                                                    ",
"                                                                                                    ",
"                                                                                                    ",
"                                                                                                    ",
"                                                                                                    ",
"                                                                                                    ",
"                                                                                                    ",
"                                                                                                    ",
"                                                                                                    ",
"                                                                                                    ",
"                                                                                                    ",
"                                                                                                    ",
"                                                                                                    ",
"                                                                                                    ",
"                                                                                                    ",
"                                                                                                    ",
"                                                                                                    ",
"                                                                                                    ",
"                                                                                                    ",
"                                                                                                    ",
"                                                                                                    ",
"                                                                                                    ",
"                                                                                                    ",
"                                                                                                    ",
"                                                                                                    ",
"                                                                                                    ",
"                                                                                                    ",
"                                                                                                    ",
"                                                                                                    "};
