/* XPM */
static char * 42logo_xpm[] = {
"506 142 18 1",
" 	c None",
".	c #000000",
"+	c #030304",
"@	c #030304",
"#	c #030304",
"$	c #030304",
"%	c #030304",
"&	c #030304",
"*	c #030304",
"=	c #030304",
"-	c #030304",
";	c #030304",
">	c #030304",
",	c #030304",
"'	c #030304",
")	c #030304",
"!	c #030304",
"~	c #030304",
"                                                                          >,,,,,,,,,,,,,,,,,,,,,,,,,,,,,,,,,,,,                -,,,,,,,,,,,,,,,,,,,,,,,,,,,,,,,,,,,,,,,,,,,,,,,,,,,,,,,,,,,,,,,,,,,,,,,,,                                                                                                                                                                                                                                                                                                                 ",
"                                                                         '~~~~~~~~~~~~~~~~~~~~~~~~~~~~~~~~~~~~;                ,~~~~~~~~~~~~~~~~~~~~~~~~~~~~~~~~~~~;,~~~~~~~~~~~~~~~~~~~~~~~~~~~~~~~~~~~~=                                                                                                                                                                                                                                                                                                                ",
"                                                                        '~~~~~~~~~~~~~~~~~~~~~~~~~~~~~~~~~~~~;                 ,~~~~~~~~~~~~~~~~~~~~~~~~~~~~~~~~~~; ,~~~~~~~~~~~~~~~~~~~~~~~~~~~~~~~~~~~~=                                                                                                                                                                                                                                                                                                                ",
"                                                                       '~~~~~~~~~~~~~~~~~~~~~~~~~~~~~~~~~~~~;                  ,~~~~~~~~~~~~~~~~~~~~~~~~~~~~~~~~~;  ,~~~~~~~~~~~~~~~~~~~~~~~~~~~~~~~~~~~~=                                                                                                                                                                                                                                                                                                                ",
"                                                                      '~~~~~~~~~~~~~~~~~~~~~~~~~~~~~~~~~~~~;                   ,~~~~~~~~~~~~~~~~~~~~~~~~~~~~~~~~;   ,~~~~~~~~~~~~~~~~~~~~~~~~~~~~~~~~~~~~=                                                                                                                                                                                                                                                                                                                ",
"                                                                     '~~~~~~~~~~~~~~~~~~~~~~~~~~~~~~~~~~~~;                    ,~~~~~~~~~~~~~~~~~~~~~~~~~~~~~~~;    ,~~~~~~~~~~~~~~~~~~~~~~~~~~~~~~~~~~~~=                                                                                                                                                                                                                                                                                                                ",
"                                                                    '~~~~~~~~~~~~~~~~~~~~~~~~~~~~~~~~~~~~;                     ,~~~~~~~~~~~~~~~~~~~~~~~~~~~~~~;     ,~~~~~~~~~~~~~~~~~~~~~~~~~~~~~~~~~~~~=                                                                                                                                                                                                                                                                                                                ",
"                                                                   '~~~~~~~~~~~~~~~~~~~~~~~~~~~~~~~~~~~~;                      ,~~~~~~~~~~~~~~~~~~~~~~~~~~~~~;      ,~~~~~~~~~~~~~~~~~~~~~~~~~~~~~~~~~~~~=                                                                                                                                                                                                                                                                                                                ",
"                                                                  '~~~~~~~~~~~~~~~~~~~~~~~~~~~~~~~~~~~~;                       ,~~~~~~~~~~~~~~~~~~~~~~~~~~~~;       ,~~~~~~~~~~~~~~~~~~~~~~~~~~~~~~~~~~~~=                                                                                                                                                                                                                                                                                                                ",
"                                                                 '~~~~~~~~~~~~~~~~~~~~~~~~~~~~~~~~~~~~;                        ,~~~~~~~~~~~~~~~~~~~~~~~~~~~;        ,~~~~~~~~~~~~~~~~~~~~~~~~~~~~~~~~~~~~=                                                                                                                                                                                                                                                                                                                ",
"                                                                '~~~~~~~~~~~~~~~~~~~~~~~~~~~~~~~~~~~~;                         ,~~~~~~~~~~~~~~~~~~~~~~~~~~;         ,~~~~~~~~~~~~~~~~~~~~~~~~~~~~~~~~~~~~=                                                                                                                                                                                                                                                                                                                ",
"                                                               '~~~~~~~~~~~~~~~~~~~~~~~~~~~~~~~~~~~~;                          ,~~~~~~~~~~~~~~~~~~~~~~~~~;          ,~~~~~~~~~~~~~~~~~~~~~~~~~~~~~~~~~~~~=                                                                                                                                                                                                                                                                                                                ",
"                                                              '~~~~~~~~~~~~~~~~~~~~~~~~~~~~~~~~~~~~;                           ,~~~~~~~~~~~~~~~~~~~~~~~~;           ,~~~~~~~~~~~~~~~~~~~~~~~~~~~~~~~~~~~~=                                                                                                                                                                                                                                                                                                                ",
"                                                             '~~~~~~~~~~~~~~~~~~~~~~~~~~~~~~~~~~~~;                            ,~~~~~~~~~~~~~~~~~~~~~~~;            ,~~~~~~~~~~~~~~~~~~~~~~~~~~~~~~~~~~~~=                                                                                                                                                                                                                                                                                                                ",
"                                                            '~~~~~~~~~~~~~~~~~~~~~~~~~~~~~~~~~~~~;                             ,~~~~~~~~~~~~~~~~~~~~~~;             ,~~~~~~~~~~~~~~~~~~~~~~~~~~~~~~~~~~~~=                                                                                                                                                                                                                                                                                                                ",
"                                                           '~~~~~~~~~~~~~~~~~~~~~~~~~~~~~~~~~~~~;                              ,~~~~~~~~~~~~~~~~~~~~~;              ,~~~~~~~~~~~~~~~~~~~~~~~~~~~~~~~~~~~~=                                                                                                                                                                                                                                                                                                                ",
"                                                          '~~~~~~~~~~~~~~~~~~~~~~~~~~~~~~~~~~~~;                               ,~~~~~~~~~~~~~~~~~~~~;               ,~~~~~~~~~~~~~~~~~~~~~~~~~~~~~~~~~~~~=                                                                                                                                                                                                                                                                                                                ",
"                                                         '~~~~~~~~~~~~~~~~~~~~~~~~~~~~~~~~~~~~;                                ,~~~~~~~~~~~~~~~~~~~;                ,~~~~~~~~~~~~~~~~~~~~~~~~~~~~~~~~~~~~=                                                                                                                                                                                                                                                                                                                ",
"                                                        '~~~~~~~~~~~~~~~~~~~~~~~~~~~~~~~~~~~~;                                 ,~~~~~~~~~~~~~~~~~~;                 ,~~~~~~~~~~~~~~~~~~~~~~~~~~~~~~~~~~~~=                                                                                                                                                                                                                                                                                                                ",
"                                                       '~~~~~~~~~~~~~~~~~~~~~~~~~~~~~~~~~~~~;                                  ,~~~~~~~~~~~~~~~~~;                  ,~~~~~~~~~~~~~~~~~~~~~~~~~~~~~~~~~~~~=                                                                                                                                                                                                                                                                                                                ",
"                                                      '~~~~~~~~~~~~~~~~~~~~~~~~~~~~~~~~~~~~;                                   ,~~~~~~~~~~~~~~~~;                   ,~~~~~~~~~~~~~~~~~~~~~~~~~~~~~~~~~~~~=                                                                                                                                                                                                                                                                                                                ",
"                                                     '~~~~~~~~~~~~~~~~~~~~~~~~~~~~~~~~~~~~;                                    ,~~~~~~~~~~~~~~~;                    ,~~~~~~~~~~~~~~~~~~~~~~~~~~~~~~~~~~~~=                                                                                                                                                                                                                                                                                                                ",
"                                                    '~~~~~~~~~~~~~~~~~~~~~~~~~~~~~~~~~~~~;                                     ,~~~~~~~~~~~~~~;                     ,~~~~~~~~~~~~~~~~~~~~~~~~~~~~~~~~~~~~=                                                                                                                                                                                                                                                                                                                ",
"                                                   '~~~~~~~~~~~~~~~~~~~~~~~~~~~~~~~~~~~~;                                      ,~~~~~~~~~~~~~;                      ,~~~~~~~~~~~~~~~~~~~~~~~~~~~~~~~~~~~~=                                                                                                                                                                                                                                                                                                                ",
"                                                  '~~~~~~~~~~~~~~~~~~~~~~~~~~~~~~~~~~~~;                                       ,~~~~~~~~~~~~;                       ,~~~~~~~~~~~~~~~~~~~~~~~~~~~~~~~~~~~~=                                                                                                                                                                                                                                                                                                                ",
"                                                 '~~~~~~~~~~~~~~~~~~~~~~~~~~~~~~~~~~~~;                                        ,~~~~~~~~~~~;                        ,~~~~~~~~~~~~~~~~~~~~~~~~~~~~~~~~~~~~=                                                                                                                                                                                                                                                                                                                ",
"                                                '~~~~~~~~~~~~~~~~~~~~~~~~~~~~~~~~~~~~;                                         ,~~~~~~~~~~;                         ,~~~~~~~~~~~~~~~~~~~~~~~~~~~~~~~~~~~~=                                                                                                                                                                                                                                                                                                                ",
"                                               '~~~~~~~~~~~~~~~~~~~~~~~~~~~~~~~~~~~~;                                          ,~~~~~~~~~;                          ,~~~~~~~~~~~~~~~~~~~~~~~~~~~~~~~~~~~~=                                                                                                                                                                                                                                                                                                                ",
"                                              '~~~~~~~~~~~~~~~~~~~~~~~~~~~~~~~~~~~~;                                           ,~~~~~~~~;                           ,~~~~~~~~~~~~~~~~~~~~~~~~~~~~~~~~~~~~=                                                                                                                                                                                                                                                                                                                ",
"                                             '~~~~~~~~~~~~~~~~~~~~~~~~~~~~~~~~~~~~;                                            ,~~~~~~~;                            ,~~~~~~~~~~~~~~~~~~~~~~~~~~~~~~~~~~~~=                                                                                                                                                                                                                                                                                                                ",
"                                            '~~~~~~~~~~~~~~~~~~~~~~~~~~~~~~~~~~~~;                                             ,~~~~~~;                             ,~~~~~~~~~~~~~~~~~~~~~~~~~~~~~~~~~~~~=                                                                                                                                                                                                                                                                                                                ",
"                                           '~~~~~~~~~~~~~~~~~~~~~~~~~~~~~~~~~~~~;                                              ,~~~~~;                              ,~~~~~~~~~~~~~~~~~~~~~~~~~~~~~~~~~~~~=                                                                                                                                                                                                                                                                                                                ",
"                                          '~~~~~~~~~~~~~~~~~~~~~~~~~~~~~~~~~~~~;                                               ,~~~~;                               ,~~~~~~~~~~~~~~~~~~~~~~~~~~~~~~~~~~~~=                                                                                                                                                                                                                                                                                                                ",
"                                         '~~~~~~~~~~~~~~~~~~~~~~~~~~~~~~~~~~~~;                                                ,~~~;                                ,~~~~~~~~~~~~~~~~~~~~~~~~~~~~~~~~~~~~=                                                                                                                                                                                                                                                                                                                ",
"                                        '~~~~~~~~~~~~~~~~~~~~~~~~~~~~~~~~~~~~;                                                 ,~~;                                 ,~~~~~~~~~~~~~~~~~~~~~~~~~~~~~~~~~~~~=                                                                                                                                                                                                                                                                                                                ",
"                                       '~~~~~~~~~~~~~~~~~~~~~~~~~~~~~~~~~~~~;                                                  ,~;                                  ,~~~~~~~~~~~~~~~~~~~~~~~~~~~~~~~~~~~~=                                                                                                                                                                                                                                                                                                                ",
"                                      '~~~~~~~~~~~~~~~~~~~~~~~~~~~~~~~~~~~~;                                                   ,;                                   ,~~~~~~~~~~~~~~~~~~~~~~~~~~~~~~~~~~~~=                                                                                                                                                                                                                                                                                                                ",
"                                     '~~~~~~~~~~~~~~~~~~~~~~~~~~~~~~~~~~~~;                                                                                         !~~~~~~~~~~~~~~~~~~~~~~~~~~~~~~~~~~~~                                                                                                                                                                                                                                                                                                                 ",
"                                    '~~~~~~~~~~~~~~~~~~~~~~~~~~~~~~~~~~~~;                                                                                         !~~~~~~~~~~~~~~~~~~~~~~~~~~~~~~~~~~~~                                                                                                                                                                                                                                                                                                                  ",
"                                   '~~~~~~~~~~~~~~~~~~~~~~~~~~~~~~~~~~~~;                                                                                         !~~~~~~~~~~~~~~~~~~~~~~~~~~~~~~~~~~~~                                                                                                                                                                                                                                                                                                                   ",
"                                  '~~~~~~~~~~~~~~~~~~~~~~~~~~~~~~~~~~~~;                                                                                         !~~~~~~~~~~~~~~~~~~~~~~~~~~~~~~~~~~~~                                                                                                                                                                                                                                                                                                                    ",
"                                 '~~~~~~~~~~~~~~~~~~~~~~~~~~~~~~~~~~~~;                                                                                         !~~~~~~~~~~~~~~~~~~~~~~~~~~~~~~~~~~~~                                                                                                                                                                                                                                                                                                                     ",
"                                '~~~~~~~~~~~~~~~~~~~~~~~~~~~~~~~~~~~~;                                                                                         !~~~~~~~~~~~~~~~~~~~~~~~~~~~~~~~~~~~~                                                                                                                                                                                                                                                                                                                      ",
"                               ,~~~~~~~~~~~~~~~~~~~~~~~~~~~~~~~~~~~~;                                                                                         !~~~~~~~~~~~~~~~~~~~~~~~~~~~~~~~~~~~~                                                                                                                                                                                                                                                                                                                       ",
"                              ;~~~~~~~~~~~~~~~~~~~~~~~~~~~~~~~~~~~~;                                                                                         !~~~~~~~~~~~~~~~~~~~~~~~~~~~~~~~~~~~~                                                                                                                                                                                                                                                                                                                        ",
"                             ;~~~~~~~~~~~~~~~~~~~~~~~~~~~~~~~~~~~~;                                                                                         !~~~~~~~~~~~~~~~~~~~~~~~~~~~~~~~~~~~~                                                                                                                                                                                                                                                                                                                         ",
"                            ;~~~~~~~~~~~~~~~~~~~~~~~~~~~~~~~~~~~~;                                                                                         !~~~~~~~~~~~~~~~~~~~~~~~~~~~~~~~~~~~~                                                                                                                                                                                                                                                                                                                          ",
"                           ;~~~~~~~~~~~~~~~~~~~~~~~~~~~~~~~~~~~~;                                                                                         !~~~~~~~~~~~~~~~~~~~~~~~~~~~~~~~~~~~~                                                                                                                                                                                                                                                                                                                           ",
"                          ;~~~~~~~~~~~~~~~~~~~~~~~~~~~~~~~~~~~~;                                                                                         !~~~~~~~~~~~~~~~~~~~~~~~~~~~~~~~~~~~~                                                                                                                                                                                                                                                                                                                            ",
"                         ;~~~~~~~~~~~~~~~~~~~~~~~~~~~~~~~~~~~~;                                                                                         !~~~~~~~~~~~~~~~~~~~~~~~~~~~~~~~~~~~~                                                                                                                                                                                                                                                                                                                             ",
"                        ;~~~~~~~~~~~~~~~~~~~~~~~~~~~~~~~~~~~~;                                                                                         !~~~~~~~~~~~~~~~~~~~~~~~~~~~~~~~~~~~~                                                                                                                                                                                                                                                                                                                              ",
"                       ;~~~~~~~~~~~~~~~~~~~~~~~~~~~~~~~~~~~~;                                                                                         !~~~~~~~~~~~~~~~~~~~~~~~~~~~~~~~~~~~~                                                                                                                                                                                                                                                                                                                               ",
"                      ;~~~~~~~~~~~~~~~~~~~~~~~~~~~~~~~~~~~~;                                                                                         !~~~~~~~~~~~~~~~~~~~~~~~~~~~~~~~~~~~~                                                                                                                                                                                                                                                                                                                                ",
"                     ;~~~~~~~~~~~~~~~~~~~~~~~~~~~~~~~~~~~~;                                                                                         !~~~~~~~~~~~~~~~~~~~~~~~~~~~~~~~~~~~~                                                                                                                                                                                                                                                                                                                                 ",
"                    ;~~~~~~~~~~~~~~~~~~~~~~~~~~~~~~~~~~~~;                                                                                         !~~~~~~~~~~~~~~~~~~~~~~~~~~~~~~~~~~~~                                                                                                                                                                                                                                                                                                                                  ",
"                   ;~~~~~~~~~~~~~~~~~~~~~~~~~~~~~~~~~~~~;                                                                                         !~~~~~~~~~~~~~~~~~~~~~~~~~~~~~~~~~~~~                                                                                                                                                                                                                                                                                                                                   ",
"                  ;~~~~~~~~~~~~~~~~~~~~~~~~~~~~~~~~~~~~;                                                                                         !~~~~~~~~~~~~~~~~~~~~~~~~~~~~~~~~~~~~                                                                                                                                                                                                                                                                                                                                    ",
"                 ;~~~~~~~~~~~~~~~~~~~~~~~~~~~~~~~~~~~~;                                                                                         !~~~~~~~~~~~~~~~~~~~~~~~~~~~~~~~~~~~~                                                                                                                                                                                                                                                                                                                                     ",
"                ;~~~~~~~~~~~~~~~~~~~~~~~~~~~~~~~~~~~~;                                                                                         !~~~~~~~~~~~~~~~~~~~~~~~~~~~~~~~~~~~~                                                                                                                                                                                                                                                                                                                                      ",
"               ;~~~~~~~~~~~~~~~~~~~~~~~~~~~~~~~~~~~~;                                                                                         !~~~~~~~~~~~~~~~~~~~~~~~~~~~~~~~~~~~~                                                                                                                                                                                                                                                                                                                                       ",
"              ;~~~~~~~~~~~~~~~~~~~~~~~~~~~~~~~~~~~~;                                                                                         !~~~~~~~~~~~~~~~~~~~~~~~~~~~~~~~~~~~~                                                                                                                                                                                                                                                                                                                                        ",
"             ;~~~~~~~~~~~~~~~~~~~~~~~~~~~~~~~~~~~~;                                                                                         !~~~~~~~~~~~~~~~~~~~~~~~~~~~~~~~~~~~~                                                                                                                                                                                                                                                                                                                                         ",
"            ;~~~~~~~~~~~~~~~~~~~~~~~~~~~~~~~~~~~~;                                                                                         !~~~~~~~~~~~~~~~~~~~~~~~~~~~~~~~~~~~~                                                                                                                                                                                                                                                                                                                                          ",
"           ;~~~~~~~~~~~~~~~~~~~~~~~~~~~~~~~~~~~~;                                                                                         !~~~~~~~~~~~~~~~~~~~~~~~~~~~~~~~~~~~~                                                                                                                                                                                                                                                                                                                                           ",
"          ;~~~~~~~~~~~~~~~~~~~~~~~~~~~~~~~~~~~~;                                                                                         !~~~~~~~~~~~~~~~~~~~~~~~~~~~~~~~~~~~~                                                                                                                                                                                                                                                                                                                                            ",
"         ;~~~~~~~~~~~~~~~~~~~~~~~~~~~~~~~~~~~~;                                                                                         !~~~~~~~~~~~~~~~~~~~~~~~~~~~~~~~~~~~~                                                                                                                                                                                                                                                                                                                                             ",
"        ;~~~~~~~~~~~~~~~~~~~~~~~~~~~~~~~~~~~~;                                                                                         !~~~~~~~~~~~~~~~~~~~~~~~~~~~~~~~~~~~~                                                                                                                                                                                                                                                                                                                                              ",
"       ;~~~~~~~~~~~~~~~~~~~~~~~~~~~~~~~~~~~~;                                                                                         !~~~~~~~~~~~~~~~~~~~~~~~~~~~~~~~~~~~~                                                                                                                                                                                                                                                                                                                                               ",
"      ;~~~~~~~~~~~~~~~~~~~~~~~~~~~~~~~~~~~~;                                                                                         !~~~~~~~~~~~~~~~~~~~~~~~~~~~~~~~~~~~~                                                                                                                                                                                                                                                                                                                                                ",
"     ;~~~~~~~~~~~~~~~~~~~~~~~~~~~~~~~~~~~~;                                                                                         !~~~~~~~~~~~~~~~~~~~~~~~~~~~~~~~~~~~~                                                                                                                                                                                                                                                                                                                                                 ",
"    ;~~~~~~~~~~~~~~~~~~~~~~~~~~~~~~~~~~~~;                                                                                         !~~~~~~~~~~~~~~~~~~~~~~~~~~~~~~~~~~~~                                                                                                                                                                                                                                                                                                                                                  ",
"   ;~~~~~~~~~~~~~~~~~~~~~~~~~~~~~~~~~~~~;                                                                                         !~~~~~~~~~~~~~~~~~~~~~~~~~~~~~~~~~~~~                                                                                                                                                                                                               ==                                                                                                                                  ",
"  ;~~~~~~~~~~~~~~~~~~~~~~~~~~~~~~~~~~~~;                                                                                         !~~~~~~~~~~~~~~~~~~~~~~~~~~~~~~~~~~~~                                                                                                                                                                                           ~~~~~~~;         =!~~~~~~!=                         ~~~~~~~,                                                                                             ",
" ;~~~~~~~~~~~~~~~~~~~~~~~~~~~~~~~~~~~~;                                                                                         !~~~~~~~~~~~~~~~~~~~~~~~~~~~~~~~~~~~~                                                                                                                                                                                            ~~~~~~~=        !~~~~~~~~~;                         ~~~~~~~=                                                                                             ",
" ~~~~~~~~~~~~~~~~~~~~~~~~~~~~~~~~~~~~~,,,,,,,,,,,,,,,,,,,,,,,,,,,,,,,,,,,,,,,,,,,,,,,,,,,,,,,,,,,,,,,,,,,,,,,,,-               ,~~~~~~~~~~~~~~~~~~~~~~~~~~~~~~~~~~~~-                                                                                                                                                                                            ~~~~~~~        !~~~~~~~~~~=                         ~~~~~~~                                                                                              ",
"=~~~~~~~~~~~~~~~~~~~~~~~~~~~~~~~~~~~~~~~~~~~~~~~~~~~~~~~~~~~~~~~~~~~~~~~~~~~~~~~~~~~~~~~~~~~~~~~~~~~~~~~~~~~~~~,               ,~~~~~~~~~~~~~~~~~~~~~~~~~~~~~~~~~~~~=                                   !=                                            ,~~~~                  ,,,,,,,,              ,,,,,;              ,,,,,,,,                                  ~~~~~~~       )~~~~~~~~~~~                          ~~~~~~~                                                                                              ",
"=~~~~~~~~~~~~~~~~~~~~~~~~~~~~~~~~~~~~~~~~~~~~~~~~~~~~~~~~~~~~~~~~~~~~~~~~~~~~~~~~~~~~~~~~~~~~~~~~~~~~~~~~~~~~~~,               ,~~~~~~~~~~~~~~~~~~~~~~~~~~~~~~~~~~~~=                                  !~=                                            ,~~~~                  ~~~~~~~~              ~~~~~~             ;~~~~~~~!                                 =~~~~~~~       ~~~~~~~~~~~~                          ~~~~~~~                                                                                              ",
"=~~~~~~~~~~~~~~~~~~~~~~~~~~~~~~~~~~~~~~~~~~~~~~~~~~~~~~~~~~~~~~~~~~~~~~~~~~~~~~~~~~~~~~~~~~~~~~~~~~~~~~~~~~~~~~,               ,~~~~~~~~~~~~~~~~~~~~~~~~~~~~~~~~~~~~=                                 !~~=                                            ,~~~~                  '~~~~~~~             )~~~~~~             ~~~~~~~~-                                 =~~~~~~~      '~~~~~~~~~~~~                         =~~~~~~~                                                                                              ",
"=~~~~~~~~~~~~~~~~~~~~~~~~~~~~~~~~~~~~~~~~~~~~~~~~~~~~~~~~~~~~~~~~~~~~~~~~~~~~~~~~~~~~~~~~~~~~~~~~~~~~~~~~~~~~~~,               ,~~~~~~~~~~~~~~~~~~~~~~~~~~~~~~~~~~~~=                                !~~~=                                            ,~~~~                  -~~~~~~~-            ~~~~~~~            =~~~~~~~~                                  ,~~~~~~!      ~~~~~~~~>   )                         >~~~~~~!                                                                                              ",
"=~~~~~~~~~~~~~~~~~~~~~~~~~~~~~~~~~~~~~~~~~~~~~~~~~~~~~~~~~~~~~~~~~~~~~~~~~~~~~~~~~~~~~~~~~~~~~~~~~~~~~~~~~~~~~~,               ,~~~~~~~~~~~~~~~~~~~~~~~~~~~~~~~~~~~~=                               !~~~~=                                            ,~~~~                   ~~~~~~~,           ,~~~~~~~;           !~~~~~~~;                                  ,~~~~~~,      ~~~~~~~>                              ,~~~~~~,                                                                                              ",
"=~~~~~~~~~~~~~~~~~~~~~~~~~~~~~~~~~~~~~~~~~~~~~~~~~~~~~~~~~~~~~~~~~~~~~~~~~~~~~~~~~~~~~~~~~~~~~~~~~~~~~~~~~~~~~~,               ,~~~~~~~~~~~~~~~~~~~~~~~~~~~~~~~~~~~~=                              !~~~~~=                                            ,~~~~                   ~~~~~~~~           ~~~~~~~~'           ~~~~~~~~                                   ~~~~~~~>     =~~~~~~~                               !~~~~~~>                                                                                              ",
"=~~~~~~~~~~~~~~~~~~~~~~~~~~~~~~~~~~~~~~~~~~~~~~~~~~~~~~~~~~~~~~~~~~~~~~~~~~~~~~~~~~~~~~~~~~~~~~~~~~~~~~~~~~~~~~,               ,~~~~~~~~~~~~~~~~~~~~~~~~~~~~~~~~~~~~=                             !~~~~~~=                                            ,~~~~                   !~~~~~~~          ;~~~~~~~~~          )~~~~~~~,                                   ~~~~~~~=     ;~~~~~~~                               ~~~~~~~=                                                                                              ",
"=~~~~~~~~~~~~~~~~~~~~~~~~~~~~~~~~~~~~~~~~~~~~~~~~~~~~~~~~~~~~~~~~~~~~~~~~~~~~~~~~~~~~~~~~~~~~~~~~~~~~~~~~~~~~~~,               ,~~~~~~~~~~~~~~~~~~~~~~~~~~~~~~~~~~~~=                            !~~~~~~~=                                            ,~~~~                   ,~~~~~~~          ~~~~~~~~~~          ~~~~~~~~                                    ~~~~~~~      ,~~~~~~,                               ~~~~~~~                                                                                               ",
"=~~~~~~~~~~~~~~~~~~~~~~~~~~~~~~~~~~~~~~~~~~~~~~~~~~~~~~~~~~~~~~~~~~~~~~~~~~~~~~~~~~~~~~~~~~~~~~~~~~~~~~~~~~~~~~,               ,~~~~~~~~~~~~~~~~~~~~~~~~~~~~~~~~~~~~=                           !~~~~~~~~=                                            ,~~~~                   =~~~~~~~-        =~~~~~~~~~~         ,~~~~~~~,                                    ~~~~~~~      ,~~~~~~,                               ~~~~~~~                                                                                               ",
"=~~~~~~~~~~~~~~~~~~~~~~~~~~~~~~~~~~~~~~~~~~~~~~~~~~~~~~~~~~~~~~~~~~~~~~~~~~~~~~~~~~~~~~~~~~~~~~~~~~~~~~~~~~~~~~,               ,~~~~~~~~~~~~~~~~~~~~~~~~~~~~~~~~~~~~=                          !~~~~~~~~~=                                            ,~~~~                    ~~~~~~~,        !~~~~~~~~~~;        ~~~~~~~~                                    =~~~~~~~      ~~~~~~~-                               ~~~~~~~                                                                                               ",
"=~~~~~~~~~~~~~~~~~~~~~~~~~~~~~~~~~~~~~~~~~~~~~~~~~~~~~~~~~~~~~~~~~~~~~~~~~~~~~~~~~~~~~~~~~~~~~~~~~~~~~~~~~~~~~~,               ,~~~~~~~~~~~~~~~~~~~~~~~~~~~~~~~~~~~~=                         !~~~~~~~~~~=                                            ,~~~~                    ~~~~~~~~        ~~~~~~~~~~~'       ;~~~~~~~)                                    =~~~~~~~      ~~~~~~~=                              =~~~~~~~                                                                                               ",
"=~~~~~~~~~~~~~~~~~~~~~~~~~~~~~~~~~~~~~~~~~~~~~~~~~~~~~~~~~~~~~~~~~~~~~~~~~~~~~~~~~~~~~~~~~~~~~~~~~~~~~~~~~~~~~~,               ,~~~~~~~~~~~~~~~~~~~~~~~~~~~~~~~~~~~~=                        !~~~~~~~~~~~=                                            ,~~~~                    )~~~~~~~       )~~~~~~~~~~~~       ~~~~~~~~             -'~~~~~~~'-             ,~~~~~~!    ==~~~~~~~>=====       >~~~~~~~)-        >~~~~~~!  =)~~~~~~>            =======         =======      =======   >~~~~)       -)~~~~~~>    =======",
"=~~~~~~~~~~~~~~~~~~~~~~~~~~~~~~~~~~~~~~~~~~~~~~~~~~~~~~~~~~~~~~~~~~~~~~~~~~~~~~~~~~~~~~~~~~~~~~~~~~~~~~~~~~~~~~,               ,~~~~~~~~~~~~~~~~~~~~~~~~~~~~~~~~~~~~=                       !~~~~~~~~~~~~=                                            ,~~~~                    ;~~~~~~~       ~~~~~~~~~~~~~      =~~~~~~~!           ,~~~~~~~~~~~~~,           ,~~~~~~,   !~~~~~~~~~~~~~~~     '~~~~~~~~~~~~-      ,~~~~~~, !~~~~~~~~~~,         =~~~~~~~        ;~~~~~~~     =~~~~~~~ ,~~~~~~!     =!~~~~~~~~~~> =~~~~~~~",
"=~~~~~~~~~~~~~~~~~~~~~~~~~~~~~~~~~~~~~~~~~~~~~~~~~~~~~~~~~~~~~~~~~~~~~~~~~~~~~~~~~~~~~~~~~~~~~~~~~~~~~~~~~~~~~~,               ,~~~~~~~~~~~~~~~~~~~~~~~~~~~~~~~~~~~~=                      !~~~~~~~~~~~~~=                                            ,~~~~                     ~~~~~~~-     ,~~~~~~~~~~~~~      !~~~~~~~=         -~~~~~~~~~~~~~~~~~          ~~~~~~~>   ~~~~~~~~~~~~~~~!    !~~~~~~~~~~~~~~      !~~~~~~!~~~~~~~~~~~~~'        ,~~~~~~!        ,~~~~~~)     >~~~~~~)'~~~~~~~,    >~~~~~~~~~~~~~',~~~~~~)",
"=~~~~~~~~~~~~~~~~~~~~~~~~~~~~~~~~~~~~~~~~~~~~~~~~~~~~~~~~~~~~~~~~~~~~~~~~~~~~~~~~~~~~~~~~~~~~~~~~~~~~~~~~~~~~~~,               ,~~~~~~~~~~~~~~~~~~~~~~~~~~~~~~~~~~~~=                     !~~~~~~~~~~~~~~=                                            ,~~~~                     ~~~~~~~,     ~~~~~~~'~~~~~~-     ~~~~~~~!         '~~~~~~~~~~~~~~~~~~~-        ~~~~~~~=   ~~~~~~~~~~~~~~~,   '~~~~~~~~~~~~~~-      ~~~~~~~~~~~~~~~~~~~~~~'       ,~~~~~~,        '~~~~~~,     ,~~~~~~~~~~~~~~~=   ,~~~~~~~~~~~~~~~~~~~~~~,",
"=~~~~~~~~~~~~~~~~~~~~~~~~~~~~~~~~~~~~~~~~~~~~~~~~~~~~~~~~~~~~~~~~~~~~~~~~~~~~~~~~~~~~~~~~~~~~~~~~~~~~~~~~~~~~~~,               ,~~~~~~~~~~~~~~~~~~~~~~~~~~~~~~~~~~~~=                    !~~~~~~~~~~~~~~~=                                            ,~~~~                     ~~~~~~~~    ;~~~~~~) ~~~~~~,    )~~~~~~~-        ,~~~~~~~~~~~~~~~~~~~~~        ~~~~~~~    ~~~~~~~~~~~~~~~>   ~~~~~~~~~~~~~~'       ~~~~~~~~~~~~~~~~~~~~~~~=      ~~~~~~~,        ~~~~~~~;     !~~~~~~~~~~~~~~~   =~~~~~~~~~~~~~~~~~~~~~~~;",
"=~~~~~~~~~~~~~~~~~~~~~~~~~~~~~~~~~~~~~~~~~~~~~~~~~~~~~~~~~~~~~~~~~~~~~~~~~~~~~~~~~~~~~~~~~~~~~~~~~~~~~~~~~~~~~~,               ,~~~~~~~~~~~~~~~~~~~~~~~~~~~~~~~~~~~~=                   !~~~~~~~~~~~~~~~~=                                            ,~~~~                     ,~~~~~~~    ~~~~~~~  ~~~~~~~    ~~~~~~~~        =~~~~~~~~~~~~~~~~~~~~~~!       ~~~~~~~   =~~~~~~~~~~~~~~~=  ;~~~~~~!-  =)~~        ~~~~~~~~~~~~~~~~~~~~~~~!      ~~~~~~~=        ~~~~~~~=     ~~~~~~~~~~~~~~~~   ~~~~~~~~~~~~~~~~~~~~~~~~=",
"=~~~~~~~~~~~~~~~~~~~~~~~~~~~~~~~~~~~~~~~~~~~~~~~~~~~~~~~~~~~~~~~~~~~~~~~~~~~~~~~~~~~~~~~~~~~~~~~~~~~~~~~~~~~~~~,               ,~~~~~~~~~~~~~~~~~~~~~~~~~~~~~~~~~~~~=                  !~~~~~~~~~~~~~~~~~=                                            ,~~~~                     -~~~~~~~   =~~~~~~)  '~~~~~~   ,~~~~~~~;        !~~~~~~~~)    ;~~~~~~~~~      =~~~~~~~    ==~~~~~~~,=====   '~~~~~~=               ~~~~~~~~~'=  =)~~~~~~~~~      ~~~~~~~=        ~~~~~~~      ~~~~~~~~~~)>=>!)  ;~~~~~~~~!;   >~~~~~~~~~~ ",
"=~~~~~~~~~~~~~~~~~~~~~~~~~~~~~~~~~~~~~~~~~~~~~~~~~~~~~~~~~~~~~~~~~~~~~~~~~~~~~~~~~~~~~~~~~~~~~~~~~~~~~~~~~~~~~~,               ,~~~~~~~~~~~~~~~~~~~~~~~~~~~~~~~~~~~~=                 !~~~~~~~~~~~~~~~~~~=                                            ,~~~~                      ~~~~~~~-  !~~~~~~   ;~~~~~~   ~~~~~~~~        -~~~~~~~~-       !~~~~~~~'     =~~~~~~~      ~~~~~~~=        ~~~~~~~>              =~~~~~~~~       ;~~~~~~~~-     ~~~~~~~         ~~~~~~~      ~~~~~~~~!         ~~~~~~~~>       !~~~~~~~~ ",
"=~~~~~~~~~~~~~~~~~~~~~~~~~~~~~~~~~~~~~~~~~~~~~~~~~~~~~~~~~~~~~~~~~~~~~~~~~~~~~~~~~~~~~~~~~~~~~~~~~~~~~~~~~~~~~~,               ,~~~~~~~~~~~~~~~~~~~~~~~~~~~~~~~~~~~~=                !~~~~~~~~~~~~~~~~~~~=                                            ,~~~~                      ~~~~~~~,  ~~~~~~!    ~~~~~~- ;~~~~~~~,        !~~~~~~~-         ~~~~~~~~     ,~~~~~~!      ~~~~~~~         '~~~~~~~)-            >~~~~~~~         ,~~~~~~~,     ~~~~~~~        =~~~~~~~      ~~~~~~~~          ~~~~~~~)         ~~~~~~~~ ",
"=~~~~~~~~~~~~~~~~~~~~~~~~~~~~~~~~~~~~~~~~~~~~~~~~~~~~~~~~~~~~~~~~~~~~~~~~~~~~~~~~~~~~~~~~~~~~~~~~~~~~~~~~~~~~~~,               ,~~~~~~~~~~~~~~~~~~~~~~~~~~~~~~~~~~~~=               !~~~~~~~~~~~~~~~~~~~~=                                            ,~~~~                      !~~~~~~~ )~~~~~~=    ~~~~~~, ~~~~~~~~         ~~~~~~~!          '~~~~~~~     ,~~~~~~,      ~~~~~~~         ;~~~~~~~~~~~>         ,~~~~~~,          ~~~~~~~,    =~~~~~~~        =~~~~~~~     =~~~~~~~;         >~~~~~~~          '~~~~~~~ ",
"=~~~~~~~~~~~~~~~~~~~~~~~~~~~~~~~~~~~~~~~~~~~~~~~~~~~~~~~~~~~~~~~~~~~~~~~~~~~~~~~~~~~~~~~~~~~~~~~~~~~~~~~~~~~~~~,               ,~~~~~~~~~~~~~~~~~~~~~~~~~~~~~~~~~~~~=              !~~~~~~~~~~~~~~~~~~~~~=                                            ,~~~~                      ,~~~~~~~=~~~~~~!     !~~~~~~=~~~~~~~,         ~~~~~~~-          =~~~~~~~     !~~~~~~,     =~~~~~~~          ~~~~~~~~~~~~~>       !~~~~~~           ~~~~~~~'    ;~~~~~~~        ,~~~~~~~     ;~~~~~~~          '~~~~~~~          =~~~~~~) ",
"=~~~~~~~~~~~~~~~~~~~~~~~~~~~~~~~~~~~~~~~~~~~~~~~~~~~~~~~~~~~~~~~~~~~~~~~~~~~~~~~~~~~~~~~~~~~~~~~~~~~~~~~~~~~~~~,               ,~~~~~~~~~~~~~~~~~~~~~~~~~~~~~~~~~~~~=             !~~~~~~~~~~~~~~~~~~~~~~=                                            ,~~~~                      =~~~~~~~!~~~~~~;     ,~~~~~~!~~~~~~~         =~~~~~~~           =~~~~~~~     ~~~~~~~=     =~~~~~~~          ;~~~~~~~~~~~~~,      ~~~~~~~           ~~~~~~~,    ,~~~~~~'        ,~~~~~~,     ,~~~~~~~          ~~~~~~~,          =~~~~~~, ",
"=~~~~~~~~~~~~~~~~~~~~~~~~~~~~~~~~~~~~~~~~~~~~~~~~~~~~~~~~~~~~~~~~~~~~~~~~~~~~~~~~~~~~~~~~~~~~~~~~~~~~~~~~~~~~~~,               ,~~~~~~~~~~~~~~~~~~~~~~~~~~~~~~~~~~~~=            !~~~~~~~~~~~~~~~~~~~~~~~=                                            ,~~~~                       ~~~~~~~~~~~~~~      =~~~~~~~~~~~~~)         =~~~~~~~           =~~~~~~~     ~~~~~~~=     ,~~~~~~!           =!~~~~~~~~~~~~      ~~~~~~~           ~~~~~~~,    )~~~~~~,        ~~~~~~~,     )~~~~~~,          ~~~~~~~,          -~~~~~~; ",
"=~~~~~~~~~~~~~~~~~~~~~~~~~~~~~~~~~~~~~~~~~~~~~~~~~~~~~~~~~~~~~~~~~~~~~~~~~~~~~~~~~~~~~~~~~~~~~~~~~~~~~~~~~~~~~~,               ,~~~~~~~~~~~~~~~~~~~~~~~~~~~~~~~~~~~~=           !~~~~~~~~~~~~~~~~~~~~~~~~=                                            ,~~~~                       ~~~~~~~~~~~~~;       ~~~~~~~~~~~~~          =~~~~~~~           '~~~~~~~     ~~~~~~~      ,~~~~~~,              '~~~~~~~~~~)     ~~~~~~~           ~~~~~~~>    ~~~~~~~;        ~~~~~~~-     ~~~~~~~;          ~~~~~~~!          )~~~~~~= ",
"=~~~~~~~~~~~~~~~~~~~~~~~~~~~~~~~~~~~~~~~~~~~~~~~~~~~~~~~~~~~~~~~~~~~~~~~~~~~~~~~~~~~~~~~~~~~~~~~~~~~~~~~~~~~~~~,               ,~~~~~~~~~~~~~~~~~~~~~~~~~~~~~~~~~~~~=          !~~~~~~~~~~~~~~~~~~~~~~~~~=                                            ,~~~~                       '~~~~~~~~~~~~        ~~~~~~~~~~~~!           ~~~~~~~;          ~~~~~~~)     ~~~~~~~      ~~~~~~~>                 '~~~~~~~~     ~~~~~~~=         ,~~~~~~~=    ~~~~~~~=        ~~~~~~~=     ~~~~~~~=          ~~~~~~~~          ~~~~~~~  ",
"=~~~~~~~~~~~~~~~~~~~~~~~~~~~~~~~~~~~~~~~~~~~~~~~~~~~~~~~~~~~~~~~~~~~~~~~~~~~~~~~~~~~~~~~~~~~~~~~~~~~~~~~~~~~~~~,               ,~~~~~~~~~~~~~~~~~~~~~~~~~~~~~~~~~~~~=         !~~~~~~~~~~~~~~~~~~~~~~~~~~=                                            ,~~~~                       ;~~~~~~~~~~~,        '~~~~~~~~~~~=           ~~~~~~~~         '~~~~~~~;    =~~~~~~~      ~~~~~~~=                  >~~~~~~~    =~~~~~~~!         ~~~~~~~~     ~~~~~~~'       ,~~~~~~~      ~~~~~~~           ,~~~~~~~,        '~~~~~~~  ",
"=~~~~~~~~~~~~~~~~~~~~~~~~~~~~~~~~~~~~~~~~~~~~~~~~~~~~~~~~~~~~~~~~~~~~~~~~~~~~~~~~~~~~~~~~~~~~~~~~~~~~~~~~~~~~~~,               ,~~~~~~~~~~~~~~~~~~~~~~~~~~~~~~~~~~~~=        !~~~~~~~~~~~~~~~~~~~~~~~~~~~=                                            ,~~~~                        ~~~~~~~~~~~         ;~~~~~~~~~~!            !~~~~~~~!       ,~~~~~~~~     >~~~~~~~      ~~~~~~~          ~'       =~~~~~~~    >~~~~~~~~'      =~~~~~~~~)     ~~~~~~~~      =~~~~~~~~      ~~~~~~~           ;~~~~~~~~,      '~~~~~~~~  ",
"=~~~~~~~~~~~~~~~~~~~~~~~~~~~~~~~~~~~~~~~~~~~~~~~~~~~~~~~~~~~~~~~~~~~~~~~~~~~~~~~~~~~~~~~~~~~~~~~~~~~~~~~~~~~~~~,               ,~~~~~~~~~~~~~~~~~~~~~~~~~~~~~~~~~~~~=       !~~~~~~~~~~~~~~~~~~~~~~~~~~~~=                                            ,~~~~                        ~~~~~~~~~~,          ~~~~~~~~~~-            ;~~~~~~~~~;   ;~~~~~~~~~,     ,~~~~~~,      ~~~~~~~         ,~~~;     !~~~~~~!    ,~~~~~~~~~~>==;!~~~~~~~~~=     '~~~~~~~~>   '~~~~~~~~>     =~~~~~~~            ~~~~~~~~~~,=-'~~~~~~~~~~  ",
" =========================================================================,~~~~~~~~~~~~~~~~~~~~~~~~~~~~~~~~~~~~,               ,~~~~~~~~~~~~~~~~~~~~~~~~~~~~~~~~~~~~=      !~~~~~~~~~~~~~~~~~~~~~~~~~~~~~=                                            ,~~~~                        ~~~~~~~~~~           ~~~~~~~~~~              ~~~~~~~~~~~~~~~~~~~~~~~      !~~~~~~,      ~~~~~~~         ~~~~~~~~~~~~~~~~~>    !~~~~~~~~~~~~~~~~~~~~~~~!      -~~~~~~~~~~~~~~~~~~~~~      ;~~~~~~~            )~~~~~~~~~~~~~~~~~~~~~~)  ",
"                                                                          =~~~~~~~~~~~~~~~~~~~~~~~~~~~~~~~~~~~~,               ,~~~~~~~~~~~~~~~~~~~~~~~~~~~~~~~~~~~~=     !~~~~~~~~~~~~~~~~~~~~~~~~~~~~~~=                                            ,~~~~                        ,~~~~~~~~)           ~~~~~~~~~;              =~~~~~~~~~~~~~~~~~~~~~=      ~~~~~~~=     =~~~~~~~        !~~~~~~~~~~~~~~~~~     ~~~~~~~~~~~~~~~~~~~~~~~~        ~~~~~~~~~~~~~~~~~~~~,      ,~~~~~~'             ~~~~~~~~~~~~~~~~~~~~~~,  ",
"                                                                          =~~~~~~~~~~~~~~~~~~~~~~~~~~~~~~~~~~~~,               ,~~~~~~~~~~~~~~~~~~~~~~~~~~~~~~~~~~~~=    !~~~~~~~~~~~~~~~~~~~~~~~~~~~~~~~=                                            ,~~~~                        -~~~~~~~~            ,~~~~~~~~                ;~~~~~~~~~~~~~~~~~~~;       ~~~~~~~=     >~~~~~~~       -~~~~~~~~~~~~~~~~~;     ~~~~~~~~~~~~~~~~~~~~~~~;        -~~~~~~~~~~~~~~~~~~!       )~~~~~~,             ;~~~~~~~~~~~~~~~~~~~~~;  ",
"                                                                          =~~~~~~~~~~~~~~~~~~~~~~~~~~~~~~~~~~~~,               ,~~~~~~~~~~~~~~~~~~~~~~~~~~~~~~~~~~~~=   !~~~~~~~~~~~~~~~~~~~~~~~~~~~~~~~~=                                            ,~~~~                         ~~~~~~~)            =~~~~~~~,                 ;~~~~~~~~~~~~~~~~~=        ~~~~~~~      ,~~~~~~,        ;~~~~~~~~~~~~~~~,      ~~~~~~~ !~~~~~~~~~~~~~;          ;~~~~~~~~~~~~~~~~)        ~~~~~~~-              ,~~~~~~~~~~~~,~~~~~~~=  ",
"                                                                          =~~~~~~~~~~~~~~~~~~~~~~~~~~~~~~~~~~~~,               ,~~~~~~~~~~~~~~~~~~~~~~~~~~~~~~~~~~~~=  !~~~~~~~~~~~~~~~~~~~~~~~~~~~~~~~~~=                                            ,~~~~                         ~~~~~~~              ~~~~~~~                    )~~~~~~~~~~~~~,          ~~~~~~~      !~~~~~~,          )~~~~~~~~~~~!=       ~~~~~~~  )~~~~~~~~~~!              !~~~~~~~~~~~~~;         ~~~~~~~=               -~~~~~~~~~~- ~~~~~~~   ",
"                                                                          =~~~~~~~~~~~~~~~~~~~~~~~~~~~~~~~~~~~~,               ,~~~~~~~~~~~~~~~~~~~~~~~~~~~~~~~~~~~~= !~~~~~~~~~~~~~~~~~~~~~~~~~~~~~~~~~~=                                            ,~~~~                         =======              ======                       ;)~~~~~~~,=            =======      =======             ;)~~~~~~,          =======    ,~~~~~!>                  >)~~~~~~~,            =======                  -,~~~~'-   ~~~~~~~   ",
"                                                                          =~~~~~~~~~~~~~~~~~~~~~~~~~~~~~~~~~~~~,               ,~~~~~~~~~~~~~~~~~~~~~~~~~~~~~~~~~~~~>!~~~~~~~~~~~~~~~~~~~~~~~~~~~~~~~~~~~=                                            ,~~~~                                                                                                                                                                                                                                                    -~~~~~~~   ",
"                                                                          =~~~~~~~~~~~~~~~~~~~~~~~~~~~~~~~~~~~~,                =========================================================================                                                                                                                                                                                                                                                                                                      )~~~~~~!   ",
"                                                                          =~~~~~~~~~~~~~~~~~~~~~~~~~~~~~~~~~~~~,                                                                                                                                                                                                                                                                                                                                                                              ~~~~~~~~         ~~~~~~~>   ",
"                                                                          =~~~~~~~~~~~~~~~~~~~~~~~~~~~~~~~~~~~~,                                                                                                                                                                                                                                                                                                                                                                              )~~~~~~~,       !~~~~~~~    ",
"                                                                          =~~~~~~~~~~~~~~~~~~~~~~~~~~~~~~~~~~~~,                                                                                                                                                                                                                                                                                                                                                                              =~~~~~~~~)    ;~~~~~~~~!    ",
"                                                                          =~~~~~~~~~~~~~~~~~~~~~~~~~~~~~~~~~~~~,                                                                                                                                                                                                                                                                                                                                                                               !~~~~~~~~~~~~~~~~~~~~~=    ",
"                                                                          =~~~~~~~~~~~~~~~~~~~~~~~~~~~~~~~~~~~~,                                                                                                                                                                                                                                                                                                                                                                               =~~~~~~~~~~~~~~~~~~~~'     ",
"                                                                          =~~~~~~~~~~~~~~~~~~~~~~~~~~~~~~~~~~~~,                                                                                                                                                                                                                                                                                                                                                                                ;~~~~~~~~~~~~~~~~~~!      ",
"                                                                          =~~~~~~~~~~~~~~~~~~~~~~~~~~~~~~~~~~~~,                                                                                                                                                                                                                                                                                                                                                                                 ;~~~~~~~~~~~~~~~~'       ",
"                                                                          =~~~~~~~~~~~~~~~~~~~~~~~~~~~~~~~~~~~~,                                                                                                                                                                                                                                                                                                                                                                                   )~~~~~~~~~~~~)=        ",
"                                                                          =~~~~~~~~~~~~~~~~~~~~~~~~~~~~~~~~~~~~,                                                                                                                                                                                                                                                                                                                                                                                     -,!~~~~),-           ",
"                                                                          =~~~~~~~~~~~~~~~~~~~~~~~~~~~~~~~~~~~~,                                                                                                                                                                                                                                                                                                                                                                                                          ",
"                                                                          =~~~~~~~~~~~~~~~~~~~~~~~~~~~~~~~~~~~~,                                                                                                                                                                                                                                                                                                                                                                                                          ",
"                                                                          =~~~~~~~~~~~~~~~~~~~~~~~~~~~~~~~~~~~~,                                                                                                                                                                                                                                                                                                                                                                                                          ",
"                                                                          =~~~~~~~~~~~~~~~~~~~~~~~~~~~~~~~~~~~~,                                                                                                                                                                                                                                                                                                                                                                                                          ",
"                                                                          =~~~~~~~~~~~~~~~~~~~~~~~~~~~~~~~~~~~~,                                                                                                                                                                                                                                                                                                                                                                                                          ",
"                                                                          =~~~~~~~~~~~~~~~~~~~~~~~~~~~~~~~~~~~~,                                                                                                                                                                                                                                                                                                                                                                                                          ",
"                                                                          =~~~~~~~~~~~~~~~~~~~~~~~~~~~~~~~~~~~~,                                                                                                                                                                                                                                                                                                                                                                                                          ",
"                                                                          =~~~~~~~~~~~~~~~~~~~~~~~~~~~~~~~~~~~~,                                                                                                                                                                                                                                                                                                                                                                                                          ",
"                                                                          =~~~~~~~~~~~~~~~~~~~~~~~~~~~~~~~~~~~~,                                                                                                                                                                                                                                                                                                                                                                                                          ",
"                                                                          =~~~~~~~~~~~~~~~~~~~~~~~~~~~~~~~~~~~~,                                                                                                                                                                                                                                                                                                                                                                                                          ",
"                                                                          =~~~~~~~~~~~~~~~~~~~~~~~~~~~~~~~~~~~~,                                                                                                                                                                                                                                                                                                                                                                                                          ",
"                                                                          =~~~~~~~~~~~~~~~~~~~~~~~~~~~~~~~~~~~~,                                                                                                                                                                                                                                                                                                                                                                                                          ",
"                                                                          =~~~~~~~~~~~~~~~~~~~~~~~~~~~~~~~~~~~~,                                                                                                                                                                                                                                                                                                                                                                                                          ",
"                                                                          =~~~~~~~~~~~~~~~~~~~~~~~~~~~~~~~~~~~~,                                                                                                                                                                                                                                                                                                                                                                                                          ",
"                                                                          =~~~~~~~~~~~~~~~~~~~~~~~~~~~~~~~~~~~~,                                                                                                                                                                                                                                                                                                                                                                                                          ",
"                                                                          =~~~~~~~~~~~~~~~~~~~~~~~~~~~~~~~~~~~~,                                                                                                                                                                                                                                                                                                                                                                                                          ",
"                                                                          =~~~~~~~~~~~~~~~~~~~~~~~~~~~~~~~~~~~~,                                                                                                                                                                                                                                                                                                                                                                                                          ",
"                                                                          =~~~~~~~~~~~~~~~~~~~~~~~~~~~~~~~~~~~~,                                                                                                                                                                                                                                                                                                                                                                                                          ",
"                                                                          =~~~~~~~~~~~~~~~~~~~~~~~~~~~~~~~~~~~~,                                                                                                                                                                                                                                                                                                                                                                                                          ",
"                                                                          =~~~~~~~~~~~~~~~~~~~~~~~~~~~~~~~~~~~~,                                                                                                                                                                                                                                                                                                                                                                                                          ",
"                                                                                                                                                                                                                                                                                                                                                                                                                                                                                                                          "};
