/* XPM */
static char * box_xpm[] = {
"23 23 38 1",
" 	c #008000",
".	c #117811",
"+	c #226D22",
"@	c #0F790F",
"#	c #266B26",
"$	c #434343",
"%	c #3D543D",
"&	c #366C36",
"*	c #3D5A3D",
"=	c #405540",
"-	c #2A982A",
";	c #20AC20",
">	c #0BBD0B",
",	c #00CA00",
"'	c #2D972D",
")	c #3D6A3D",
"!	c #00C900",
"~	c #04C504",
"{	c #12BE12",
"]	c #1DAD1D",
"^	c #23A923",
"/	c #424B42",
"(	c #3E5C3E",
"_	c #414841",
":	c #3A753A",
"<	c #434443",
"[	c #299D29",
"}	c #24A524",
"|	c #1EAE1E",
"1	c #17B817",
"2	c #3F5C3F",
"3	c #424442",
"4	c #12C012",
"5	c #3E683E",
"6	c #21AF21",
"7	c #1AB81A",
"8	c #3F623F",
"9	c #147814",
"                       ",
" .+++++++++++++++++++@ ",
" #$$$$$$$$%&&*$$$$$$$+ ",
" #$$$$=-;>,,,'$$$$$$$+ ",
" #$$$$)!,,,,,'$$$$$$$+ ",
" #$$$$)~{]^,,'$$$$$$$+ ",
" #$$$$/(_$:,,'$$$$$$$+ ",
" #$$$$$$$$:,,'$$$$$$$+ ",
" #$$$$$$$$:,,'$$$$$$$+ ",
" #$$$$$$$$:,,'$$$$$$$+ ",
" #$$$$$$$$:,,'$$$$$$$+ ",
" #$$$$$$$$:,,'$$$$$$$+ ",
" #$$$$$$$$:,,'$$$$$$$+ ",
" #$$$$$$$$:,,'$$$$$$$+ ",
" #$$$$$$$$:,,'$$$$$$$+ ",
" #$$$$$$$$:,,'$$$$$$$+ ",
" #$$$$$$$$:,,'$$$$$$$+ ",
" #$$$$<[}}|,,1}}}2$$$+ ",
" #$$$$34,,,,,,,,,5$$$+ ",
" #$$$$367777777778$$$+ ",
" #$$$$$<<<<<<<<<<$$$$+ ",
" 9###################. ",
"                       "};
