/* XPM */
static char * boxa_xpm[] = {
"23 23 273 2",
"  	c None",
". 	c #918B84",
"+ 	c #A49678",
"@ 	c #A69A80",
"# 	c #A69778",
"$ 	c #A59678",
"% 	c #A59778",
"& 	c #A6987B",
"* 	c #A79B7E",
"= 	c #9A8971",
"- 	c #9D8467",
"; 	c #A37341",
"> 	c #946F45",
", 	c #B98749",
"' 	c #B58046",
") 	c #BB8547",
"! 	c #C58F49",
"~ 	c #C7984F",
"{ 	c #C99F54",
"] 	c #B2894C",
"^ 	c #B5935F",
"/ 	c #AE8145",
"( 	c #B2A899",
"_ 	c #988167",
": 	c #A77F48",
"< 	c #A06939",
"[ 	c #A3703D",
"} 	c #AF7D42",
"| 	c #B0753D",
"1 	c #B77B3E",
"2 	c #C38741",
"3 	c #C6964D",
"4 	c #C9A154",
"5 	c #B38F51",
"6 	c #C19953",
"7 	c #A9763D",
"8 	c #B29764",
"9 	c #BAB2A0",
"0 	c #9B8165",
"a 	c #A6703C",
"b 	c #A5743E",
"c 	c #835732",
"d 	c #96683A",
"e 	c #9A6839",
"f 	c #9E6C3A",
"g 	c #A06E38",
"h 	c #A16E39",
"i 	c #A5733B",
"j 	c #A6773E",
"k 	c #A67A40",
"l 	c #9C713B",
"m 	c #A0753D",
"n 	c #A3773E",
"o 	c #906437",
"p 	c #9F7540",
"q 	c #C29C55",
"r 	c #B48E4F",
"s 	c #B9B19E",
"t 	c #A38867",
"u 	c #AD733C",
"v 	c #916037",
"w 	c #8A5D38",
"x 	c #AA6D44",
"y 	c #A97046",
"z 	c #96603E",
"A 	c #A76A43",
"B 	c #AA6E45",
"C 	c #9E6A42",
"D 	c #9C603E",
"E 	c #965F3E",
"F 	c #A36842",
"G 	c #926235",
"H 	c #B99452",
"I 	c #C7A358",
"J 	c #B8B09C",
"K 	c #AC713C",
"L 	c #835032",
"M 	c #AE6E42",
"N 	c #AE7144",
"O 	c #99623E",
"P 	c #AA6B41",
"Q 	c #AE6F43",
"R 	c #A36B42",
"S 	c #A0633F",
"T 	c #98613E",
"U 	c #AB6B41",
"V 	c #A76940",
"W 	c #A97B40",
"X 	c #C9A255",
"Y 	c #835033",
"Z 	c #AC6F43",
"` 	c #98603E",
" .	c #AF6F43",
"..	c #A36A42",
"+.	c #AB3E26",
"@.	c #B20000",
"#.	c #B04A2B",
"$.	c #AB6C42",
"%.	c #AF7043",
"&.	c #9E673F",
"*.	c #A77A3F",
"=.	c #845434",
"-.	c #A06941",
";.	c #A0623E",
">.	c #B2170A",
",.	c #B20F06",
"'.	c #B22010",
").	c #995F3E",
"!.	c #A06841",
"~.	c #995E3D",
"{.	c #A87B3F",
"].	c #76472E",
"^.	c #A1633F",
"/.	c #B05935",
"(.	c #B05532",
"_.	c #AE5B37",
":.	c #A16A41",
"<.	c #A1643F",
"[.	c #A66840",
"}.	c #A87B40",
"|.	c #825032",
"1.	c #B13A21",
"2.	c #B12A16",
"3.	c #99613E",
"4.	c #B11F0F",
"5.	c #B14025",
"6.	c #A26A41",
"7.	c #A16941",
"8.	c #AE693E",
"9.	c #B20401",
"0.	c #A6442A",
"a.	c #AB6C41",
"b.	c #B0492A",
"c.	c #B20E05",
"d.	c #A1663F",
"e.	c #A86D42",
"f.	c #A87C3F",
"g.	c #835133",
"h.	c #A26A42",
"i.	c #9E6240",
"j.	c #AB6C43",
"k.	c #AC6C43",
"l.	c #AF5331",
"m.	c #AA603C",
"n.	c #AD603B",
"o.	c #A84C31",
"p.	c #AC7044",
"q.	c #8C573B",
"r.	c #A6793F",
"s.	c #794C30",
"t.	c #985C40",
"u.	c #A26344",
"v.	c #A36845",
"w.	c #AE2416",
"x.	c #AF2618",
"y.	c #A46545",
"z.	c #9E6542",
"A.	c #AF1D12",
"B.	c #AF2F1E",
"C.	c #945C3F",
"D.	c #985B40",
"E.	c #7A4730",
"F.	c #A46845",
"G.	c #9B5238",
"H.	c #AB4730",
"I.	c #9B6542",
"J.	c #995C40",
"K.	c #AC432D",
"L.	c #A76140",
"M.	c #955C3F",
"N.	c #A06143",
"O.	c #9A5D41",
"P.	c #794730",
"Q.	c #A56946",
"R.	c #945D3F",
"S.	c #AA3F2A",
"T.	c #A4402A",
"U.	c #9B5E41",
"V.	c #7A4831",
"W.	c #935C3F",
"X.	c #A06042",
"Y.	c #B1180E",
"Z.	c #AD3925",
"`.	c #9C6542",
" +	c #995D41",
".+	c #AA311F",
"++	c #B02014",
"@+	c #A36344",
"#+	c #A46645",
"$+	c #976240",
"%+	c #A67A3F",
"&+	c #7E5032",
"*+	c #A75238",
"=+	c #A35335",
"-+	c #A46945",
";+	c #A64E35",
">+	c #A7583B",
",+	c #9A6442",
"'+	c #91563D",
")+	c #73432D",
"!+	c #AE3825",
"~+	c #B1140A",
"{+	c #9A5B3F",
"]+	c #A16244",
"^+	c #A26142",
"/+	c #B11008",
"(+	c #AB3E27",
"_+	c #AE733D",
":+	c #A6763F",
"<+	c #815134",
"[+	c #A26444",
"}+	c #9C6442",
"|+	c #A36745",
"1+	c #935B3F",
"2+	c #9F6043",
"3+	c #A36544",
"4+	c #9B6442",
"5+	c #995C41",
"6+	c #A06243",
"7+	c #975B40",
"8+	c #9A703E",
"9+	c #C3A059",
"0+	c #A78E6A",
"a+	c #B68349",
"b+	c #956137",
"c+	c #886135",
"d+	c #8C5C36",
"e+	c #8E5C36",
"f+	c #855631",
"g+	c #915E35",
"h+	c #925F35",
"i+	c #916134",
"j+	c #905D34",
"k+	c #966437",
"l+	c #8C5C32",
"m+	c #905E34",
"n+	c #946E42",
"o+	c #936637",
"p+	c #BC9651",
"q+	c #CFB06C",
"r+	c #897161",
"s+	c #9A6D3C",
"t+	c #9F6B3A",
"u+	c #935E35",
"v+	c #AA7940",
"w+	c #C6964C",
"x+	c #9B703E",
"y+	c #B99150",
"z+	c #AF7E42",
"A+	c #926E45",
"B+	c #BBB4A2",
"C+	c #9F8567",
"D+	c #9A6337",
"E+	c #9A6E3C",
"F+	c #B27B41",
"G+	c #AF743D",
"H+	c #C69E53",
"I+	c #B58E4D",
"J+	c #B18C4F",
"K+	c #AC7F43",
"L+	c #B6AC9A",
"M+	c #A09995",
"N+	c #A69184",
"O+	c #9D8C84",
"P+	c #A99385",
"Q+	c #A89285",
"R+	c #AB9485",
"S+	c #AB9586",
"T+	c #AC9786",
"U+	c #A49185",
"V+	c #A59386",
"W+	c #A39084",
"X+	c #B5B3B1",
". + @ # $ $ % # # # # # # # # # # # # & * =   ",
"- ; > , ' ' ) ! ! ! ~ { { { { { { { { ] ^ / ( ",
"_ : < [ } | 1 2 2 2 3 4 4 4 4 4 4 4 5 6 7 8 9 ",
"0 a b c d e f g h i j k l k k k m n o p q r s ",
"t u v w x x y z A x B C D x x y E A F G H I J ",
"t | K L M N O P M Q R S M M N T U M V W X I J ",
"t | K Y Z ` U M  ...+.@.#.Z ` $.M %.&.*.X I J ",
"t | K =.` P M  .-.;.>.,.'.).U M  .!.~.{.X I J ",
"t | K ].$.M Q R ^./.@.(.@._.M  .:.<.[.}.X I J ",
"t | K |.M  .R S M 1.2.3.4.5. .6.<.M [.}.X I J ",
"t | K |. .7.S M 8.9.0.a.b.c.d.<.M M e.f.X I J ",
"t | K g.h.i.j.k.l.@.m.j.n.@.o.j.k.p.q.r.X I J ",
"t | K s.t.u.u.v.w.x.u.y.z.A.B.u.v.C.D.r.X I J ",
"t | K E.u.u.F.G.@.H.y.I.J.K.@.L.M.N.O.r.X I J ",
"t | K P.u.Q.R.S.@.@.@.@.@.@.@.T.N.u.U.*.X I J ",
"t | K V.v.W.X.Y.Z.`. +u.u.v..+++@+#+$+%+X I J ",
"t | K &+C.N.*+@.=+ +u.u.-+C.;+@.>+,+'+r.X I J ",
"t | K )+N.u.!+~+{+u.u.-+W.]+^+/+(+J.O.r.X I J ",
"t _+:+<+]+[+}+D.]+]+|+1+2+]+3+4+5+6+7+8+9+I J ",
"0+a+b+c+d+e+f+g+g+h+i+j+g+g+k+l+g+m+n+o+p+q+J ",
"r+s+t+u+v+| 1 2 2 2 w+4 4 4 4 4 4 4 x+y+z+A+B+",
"C+D+E+F+G+| 1 2 2 2 3 4 4 4 4 4 4 4 H+I+J+K+L+",
"M+N+O+P+Q+Q+P+R+R+R+S+T+T+T+T+T+T+T+T+U+V+W+X+"};
