/* XPM */
static char * bullet_xpm[] = {
"57 56 13 1",
" 	c None",
".	c #D3D2CF",
"+	c #E0C295",
"@	c #D1B27D",
"#	c #FAE1B0",
"$	c #FFF6C8",
"%	c #F7F8F6",
"&	c #C49869",
"*	c #876B4A",
"=	c #A58C67",
"-	c #E6E6E6",
";	c #644C33",
">	c #382516",
"                       .+.++++++++                       ",
"                   +@+##$$$%$%$%.+.+..                   ",
"                 +.##$$$#$#$#$$$$$$$$#.+                 ",
"               .$$$$#.$$#$#$$#&$#$$$$$$$.@               ",
"             .$$$#$$@*+$$$$$$@=$$#@#$#$$$-+@             ",
"            +$$#$#$$@==$$#$$%==%+==#$#$$#$$.&            ",
"          =#$$$$$$$$===&$$$$$=&+=@#$$$$#$$$$-@.          ",
"         =$$##.$$$$$&+#=+$$$$=*=@$$$$$$###$#$$++         ",
"        =$$+=;*+$#$$=&+==#$$#=+@=$$$$$@==&#$##%+@        ",
"       =#$#*=++$%$$$===+&=$$@=$#=+%$$@*@+==#$#$$@+       ",
"      =.$#+*#%$@&+$$=+$$.=+$&=$$&@$$+*@$$#=@###$$@.      ",
"     =+$+#+*==**=*+$=+$$$##$+@$$+=#$==$$$$=@#####.@-     ",
"     @$#+##=*=&#$&=$@#$$$#$$$$$$#&#$=+$#$#*@$####$+@     ",
"    *##+######$$#&&$$$$$$$$$$$$$$$$#=+$$$=*+#######=.    ",
"    +#++#.##$#@+==+$$$$$$$#@+##$$$$$@=+#&=+$#$###.#+=    ",
"   @##+###.##+*==+$%$$+=;;>>>;>;=#$$#@=*=+$#######+$&.   ",
"   #++####+####+$$$$#*>>>;;**;;>>;=#$$#+#$######+####=   ",
"  =##+++####+.#$$$#=>>;***;;;;***>>*#$$$######$##+#+$=.  ",
"  +#+#+#.#+#######*>>**;;*===*;;;*;>;+$##$###.########=  ",
" =+#+#+####.##.##=>;*;;=..---..@*;*;>;#$#########.#+#$=. ",
" @#++##+#+##+###+;>*;;=-%%-----%-=;**>*#$##########++#@. ",
" +#+#+#+########*>;;;=%%--......--*;;;>@$###$######+##+= ",
" +#++#++#.#.##$@;;*;*%--..-.---..-.;;*>;#$##.##.####+##= ",
"=+#++#+++#+####=;*;;.%---..-...-.-%=;;*>@$#########+###=-",
"&+#++++##+##.##*;=;=%---..-.--..-.--;;*>=$$#######+##.#=.",
"&+#+#+++#.+###+;**>.--.-.-.-...-.-.%=;*;;$##$####.#####&.",
"=+#++++#++####+;*;;.--.-.....-.-.-.%=;*;*$####.#####+##@.",
"=#+++###+#####@;*;;.-.-....-...-..-%@>*;;#$$$$##$######@+",
"*++++*@#+#=&##&;*;>.-....-...-.....-=>;;;+$#&=##@+#$###+@",
"*+#+*;@###&*##=;*;>.-.....-....-...%=>*;;#$@*@$&===+##$@+",
"*@#+*=#+*++=+#=;**>=..........-...-.;>*;*##==#$==#=&##$&.",
"*&#+*=$+;@+=++@*;*>;..............-@>;*;=$#&&$$##$&=##$*-",
"*=+#==+&***&#+#&;*;>=..............;>*;;+##@*+$$$+=@###*%",
" =+++=**@@@&@+++***>>=............*>;*;*#+##@**=&==+$#+= ",
" *++++@====&*@++=;**>>=...@......*>>**;@#####++@=@#$##+= ",
" *+#++&*=&@+@=+++=;=*>>*=......=;>>=*;*#++===&@@++###$=. ",
" *=#++*=@@&@@=+@#+*;=*>>>;****;>>;**;*+##+=*=&=*=*@###*- ",
"  *++@*&@&@&=&++@#+**==*;>>>>>>;*=*;=#++&&+&&$&&+++#$&=  ",
"  *@++**@&**==*&@+#+=**===***==***;&+++@==&+=*=+#####*.  ",
"   *++@***=&=@+=&+@+#+*****=***;;=+#+@++=&=@+==##+#$&*   ",
"   ;@+++@@&==@@@=@+@++#+==****=@+##+++@+&@+=@+==###+*+   ",
"    *@+++@*&@&@&=@+@+@@++#$#####+@@+&==&&=+@*+@*+##==    ",
"    *=+@+=*@@&====&+@@@@@@@+@@@@+@@+======@#&*++#$+*+    ",
"     ;&@+=*&@&**@==@@@+@++@++@+++@=++&=++@+++==#$$*=     ",
"     =*&@@****=@@==@@@@@@@@&@&=@+@*@+@**+#++##+#$*;-     ",
"      **@+@===@@@*=@@@@+==@=@===+@=&++@**+#+++#$=;.      ",
"       *=+@@@@@@@*==*&+=*@@&@&===+&=+++@*=+++++@;=       ",
"        *=@@@@@@@=***=@*&+@=&@=+=&@=@+++@*&++#+;@        ",
"         *=@@@@@=**&====@@@=&+=&+===@++++@@+#+*@         ",
"          *=@@@+&*=+=;*@@&@=&@==+@**=@++@+##@;+          ",
"            *&+@@=@+*;@@@@@*=@&*@+&**@@++++=*            ",
"             ;*=@+&&==+&&&@*=@@*=@@@&@++@=*=             ",
"               ;;*@@+@&@@&&=&@@=&@@+#+@=**               ",
"                 ;;*&@@@@&&@@@@++++=*;;*                 ",
"                   =*;;*=&@@&@@*;;;;*=                   ",
"                       =**;;;;***=                       "};
