/* XPM */
static char * door_xpm[] = {
"127 128 20 1",
" 	c #004343",
".	c #00B7B7",
"+	c #007B7B",
"@	c #007777",
"#	c #008F8F",
"$	c #007373",
"%	c #00A7A7",
"&	c #007F7F",
"*	c #005B5B",
"=	c #4BC3C3",
"-	c #9FDFDF",
";	c #006F6F",
">	c #009B9B",
",	c #008787",
"'	c #009F9F",
")	c #23B3B3",
"!	c #23B7B7",
"~	c #77CBCB",
"{	c #BBEBEB",
"]	c #DBF7F7",
" .++@+@+@@@@@@@@@@+@@@+@@@@@@+@@@@@++++@+@@@@+@@@@@++++@+@@@+@@@+@+@+@+@@@+++@+@+@@@@@@@@@+@@@+@@@@@@@@@@@@@@@@@@@+@+@+@@@@@+@@",
" .@@@@@@@@@@@@@@@@@@@@@@@@@@@+@@@@@@@@@@@@@@@+@@@@@@@@@@@@@@@@@@@@@@@@@@@@@@@@@@@@@@@@@@@@@@@@@@@@@@@@@@@@@@@@@@@@@@@@@@@@@@@@@",
" .+++++++++++++++++@++++++@+@@@@@@@+++++++@+@@@@@@@++++++++++++++++@+++++++++++++++++++++++@++++++++++++++++++@+@+++++++++++++@",
" .@@@@@@@@@@@@@@@@@@@@@@@@++@@++@++@@@@@@@++@@++@++@@@@@@@@@@@@@@@@@@@@@@@@@@@@@@@@@@@@@@@@@@@@@@@@@@@@@@@@@@@@@+@@@@@@@@@@@@@@",
" .+++####$$+++@+++++++++++++++++@++++++@++++++++@++++++@++++++@+++++++++@++++++@++++++@+++++++++@++++++@+++++++++@++####$$++++@",
" .@+#%%%#&**@@+++@+++@+++++++++++++++&+++++++++++++++&+++&+++++++++&+++@+++@+&+@+&+@+@+++@+++@+@+++@@++@@++@+@+@@++#%%%#&**@+@@",
" .&+$=-=#;  ;+++++++++&&+&&+&&+&&++&&&&&+&&+&&+&&++&&&&&&&+&+&+++&+&+&+&+&+&+&+&&&+++++++++++++++++++++++++++++++++$=-=#;  +++@",
" .++;>.>&*  *+&++++++&+&&&&&&&&++&&++&+&&&&&&&&++&&++++&++++++&+++++++++&++++++&++++++&+++++++++&++++++&+++++++++&+;>.>&*  +++@",
" .&&*$&&*   *&&&&&&&&&+&&++&++&&+&&&&&+&&++&++&&+&&&&&&&&&&&&&&&&&&&&&&&&&&&&&&&&&&&&&&&&&&&&&&&&&&&&&&&&&&&&&&+&+&*$&&*   &&&@",
" .++;*     **++++++++++++++&+++++++++++++++&+++++++++&&++++++++++++&+++++++++++++++++++++++&++++++++++++++++++++&++;*     *+++@",
" .&&&;*   **;&+&&&&&++&++&+++&++&+&&++&++&+++&++&++&&&&&&&&&&&&&&&&&&&&&&&&&&&&&&&&&&&+&&&&&&&&&+&&++&&+&&++&&&+&&&&;*   **&&&@",
" .&&&&;****$&&+&+&&&&&&&&&&&&&&&&&&&&&&&&&&&&&&&&&&&&&&&&&&&&&&&&&&&&&&&&&&&&&&&&&&&+&+&+&+&&&+&+++++++++++++++++&&&&;****$&+&@",
" .&#&#&$&#&&&&#&&#&&#&&* &&#&&&* #&&#&&* &&#&&&* &&##&#;*&#&&&#;*&#&#&&**&&&#&#* &#&&&#* &#&&&&* &&&&&&* &&&&&&&&&#&#&$&#&&&&&@",
" .&&&&&&&&&&&&&&&#&&#&&* &&#&&&  #&&#&&* &&#&&&* &&&&&&  &&&&&&  &&&&&&  &&&&&&  &&&&&&  &&&&&&  &&&&&&  &&&&&&&#&&&&&&&&&&&&&@",
" .####&################################################&#######################&#######################&#####&&&&&###&#####&&#@",
" .&&##&##&&#&&##&&##&###&##&#&#&@@&&@&&&@&&@&&@@&&@@@&&@@&@@@@@&&@@@@@&&@@@@@&&@@&@@@@@&&@@@@@&&@@@@@&&@@&@@@@&,&#&##&##&&###&@",
" .#############&#####$*                                                                                  $$&####&##########&&&@",
" .####>########&#####*************************************************************************************>$####&####>########@",
" .##>#>#>>>#>>>,&,,#> *@,,,,,,,,,,,,,,,,,,,,,,,,,,,,,,,,,,,,,,,,,,,,,,,,,,,,,,,,,,,,,,,,,,,,,,,,,,,,,,,,,>')##,,###>#>#>>>####@",
" .######>#>>>>>>#>>># *,#####>######>######>#########>######>######>###########>>>>>#>>>>>>#>>>>>>>>>#>>>'!~##>>>>#####>#>>##>@",
" .>>>###&$$>###>#>>>> *,>>>>>>>>>>>>>>>>>>>>>>>>>>>>>>>>>>>>>>>>>>>>>>>>>>>>>#>>##>>#>>##>>#>>##>##>>#>>#'=~>>>##>>>####$$>>##@",
" .###%%%#&*;>>#>##### *,>#######################>#######################>>#####################>>#>>>###>'=~#####>##%%%#&**>>#@",
" .>>$=-=#;  $>>>>###> *,>>#>>#>>>#>>>>>#>>>#>>>>>>>>>>>>>>>>>>>>>>>>>>>>>>>>>>##>>##>##>>##>##>#>>>##%>#>'=~##>>>#>$=-=#;  #>>@",
" .>>;>.>&*  $,>>>>#>> *,########>>>#>#>###>#>>>>>>>>>>>>>>>>>>>>>>>>>>>>>>>>>>>>>>>>>>>>>>>>>>>>>>>>>%>>>'=~####>#>;>.>&*  #>>@",
" .%>*$&&*   $,>%>>>>> *,>>>>>>>>>%>>>%>>>>>>>>>%>%>%%%>>>%>%>%>%>>>%>>>%>%%%%>>>>>%>>>%>>%>>>>>>%>>>>>>%>'=~>>>>>>>*$&&*   >>>@",
" .>>$*     *,>>%%>%>> *,>>>>>>>>>>>>>>>>>>>>>>>>>>>>>>>>>>>>>>>>>>>>>>>>>>>>>>>>>>%>>>%>>%>>%%>>%>>%%>>%>%=~%%>>>>>$*     *>%>@",
" .%%%$*   *$,%%%>%%%% *#%%%%%%%%%%%%>%%%%%%%%%%%%%%%%%%%%%%%>%%%%%%%%%%%%%%%%%%%%%%%%%%%%%%%%%%%%%%%%%%%%%=~%%%%>>%%$*   *$>>>@",
" .%>>%,$$$$,'%%>>%%%% *#%>>%%>>%>>%%>%%>>%>>%%>>%>>%%>>%>>%%>%%>>%>>%%>>%>>%%%%>%%>>%%>%%%%%>%%%>%%%%%%%%%=~>%%%%>>>%,$$$$,>>%@",
" .%%%%%',,,'%%%%%%)%% *>%%%%%%%%%%%%%%%%%%%%%%%%%%%%%%%%%%%%%%%%%%%%%%%%%%%%%%%>%%%%%%%%%%%%%%%%>%%%%%%%%%=~%%%%%>%%%%',,,'>>%@",
" .%%%%%%%%%%%%%%%%%%% *>>%%>>%%%>%>%%%>%%%>%>%)%>%)%>%%%>%%%)%%%%%%%%%)%%%)%%%%%%%%%%%%%%%%%%%%%%%%%%%%%%%=~%>%%%%%%%%%%%%%%%%@",
" .%))%)))%))%%)))%)%) *>%%%%%%%%%%%%%%%%%%%%%%)))%)%)%)%)%)%)%)%%%)%)%)))))))%%))%))%))%)))%))%)))%))%)))%=~%%%%%%))%)))%))%%%@",
" .%%%%%%%%%%%%%%%%%%% *#)%%%%%%)%%%%%%%%%)%%%%%%)%%%%%%)%%%%%%%%%)%%%%%%)%%%%%%%%%%%%%%%%%%%%%%%%%%%%%%%%%=~%%%%%)%%%%%%%%%)%)@",
" .)%%))%))%)))%%%%%%% *#)%%))%%)%%))%))%%)%%))%%)%%))%%)%%))%))%%)%%))%%)%%))))%))%%)%%))%))%%))%))%%))%)%=~%))%)%%%))%))%)%%)@",
" .)))%%%))))))))))%)) *>%%%%%%%%%%%%%%%%%%%%%%%%%%%%%%%%%%%%%%%%%%%%%%%%%%%%%%%%%%%%)%%%%%%%%%%%)))%%))%%)=~%%)%)%))%%%)))))))@",
" .)%)))!%!))))!)%)))% *>%))%%))%)))))))))%)))))))))))))))))))))))))))))))))))%%)%%)%%%)%%)%%))%))%)!!%%!))=~%%%))%%)))!%!))%%%@",
" .)))))!))))))!)))))) *>%%%%%%%%)%)))%)%)%)%)))))))))))))))))))))))))))))))))))))))))))))))))))))))))))!))~~%%)%%)))))!))))))%@",
" .!))>###$>!)))))))!) *>)))))))!)))!)!)!!!)))!)!)!)!))!!))!!)!!!!!!)!!)!!!)!!!))))))!))))))!))!)))!))!)))!~~))))))))####$>!)))@",
" .!!#+%%#&*>!!!)!!)!! *>)))))))))))))))))))))))))))))))))))))))))))))))))))))!))!!))!))!!))!))!)!!!))!!)!=~~))))!)!#+%%#&*>)!!@",
" .!=$=-=#;  >!!==!!!! *')!!!!!!!!!!!!!!!!!!!!!!!!!!!!!!!!!!!!!!!!!!!!!!!!!!!!!!!!!!!!!!!!!!!!!!!!=!!!===!=-~!!!!!)=$=-=#;  )))@",
" .!!;>.>&*  #==!!!=!! *))!!))!))!=!)!)!=!)!=!!!=!=!!!=!!!=!!=!!==!!=!!==!==!!!!!!!!!!!!!!!!!!!!!!!!==!!=!=-~!))!)!!;>.>&*  !!)@",
" .!=*$&&*   #======!! *)!!!!!!!=!!!=!=!===!=!=!!!===!=!=!!===================!======!======!=========!====-~!!!!!!=*$&&*   !!!@",
" .==,*     *#====!=== *)=!!=!!!=!!=!!!=!!=!!!=!!=!!=!!!=!!=!!!=!!=!!!=!!=!!=!==!==!===!==!===!=====!===!==-~!!=!!==,*     *===@",
" .~~~&*   *#%======== *)=======================================================!==!===!==!===!===~=!=~=!=~{-=====!~~&*   *#!!=@",
" .====>####%========= *)!!!!!=!!===!=!=!!!===========~======~======~=====================================~{-=!!!=====>####%===@",
" .~~=~~=%%%=~~~~==~=~ *==========~=============~=~===~===~==~==~~==~==~~=~~===~~==~~=~~==~~=~~==~==~~=~~=~{-~=~===~=~~=%%%====@",
" .~~~==~~===~~~==~~~~ *=========================================================================~========~{-=====~~~==~~===~~=@",
" .~~-~~~~~~-====~~=~~ *=~~=~~=~~==~~=~~==~~=~~~~~~~~~=~~~=~~~~~~~~~~~~~~~~~~~~==~~==~==~~==~==~===~==~==~~{-=~~===~-~~~~~~-===@",
" .~~-~~~~~~-~~~~~~~~~ *=====================~=~~~=~=~=~=~~~~~~~~~~~~~~~~~~~~~~~~~~~~~~~~~~~~~~~~~~~~~~~~~~{{====~====~===~==~~@",
" .---------------~~-- *-~~~~~~~~~~~~~~~~~~~~~~~-~-~---~~~-~-~-~-~~--~~--~---------------------------------{{~~~~--~~-~~--~~~--@",
" .---~----~~----~---~ *-~--~~--~--~---~--~--~~--~--~~--~--~---~--~--~~--~--~~~~-~~-~~~-~~-~~--~~-~~--~~-~-{{~~~-----~---------@",
" .{{{{-{{--{{{{{{-{-- *-------------~---------------------------------------------------------------------{]~---~~{{{-{{--{~~-@",
" .--{{-----{----{---- *--~~--~~-~~--~--~~-~~-{-~-~-{-~-{-~{{-{{--{---{--{--{{-----------------------------{]~--~---{{-----{---@",
" .{{{####$){{{{{{{{{{ *------------------------{-{-{{{-{-{{{-{{{-{{{--{{{{{{{---{-{{{{{{{-{{{{{{-{{{{{{-{--]----{-{{####$){---@",
" .{{%%%%#&*#{{{{{{{{{ *---{--{---{--{--{---{--{---{--{---{--{--{---{--{---{---{---{{-{{-{{{-{{-{{{-{{-{{{{]]{---{{{%%%%#&*>-{{@",
" .]]$=-=#;  {{]{{{{{{ *~{{{{{{{{{{{{{{{{{{{{{{{{{{{{{{{{{{{{{{{{{{{{{{{{{{{{{-{{{-{{-{{-{{{-{{-{{{-{{-{{{{]]--{{--]$=-=#;  ---@",
" .{{;>.>&*  ={{{{{{{{ *-{------{---------{--{{{-{-{---{{{-{{{{{{{]{{{{{{]{{{{{{{-{{{{{{{]]]]]]]]]{]]]{{{]{]]----{{{;>.>&*  {{{@",
" .{{*$&&*   )]{]{]{]{ *~{{{{{]]{]]{{{{{]{{{]{]{{{{{{{{{{{{{]{]{{{]{{{]{{]{{]]{{{{{{{{{{{]]]]]]]]]]]{{]]{]{]]{{{{{{{*$&&*   {{{@",
" .{{>*     *%-{]{{{{{ *-{{{]]]]]]]{]{]{{{]{{{]{{{{{{{{{{{{{{{{{{{{{{{{{{{{{{{{{{{{{{{{{{{{{{{{{{{{{{{{{{{{]]{{{{{]{>*     *]]{@",
" .{{{#*   *>!-{{{{{{{ *-]]{{]]]{]]{]]]{]]{]]{{]]{]]{{]]{]]{]]]{]]{]]{{]]{]]{{]]{]]{]]{{]{]{{]]{{{{{]]{{]{]]]]]{]{{{{#*   *>{{{@",
" .---=)>>#>=~-{--{{{- *-{{{{{{{{{{{{{{{{{{{{{{{{{{{{{{{{{{{{{{{{{{{{{{{{{{{{{{{{{{{{{{{-{]{{{{{{{{{{{{{]{]]]--{{]{--=)>>#>={{{@",
" .{{{{=!!!!~-{{{{{-{{ *-{-{{{]]]]]]{{{]]]{]{]{-{{{-{{{]{{{]{-{{{{{{-{{-{{{-{{-{{{{{{-{{{{{{{{{{{{{{{{{{{{]]]-{-{{{{{{=!!!!~{{{@",
" .--{------{---{{{-{- *~{-{{{{{{{{{{{{{{{{{{{{-{{{-{{{{{-{{{-{{--{{-{{-{{{-{{-{{--{{-{--{--{--{---{--{---]]]{{-{{{-{------{{{{@",
" .-------{{{---{{---- *~{{{{{{{{{{{{{{{{{{{{{{{{-{{{{{{{{{{{{{{{{{{{{{{{-{{{{{{{{{{{{--{{{{{{{{--{{--{{{-{]]{{{{--------{{{--{@",
" .--~~-----~{{{--{{-- *--{------{{--{---{-----{---{-----{--------------------------------{{-{{-----{{--{-{-]--{{{--~~-----~{{{@",
" .---------~--------- *----{-{{{{{{-{{{{{{{-{{--{---{-{---{----------------------------------------------{{]{-------------~---@",
" .~~--~--~----~~----- *--~-~-~----------------~---~-~-~-~---~~-~~-~~~-~~-~~-~~~-~~-~~~-~-~---~--~--~~--~-{{]--~---~--~--~-----@",
" .~~~--~~~--~~~~---~~ *=-----------------------------------------------------------------~---~-~~--~~--~~-{]----~~~~~~~~~--~~-@",
" .====~==~~====~~~=~~ *=~~~~~~~~~~~~-~~~~~~~~~~~~~~~~~~~~~~~~~~~~~~~~~~~~~~~~~~~~~~~~~~~~~~~~~~~~~~~~~~~~-{]~~~~~~===~==~~=---@",
" .~~=####$#=~~~~~~~~~ *=~-~=~=~~--~~-~~~-~~~~~-~=~-~=~=~-~=~~==~~==~==~~=~~==~==~~==~==~~~~~~~~~~~~~~~~~~-{{~~-~~~~=####$#=--~@",
" .==#%%%#&*&========= *)~===~=~~~~~~~~~~~~~~~~=~=~===~===~~~=============================================-{{~~=~~~=#%%%#&*,~~~@",
" .==$=-=#;  ========= *)~=~~=~~~==~~=~~==~~=~~=~~~=~~=~~==~~=~~==~~=~~=~~~=~~=~~==~~=~~=~==~==~~==~==~==~~{{=======$=-=#;  ===@",
" .=!;>.>&*  '======== *)===================================================================~======~==~===~{{====~=!;>.>&*  ~~~@",
" .==*$&&*   '======== *)=~~~=~~=~~=~~~=~~=~~~~~===~~~=~=~=====!===~===~=!======!==!===!==================~{{=~~====*$&&*   ===@",
" .!!&*     *'!===!=!! *)======================================!=====!===!==!!==!==!===!=!=!!!=!!=!!==!!=!~{{======!&*     *~==@",
" .!!)&*   *''====!=!! *'============!=======================!=======================!====================~-{====!=!=&*   *'==!@",
" .!!!),$$,,'!!!!!!)!! *'!!!=!!!=!!==!==!!=!!==!!=!!!=!!!!!=!!!=!!!!!=!!!=!!!!!!!!!!!!!!!=!!=!!==!==!!==!=~-{==!!==!!=,$$,,'===@",
" .!!!!!!'''!!!!!!!!!! *>!===!==================!=!===!=!=!!!=!!!=!=!!!=!=!!!!!!!!!!!!!!!!!!!!!!!!!!!!!!!!~--===!!!!!!!!'''!!!=@",
" .)))))))))))))))!))) *>!!!!!!!!!!!!!!!!!!!!!!!!!!!!!!!!!!!!!!)!)!)!)!!!))!))!)))!))!))!)))))))))))))))))=--!!!=!!)))))))))=!=@",
" .))!)!!!)))!!!!))!)) *>)!))!))))!))!))!)))!))!)))!))!)))!))!))!)))!))!)))!))!)))!))!))!!!!)!!)!!!)!!)!!!=~-)))))!)!)!!!)))=!)@",
" .))))))))))))))))))) *>)))))))!)))))))))!))))))!)))))))))))))))))))))))!))))))))))))))))))))))))))))))))=~-))!)!!)))))))))!!)@",
" .))))))))))))))))%)) *>)))!)))!))!!)!!))!))!!))!)))!)))))!)%)!)%)%)!)%)!%%))%%)%%))%%)%)))))))))))))))))=~~!!)!))))))))))))))@",
" .%%%%%%%%%%%%%%%%%%% *#))))))))))))))))))))))))))))))))))))%)%%%)%%%)))%%%%%%%%%%%%%%%%%%%%%%%%%%%%%%%%%!=~))))))%%%%%%%%%))!@",
" .%))%%)%%))%%%))%%%) *>))%%)))%))%)))%))%))%%))%))%%))%))%)))%))%))%%))%))%%))%))%%))%)%)%%))%%)%%))%%)%)=~%)))%%))%%)%%))%%%@",
" .%%%%%)%%%%%%%)%)%%% *>%%%%%%%%%%%%%%%%%%%%%%%%%%%%%%%%%%%%%%%%%%%%%%%%%%%%%%%%%%%%%%%%%)%%%%%%)%%%%%%)%)=~%%%%))%%%%)%%%%))%@",
" .)))####$$%))))))%)) *>)%))%)))))))%))))))%))%)))%))%))))))%))))))%))%)))%))%)))%))%))))))))))%)))%%%)%%)=~))))%%))####$&>%%%@",
" .)>#%%%#&*;))%%>%))% *>)%)%%%))%%%)%)%%%)%%%)%)%)%)%%%)%%%%%%%%%%%%%%%%%%%%%%%%%%%%%%%%)%%)%%)%%%)%%%%%%)=~%)%%)%>#%%%#&*;%))@",
" .%%$=-=#;  %%%%%%%%% *#)%%%)%))))))%)))%%%)%%%)%)%%%)%%%)%%%%%%%%%%%%%%%%%%%%%>%%%%%%%%%%%%%%%%%%%%%%%%%)=~%%%)%%%$=-=#;  %%%@",
" .%%;>.>&*  ,>>%%%%%% *,%%>%%%%%%%%%%%%%%%%%%%%%%%%>%%%>%%%>%>%%%>%%%>%%%%%>>%%>%%%>%>>%>%%>%%>>%>>%%>>%>)=~%%%%%%%;>.>&*  %%%@",
" .%%*$&&*   ,%%%>%%%> *,%%%%%%%%%%%%%%%%%%%%%%%%%%%%%%%%%%%%%%%%%%%%%%%%%%%%%%%%%%%%%%%%%%%>%%%%%%%%%%%%%%=~%%%%>%%*$&&*   >>%@",
" .>%+*     *,>>>>>>>> *,>>%>>>>%>>%>>>%>>%>>>%>>%>>%>>>%>>%>>>%>>%>>>%>>%>>%%>>%>>%>>>>>>>>>>>>>>>>>>>>>>'=~>%>%%%%**     *%%%@",
" .>%>;*   *$,>%>%%>%% *,>>%>>>>%>>%>>>%>>%>>>%>>%>>%>>>%>>%>>>%>>%>>>%>>%>>>>>>%>>%>>>>>%>%%%>>>>%>>>%%>>'=~>>>>>>%>**   *$>>%@",
" .>>>>,$$$$,>>>>>>>>> *,>>>>>>>>>>>>%>>>>>>>>>>>>>>>>>>>>>>>>>>>>>>>>>>>>>>>>>>>>>>>>>>>>>>>>>>>>>>>>>>>>'=~>>>>%>>>>,$$$$,%%%@",
" .>>%>>,,,,>>>>>>>>%> *,>%>>>>>>%>>>%>>>%>>>>>%>>>%>>>>>%>>>>>#>>>#>#>%>##>##>##>>##>##>>>>>>>>>>>>>>>>>>'=~>>%>>>>%>>,,,,>>>>@",
" .>>>>>>>#######>###> *,>>>>>>>>>>>>>>>>>>>>>>>>>>>>>>>>>>>>#>>>###>>>#>###################>#############'=~>>>#>>>>>>>>###%>>@",
" .>>#>>>#>>>>>>>>>>#> *,>#>>#>>>##>>#>>##>>#>>#>>>#>>#>>##>>#>>##>>#>>##>>#>>#>>##>>#>>#>>>>>>>>>>>>>>>#>'=~>>#>##>#>>>#>>>###@",
" .>>#>>>#>>#>>##>###> *,>#>>#>>>>>>>#>>>>>>#>>#>>>#>>#>>>>>>#>>>>>>#>>>>>>#>>#>>>>>>#>>####>######>##>>##'=~>>#>>#>#>>>#>>#>>>@",
" .>>>>#>>>>>>>#>>>>>> *,>>>>>>>#>>#>>>#>>#>>>>>>#>>>>>>#>>#>>>#>>#>>>#>>#>>>>>>#>>#>>>##>>>>>>>>>#>>>>##>'=~>>>>##>>>#>>>>>##>@",
" .###>#>###>####>>>## *,>###>#>#>>#>#>#>###>###>#>###>###>###############################>###>##>########'=~###>>>##>#>###>>>>@",
" .#>>>#>>>####>####># *,>>>###>>>>#>#>###>###>>>#>>>###>>>#########&################&###############&####>=~###>##>>>#>>>####>@",
" .#####&#######&#&&&# *&#######################&###############&###&###&#&###&##&&##&##&#&&#&&##&&##&##&#>=~###&######&#######@",
" .#######$$####&####& *&#################################################################################>=~####&&######$$####@",
" .&&#%%%#&**&&&#&&#&& *@&#&&#&&&##&&#&&#&&&#&&#&&&#&&#&&&#&&#&&##&&#&&#&&&#&&#&&&#&&#&&#&&&&&&&&&#&&#&&#&>=~&#####&#%%%#&*;&##@",
" .&&$=-=#;  &&&#&#&## *@&#&&#&&&&&&&#&&#&&&#&&#&&&#&&#&&&#&&#&&&&&&#&&#&&&#&&#&&&#&&#&&####&##&&&#&&#&&##>=~&&#&&#&$=-=#;  &&&@",
" .&&;>.>&*  &&&&&&&&& *@&&&&&&&#&&#&&&&&&&&&&&&&#&&&&&&&&&&&&&#&&&&&&&&&&&&&&&&&&&&&&&&&&&&&&&&&&&&&&&&&&>=~&&&&##&;>.>&*  ;&&@",
" .#&*$&&*   &&&&+&&&& *&&&&#&&&#&&#&&&#&&&&&#&&&#&&&#&&&&&#&+&#&+&+&&&+&&++&&++&++&&++&+&&&&&++&++&&++&+&>=~&&&&&&&*$&&*   ;&&@",
" .&&**     *&&&&+&&&& *@&&&&&&&&&&&&&&&&&&&&&&&&&&&&&&&&&&&&&&+++&+++&&&+++++++++++++++++++++++++++++++++>=~&&&&&&&**     *&&&@",
" .++&**   *$&&++&&&&& *@&&++&&&+&&+&&++&&+&&++&&+&&++&&+&&++&&+&&+&&++&&+&&++&&+&&++&&+&&&&++&&+&&++&&+&&>=~&+&&+++&**   *$+&&@",
" .&&&&$**$$&&&++&&&&& *@&&&&&&&+&&+&&&&&&+&&&&&&+&&&&&&+&&&&&&+&&+&&&&&&+&&&&&&+&&&&&&+++&&&&&&+&&&&&&++&>=~&&&&&&&&&$**$$&+&&@",
" .&&+&&&$$&+&&&&&+&+& *@&+&&+&&&&&&&+&&+&&&+&&+&&&+&&+&&&+&&+&&&&&&+&&+&&&+&&+&&&+&&+&&&&&+&&+&&&+&&+&&&&>=~&++&+&&+&&&$$&+&&&@",
" .+&+&+&$&++++&+&+&+& *+&+&+++&&+++&+&+++&+++&+&+&+&+++&&+++++++++++++++++++++++++++++++++++++++++++++&&+>=~+&+&&&&+&+&$&+++++@",
" .+++&+&+++&+++++++&+**&,,,,,,,,,,,,,,,,,,,,,,,,,,,,,,,,,,,,,,,,,,,,,,,,,,,,,,,,,,,,,,,,,,,,,,,,,,,,,,,,,>~~&+++++++&+&+++&&&&@",
" .+@++++++++++++++++@;*,''''''''''''''''''''''''''''''''''''''''''''''''''''''''''''''''''''''''''''''!!~-=#++++++@+++++++++++@",
" .@@@@@@@@@@@@@+@@@@+@;,..............................................................................~~.%#@@@@@@@@@@@@@@@@@@@@",
" .++@@+@@++@@@+@@+@@@+@@+@@@++@@+@@++@@+@@+@@@@@+@@++@@+@@+@@@+@@+@@@+@@+@@++@@+@@++@@+@@+@@@+@@+@@@+++@++@@++@@+++@@+@@++@+@@@",
" .@@@@+@@@@@@@+@@+@@@+@@+@@@+@@@+@@@@@@+@@+@@@+@+@@@@@@+@@+@@@+@@+@@@+@@+@@@@@@+@@@@@@+@@+@@@+@@+@@@+@@@@@@@@@@@@@@@@+@@@@@+@@@",
" .@@+@@@+@@@@@@@@@@+@@@* @+@@++* @@@@@@* @@@@@@* @@@@@@* @@@@@@* @@@@@@* @@@@+@* +@@@@@* @@+@@@* @+@@++* @++@+@+@@@+@@@+@@@@@@@",
" .@@+####;$@@@@+@@@+@@@  @+@@@@  ;@;;@;  +@;@;@  ;@;;@;  +@;@;@  ;@@@@@  @@@@+@  +@@@@@  @@+@@@  @+@@@@  @@@@+@+@@@+####$$@@@+@",
" .@@#%%%#&*;@@@@@@@@@@@@@@@@@@@@@@@@@@@@@@@@@@@@@@@@@@@@@@@@@@@@@@@@@@@@@@@@@@@@@@@@@@@@@@@@@@@@@@@@@@@@@@@@@@@@@@@#%%%#&**@@@@",
" .@@$=-=#;  @@@;;@@;@@;;@@;@@@@;;@;@@;@@;;@@;@@;;@@@@;@@;;@@;@@;;@@;@@;;@@;@@;;@;;@@;@@;;@@;@@;;@@;@@@@;;@;@@;;;@@@$=-=#;  @;;@",
" .@@;>.>&*  *@@@@@@;@@@@@@;@@@@@@@;@@;@@@@@@;@@@@@@;@;@@@@@@;@@@@@@;@@@@@@;@@@@@@@@@;@@@@@@;@@@@@@;@@@@@@@;@@@@@@@@;>.>&*  @@@@",
" .@@*$&&*   *@@@@@@@@@@@@@@@@;;@;@@@@@@@@@@@@@@@@@@@@@@@@@@@@@@@@@@@@@@@@@@@@@@@@@@@@@@@@@@@@@@@@@@@@;;@;@@@@@@@@@@*$&&*   @@@@",
" .@@**     **@@@@@@@@@@@@@@@@@@@@@@@@@@@@@@@@@@@@@@@@@@@@@@@@@@@@@@@@@@@@@@@@@@@@@@@@@@@@@@@@@@@@@@@@@@@@@@@@@@@@@@**     *@@@@",
" .;;;**   **;;;;;;;@;;;;;;@;;;;;;;@;;;;;;;;;@;;;;;;@;;;;;;;;@;;;;;;@;;;;;;@;;;;;;;;;@;;;;;;@;;;;;;@;;;;;;;@;;;;;;;;;**   **;;;@",
" .@@@@*****@@@@@@@@@@@@@@@@@@@@@@@@@@@@@@@@@@@@@@@@@@@@@@@@@@@@@@@@@@@@@@@@@@@@@@@@@@@@@@@@@@@@@@@@@@@@@@@@@@@@@@@@@@*****@@@@@",
" .@@@@@@@;;;@@@;;@@@;;;;;;;;;;;;;;;;;@@@@@@@@@@@@@@@@@@@@@@@@@@@@@@@@@@@@@@@@@@@@@;;;@@;;@@@;;;;;;;;;@@@@@@@@@@@;;@@@@@@;;;;;;@",
" .++@@@@@@@@@@+@@@+@@@@@@@@@@@@@@@@@+@@@@@@@@++@@++@@@@@+@@@@++@@++@@@@@+@@++@@@@@@@@@+@@@+@@@@@@@@@@@@@+@@++@@@@@+@@@@@@@@@@@@",
" .@@@@@@@@@@@@@@@@@@@@@@@@@@@@@@@@@@@@@@@@@@@@@@@@@@@@@@@@@@@@@@@@@@@@@@@@@@@@@@@@@@@@@@@@@@@@@@@@@@@@@@@@@@@@@@@@@@@@@@@@@@@@@",
" .++++@+++++++@++@+++@++@++++@++@++++++@++++++@++@+++@++@+++++@++@+++@++@++++++@++++++@++@+++@++@++++@++@++++++++++++@+++++@+++"};
