/* XPM */
static char *east[] = {
/* columns rows colors chars-per-pixel */
"100 100 219 2 ",
"   c #3E2B1D",
".  c #342417",
"X  c #442E1E",
"o  c #432E21",
"O  c #4A2F22",
"+  c #463026",
"@  c #4C3225",
"#  c #45322A",
"$  c #4E352A",
"%  c #4F382C",
"&  c #523223",
"*  c #5A3724",
"=  c #563826",
"-  c #5C3926",
";  c #543529",
":  c #5A3729",
">  c #553A2B",
",  c #5B3B2C",
"<  c #543B31",
"1  c #5B3E31",
"2  c #633D2C",
"3  c #693F2A",
"4  c #603F30",
"5  c #5E4132",
"6  c #5D443A",
"7  c #64422E",
"8  c #6C432D",
"9  c #644433",
"0  c #6B4532",
"q  c #6C4936",
"w  c #63453A",
"e  c #6B463A",
"r  c #64493C",
"t  c #6C4B3B",
"y  c #724632",
"u  c #734A35",
"i  c #7B4D35",
"p  c #734D3B",
"a  c #7B4E3B",
"s  c #7E5136",
"d  c #76513C",
"f  c #7C533D",
"g  c #7F583F",
"h  c #765037",
"j  c #6C4E42",
"k  c #734D41",
"l  c #7A4F41",
"z  c #755143",
"x  c #7C5442",
"c  c #7F5942",
"v  c #775748",
"b  c #7B5549",
"n  c #795949",
"m  c #824D35",
"M  c #844F3B",
"N  c #894D39",
"B  c #835236",
"V  c #8C5336",
"C  c #83543C",
"Z  c #8B553C",
"A  c #85593E",
"S  c #8C5A3D",
"D  c #8E5D37",
"F  c #92563C",
"G  c #935B3E",
"H  c #9A5C3E",
"J  c #915335",
"K  c #A25E3E",
"L  c #95613F",
"P  c #9C623F",
"I  c #A4613D",
"U  c #814F41",
"Y  c #845541",
"T  c #8B5641",
"R  c #855A42",
"E  c #8B5C43",
"W  c #875448",
"Q  c #845C4A",
"!  c #8D5E49",
"~  c #8F5349",
"^  c #925642",
"/  c #935D43",
"(  c #9B5D42",
")  c #935E49",
"_  c #9A5F49",
"`  c #A15E43",
"'  c #A75C46",
"]  c #B95F44",
"[  c #8E6045",
"{  c #8E614C",
"}  c #85604B",
"|  c #946145",
" . c #9C6344",
".. c #9D6846",
"X. c #94634A",
"o. c #9C654A",
"O. c #9D694B",
"+. c #966D4B",
"@. c #936651",
"#. c #996750",
"$. c #966952",
"%. c #9B6B52",
"&. c #A36545",
"*. c #AB6545",
"=. c #A46946",
"-. c #AB6A46",
";. c #A36649",
":. c #A96649",
">. c #A46B4B",
",. c #AB6C4B",
"<. c #B26544",
"1. c #BA6340",
"2. c #B36C46",
"3. c #BA6C46",
"4. c #B26649",
"5. c #BB6649",
"6. c #B36D4B",
"7. c #BA6D4A",
"8. c #AD7247",
"9. c #A6704C",
"0. c #AC724D",
"q. c #B57246",
"w. c #B4734C",
"e. c #BB744D",
"r. c #B6784F",
"t. c #BD794E",
"y. c #BC7646",
"u. c #A46E51",
"i. c #AB6E50",
"p. c #B06F50",
"a. c #BA6F50",
"s. c #A57253",
"d. c #AD7452",
"f. c #AE7852",
"g. c #A97559",
"h. c #B37551",
"j. c #BB7551",
"k. c #B57A54",
"l. c #B57A53",
"z. c #BB7B52",
"x. c #BA7951",
"c. c #BC7B53",
"v. c #BC7D58",
"b. c #B67C58",
"n. c #C56A47",
"m. c #C36D4B",
"M. c #CB6D49",
"N. c #C46345",
"B. c #D46B46",
"V. c #D06F49",
"C. c #DB6C46",
"Z. c #C2744C",
"A. c #CB744C",
"S. c #C37A4E",
"D. c #CA7B4E",
"F. c #C07746",
"G. c #D4734C",
"H. c #DA754C",
"J. c #D37B4E",
"K. c #DC7A4D",
"L. c #DC7047",
"P. c #C27651",
"I. c #C67A50",
"U. c #C17D52",
"Y. c #C37C53",
"T. c #C97E52",
"R. c #CB7D53",
"E. c #C37E58",
"W. c #CA7E58",
"Q. c #CE7451",
"!. c #D37D53",
"~. c #DA7D53",
"^. c #D17E58",
"/. c #D37650",
"(. c #E3764A",
"). c #E37D4D",
"_. c #EB7F4E",
"`. c #E37E51",
"'. c #E87F50",
"]. c #BC8056",
"[. c #BD835A",
"{. c #B78158",
"}. c #C78048",
"|. c #CA824E",
" X c #C88143",
".X c #D08647",
"XX c #D5874D",
"oX c #C48156",
"OX c #CC8255",
"+X c #C48359",
"@X c #CC8559",
"#X c #C5885C",
"$X c #CE895C",
"%X c #D38355",
"&X c #DB8456",
"*X c #D48857",
"=X c #DA8857",
"-X c #D28559",
";X c #DA8659",
":X c #D48A5C",
">X c #DB8B5B",
",X c #DC905F",
"<X c #EB814E",
"1X c #E0814F",
"2X c #E18556",
"3X c #ED8352",
"4X c #E28957",
"5X c #E38658",
"6X c #E28C5A",
"7X c #EA8A5A",
"8X c #C58C60",
"9X c #CC8D62",
"0X c #D38D61",
"qX c #DA8F61",
"wX c #D69164",
"eX c #DB9162",
"rX c #D3936A",
"tX c #DA996B",
"yX c #E19260",
/* pixels */
"U.r.w.r.z.w...B >.| | >.w.w.&.O.o.6.h.0.>.>.9.>.>.U.S.0.>.I.z.l.OXz.T.h.o.1 { X.X.! @.{ { X.X.$.%.%.>.d.d.h.D.R.R.U.t.w.-.2.&.&. .F V 8 =.z.U.@Xw.r.h.>.>.0.,.0.9.O.&.S.>.| [ S A A S | &.G  .s 7   p C ",
"z.z.z.z.x.0...f >.| | &.6.w.-.>.;.6.h.0.>.s.0.>.,.I.D.d.,.R.c.b.%XY.-Xx.o.< Q ! @.{ @.{ { #.X.$.%.%.g.g.d.h.D.R.R.R.Y.t.3.3.&. .G Z B 8 f.#X@Xz.w.T.l.l.d.0.0.0.0.O.&.r.O.| [ R R R S |  .G P Z 0 . d Z ",
"h.w.z.U.h.0.=.f >.O.o.,.,.w.6.w.o.,.d.,.>.d.d.>.0.R.S.>.>.I.z.l.%XY.OXr.o.< b ! X.! @.X.{ $.) $.%.%.s.g.k.j.J.R.R.Y.S.t.e.3. ./ A a i 7 f.+XY.z.w.U.h.d.0.>.>.>.>. .-.w.| [ [ R C R S |  .G  .Z 9 . d S ",
"w.w.r.t.r.w.=.f >.X.o.,.,.0.*.,.O.;.i.,.O.>.0.,.0.I.t.>.>.Z.h.h.OXh.U.d.X.< b X.@.X.@.$.{ $.X.X.u.u.s.d.h.j.Q.U.I.Y.r.w.2.2. .Z A B a 7 h.:XOXoXr.T.d.>.O.O. .>.>. .2.w.| E ! R C R E | ( G / B 9   C E ",
"w.w.w.r.t.w.=.f O.) X.;.;.>._ >.X.o.h.,.>.9.>.>.O.j.w.>.>.e.,.u.U.i.h.>.| < b #.$.X.%.%.! $.o.o.s.g.g.d.d.e.P.c.I.+XU.z.w.w.=.| | G Z 7 0.@XY.oXr.U.s.X.X.O. .>.../ *.,.| E ! E R R | | ( Z / B 7 X R E ",
"r.e.r.S.U.r.=.f O.) ! ) X.O.) :.X.) 6.>.>.O. .| ) e.6.o.O.h.>.u.j.d.x.h.:.1 b #.#.X.%.%.! $.o.O.%.g.s.g.d.j.x.l.R.$XOXU.w.w.-. . .Z G 0 0.oXz.z.w.c.O.[ ! X.X.O.X.| &.,...! [ E R E X.o.G Z / i , O R / ",
"r.t.r.t.z.x.=.a ) ! W ) ) o.X.-.) ) 7.;.o.O.| / ;.R.e.>.:.P.>.i.T.c.oXoXw.1 b #.#.X.X.%.) %.O._ %.s.s.s.d.P.l.U.-X:XOXoXe.w.-. .| Z Z 9 >.c.z.z.&.h.s.o.X.>.o.o.o.E G ,.>.X.| | | O.X.=.H /  .f > o R / ",
"r.r.w.w.z.r.=.f o. .) :.6.6.w.e.:.;.Z.,.,.0.>.>.w.OXt.0.w.Z.>.h.U.v.@X@X0.1 b #.X.X.X.%.) %.%.;.o.%.u.u.w.I.k.R.:XwX-XOXe.w.-. . .G G 0 >.Y.U.z.=.x.0.>.>.,.o.X.X.E / w.0...X.o.o.X.O.=. .| &.f #   c E ",
"z.w.w.w.x.h.=.A ,. .o.,.t.r.w.e.0.;.A.w.,.0.>.>.0.U.Z.>.h.j.u.h.j.v.oXY.,.1 Q o.X.o.X.s.O.%.s.;.>.u.u.i.Z.c.l.T.@XrX0X@XZ.t.6.=.=. .H 9 0.@XOXU.,.R.x.d.d.,.O.O...| / -.0.X.| | | | >.-.&. . .B +   f R ",
"z.r.w.r.z.h.>.A :.o.;.-.j.e.,.e.0.;.A.w.,.,.:.>.,.U.I.,.h.h.s.j.h.v.Y.c.,.4 X.>.O.u.o.g.u.u.s.>.:.>.>.7.Z.l.c.Y.+XrX:X@XR.Z.e.,.&.&.&.0 0.OXOXz.,.D.w.,.d.,.o.>.X.| | -.,.| ! | | | ..-.&. .( Z $ O Y ! ",
"w.t.e.U.z.x.,.A ,.>.;.,.j.e.,.e.0.&.Z.,.>.>.:.:.,.z.P.>.i.h.d.Y.h.E.Y.Y.,.9 X.;.;.u.o.g.>.O.s.u.5.4.4.M.x.b.v.Y.+X@X-XOXR.S.t.w.&.&.-.y ,.Y.Y.z.6.!.j.j.h.>.>.,.>.o.X.3.,.| | | / | | &.( | / S = o Y | ",
"w.t.r.U.U.c.-.B >.o.;.:.r.w.&.w.0.*.I.6.&.:.:.;.,.h.P.;.,.,.h.R.c.@XY.Y.,.0 X.o.;.u.o.s.>.O.%.u.7.V.H.A.l.c.E.R.@X:XOXT.I.U.r.,.*.*.-.u 0.T.R.z.6.J.R.P.x.,.,.,.,. .o.e.e.| | | | | |  ./ E G Z : o c X.",
"w.S.r.U.S.c.-.a X.O.:.,.w.w.-.e.0.2.I.w.&.=.=.:.:.h.j.O.o.,.k.R.c.@XT.z.o.7 X.;.;.u.;.d.i.>.u.s.6.M.A.e.v.b.W.R.0X0X-XT.I.U.r.w.-.-.-.i w.U.R.S.6.J.!.Z.e.,.e.w.:.&.o.e.e.| X. .| | X.o.G E G G : # x | ",
"w.I.z.U.Y.U.-.a o.>.;.,.w.6.-.w.>.<.S.w.&.=.-.,.>.l.h.X.X.>.i.R.z.OXOXU. .0 O.,.>.i.>.d.i.>.u.d.d.,.,.h.c.c.W.OX0XwX0X-X!.OXR.r.6.-.2.i 0.j.U.z.:.A.D.Z.w.w.w.;.o.| | -.2.| | o. .| o. . .| G G 2 o f X.",
"w.S.z.T.oXU.,.s X.>.>.,.6.,.:.6.>.<.D.w.&.=.,.0.>.h.h.>.;.o.,.R.z.T.R.t.&.q >.i.>.i.;.d.i.>.i.d.d.s.h.l.h.c.R.OX@X0XwX:X;X=X%XS.e.e.e.s 0.z.U.w. .3.A.e.6.,.6.&. .E / :.-.| |  . . .|  .P &.K H - = | X.",
"w.I.z.Y.oXU.,.u X.>.:.,.-.,.:.6.:.<.Z.,.&.=.6.w.:.h.j.h.,.>.,.I.x.oXOXT.w.q O.>.>.,.;.u.i.:.i.s.k.c.c.c.h.v.R.OX@X:X0X&X&X%XR.I.e.t.r.i 0.OXOXw.=.Z.J.A.6.,.2.6.,.| | ,.2. .o. .| |  .=. .=.I P * > ! [ ",
"0.Y.z.Y.Y.c.,.u o.>.;.,.:.-.:.7.,.<.e.,.:.=.=.,.:.z.I.x.r.h.h.I.z.#X-XOXw.u >.i.i.i.,.s.d.,.i.h.b.c.c.c.x.E.R.OX@X:X$X-X%XOX%XY.Z.D.t.s x.@X:Xz.,.Z.J.A.6.6.4.7.,. . .w.w. .o.| | |  .-.&.=.K P - > R X.",
"w.U.z.Y.z.z.,.i ;.:.:.,.6.6.:.7.,.<.e.=.:.&.&.,.,.I.R.x.j.h.c.R.z.#X-X@Xw.i ,.i.,.p.,.d.h.,.i.k.c.b.c.c.Y.W.R.OX:X:X@X-X*X%X%XD.S.D.t.f w.oXOXr.>.6.A.m.-.7.Z.Z.0.o.X.=.6.o.| / |  . .-.P | H G - > Y [ ",
"r.I.U.OXz.z.0.i &.>.,.6.e.w.;.6.,.*.r.>.| T o.:.,.I.R.w.,.0.c.-XT.+X-XoXw.u >.6.6.h.6.d.h.6.i.h.l.l.z.z.oX%XOX-X:X>X:X=X>X;X%X%XD.R.S.f w.+XoXr. .6.!.e.r.I.A.e.=.| | =.,.| | |  .|  .-.H / H Z = $ b E ",
"r.I.z.OXY.z.w.B ,.,.,.6.6.6.,.e.=.*.r.:.R ~ o.,.,.I.I.h.;.,.z.@X%XoXOXY.,.u >.,.6.h.6.d.h.6.,.h.h.c.c.U.OX;X-X-X:X:X0X>X>X;X%X%XOXR.t.f ,.Y.oXoX,.Z.R.w.x.OX&XI.:.| | =.:.E |  .&. . .-.H | G B @ % b R ",
"S.R.t.OXoXz.r.Z -.6.,.:.,.6.6.e.=.*.w.>.Y ~ _ :.,.j.j.>.;.,.z.@X%X@XOXU.-.y u.,.p.h.,.d.l.6.p.h.x.c.Y.T.&X4XOXOX:X-X0XqX>X=X=XD.S.D.e.i x.:X:XoX,.D.OXv.l.@X&XI.:.| | -.=.| | =.*. . .-.G | G Z & # x Q ",
"t.R.z.Y.U.U.U.Z -.6.;.;.;.-.,.7.=.*.w...x W ) ,.,.Z.t.>.o.,.z.&X&X$X=XY.w.i ,.h.p.k.i.d.c.6.p.j.z.z.U.Y.;X2XOXOX&X-X:X>X>X>X&XD.S.D.e.i U.-X>XOX6.D.+Xb.h.T.%Xj.>.| | -. ./ X. .| E | &.G | G Z * , v b ",
"w.Z.w.S.z.r.t.Z *.6.o.o.;.-.,.3. .*.w.,.E E :.,.6.D.Z.,.>.h.z.&X=X+XOXU.,.i p.h.p.j.6.d.c.6.6.x.z.z.U.R.4X4XOXOX;X&X:XqXeX>X=XD.S.S.3.s z.T.:XY.-.D.@X[.b.+X@Xt.>.| | -.=./ o. .G  . . .F / F G - 5 v c ",
"0.e.w.z.x.w.w.Z -.e.:.;.;.-.r.3.&.*.e.w./ | 0.w.,.Z.e.h.;.h.h.OX&X+X+Xz.,.i p.h.,.h.6.h.l.6.,.x.z.z.U.OX7X&XOX-X>X&X0XeXeX=X-XS.t.t.-.s z.U.OXR.-.Z.OX+Xb.R.!.Z.=.| | -. ./  .&. . .=. .G  .G Z * 5 v E ",
"0.6.0.z.r.w.w.Z 6.Z.6.,.;.-.r.7.&.-.e.w.| ) ,.,.:.Z.P.h.:.h.w.OX4X+X@Xc.,.i p.h.6.h.6.h.c.j.6.x.U.U.U.OX2X%XOXOX%X-X9XqXqX:XOXS.e.t.,.Z Y.R.%XD.-.D.&X@XY.R.%XZ.,.| E ;.o./ O. . . .&.( F &.F Z * > Y O.",
"w.Z.w.Y.t.r.t./ 6.e.,.,.;.,.e.7.&.2.r.w. .X.,.=.&.Z.P.,.;.w.w.T.>XoX@XY.:.i h.h.p.c.a.d.c.x.7.z.z.z.U.R.;X%XOXOX&X:X0X0XqX:XOXI.S.S.-.B R.R.S.S.,.Z.;X@XoXT.R.Z.-.| E :.o.|  . . . . ./ G &.F Z = 5  .e.",
"e.D.z.R.z.r.r.G 6.6.,.;.;.-.6.7.&.-.r.0.:.>.,.-.:.z.t.>.;.w.w.oX>XOX@XU.,.p i.h.p.c.a.d.c.j.a.c.z.z.U.OX;X%XOX%X2X=X:X0XeX:XOXY.Z.S.-.B Y.OXS.D.w.e.2XoXc.T.R.Z.-.| / -. ./ /  . .Z / G G  .Z Z @ , &.e.",
"Z.D.r.I.z.r.w.Z -.,.>.X.X.:.6.6. .-.w.,.:.:.w.-.=.U.P.>.;.w.w.Y.>XOX-XT.0.u ,.w.6.x.a.d.c.j.j.x.t.z.z.T.%X%XOX%X4X:X:X0X0X:XR.S.t.r.=.B T.:XR.D.w.Z.2XT.c.@XR.Z.-.| ( 6.=.| /  .&.C Z H F &.G Z & 9 | &.",
"D.J.z.U.z.x.w.Z ,.-.>.X._ 6.e.6. .,.w.,. .&.w.-.-.z.j.>.;.,.x.c.*XOX@XY.:.i 6.w.w.j.j.d.l.x.a.h.x.Y.U.U.W.OXOX%X2X:X:X0X0X@XOXS.t.t.=.S OX>X:XOXw.e.;X@XoXT.R.t.=.|  .6.=.| |  . .A | &.G &.Z G & 5 E R ",
"S.D.h.z.x.w.w.Z :.,.>.o.X.-.e.-.( -.,.,./ T =.-.-.z.U.O.;.-.w.z.:XOX-XR.w.B h.e.e.h.j.i.c.x.7.h.z.Y.Y.U.I.R.OX*X>X@X$X0X@X:X-XR.S.S. .G -X*X*X&Xt.e.&XY.c.c.c.w.&.|  .6. .E ! | | S / ( G ( B H & r x R ",
"S.Z.w.t.h.w.w.B &.*.;.;.o.-.6.-.&.6.-.&.E W =.,.,.w.P.X.( ` w.oX:XOX-XOXc.A h.j.w.k.j.p.l.j.7.h.c.Y.W.W.Q.@X-X-X*X@X$X0X:X:X-XD.S.Y. .S R.OXOX%Xw.2.!.z.0.k.c.6. .E / -. .R E / E A Z ` G ( B G ; w a X.",
"r.6.0.r.h.,.6.B ;.-.-.,.;.-.-.-.&.w.,. .W W &.>.>.,.w.A T 5.6.c.:XOX-XR.r.Z h.w.w.h.j.p.c.c.e.h.c.@X-X~.Q.-XR.R.%X:X:X0X$X@XOXD.S.S. .Z R.OXD.OXt.2.Q.z.h.h.x.7. .| / *.&.! ! / / S G &.G ( B G ; 1 A X.",
"e.6.w.x.0.,.w.Z ;.-.,.,.;.:.,.-.( 6.,.>.E W | O.O.0.6.X.,.J.t.+X>X$X:XOXr.Z h.e.e.x.P.j.v.c.Z.P.v.@X-X~.R.OXT.R.;XeXeX0X#X@XOXI.U.t. .S :X*X%X%Xt.,.%XT.h.x.I.Z.:./ ^ 6.,.E / |  ./  .` G H Z H , p ! / ",
"Z.e.0.6.,.,.6.S ;.,.,.:.&.;.,.-.( 6.:.>.| E X.! X.,.h.:.w.!.t.c.:X:X:XOXt.S h.j.j.U.P.j.c.E.P.P.v.W.^.~.%X-XOX@X;XeXeX0X:X$X@XY.S.t. .A OXOXOXOXr.:.Z.z.l.x.I.e.&.| / w.,.E | | | /  .K  .( Z H = Y ~ X.",
"J.D.w.t.6.0.w.Z >.,.-. .&.-.,.&.&.,.>.:.o.| X.E X.o.,.>.w.R.t.c.:X@XOXOXr.Z x.e.j.U.I.c.c.+XI.Q.P.W.~.~.OX:X%X%X%X:X>XqX>X0X:XOXR.Y.,.A oX@XoXoXw.X.2.Z.,.t.I.6. .E ! :.o.R | / | E / (  .G B J @ x ! $.",
"J.OXS.R.U.z.z.Z o.,.:. . .;.-.:.&.,.,.,.=.| E E X.O.i.0.x.OXZ.Y.:X@X@XT.w.G x.e.e.z.U.c.v.+XI.G./.~.`.~.@X&X&X;X;X-X:X0X:X0X:X%XR.Y.,.E +XoXoXOXw. .7.R.h.P.J.3.&.! / ;. ./ | E / A / ` &.` V H $ j b ) ",
"A.D.U.OXY.t.j.Z X.:.&. . .;.:.&. .0.,.>. .| ! | X.,.,.h.x.T.Q.U.>X:X-XOXt.G h.w.e.c.U.j.+X#XT.K.'.3X3XJ.@XR.OX;X>X&X*X:X-X:X:XOXR.OX0.| @X@XOX%Xr.,.Z.Z.j.!.1XA.&.| ) ,.o.| | E ) Y E (  .&.F F O r k U ",
"S.S.r.R.Y.j.e.Z X.>. ./  .-.*. .( 0.,.;.o.| / X.o.6.x.c.z.OX!.Y.>X:X=X-XY.Z i.6.e.c.U.P.+X@XOXK._.3X3X/.@XR.R.;X>X:X=X>X:X:X:X*XOXOX0. .&X-XOX%Xt.-.6.,.j.!.~.Z. ./ ( ,. ./ / / / R ^ (  .H G H O 6 k k ",
"S.Z.r.S.U.z.w.Z o.,.&. .:.4.*. .( 6.,.=.&.,.;.X.o.w.R.Y.+X@X!.Y.:X:X>X*Xt.Z h.x.j.c.U.c.v.Y.+XA.)._.).I.@XOX%X;X&X:X=X>X>X=X>X:X-X>X,.o.-XOXR.!.6.-.x.>.w.R.!.3. .| &.:.| ! ) E Y R / / E ( B N O f T n ",
"S.e.w.S.U.t.r.Z >.-.,.&.-.2.:. .&.e.6.,.:.,.,.o.X.6.%XoXoX@X%Xc.:X:X>X*Xt.F j.z.x.h.z.j.l.c.+XI.K.<X~.T.OXR.%X2X%X:X=X>X6X>X>X-X&X6X,. .OXY.S.D.,.2.c.d.h.I.Q.<.| / *.=.| /  ./ C R ( / / H B m @ Y C l ",
"S.S.r.Y.U.S.t.Z >.,.;. .:.,.;.;.:.6.:.,.,.w.,.X.X.6.!.T.oX@X&XU.eX:X>X-XS.H I.P.j.c.U.j.k.b.+X#XJ.).J.@X@XI.!.2X%X:X>X>X>X:X:X-XOX>X,. .OXoXS.D.6.7.R.c.z.R.!.2./ E *.-.o.| / ^ Y R &.(  .H V V @ z x b ",
"t.Z.w.U.U.oXY.S ;.;.o./ o.:.&. . .:. .,.w.x.w.;.o.6.R.U.z.OX&XT.>X:X:XOXr.H P.P.j.c.Y.c.l.c.+X9XR.G.Q.$XOXI.%X5X;X:X>X:X=X:X:X*X-X=X-. .&X-XOXJ.,.e.R.c.h.U.S.-./ E *.,. .| / G E / *.H ( G I J $ z v v ",
"e.Z.w.I.Y.Y.z.E ;.o.) ~ ) ;.&.( X.,.>.:.,.6.,.,.>.6.W.z.z.OX%XY.>X:X:XOXw.S j.U.j.c.W.c.h.c.+X9X@XI.I.@XY.R.;X2X>X:X>X=X=X=X=X&X-X=X,. .OX-XR.D.,.e.R.x.0.z.r.,. .) 2.6. .| / Z E S *.H  .F H V ; z z n ",
"t.Z.w.S.OXU.x.S ;.o.X.T | :.-.&. .;.;.o.>.:.,.:.>.,.I.z.h.R.%XY.:X:X:XOXh.^ j.z.h.c.+XU.h.c.v.#X9X@X@X@XS.S.;X7X6X>X>X>X=X:X%X%X&X>X,.&.OX-XR.R.w.e.R.c.0.h.0.:. .^ 2.w.=.| | ^ S G ` G  .Z H m > z v Q ",
"e.7.w.S.Y.t.w.S >.;.;./  .:.-.:. .&.o.X.o.o.X.o.:.,.W.l.d.R.I.c.=X:X>X-Xz.) x.j.h.j.+XW.j.v.c.@XwXeX0XOXU.P.%X7X=X:X*XOX*X-XOXOX&X>X,. .R.OXR.J.r.w.R.b.h.d.0.-. .) 3.6.:. .&. ./ ^ ` / :.F H B > z c Q ",
"e.6.w.Z.r.w.w.S O.o.X.) | o.;.`  .( &.X.| X. .o.;.6.W.z.0.T.I.Y.>X:X:X:Xz.E x.P.j.c.T.!.Y.+XY.@XeXtXwX@XU.U.~.7X=X:X%XR.-X-XOX%X%X>X,. .R.&XOXD.r.w.Q.h.0.h.>. . .^ 2.-. . . . ./ S ( S &.Z H i > z b Q ",
"6.w.w.w.w.,.,.S O. . .| X.X.o.;.;.` :.o.| o.o.o.:.6.I.h.d.OXR.OX>XqXqX:XU.E z.I.Y.Y.@X!.Y.@X+X@XwXwX:XT.t.I.~.7X:X*X%XR.R.-X&X&X=X>X=.o.Y.%XD.D.w.-.I.h.>.9.>.| / R *.*./ |  .( Z S ` Z  .M Z i , z v Y ",
"2.6.,.e.w.,.,.S X.;.X.| ) / ;.:.6.:.4.>.X.o.o.:.,.e.I.z.Y.%XR.OX6X>XeX:XU.S c.R.R.R.@XW.U.@X@X@X0X0X:XR.Z.R.&X7X;X&X>X&X%X=X&X&X:X>X=.O.R.R.S.D.w.-.Q.,.>.>.=.| | R *.&.G / / / Z Z ` G &.Z G i 1 z c R ",
"7.6.6.e.,.,.w.S X.,. .| X.o.,.-.e.:.7.,.;.o.o.,.,.j.I.x.OX!.Y.OX;X*XqX:XY./ U.R.R.R.@X!.E.+X@X@X0XwX@XR.Z.R.&X7X&X*X>X>X>X=X&X%XOX-X .>.OXR.S.Z.,.,./.w.>.,.=.| / R *.*./ ^ E / G Z F S ( Z G u 1 z c Y ",
"Z.-.e.w.w.6.r.G | :. .) o.>.-.-.6.;.4.w.;.o.X.;.,.j.P.h.h.Z.c.T.!.@X>X-XU.&.T.R.OXOX-X!.c.E.oX@X:X:X@XY.I.R.&X7X%X%X*X;X=X-X%XR.OX@X .;.I.U.x.Z.,.,.I.h.d.0.:.o.| E 6.:./ E S R Y C ^ Z ( C F y < v b b ",
"A.w.w.6.w.w.t.G / :. . .o.o.,.,.,.X.:.7.>.o.X.o.>.7.j.d.i.6.x.c.j.+X:X*Xt./ U.%X-X-X@XR.E.E.+X@X:X:X@XR.I.I.~.7XOX-X*X%X*X=X%XR.OX@X| O.U.z.h.r.,.:.r.0.>.>. ./ R Y *. .R Y Y Y l U ^ T ^ i B 0 1 v b b ",
"Z.,.-.,.,.,.w.G ! :.;.| / X.:.&.:.X.;.7.;.o.X.) o.7.x.h.j.e.b.c.U.@X>X:XI.) U.!.-X-X#XR.U.+XoXOX:X@XOXR.I.!.&X5X%X;X;X%X*X=X%XR.OX@Xo.O.Y.c.z.z.0.;.w.>.>.X.| E x a  .E Y Y Y T Y T ` / ( Z F q 1 v c c ",
"6.:.,.:.;.:.w./ / =.>. .|  .:.;.&.O.o.4.4.:.o.;.6.A.T.x.Q.%XoXOX>X:XyX>XT.( U.!.R.-X@XR.U.+X+XOX:X-X:XI.S.!.!.&XR.%X-XOX@XOX%XI.T.OX .>.Y.+Xc.U.0.,.h.>.O.X.! R x ^ ;.! Y x x Y Y T ( ( ` Z H 0 9 x z c ",
";. .:.:.>.>.,./ | -.:.:.:.;.,.;.-.w.,.4.G.7.-.6.P.A.U.z.!.%XT.;X;X0XqX:Xc.) U.!.%X%X:X%XR.+XOXOX-X:X@XU.S.R.~.&XT.%X@XT.T.OXR.S.I.T.| >.OX@XOXOXw.6.h.>.o.X.! R Y ` &./ E Y x x A G G _ :.G H 8 9 x x x ",
":. .,.w.0.,.6. .,.3.6.-.,.,.,.,.-.e.h.*.(.A.6.7.A.A.z.U.!.%XR.2X6X0X>X>Xv.) U.R.R.-X:X!.W.+X@XOX-X:X@XU.Z.R.&X&XOX%X-XT.T.OXR.R.OXT.G o.T.-XOXR.,.7.w.o.X.X.) R T `  ./ R Y Y x C ^ F ) &.Z ` 8 9 c c x ",
"7.,.e.z.x.w.P. .:.e.6.,.,.,.6.6.-.6.l.2.(.H.7.m.H.m.c.U.!.&XOX7X6X:X>XyX+X/ E.R.@X-X@XR.W.T.@X@XOX:X:XI.Z.R.~.&X@X*X-XR.T.OXI.R.@XOXG o.U.OXI.j.,.2.,.X.X.) E E T  . .E Y Y Y f a Z F  .( Z K 8 9 c x c ",
"Z.w.Z.z.U.z.U. .,.e.6.6.=.,.,.6.,.-.h.6.H.G.n.G.H.e.oXt.J.R.T.2X&X@X:X>XoX| Y.R.@X-X$X!.W.T.OX-X:X:X-XU.I.R.~.~.T.-X@XU.c.U.U.S.R.R.S o.P.OXU.w.o.:.,.O.X.! E E ~  .:./ R Y x k p F G  . .Z K 3 9 c x f ",
"7.w.S.t.S.U.R. .&.e.6.6.,.:.,.2.w.2.w.6.M.L.B.(.L.w.oXr.Q.I.Y.~.OX@X-X:Xz.( T.R.@X-X:X&XR.T.T.@X:X$X@Xz.x.Y.R./.Y.@XR.U.c.c.j.t.I.U.f ;.P.OXR.r.&.6.w.X.X.E E E ^ o. .E R Y a p p S F / ( a K 2 9 c x Y ",
"Z.r.Z.z.R.Y.D. . .w.-.2.,.:.,.2.w.4.w.w.5.C.B.B.n.-.z.w.P.t.c.R.Y.+X@X@Xz./ T.OX-X-X:X%XR.T.U.I.@X@XY.c.x.T.^.~.T.@XU.U.c.z.j.e.U.z.C >.P.T.U.r.;.6.0.X.X.! ! Y _  ./ R Y Y f k l T F ^ ( i G , 9 c f c ",
"e.w.r.z.Y.Y.R.:.:.,.:.:.;.:.,.-.w.2.w.>.' n.] ' ` ,.z.w.I.U.c.R.T.-X$X:Xz./ c.R.-X@X:X!.W.W.R.Y.OX@X@XT.U.W.%X~.@X@XY.U.U.I.t.6.P.z.A >.j.c.U.w.>.6.>.X.X.X.E E &. ./ Y x f Y l x T Z ^ ( B F : 9 f Y R ",
"w.w.Z.U.Y.U.OX&.&.,.:.:.:.,.,.6.e.6.6.9./ ^ ^ ~ o.h.w.w.R.U.z.%XOX=X:XyXU./ U.R.OX-X:X%XR.@X@XOXOX@X@XT.U.W.-X~.@X@XY.U.j.P.e.6.t.z.A >.x.c.z.w.;.7.,.O.X.X.|  .,. .| / Y Y Y l T / Z / ( B H : 9 Y R R ",
"6.w.e.z.U.z.Y. . .6.-.:.,.,.,.w.e.e.6.>.X.! X.0.h.z.r.r.R.@XY.;X-X6XeX,XOX .T.R.-X*X:X;X%XT.T.U.+X+XY.z.j.E.W.!.Y.W.T.z.w.w.w.6.j.j.A i.j.x.e.,. .2.,.>.X.X./  .:./ / E Y f x l f / C E / B F : t R T Y ",
"e.t.S.t.S.t.S. .&.e.e.-.-.6.w.t.Z.Z.7.=.0.d.0.z.@XoXw.t.&X$XOX4XOX>XeX>XOX .T.R.-X;X>X~.P.j.z.U.oXc.c.z.z.+XW.W.c.U.U.x.w.,.w.w.j.w.A ,.I.x.Z.6. .6.,.o.X.! E (  .| | R x k k k p / C T G Z V = p R E Y ",
"r.R.%XoXY.t.S.P *.D.S.3.e.w.e.Z.Z.Z.Z.w.r.z.z.z.+XY.,.6.;X@XY.&X@X:XwX>XS.&.T.R.-X=X>X!.I.j.j.OXY.l.c.U.U.+XR./.U.j.c.x.6.,.,.w.w.w.B ,.U.x.e.w.o.-.>.o.X.| / *. ./ / C p k k x p / S T G Z Z , p T E C ",
"t.OX%XoXOXS.D.I I D.S.F.7.e.e.Z.Z.e.Z.w.0.>.>.>.,.w.w.r.&XoXY.%XU.$X:X:XS. .Y.R.-X=X>X%XI.P.I.+Xh.:.0.j.t.Y.R.~.z.x.x.h.d.,.,.,.,.,.C ,.Y.c.t.e.:.6.,.>.! E E 2. .E / A z k k k a / T R Z Z Z : t C E C ",
"S.OX%XoXR.S.S.-.P w.e.F.q.w.6.Z.S.e.e.>.| T ) &. .:.r.t.R.U.oX@XY.$XOX,XY. .Y.!.:X>X-X!.Y.I.T.Y.,.*.;.,.h.c.U./.U.x.x.h.,.>.,.>.,.,.R >.U.c.z.r.0.6.0.>.E R / -. .| | R x k x p p / T T G Z B = t f Z A ",
"e.R.OXoXS.t.t.-.S =.2.2.-.2.,.r.t.2.e.O.^ <.m./.7.,.z.r.!.U.oX:X=X0X$X,XY. .I.%X>X>X&XQ.x.x.z.c.7.V.5.>.d.c.k.A.j.x.j.,.,.:.>.:.>.>.E 0.Y.z.z.w.>.,.w.>.| R R &. . .E f k k t t p T a d C a a = d Y A E ",
"w.Y.OXU.t.r.w.*.G -.2.-.-.e.w.t.S.6.r.>.*.K.&X&XJ.w.z.e.!.U.@X:X*X9X:X>XS.G R.6X6X>X=XQ.j.c.c.h.A./.m.>.s.k.h.7.x.h.6.,.,.>.;.:.>.>.E x.Y.l.z.w...&.0.X.E R A &.&. ./ f k j t t x T C x C B M * f R R R ",
"0.U.OXU.t.t.z.-.G w.2.-.-.w.r.t.t.2.r. .<.&X-XOX/.6.x.r.R.Y.@X@X-X9X0XeXU.G R.6X6X>X*X!.Y.c.l.6.A.a.6.' X.s.s.,.w.h.,.,.>.>. .>.>.>.E h.T.c.U.z.>.,.0.| E R R <.&. .R f p k t t p Y M f C p M , C A R A ",
"U.-X*XoXS.S.OXe.H w.2.-. .=.,.e.r.6.w. .7.-X#X+XOX7.h.r.R.R.+X@X:X0XeXeXY.H R.4X=X:X%XR.U.c.h.2.j.,.>.;._ O.s.,.6.d.,.>.:.>.o.O.>.>.S h.@XW.OXS.>.w.h.X.| ! / 3.-./ R f d x p d p f a p Y u m : a A E Z ",
"OXOX%XY.S.S.OXq.H w.6.2.-.,.,.t.r.e.0.( e.+X+XoXOXZ.w.z.OXD.].+X:X:XeX,XU.H !.=X%X@XR.Z.c.l.>.4.6.,.>.o.o.;.s.u.,.d.,.:.:.>.O.o.>.o.A d.U.c.U.r.=.e.,.o.| E R 2. .E Y f d z x c d a a p T u m : Y | / Z ",
"S.@XOXz.U.S.OXe.P w.w.w.2.w.-.e.w.t.d.&.Y.+XoXoXoXI.w.z.oXR.c.+X:X:X>X,XS.G R.=X%X@XR.z.c.k.;.2.,.s.u.O.X.;.u.u.:.,.,.:.;.>.o.o.X.O.S i.c.k.z.w. .w.>.X.[ E E :./ E R c f d c C f f a p E a m , Y E / G ",
"S.@XOXS.OXD.OXw. .e.w.6.-.,.,.e.w.z.0.*.U.oXoXz.z.OXr.x.oXOXt.+X:X>X:X:XU.Z I.>X&X:XA.j.l.d.:.6.>.>.O.%.O. .;.>.;.;.;.;. . . .o.X.X.S 0.j.d.w.,.&.e.>.| E E / -. .S C f f p f f f p a q C u i , C R E Z ",
"S.@XOXOX@XD.OXw.&.e.w.6.>. .=.w.w.z.0.6.z.].].x.w.oXe.0.z.$XI.b.:X:X$X:Xz.Z w.OXI.OXZ.j.h.>.:.>.X./ ^ X.O.X.o.>.o. .:.;.;.o.o.o.X.X.+.z.R.x.t.,.&.Z.,. .E R ^ :.E C f p d p p p f d p e p u i 2 f Y R Z ",
"S.-X-XY.U.Y.OXw. .3.6.w.:.:.,.w.r.U.0.e.z.].[.w.w.c.R.0.x.@X&XoX:X:X$XeXoXZ w.U.U.z.7.h.d.&.>.O.| ) X.) X.X.X.u.O.o.:.,.:.;.o.>.o.X.+.x.I.Y.U.w. .e.>.o.E R / &.A f f f c d q q p d p q t p u u R R R S ",
"S.@XOXU.r.r.oX-.G -.2.e.w.w.w.w.t.R.0.t.z.b.c.w.w.].OXw.z.oX%XoX:X:X$X:XY.B e.r.z.w.6.l.s.;.>.X._ o.X.X._ X.X.O.O.o.>.,.>.>. . .o.O.[ w.U.Y.U.w.:.7.>.| E R ^ &.R Y C Y Y t w w p d t q t u q u R R R E ",
"OXOX*XS.t.r.oXw.L 2.q.e.2.w.w.w.e.Y.,.Z.w.l.z.r.l.].@XU.z.z.:XOX:X:X:X:XU.V e.w.h.,.,.k.,.:.X./ | X.X.X.) | ! X.X.X.o.;.X.X.o.o.O.%.[ d.z.c.U.w. .6.;./ ! E / :.R E E C f k p e w t t t t p 9 7 C Z Z / ",
"OXOX*XU.r.e.oXw.Z -.3.e.2.w.w.r.w.U.=.Z.w.x.x.w.x.[.+XR.z.z.:X@X:X>X:X:Xz.Z 6.:.>.&.>.s.;.o.! / [ ! ! X.| / E ! X.X.X. .X.X.X.o.X.X.f 0.Z.Y.Y.r. .2.;./ R R / &.A E R f t l C a e w t t t t 9 7 Y Z E / ",
"OXOX%XoXt.S.OXe.Z -.2.e.-.6.w.t.6.z. .Z.w.w.>.o.0.b.+XT.x.b.$XOX:X>X:X$Xw.B o.X.X. .u.>.>.X.E | E Y T R X.| ! E X.X.| | X.X.X.X.X.X.f >.6.h.t.w. .-.o.E R C ^ / C C f d p x f f f p t p p p 1 9 R R E / ",
"S.OXOXoXU.S.R.e.D &.&.-.:.,.6.e.w.h. .t.l.>.( &.;.f.+XT.0.l.@X@X@X:X-X@Xr.B X.X.| X.s.o.>.X.| E Y R R ~ E [ / E [ | | | X.X.X.X.X.[ f 0.e.w.w.,.| :./ R c f ^ R f f f p Y f d f f f u d p p , 5 Y A / | ",
"S.Y.OXoXY.S.D.e. .&.&.:.&.,.6.w.w.h.&.r.9.| / m.:.0.+XT.0.h.+XoX$X:X@X+Xw.i / X./ X.O. .X.E [ Y R R E R E E ! E E | [ E | X.| | | E g y.r.x.e.w.=.-.| R c C ^ / A R f p / Y p p z Y p d p q 1 9 R Y / / ",
"t.z.@XU.z.e.U.w.L |  .&.&.-.-.w.w.d.:.h.O.E <.`.Z.0.b.+Xw.x.OXOX:X:X@X@Xw.i ! E R X.E | E R f c E E X.[ ! E E E E | ! ! [ X.[ [ | R C r.z.z.e.t.-.-.o.E R A (  .Z E f C ( Y a a t f u t p q > 9 R E | / ",
"w.z.+Xz.w.-.t.-.B |  .&.:.=.6.w.w.0.-.l.X.( G.2XJ.0.k.+Xx.l.Y.-X-X@X@XoX0.C X.R E E E [ R f f R E R E | X.E E E R ! ! ! ! X.| [ [ R C r.U.+XU.w.=.-.| R c A *.| A R a F E f f Y p t q t p e > 5 R E | / ",
"r.z.@XU.t.t.D.w.u /  .&. .:.w.e.r.0.,.9.E <.!.#XR.-.f.b.w.d.Y.OX@X@X@XoX>.f X.[ R A [ [ R p c E R R E ! X.[ R ! R E E E E ! | ! E R L y.z.h.w.0. . .! R x f &.| C f a | E C R f f u p t p e $ 9 R / | / ",
"t.S.OXe.t.e.S.-.8 E  . . .=.w.w.w.,.w.O.&.Z.oX8X+Xw.f.b.z.d.oXOX$X$X@XoX>.C o.| A d f R p d C R f f c E E E R R R R E E E E ! [ R x Z #X+Xh.w.,. . .! E f f | E C f T  .A Y [ g R p p t d a O 9 R / / / ",
"Z.S.OXe.t.t.e.-.y / &.&.=.=.6.,.,.9.h.O.2.Y.[.8X8XT.w.].x.l.+XU.oXoX+XU.-.Z o.| A p p p q f C Y c c Y R R E E R R R E R E R E E R Y C [.c.0.w.O. . .! ! Y E | E A a ^  .S R R A c x p p f M O 9 R / | | ",
"Z.S.-Xr.S.S.S.w.m  . . .&.:.6.-.:.>.h.=.6.x.{.[.#X@Xr.b.z.k.b.x.b.oX@XY.0./ o.X.| R E x f E E E R R [ X.E E [ R R R R R R E E E R f C l.h.0.w.o. .| ! E E / R R f p /  .E R R A A c f p d a : 9 R / | / ",
"Z.w.z.w.z.t.t.6.i |  .&.:.:.-.-.,.,.w.:.w.d.0.x.[.@Xz.x.U.d.l.z.b.oXc.z.0.[ X.| X.*.j.o.!  .O.| Y Y Y ! [ E ! R R c c R R R R R g d C 8.w.w.w. .&. .E Y /  .E A a p (  .Z Z / S A R a p p p : 9 S / | G ",
"Z.r.z.r.z.t.t.w.a | :.=.-.&.-.,.w.6.0.:.w.0.l.x.b.@XU.x.z.f.b.z.b.oXz.l.9.E | E o.3.g.$.T &.>./ E E E R R R R R f f g R A f f f f t C y.r.z.e.=.*. .E R (  .G C p p K I Z G | E A R a q u u ; q R / | / ",
"3.r.z.r.x.w.w.,.C  .>.&.=.&.2.-.-.-.>. .0.0.x.x.].+Xw.d.w.>.f.x.h.x.l.0.>.A | [ R ` p.X.Z ` ;./ | | X.X.R R E [ R A g g f f d d f t A |.|.t.w...*. .E R &.X.S g d p *.&.G ( | A A R a q u q O 9 A E X.| ",
"2.l.oXz.z.r.t.w.S ..&.E / G -.=.=. .>. .0.d.0.w.l.Y.w.d.w._ d.x.w.l.b.h.>.A | | ) X.;.X.^ ` ;.| E E E o.O.| X.| R g g s d p p d d t A }.S.w.w.=.*.| E S :.| E A A f *. .G H | S A C a q q q O t R ! [ E ",
"q.l.+XU.z.t.S.w.S | X.E / E  .&.=.=.O.>.d.f.x.r.x.Y.t.h.e.:.l.x.w.l.b.x.=.f ) X.( o.>.>.>.*.:.o.(  . .&.>.O.o.| [ A f u u t t d d q A }.S.w.w.,.*.| E / *. .| / S B -.&.L  .| E R f p q q 9 + t A E [ / ",
"q.l.#X@X+Xz.t.0.S  ...|  . .=.*.=.=.>.,.0.9.0.0.w.OXt.w.e.,.d.h.,.h.z.w. .f E T ( ,.h.z.z.e.:. .*.0.d.,.-.>...o.E g h 0 q q t d f t S .X|.w.r.,.2. .| G *. ./ | S a <.&.L G E E A f q 9 9 9 + t Y R E E ",
"S.l.#X$X+Xz.w.>.S :.=. .|  .-.-.=.&.0.,.9.X. .w.r.Y.w.0.w.,.9.d.0.l.b.h. .f Y E ) ;.z.w.=. .R / =.=.0.k.w.h.>.>...S f q q q t d c d A .X|.w.w.=.-. .E Z &.G S S g a <.&.S S A R R p 9 5 5 1 + t Y R E R ",
"Z.0.oXOXoXl.w.>.S :. .| /  .:.=.=. .,.,...A Z 0.l.z.w.0.,.| X.d.h.b.v.x. .f E ! ^ X.h.,.X.R R  .,.I 1.h.[.b.l.0.>.X.R d q d d d R d Z  XS.0.w.=. ./ E S ( Z S S s M <. .S E R A R u 9 9 0 7 + e C R E R ",
"y.0.+X@XoXr.r.0.S =. .S /  . .=.=.o.>.:.| Y T o.0.b.0.0.,.:. .s.0.h.c.z.=.f E E ^ ! >.d.s.Y ) ;.3.n.e.7.+XoX].w.0.>.X.R f f d d R d D XXS.w.w.&.:.| E S ( / S S s Z <. .S S R R C u q q s q ; t f R E R ",
"3.0.[.oXz.r.0.0.A  . .|  .o. .&.=.=.-.>.X.S T >.w.[.w.x.w.Z.2.s.d.l.c.z. .f E R E ~ o.i.,.T _ &.1.U.[.Z.@XOXoXh.0.9.X.E g d p d f t B F.w.0.0.| &.| R S `  .E A p Z <. .S Z E R f q q s f y ; e f R R R ",
"*.9.[.OX+Xr.l.w.Z  .=. . .&.&.*.-.-.2.,.>.F T 0.w.[.w.w.0.Z.I.0.k.w.h.l.| s [ R W E o.>.o.;.2.2.A.9X9X%X:X@XoXz.w.s.O.| A f d p t 6 s 8.0.,.0.o. .E C C H  .S g q Z *.| C B E S a q u g B y $ e f R R C ",
"q.l.[.@X+Xt.l.w.Z &.=./  .:.&.&.,.=.,.-.>.E T >.d.b.w.h.,.U.-Xx.k.x.h.l.X.f E ! E R X.^ ^ u.6.e.Q.tXwX&X:X:X@Xc.r.k.s.X.E A f d t 6 C 8.0.>.-.| / R f s S G Z A p Z &.| S B / H B s i g B i + e d f R f ",
"q.l.{.oXoXr.l.f.C P  ./ |  .&.=.>.=.,.-.>.R T >.d.b.x.h.6.Y.$Xz.l.z.k.b...f Y [ [ E ) T a N ' 5.I.rX:X*X>X>X-XU.U.l.s...X.| [ E d r s =.>.=.>.| | A R f G G S A p F &.S S B G &.Z C C A f p + e d f f f "
};
