/* XPM */
static char * guard_xpm[] = {
"168 288 60 1",
" 	c #FFFFFF",
".	c #A8A8A8",
"+	c #8C8C8C",
"@	c #7C7C7C",
"#	c #545454",
"$	c #383838",
"%	c #646464",
"&	c #707070",
"*	c #484848",
"=	c #2C2C2C",
"-	c #C0C0C0",
";	c #D0D0D0",
">	c #202020",
",	c #483818",
"'	c #6C4824",
")	c #885830",
"!	c #000000",
"~	c #A86840",
"{	c #0004FC",
"]	c #FCB080",
"^	c #BC7848",
"/	c #744C28",
"(	c #F0945C",
"_	c #FCBC9C",
":	c #D08050",
"<	c #9C6038",
"[	c #B47044",
"}	c #E88C58",
"|	c #A0643C",
"1	c #FCA470",
"2	c #FCFCFC",
"3	c #DC8854",
"4	c #905C34",
"5	c #FC9C60",
"6	c #80502C",
"7	c #403018",
"8	c #C87C4C",
"9	c #543C1C",
"0	c #382C14",
"a	c #28200C",
"b	c #5C4020",
"c	c #DCDCDC",
"d	c #B4B4B4",
"e	c #989898",
"f	c #FC7800",
"g	c #CC6000",
"h	c #9C4C00",
"i	c #FCC4A4",
"j	c #FCB890",
"k	c #0000A8",
"l	c #00004C",
"m	c #00007C",
"n	c #000070",
"o	c #0000BC",
"p	c #000088",
"q	c #000040",
"r	c #0000D4",
"s	c #0000A4",
"t	c #000064",
"u	c #000058",
"                                                                  ............++++++@@@@@@######$$$$$$                                                                  ",
"                                                                  ............++++++@@@@@@######$$$$$$                                                                  ",
"                                                                  ............++++++@@@@@@######$$$$$$                                                                  ",
"                                                                  ............++++++@@@@@@######$$$$$$                                                                  ",
"                                                                  ............++++++@@@@@@######$$$$$$                                                                  ",
"                                                                  ............++++++@@@@@@######$$$$$$                                                                  ",
"                                                            ............%%%%%%&&&&&&######******============                                                            ",
"                                                            ............%%%%%%&&&&&&######******============                                                            ",
"                                                            ............%%%%%%&&&&&&######******============                                                            ",
"                                                            ............%%%%%%&&&&&&######******============                                                            ",
"                                                            ............%%%%%%&&&&&&######******============                                                            ",
"                                                            ............%%%%%%&&&&&&######******============                                                            ",
"                                                            ++++++@@@@@@&&&&&&&&&&&&##################======                                                            ",
"                                                            ++++++@@@@@@&&&&&&&&&&&&##################======                                                            ",
"                                                            ++++++@@@@@@&&&&&&&&&&&&##################======                                                            ",
"                                                            ++++++@@@@@@&&&&&&&&&&&&##################======                                                            ",
"                                                            ++++++@@@@@@&&&&&&&&&&&&##################======                                                            ",
"                                                            ++++++@@@@@@&&&&&&&&&&&&##################======                                                            ",
"                                                      $$$$$$------;;;;;;------......++++++&&&&&&############======                                                      ",
"                                                      $$$$$$------;;;;;;------......++++++&&&&&&############======                                                      ",
"                                                      $$$$$$------;;;;;;------......++++++&&&&&&############======                                                      ",
"                                                      $$$$$$------;;;;;;------......++++++&&&&&&############======                                                      ",
"                                                      $$$$$$------;;;;;;------......++++++&&&&&&############======                                                      ",
"                                                      $$$$$$------;;;;;;------......++++++&&&&&&############======                                                      ",
"                                                      @@@@@@>>>>>>,,,,,,''''''))))))))))))'''''',,,,,,>>>>>>>>>>>>                                                      ",
"                                                      @@@@@@>>>>>>,,,,,,''''''))))))))))))'''''',,,,,,>>>>>>>>>>>>                                                      ",
"                                                      @@@@@@>>>>>>,,,,,,''''''))))))))))))'''''',,,,,,>>>>>>>>>>>>                                                      ",
"                                                      @@@@@@>>>>>>,,,,,,''''''))))))))))))'''''',,,,,,>>>>>>>>>>>>                                                      ",
"                                                      @@@@@@>>>>>>,,,,,,''''''))))))))))))'''''',,,,,,>>>>>>>>>>>>                                                      ",
"                                                      @@@@@@>>>>>>,,,,,,''''''))))))))))))'''''',,,,,,>>>>>>>>>>>>                                                      ",
"                                                @@@@@@******!!!!!!~~~~~~{{{{{{]]]]]]^^^^^^{{{{{{~~~~~~!!!!!!>>>>>>>>>>>>                                                ",
"                                                @@@@@@******!!!!!!~~~~~~{{{{{{]]]]]]^^^^^^{{{{{{~~~~~~!!!!!!>>>>>>>>>>>>                                                ",
"                                                @@@@@@******!!!!!!~~~~~~{{{{{{]]]]]]^^^^^^{{{{{{~~~~~~!!!!!!>>>>>>>>>>>>                                                ",
"                                                @@@@@@******!!!!!!~~~~~~{{{{{{]]]]]]^^^^^^{{{{{{~~~~~~!!!!!!>>>>>>>>>>>>                                                ",
"                                                @@@@@@******!!!!!!~~~~~~{{{{{{]]]]]]^^^^^^{{{{{{~~~~~~!!!!!!>>>>>>>>>>>>                                                ",
"                                                @@@@@@******!!!!!!~~~~~~{{{{{{]]]]]]^^^^^^{{{{{{~~~~~~!!!!!!>>>>>>>>>>>>                                                ",
"                                                !!!!!!>>>>>>//////((((((______^^^^^^~~~~~~______((((((//////>>>>>>>>>>>>                                                ",
"                                                !!!!!!>>>>>>//////((((((______^^^^^^~~~~~~______((((((//////>>>>>>>>>>>>                                                ",
"                                                !!!!!!>>>>>>//////((((((______^^^^^^~~~~~~______((((((//////>>>>>>>>>>>>                                                ",
"                                                !!!!!!>>>>>>//////((((((______^^^^^^~~~~~~______((((((//////>>>>>>>>>>>>                                                ",
"                                                !!!!!!>>>>>>//////((((((______^^^^^^~~~~~~______((((((//////>>>>>>>>>>>>                                                ",
"                                                !!!!!!>>>>>>//////((((((______^^^^^^~~~~~~______((((((//////>>>>>>>>>>>>                                                ",
"                                                      >>>>>>,,,,,,::::::]]]]]]((((((((((((]]]]]]::::::,,,,,,>>>>>>                                                      ",
"                                                      >>>>>>,,,,,,::::::]]]]]]((((((((((((]]]]]]::::::,,,,,,>>>>>>                                                      ",
"                                                      >>>>>>,,,,,,::::::]]]]]]((((((((((((]]]]]]::::::,,,,,,>>>>>>                                                      ",
"                                                      >>>>>>,,,,,,::::::]]]]]]((((((((((((]]]]]]::::::,,,,,,>>>>>>                                                      ",
"                                                      >>>>>>,,,,,,::::::]]]]]]((((((((((((]]]]]]::::::,,,,,,>>>>>>                                                      ",
"                                                      >>>>>>,,,,,,::::::]]]]]]((((((((((((]]]]]]::::::,,,,,,>>>>>>                                                      ",
"                                                            ,,,,,,<<<<<<[[[[[[,,,,,,,,,,,,[[[[[[<<<<<<,,,,,,                                                            ",
"                                                            ,,,,,,<<<<<<[[[[[[,,,,,,,,,,,,[[[[[[<<<<<<,,,,,,                                                            ",
"                                                            ,,,,,,<<<<<<[[[[[[,,,,,,,,,,,,[[[[[[<<<<<<,,,,,,                                                            ",
"                                                            ,,,,,,<<<<<<[[[[[[,,,,,,,,,,,,[[[[[[<<<<<<,,,,,,                                                            ",
"                                                            ,,,,,,<<<<<<[[[[[[,,,,,,,,,,,,[[[[[[<<<<<<,,,,,,                                                            ",
"                                                            ,,,,,,<<<<<<[[[[[[,,,,,,,,,,,,[[[[[[<<<<<<,,,,,,                                                            ",
"                                                            !!!!!!<<<<<<}}}}}}]]]]]]]]]]]]}}}}}},,,,,,!!!!!!                                                            ",
"                                                            !!!!!!<<<<<<}}}}}}]]]]]]]]]]]]}}}}}},,,,,,!!!!!!                                                            ",
"                                                            !!!!!!<<<<<<}}}}}}]]]]]]]]]]]]}}}}}},,,,,,!!!!!!                                                            ",
"                                                            !!!!!!<<<<<<}}}}}}]]]]]]]]]]]]}}}}}},,,,,,!!!!!!                                                            ",
"                                                            !!!!!!<<<<<<}}}}}}]]]]]]]]]]]]}}}}}},,,,,,!!!!!!                                                            ",
"                                                            !!!!!!<<<<<<}}}}}}]]]]]]]]]]]]}}}}}},,,,,,!!!!!!                                                            ",
"                                                      !!!!!!!!!!!!!!!!!!''''''||||||||||||||||||!!!!!!!!!!!!!!!!!!                                                      ",
"                                                      !!!!!!!!!!!!!!!!!!''''''||||||||||||||||||!!!!!!!!!!!!!!!!!!                                                      ",
"                                                      !!!!!!!!!!!!!!!!!!''''''||||||||||||||||||!!!!!!!!!!!!!!!!!!                                                      ",
"                                                      !!!!!!!!!!!!!!!!!!''''''||||||||||||||||||!!!!!!!!!!!!!!!!!!                                                      ",
"                                                      !!!!!!!!!!!!!!!!!!''''''||||||||||||||||||!!!!!!!!!!!!!!!!!!                                                      ",
"                                                      !!!!!!!!!!!!!!!!!!''''''||||||||||||||||||!!!!!!!!!!!!!!!!!!                                                      ",
"                                    [[[[[[111111%%%%%%!!!!!!222222&&&&&&!!!!!!''''''333333!!!!!!&&&&&&;;;;;;!!!!!!444444444444444444                                    ",
"                                    [[[[[[111111%%%%%%!!!!!!222222&&&&&&!!!!!!''''''333333!!!!!!&&&&&&;;;;;;!!!!!!444444444444444444                                    ",
"                                    [[[[[[111111%%%%%%!!!!!!222222&&&&&&!!!!!!''''''333333!!!!!!&&&&&&;;;;;;!!!!!!444444444444444444                                    ",
"                                    [[[[[[111111%%%%%%!!!!!!222222&&&&&&!!!!!!''''''333333!!!!!!&&&&&&;;;;;;!!!!!!444444444444444444                                    ",
"                                    [[[[[[111111%%%%%%!!!!!!222222&&&&&&!!!!!!''''''333333!!!!!!&&&&&&;;;;;;!!!!!!444444444444444444                                    ",
"                                    [[[[[[111111%%%%%%!!!!!!222222&&&&&&!!!!!!''''''333333!!!!!!&&&&&&;;;;;;!!!!!!444444444444444444                                    ",
"                              111111555555111111%%%%%%$$$$$$&&&&&&;;;;;;!!!!!!!!!!!!!!!!!!!!!!!!;;;;;;&&&&&&[[[[[[::::::::::::::::::~~~~~~                              ",
"                              111111555555111111%%%%%%$$$$$$&&&&&&;;;;;;!!!!!!!!!!!!!!!!!!!!!!!!;;;;;;&&&&&&[[[[[[::::::::::::::::::~~~~~~                              ",
"                              111111555555111111%%%%%%$$$$$$&&&&&&;;;;;;!!!!!!!!!!!!!!!!!!!!!!!!;;;;;;&&&&&&[[[[[[::::::::::::::::::~~~~~~                              ",
"                              111111555555111111%%%%%%$$$$$$&&&&&&;;;;;;!!!!!!!!!!!!!!!!!!!!!!!!;;;;;;&&&&&&[[[[[[::::::::::::::::::~~~~~~                              ",
"                              111111555555111111%%%%%%$$$$$$&&&&&&;;;;;;!!!!!!!!!!!!!!!!!!!!!!!!;;;;;;&&&&&&[[[[[[::::::::::::::::::~~~~~~                              ",
"                              111111555555111111%%%%%%$$$$$$&&&&&&;;;;;;!!!!!!!!!!!!!!!!!!!!!!!!;;;;;;&&&&&&[[[[[[::::::::::::::::::~~~~~~                              ",
"                        111111((((((::::::555555333333%%%%%%666666!!!!!!******666666777777666666!!!!!![[[[[[((((((((((((((((((888888::::::~~~~~~                        ",
"                        111111((((((::::::555555333333%%%%%%666666!!!!!!******666666777777666666!!!!!![[[[[[((((((((((((((((((888888::::::~~~~~~                        ",
"                        111111((((((::::::555555333333%%%%%%666666!!!!!!******666666777777666666!!!!!![[[[[[((((((((((((((((((888888::::::~~~~~~                        ",
"                        111111((((((::::::555555333333%%%%%%666666!!!!!!******666666777777666666!!!!!![[[[[[((((((((((((((((((888888::::::~~~~~~                        ",
"                        111111((((((::::::555555333333%%%%%%666666!!!!!!******666666777777666666!!!!!![[[[[[((((((((((((((((((888888::::::~~~~~~                        ",
"                        111111((((((::::::555555333333%%%%%%666666!!!!!!******666666777777666666!!!!!![[[[[[((((((((((((((((((888888::::::~~~~~~                        ",
"                  111111((((((::::::<<<<<<333333555555$$$$$$%%%%%%666666555555555555~~~~~~555555555555555555555555555555888888::::::}}}}}}::::::                        ",
"                  111111((((((::::::<<<<<<333333555555$$$$$$%%%%%%666666555555555555~~~~~~555555555555555555555555555555888888::::::}}}}}}::::::                        ",
"                  111111((((((::::::<<<<<<333333555555$$$$$$%%%%%%666666555555555555~~~~~~555555555555555555555555555555888888::::::}}}}}}::::::                        ",
"                  111111((((((::::::<<<<<<333333555555$$$$$$%%%%%%666666555555555555~~~~~~555555555555555555555555555555888888::::::}}}}}}::::::                        ",
"                  111111((((((::::::<<<<<<333333555555$$$$$$%%%%%%666666555555555555~~~~~~555555555555555555555555555555888888::::::}}}}}}::::::                        ",
"                  111111((((((::::::<<<<<<333333555555$$$$$$%%%%%%666666555555555555~~~~~~555555555555555555555555555555888888::::::}}}}}}::::::                        ",
"            111111((((((::::::~~~~~~666666999999333333555555$$$$$$$$$$$$555555555555//////555555<<<<<<<<<<<<))))))//////888888//////888888}}}}}}::::::                  ",
"            111111((((((::::::~~~~~~666666999999333333555555$$$$$$$$$$$$555555555555//////555555<<<<<<<<<<<<))))))//////888888//////888888}}}}}}::::::                  ",
"            111111((((((::::::~~~~~~666666999999333333555555$$$$$$$$$$$$555555555555//////555555<<<<<<<<<<<<))))))//////888888//////888888}}}}}}::::::                  ",
"            111111((((((::::::~~~~~~666666999999333333555555$$$$$$$$$$$$555555555555//////555555<<<<<<<<<<<<))))))//////888888//////888888}}}}}}::::::                  ",
"            111111((((((::::::~~~~~~666666999999333333555555$$$$$$$$$$$$555555555555//////555555<<<<<<<<<<<<))))))//////888888//////888888}}}}}}::::::                  ",
"            111111((((((::::::~~~~~~666666999999333333555555$$$$$$$$$$$$555555555555//////555555<<<<<<<<<<<<))))))//////888888//////888888}}}}}}::::::                  ",
"      111111((((((::::::~~~~~~//////000000000000||||||[[[[[[::::::>>>>>>$$$$$$::::::777777555555<<<<<<555555555555999999666666//////~~~~~~::::::}}}}}}~~~~~~            ",
"      111111((((((::::::~~~~~~//////000000000000||||||[[[[[[::::::>>>>>>$$$$$$::::::777777555555<<<<<<555555555555999999666666//////~~~~~~::::::}}}}}}~~~~~~            ",
"      111111((((((::::::~~~~~~//////000000000000||||||[[[[[[::::::>>>>>>$$$$$$::::::777777555555<<<<<<555555555555999999666666//////~~~~~~::::::}}}}}}~~~~~~            ",
"      111111((((((::::::~~~~~~//////000000000000||||||[[[[[[::::::>>>>>>$$$$$$::::::777777555555<<<<<<555555555555999999666666//////~~~~~~::::::}}}}}}~~~~~~            ",
"      111111((((((::::::~~~~~~//////000000000000||||||[[[[[[::::::>>>>>>$$$$$$::::::777777555555<<<<<<555555555555999999666666//////~~~~~~::::::}}}}}}~~~~~~            ",
"      111111((((((::::::~~~~~~//////000000000000||||||[[[[[[::::::>>>>>>$$$$$$::::::777777555555<<<<<<555555555555999999666666//////~~~~~~::::::}}}}}}~~~~~~            ",
"      ::::::<<<<<<''''''666666000000000000      //////||||||::::::::::::>>>>>>$$$$$$$$$$$$::::::))))))444444444444777777777777aaaaaa444444::::::}}}}}}::::::''''''      ",
"      ::::::<<<<<<''''''666666000000000000      //////||||||::::::::::::>>>>>>$$$$$$$$$$$$::::::))))))444444444444777777777777aaaaaa444444::::::}}}}}}::::::''''''      ",
"      ::::::<<<<<<''''''666666000000000000      //////||||||::::::::::::>>>>>>$$$$$$$$$$$$::::::))))))444444444444777777777777aaaaaa444444::::::}}}}}}::::::''''''      ",
"      ::::::<<<<<<''''''666666000000000000      //////||||||::::::::::::>>>>>>$$$$$$$$$$$$::::::))))))444444444444777777777777aaaaaa444444::::::}}}}}}::::::''''''      ",
"      ::::::<<<<<<''''''666666000000000000      //////||||||::::::::::::>>>>>>$$$$$$$$$$$$::::::))))))444444444444777777777777aaaaaa444444::::::}}}}}}::::::''''''      ",
"      ::::::<<<<<<''''''666666000000000000      //////||||||::::::::::::>>>>>>$$$$$$$$$$$$::::::))))))444444444444777777777777aaaaaa444444::::::}}}}}}::::::''''''      ",
"((((((111111111111^^^^^^000000                  bbbbbb//////[[[[[[::::::::::::!!!!!!>>>>>>$$$$$$[[[[[[//////777777666666777777aaaaaa444444~~~~~~[[[[[[}}}}}}~~~~~~      ",
"((((((111111111111^^^^^^000000                  bbbbbb//////[[[[[[::::::::::::!!!!!!>>>>>>$$$$$$[[[[[[//////777777666666777777aaaaaa444444~~~~~~[[[[[[}}}}}}~~~~~~      ",
"((((((111111111111^^^^^^000000                  bbbbbb//////[[[[[[::::::::::::!!!!!!>>>>>>$$$$$$[[[[[[//////777777666666777777aaaaaa444444~~~~~~[[[[[[}}}}}}~~~~~~      ",
"((((((111111111111^^^^^^000000                  bbbbbb//////[[[[[[::::::::::::!!!!!!>>>>>>$$$$$$[[[[[[//////777777666666777777aaaaaa444444~~~~~~[[[[[[}}}}}}~~~~~~      ",
"((((((111111111111^^^^^^000000                  bbbbbb//////[[[[[[::::::::::::!!!!!!>>>>>>$$$$$$[[[[[[//////777777666666777777aaaaaa444444~~~~~~[[[[[[}}}}}}~~~~~~      ",
"((((((111111111111^^^^^^000000                  bbbbbb//////[[[[[[::::::::::::!!!!!!>>>>>>$$$$$$[[[[[[//////777777666666777777aaaaaa444444~~~~~~[[[[[[}}}}}}~~~~~~      ",
"((((((111111~~~~~~666666000000                        bbbbbb||||||::::::))))))::::::!!!!!!!!!!!!>>>>>>$$$$$$[[[[[[666666aaaaaa000000''''''000000666666~~~~~~::::::''''''",
"((((((111111~~~~~~666666000000                        bbbbbb||||||::::::))))))::::::!!!!!!!!!!!!>>>>>>$$$$$$[[[[[[666666aaaaaa000000''''''000000666666~~~~~~::::::''''''",
"((((((111111~~~~~~666666000000                        bbbbbb||||||::::::))))))::::::!!!!!!!!!!!!>>>>>>$$$$$$[[[[[[666666aaaaaa000000''''''000000666666~~~~~~::::::''''''",
"((((((111111~~~~~~666666000000                        bbbbbb||||||::::::))))))::::::!!!!!!!!!!!!>>>>>>$$$$$$[[[[[[666666aaaaaa000000''''''000000666666~~~~~~::::::''''''",
"((((((111111~~~~~~666666000000                        bbbbbb||||||::::::))))))::::::!!!!!!!!!!!!>>>>>>$$$$$$[[[[[[666666aaaaaa000000''''''000000666666~~~~~~::::::''''''",
"((((((111111~~~~~~666666000000                        bbbbbb||||||::::::))))))::::::!!!!!!!!!!!!>>>>>>$$$$$$[[[[[[666666aaaaaa000000''''''000000666666~~~~~~::::::''''''",
"||||||111111111111::::::<<<<<<000000                  ,,,,,,||||||[[[[[[))))))||||||!!!!!!::::::!!!!!!!!!!!!!!!!!!,,,,,,aaaaaa      aaaaaabbbbbb}}}}}}}}}}}}::::::''''''",
"||||||111111111111::::::<<<<<<000000                  ,,,,,,||||||[[[[[[))))))||||||!!!!!!::::::!!!!!!!!!!!!!!!!!!,,,,,,aaaaaa      aaaaaabbbbbb}}}}}}}}}}}}::::::''''''",
"||||||111111111111::::::<<<<<<000000                  ,,,,,,||||||[[[[[[))))))||||||!!!!!!::::::!!!!!!!!!!!!!!!!!!,,,,,,aaaaaa      aaaaaabbbbbb}}}}}}}}}}}}::::::''''''",
"||||||111111111111::::::<<<<<<000000                  ,,,,,,||||||[[[[[[))))))||||||!!!!!!::::::!!!!!!!!!!!!!!!!!!,,,,,,aaaaaa      aaaaaabbbbbb}}}}}}}}}}}}::::::''''''",
"||||||111111111111::::::<<<<<<000000                  ,,,,,,||||||[[[[[[))))))||||||!!!!!!::::::!!!!!!!!!!!!!!!!!!,,,,,,aaaaaa      aaaaaabbbbbb}}}}}}}}}}}}::::::''''''",
"||||||111111111111::::::<<<<<<000000                  ,,,,,,||||||[[[[[[))))))||||||!!!!!!::::::!!!!!!!!!!!!!!!!!!,,,,,,aaaaaa      aaaaaabbbbbb}}}}}}}}}}}}::::::''''''",
"444444((((((999999999999999999!!!!!!            !!!!!!>>>>>>>>>>>>$$$$$$$$$$$$ccccccddddddeeeeee$$$$$$============>>>>>>!!!!!!            ,,,,,,''''''444444^^^^^^''''''",
"444444((((((999999999999999999!!!!!!            !!!!!!>>>>>>>>>>>>$$$$$$$$$$$$ccccccddddddeeeeee$$$$$$============>>>>>>!!!!!!            ,,,,,,''''''444444^^^^^^''''''",
"444444((((((999999999999999999!!!!!!            !!!!!!>>>>>>>>>>>>$$$$$$$$$$$$ccccccddddddeeeeee$$$$$$============>>>>>>!!!!!!            ,,,,,,''''''444444^^^^^^''''''",
"444444((((((999999999999999999!!!!!!            !!!!!!>>>>>>>>>>>>$$$$$$$$$$$$ccccccddddddeeeeee$$$$$$============>>>>>>!!!!!!            ,,,,,,''''''444444^^^^^^''''''",
"444444((((((999999999999999999!!!!!!            !!!!!!>>>>>>>>>>>>$$$$$$$$$$$$ccccccddddddeeeeee$$$$$$============>>>>>>!!!!!!            ,,,,,,''''''444444^^^^^^''''''",
"444444((((((999999999999999999!!!!!!            !!!!!!>>>>>>>>>>>>$$$$$$$$$$$$ccccccddddddeeeeee$$$$$$============>>>>>>!!!!!!            ,,,,,,''''''444444^^^^^^''''''",
"      999999[[[[[[((((((]]]]]]}}}}}}bbbbbb((((((((((((666666000000============@@@@@@@@@@@@******>>>>>>>>>>>>>>>>>>!!!!!!!!!!!!            ,,,,,,~~~~~~::::::^^^^^^      ",
"      999999[[[[[[((((((]]]]]]}}}}}}bbbbbb((((((((((((666666000000============@@@@@@@@@@@@******>>>>>>>>>>>>>>>>>>!!!!!!!!!!!!            ,,,,,,~~~~~~::::::^^^^^^      ",
"      999999[[[[[[((((((]]]]]]}}}}}}bbbbbb((((((((((((666666000000============@@@@@@@@@@@@******>>>>>>>>>>>>>>>>>>!!!!!!!!!!!!            ,,,,,,~~~~~~::::::^^^^^^      ",
"      999999[[[[[[((((((]]]]]]}}}}}}bbbbbb((((((((((((666666000000============@@@@@@@@@@@@******>>>>>>>>>>>>>>>>>>!!!!!!!!!!!!            ,,,,,,~~~~~~::::::^^^^^^      ",
"      999999[[[[[[((((((]]]]]]}}}}}}bbbbbb((((((((((((666666000000============@@@@@@@@@@@@******>>>>>>>>>>>>>>>>>>!!!!!!!!!!!!            ,,,,,,~~~~~~::::::^^^^^^      ",
"      999999[[[[[[((((((]]]]]]}}}}}}bbbbbb((((((((((((666666000000============@@@@@@@@@@@@******>>>>>>>>>>>>>>>>>>!!!!!!!!!!!!            ,,,,,,~~~~~~::::::^^^^^^      ",
"      //////[[[[[[]]]]]]444444>>>>>>******bbbbbb[[[[[[(((((([[[[[[777777^^^^^^666666!!!!!![[[[[[<<<<<<[[[[[[||||||,,,,,,bbbbbb777777      aaaaaa666666444444666666      ",
"      //////[[[[[[]]]]]]444444>>>>>>******bbbbbb[[[[[[(((((([[[[[[777777^^^^^^666666!!!!!![[[[[[<<<<<<[[[[[[||||||,,,,,,bbbbbb777777      aaaaaa666666444444666666      ",
"      //////[[[[[[]]]]]]444444>>>>>>******bbbbbb[[[[[[(((((([[[[[[777777^^^^^^666666!!!!!![[[[[[<<<<<<[[[[[[||||||,,,,,,bbbbbb777777      aaaaaa666666444444666666      ",
"      //////[[[[[[]]]]]]444444>>>>>>******bbbbbb[[[[[[(((((([[[[[[777777^^^^^^666666!!!!!![[[[[[<<<<<<[[[[[[||||||,,,,,,bbbbbb777777      aaaaaa666666444444666666      ",
"      //////[[[[[[]]]]]]444444>>>>>>******bbbbbb[[[[[[(((((([[[[[[777777^^^^^^666666!!!!!![[[[[[<<<<<<[[[[[[||||||,,,,,,bbbbbb777777      aaaaaa666666444444666666      ",
"      //////[[[[[[]]]]]]444444>>>>>>******bbbbbb[[[[[[(((((([[[[[[777777^^^^^^666666!!!!!![[[[[[<<<<<<[[[[[[||||||,,,,,,bbbbbb777777      aaaaaa666666444444666666      ",
"            //////((((((::::::******......ffffffbbbbbb666666::::::[[[[[[777777666666!!!!!![[[[[[::::::::::::[[[[[[666666777777777777      aaaaaa,,,,,,,,,,,,||||||      ",
"            //////((((((::::::******......ffffffbbbbbb666666::::::[[[[[[777777666666!!!!!![[[[[[::::::::::::[[[[[[666666777777777777      aaaaaa,,,,,,,,,,,,||||||      ",
"            //////((((((::::::******......ffffffbbbbbb666666::::::[[[[[[777777666666!!!!!![[[[[[::::::::::::[[[[[[666666777777777777      aaaaaa,,,,,,,,,,,,||||||      ",
"            //////((((((::::::******......ffffffbbbbbb666666::::::[[[[[[777777666666!!!!!![[[[[[::::::::::::[[[[[[666666777777777777      aaaaaa,,,,,,,,,,,,||||||      ",
"            //////((((((::::::******......ffffffbbbbbb666666::::::[[[[[[777777666666!!!!!![[[[[[::::::::::::[[[[[[666666777777777777      aaaaaa,,,,,,,,,,,,||||||      ",
"            //////((((((::::::******......ffffffbbbbbb666666::::::[[[[[[777777666666!!!!!![[[[[[::::::::::::[[[[[[666666777777777777      aaaaaa,,,,,,,,,,,,||||||      ",
"                  ////////////>>>>>>&&&&&&......ggggggbbbbbbbbbbbb444444444444666666!!!!!!<<<<<<::::::::::::[[[[[[444444''''''777777      ]]]]]]((((((~~~~~~,,,,,,      ",
"                  ////////////>>>>>>&&&&&&......ggggggbbbbbbbbbbbb444444444444666666!!!!!!<<<<<<::::::::::::[[[[[[444444''''''777777      ]]]]]]((((((~~~~~~,,,,,,      ",
"                  ////////////>>>>>>&&&&&&......ggggggbbbbbbbbbbbb444444444444666666!!!!!!<<<<<<::::::::::::[[[[[[444444''''''777777      ]]]]]]((((((~~~~~~,,,,,,      ",
"                  ////////////>>>>>>&&&&&&......ggggggbbbbbbbbbbbb444444444444666666!!!!!!<<<<<<::::::::::::[[[[[[444444''''''777777      ]]]]]]((((((~~~~~~,,,,,,      ",
"                  ////////////>>>>>>&&&&&&......ggggggbbbbbbbbbbbb444444444444666666!!!!!!<<<<<<::::::::::::[[[[[[444444''''''777777      ]]]]]]((((((~~~~~~,,,,,,      ",
"                  ////////////>>>>>>&&&&&&......ggggggbbbbbbbbbbbb444444444444666666!!!!!!<<<<<<::::::::::::[[[[[[444444''''''777777      ]]]]]]((((((~~~~~~,,,,,,      ",
"                                    >>>>>>hhhhhhhhhhhhgggggg777777aaaaaaaaaaaabbbbbb!!!!!!<<<<<<::::::::::::[[[[[[||||||''''''777777      000000<<<<<<::::::            ",
"                                    >>>>>>hhhhhhhhhhhhgggggg777777aaaaaaaaaaaabbbbbb!!!!!!<<<<<<::::::::::::[[[[[[||||||''''''777777      000000<<<<<<::::::            ",
"                                    >>>>>>hhhhhhhhhhhhgggggg777777aaaaaaaaaaaabbbbbb!!!!!!<<<<<<::::::::::::[[[[[[||||||''''''777777      000000<<<<<<::::::            ",
"                                    >>>>>>hhhhhhhhhhhhgggggg777777aaaaaaaaaaaabbbbbb!!!!!!<<<<<<::::::::::::[[[[[[||||||''''''777777      000000<<<<<<::::::            ",
"                                    >>>>>>hhhhhhhhhhhhgggggg777777aaaaaaaaaaaabbbbbb!!!!!!<<<<<<::::::::::::[[[[[[||||||''''''777777      000000<<<<<<::::::            ",
"                                    >>>>>>hhhhhhhhhhhhgggggg777777aaaaaaaaaaaabbbbbb!!!!!!<<<<<<::::::::::::[[[[[[||||||''''''777777      000000<<<<<<::::::            ",
"                                          >>>>>>hhhhhhhhhhhh777777bbbbbb777777aaaaaa!!!!!!<<<<<<::::::::::::[[[[[[||||||''''''777777,,,,,,::::::::::::                  ",
"                                          >>>>>>hhhhhhhhhhhh777777bbbbbb777777aaaaaa!!!!!!<<<<<<::::::::::::[[[[[[||||||''''''777777,,,,,,::::::::::::                  ",
"                                          >>>>>>hhhhhhhhhhhh777777bbbbbb777777aaaaaa!!!!!!<<<<<<::::::::::::[[[[[[||||||''''''777777,,,,,,::::::::::::                  ",
"                                          >>>>>>hhhhhhhhhhhh777777bbbbbb777777aaaaaa!!!!!!<<<<<<::::::::::::[[[[[[||||||''''''777777,,,,,,::::::::::::                  ",
"                                          >>>>>>hhhhhhhhhhhh777777bbbbbb777777aaaaaa!!!!!!<<<<<<::::::::::::[[[[[[||||||''''''777777,,,,,,::::::::::::                  ",
"                                          >>>>>>hhhhhhhhhhhh777777bbbbbb777777aaaaaa!!!!!!<<<<<<::::::::::::[[[[[[||||||''''''777777,,,,,,::::::::::::                  ",
"                                                000000bbbbbb777777bbbbbbbbbbbb000000000000000000000000000000000000000000000000aaaaaa                                    ",
"                                                000000bbbbbb777777bbbbbbbbbbbb000000000000000000000000000000000000000000000000aaaaaa                                    ",
"                                                000000bbbbbb777777bbbbbbbbbbbb000000000000000000000000000000000000000000000000aaaaaa                                    ",
"                                                000000bbbbbb777777bbbbbbbbbbbb000000000000000000000000000000000000000000000000aaaaaa                                    ",
"                                                000000bbbbbb777777bbbbbbbbbbbb000000000000000000000000000000000000000000000000aaaaaa                                    ",
"                                                000000bbbbbb777777bbbbbbbbbbbb000000000000000000000000000000000000000000000000aaaaaa                                    ",
"                                                ^^^^^^<<<<<<~~~~~~<<<<<<666666bbbbbb000000666666666666666666666666bbbbbbbbbbbbaaaaaa                                    ",
"                                                ^^^^^^<<<<<<~~~~~~<<<<<<666666bbbbbb000000666666666666666666666666bbbbbbbbbbbbaaaaaa                                    ",
"                                                ^^^^^^<<<<<<~~~~~~<<<<<<666666bbbbbb000000666666666666666666666666bbbbbbbbbbbbaaaaaa                                    ",
"                                                ^^^^^^<<<<<<~~~~~~<<<<<<666666bbbbbb000000666666666666666666666666bbbbbbbbbbbbaaaaaa                                    ",
"                                                ^^^^^^<<<<<<~~~~~~<<<<<<666666bbbbbb000000666666666666666666666666bbbbbbbbbbbbaaaaaa                                    ",
"                                                ^^^^^^<<<<<<~~~~~~<<<<<<666666bbbbbb000000666666666666666666666666bbbbbbbbbbbbaaaaaa                                    ",
"                                          ^^^^^^((((((111111((((((~~~~~~<<<<<<//////000000//////}}}}}}::::::||||||||||||bbbbbbaaaaaa                                    ",
"                                          ^^^^^^((((((111111((((((~~~~~~<<<<<<//////000000//////}}}}}}::::::||||||||||||bbbbbbaaaaaa                                    ",
"                                          ^^^^^^((((((111111((((((~~~~~~<<<<<<//////000000//////}}}}}}::::::||||||||||||bbbbbbaaaaaa                                    ",
"                                          ^^^^^^((((((111111((((((~~~~~~<<<<<<//////000000//////}}}}}}::::::||||||||||||bbbbbbaaaaaa                                    ",
"                                          ^^^^^^((((((111111((((((~~~~~~<<<<<<//////000000//////}}}}}}::::::||||||||||||bbbbbbaaaaaa                                    ",
"                                          ^^^^^^((((((111111((((((~~~~~~<<<<<<//////000000//////}}}}}}::::::||||||||||||bbbbbbaaaaaa                                    ",
"                                          ((((((((((((111111((((((::::::~~~~~~000000      000000}}}}}}::::::::::::||||||||||||aaaaaa                                    ",
"                                          ((((((((((((111111((((((::::::~~~~~~000000      000000}}}}}}::::::::::::||||||||||||aaaaaa                                    ",
"                                          ((((((((((((111111((((((::::::~~~~~~000000      000000}}}}}}::::::::::::||||||||||||aaaaaa                                    ",
"                                          ((((((((((((111111((((((::::::~~~~~~000000      000000}}}}}}::::::::::::||||||||||||aaaaaa                                    ",
"                                          ((((((((((((111111((((((::::::~~~~~~000000      000000}}}}}}::::::::::::||||||||||||aaaaaa                                    ",
"                                          ((((((((((((111111((((((::::::~~~~~~000000      000000}}}}}}::::::::::::||||||||||||aaaaaa                                    ",
"                                    ^^^^^^((((((111111((((((::::::~~~~~~666666000000      ,,,,,,||||||111111::::::||||||999999aaaaaa                                    ",
"                                    ^^^^^^((((((111111((((((::::::~~~~~~666666000000      ,,,,,,||||||111111::::::||||||999999aaaaaa                                    ",
"                                    ^^^^^^((((((111111((((((::::::~~~~~~666666000000      ,,,,,,||||||111111::::::||||||999999aaaaaa                                    ",
"                                    ^^^^^^((((((111111((((((::::::~~~~~~666666000000      ,,,,,,||||||111111::::::||||||999999aaaaaa                                    ",
"                                    ^^^^^^((((((111111((((((::::::~~~~~~666666000000      ,,,,,,||||||111111::::::||||||999999aaaaaa                                    ",
"                                    ^^^^^^((((((111111((((((::::::~~~~~~666666000000      ,,,,,,||||||111111::::::||||||999999aaaaaa                                    ",
"                                    ^^^^^^((((((iiiiii::::::666666666666000000000000      000000))))))111111::::::||||||''''''777777                                    ",
"                                    ^^^^^^((((((iiiiii::::::666666666666000000000000      000000))))))111111::::::||||||''''''777777                                    ",
"                                    ^^^^^^((((((iiiiii::::::666666666666000000000000      000000))))))111111::::::||||||''''''777777                                    ",
"                                    ^^^^^^((((((iiiiii::::::666666666666000000000000      000000))))))111111::::::||||||''''''777777                                    ",
"                                    ^^^^^^((((((iiiiii::::::666666666666000000000000      000000))))))111111::::::||||||''''''777777                                    ",
"                                    ^^^^^^((((((iiiiii::::::666666666666000000000000      000000))))))111111::::::||||||''''''777777                                    ",
"                              ^^^^^^((((((iiiiii]]]]]]111111~~~~~~999999000000            666666^^^^^^}}}}}}111111||||||666666aaaaaa                                    ",
"                              ^^^^^^((((((iiiiii]]]]]]111111~~~~~~999999000000            666666^^^^^^}}}}}}111111||||||666666aaaaaa                                    ",
"                              ^^^^^^((((((iiiiii]]]]]]111111~~~~~~999999000000            666666^^^^^^}}}}}}111111||||||666666aaaaaa                                    ",
"                              ^^^^^^((((((iiiiii]]]]]]111111~~~~~~999999000000            666666^^^^^^}}}}}}111111||||||666666aaaaaa                                    ",
"                              ^^^^^^((((((iiiiii]]]]]]111111~~~~~~999999000000            666666^^^^^^}}}}}}111111||||||666666aaaaaa                                    ",
"                              ^^^^^^((((((iiiiii]]]]]]111111~~~~~~999999000000            666666^^^^^^}}}}}}111111||||||666666aaaaaa                                    ",
"                              888888((((((]]]]]]<<<<<<~~~~~~111111666666777777            000000,,,,,,]]]]]]jjjjjj111111888888999999aaaaaa                              ",
"                              888888((((((]]]]]]<<<<<<~~~~~~111111666666777777            000000,,,,,,]]]]]]jjjjjj111111888888999999aaaaaa                              ",
"                              888888((((((]]]]]]<<<<<<~~~~~~111111666666777777            000000,,,,,,]]]]]]jjjjjj111111888888999999aaaaaa                              ",
"                              888888((((((]]]]]]<<<<<<~~~~~~111111666666777777            000000,,,,,,]]]]]]jjjjjj111111888888999999aaaaaa                              ",
"                              888888((((((]]]]]]<<<<<<~~~~~~111111666666777777            000000,,,,,,]]]]]]jjjjjj111111888888999999aaaaaa                              ",
"                              888888((((((]]]]]]<<<<<<~~~~~~111111666666777777            000000,,,,,,]]]]]]jjjjjj111111888888999999aaaaaa                              ",
"                              888888((((((111111((((((666666777777777777                        ,,,,,,^^^^^^~~~~~~444444666666999999aaaaaa                              ",
"                              888888((((((111111((((((666666777777777777                        ,,,,,,^^^^^^~~~~~~444444666666999999aaaaaa                              ",
"                              888888((((((111111((((((666666777777777777                        ,,,,,,^^^^^^~~~~~~444444666666999999aaaaaa                              ",
"                              888888((((((111111((((((666666777777777777                        ,,,,,,^^^^^^~~~~~~444444666666999999aaaaaa                              ",
"                              888888((((((111111((((((666666777777777777                        ,,,,,,^^^^^^~~~~~~444444666666999999aaaaaa                              ",
"                              888888((((((111111((((((666666777777777777                        ,,,,,,^^^^^^~~~~~~444444666666999999aaaaaa                              ",
"                              ((((((111111((((((::::::~~~~~~666666000000                  000000444444}}}}}}111111::::::||||||999999aaaaaa                              ",
"                              ((((((111111((((((::::::~~~~~~666666000000                  000000444444}}}}}}111111::::::||||||999999aaaaaa                              ",
"                              ((((((111111((((((::::::~~~~~~666666000000                  000000444444}}}}}}111111::::::||||||999999aaaaaa                              ",
"                              ((((((111111((((((::::::~~~~~~666666000000                  000000444444}}}}}}111111::::::||||||999999aaaaaa                              ",
"                              ((((((111111((((((::::::~~~~~~666666000000                  000000444444}}}}}}111111::::::||||||999999aaaaaa                              ",
"                              ((((((111111((((((::::::~~~~~~666666000000                  000000444444}}}}}}111111::::::||||||999999aaaaaa                              ",
"                              666666^^^^^^<<<<<<666666999999aaaaaa000000                  000000,,,,,,444444~~~~~~))))))''''''777777aaaaaa                              ",
"                              666666^^^^^^<<<<<<666666999999aaaaaa000000                  000000,,,,,,444444~~~~~~))))))''''''777777aaaaaa                              ",
"                              666666^^^^^^<<<<<<666666999999aaaaaa000000                  000000,,,,,,444444~~~~~~))))))''''''777777aaaaaa                              ",
"                              666666^^^^^^<<<<<<666666999999aaaaaa000000                  000000,,,,,,444444~~~~~~))))))''''''777777aaaaaa                              ",
"                              666666^^^^^^<<<<<<666666999999aaaaaa000000                  000000,,,,,,444444~~~~~~))))))''''''777777aaaaaa                              ",
"                              666666^^^^^^<<<<<<666666999999aaaaaa000000                  000000,,,,,,444444~~~~~~))))))''''''777777aaaaaa                              ",
"                              !!!!!!!!!!!!!!!!!!!!!!!!!!!!!!!!!!!!                              !!!!!!!!!!!!!!!!!!!!!!!!!!!!!!!!!!!!                                    ",
"                              !!!!!!!!!!!!!!!!!!!!!!!!!!!!!!!!!!!!                              !!!!!!!!!!!!!!!!!!!!!!!!!!!!!!!!!!!!                                    ",
"                              !!!!!!!!!!!!!!!!!!!!!!!!!!!!!!!!!!!!                              !!!!!!!!!!!!!!!!!!!!!!!!!!!!!!!!!!!!                                    ",
"                              !!!!!!!!!!!!!!!!!!!!!!!!!!!!!!!!!!!!                              !!!!!!!!!!!!!!!!!!!!!!!!!!!!!!!!!!!!                                    ",
"                              !!!!!!!!!!!!!!!!!!!!!!!!!!!!!!!!!!!!                              !!!!!!!!!!!!!!!!!!!!!!!!!!!!!!!!!!!!                                    ",
"                              !!!!!!!!!!!!!!!!!!!!!!!!!!!!!!!!!!!!                              !!!!!!!!!!!!!!!!!!!!!!!!!!!!!!!!!!!!                                    ",
"                              !!!!!!kkkkkkllllll>>>>>>>>>>>>!!!!!!                              !!!!!!>>>>>>>>>>>>>>>>>>>>>>>>!!!!!!                                    ",
"                              !!!!!!kkkkkkllllll>>>>>>>>>>>>!!!!!!                              !!!!!!>>>>>>>>>>>>>>>>>>>>>>>>!!!!!!                                    ",
"                              !!!!!!kkkkkkllllll>>>>>>>>>>>>!!!!!!                              !!!!!!>>>>>>>>>>>>>>>>>>>>>>>>!!!!!!                                    ",
"                              !!!!!!kkkkkkllllll>>>>>>>>>>>>!!!!!!                              !!!!!!>>>>>>>>>>>>>>>>>>>>>>>>!!!!!!                                    ",
"                              !!!!!!kkkkkkllllll>>>>>>>>>>>>!!!!!!                              !!!!!!>>>>>>>>>>>>>>>>>>>>>>>>!!!!!!                                    ",
"                              !!!!!!kkkkkkllllll>>>>>>>>>>>>!!!!!!                              !!!!!!>>>>>>>>>>>>>>>>>>>>>>>>!!!!!!                                    ",
"                              !!!!!!mmmmmmllllll>>>>>>>>>>>>!!!!!!                              !!!!!!kkkkkknnnnnn>>>>>>>>>>>>!!!!!!                                    ",
"                              !!!!!!mmmmmmllllll>>>>>>>>>>>>!!!!!!                              !!!!!!kkkkkknnnnnn>>>>>>>>>>>>!!!!!!                                    ",
"                              !!!!!!mmmmmmllllll>>>>>>>>>>>>!!!!!!                              !!!!!!kkkkkknnnnnn>>>>>>>>>>>>!!!!!!                                    ",
"                              !!!!!!mmmmmmllllll>>>>>>>>>>>>!!!!!!                              !!!!!!kkkkkknnnnnn>>>>>>>>>>>>!!!!!!                                    ",
"                              !!!!!!mmmmmmllllll>>>>>>>>>>>>!!!!!!                              !!!!!!kkkkkknnnnnn>>>>>>>>>>>>!!!!!!                                    ",
"                              !!!!!!mmmmmmllllll>>>>>>>>>>>>!!!!!!                              !!!!!!kkkkkknnnnnn>>>>>>>>>>>>!!!!!!                                    ",
"                        !!!!!!kkkkkkooooooppppppqqqqqq!!!!!!                                    !!!!!!qqqqqqkkkkkkllllll>>>>>>!!!!!!                                    ",
"                        !!!!!!kkkkkkooooooppppppqqqqqq!!!!!!                                    !!!!!!qqqqqqkkkkkkllllll>>>>>>!!!!!!                                    ",
"                        !!!!!!kkkkkkooooooppppppqqqqqq!!!!!!                                    !!!!!!qqqqqqkkkkkkllllll>>>>>>!!!!!!                                    ",
"                        !!!!!!kkkkkkooooooppppppqqqqqq!!!!!!                                    !!!!!!qqqqqqkkkkkkllllll>>>>>>!!!!!!                                    ",
"                        !!!!!!kkkkkkooooooppppppqqqqqq!!!!!!                                    !!!!!!qqqqqqkkkkkkllllll>>>>>>!!!!!!                                    ",
"                        !!!!!!kkkkkkooooooppppppqqqqqq!!!!!!                                    !!!!!!qqqqqqkkkkkkllllll>>>>>>!!!!!!                                    ",
"                        !!!!!!ppppppnnnnnn>>>>>>!!!!!!!!!!!!                                          !!!!!!kkkkkkllllll>>>>>>!!!!!!                                    ",
"                        !!!!!!ppppppnnnnnn>>>>>>!!!!!!!!!!!!                                          !!!!!!kkkkkkllllll>>>>>>!!!!!!                                    ",
"                        !!!!!!ppppppnnnnnn>>>>>>!!!!!!!!!!!!                                          !!!!!!kkkkkkllllll>>>>>>!!!!!!                                    ",
"                        !!!!!!ppppppnnnnnn>>>>>>!!!!!!!!!!!!                                          !!!!!!kkkkkkllllll>>>>>>!!!!!!                                    ",
"                        !!!!!!ppppppnnnnnn>>>>>>!!!!!!!!!!!!                                          !!!!!!kkkkkkllllll>>>>>>!!!!!!                                    ",
"                        !!!!!!ppppppnnnnnn>>>>>>!!!!!!!!!!!!                                          !!!!!!kkkkkkllllll>>>>>>!!!!!!                                    ",
"                        !!!!!!kkkkkkllllll>>>>>>>>>>>>                                                !!!!!!kkkkkknnnnnn!!!!!!                                          ",
"                        !!!!!!kkkkkkllllll>>>>>>>>>>>>                                                !!!!!!kkkkkknnnnnn!!!!!!                                          ",
"                        !!!!!!kkkkkkllllll>>>>>>>>>>>>                                                !!!!!!kkkkkknnnnnn!!!!!!                                          ",
"                        !!!!!!kkkkkkllllll>>>>>>>>>>>>                                                !!!!!!kkkkkknnnnnn!!!!!!                                          ",
"                        !!!!!!kkkkkkllllll>>>>>>>>>>>>                                                !!!!!!kkkkkknnnnnn!!!!!!                                          ",
"                        !!!!!!kkkkkkllllll>>>>>>>>>>>>                                                !!!!!!kkkkkknnnnnn!!!!!!                                          ",
"                  !!!!!!kkkkkkrrrrrrssssssttttttqqqqqq!!!!!!                                    !!!!!!qqqqqqkkkkkkrrrrrrnnnnnn!!!!!!                                    ",
"                  !!!!!!kkkkkkrrrrrrssssssttttttqqqqqq!!!!!!                                    !!!!!!qqqqqqkkkkkkrrrrrrnnnnnn!!!!!!                                    ",
"                  !!!!!!kkkkkkrrrrrrssssssttttttqqqqqq!!!!!!                                    !!!!!!qqqqqqkkkkkkrrrrrrnnnnnn!!!!!!                                    ",
"                  !!!!!!kkkkkkrrrrrrssssssttttttqqqqqq!!!!!!                                    !!!!!!qqqqqqkkkkkkrrrrrrnnnnnn!!!!!!                                    ",
"                  !!!!!!kkkkkkrrrrrrssssssttttttqqqqqq!!!!!!                                    !!!!!!qqqqqqkkkkkkrrrrrrnnnnnn!!!!!!                                    ",
"                  !!!!!!kkkkkkrrrrrrssssssttttttqqqqqq!!!!!!                                    !!!!!!qqqqqqkkkkkkrrrrrrnnnnnn!!!!!!                                    ",
"            !!!!!!uuuuuuppppppppppppllllllqqqqqq>>>>>>!!!!!!                                    !!!!!!ttttttllllllssssssttttttqqqqqq!!!!!!                              ",
"            !!!!!!uuuuuuppppppppppppllllllqqqqqq>>>>>>!!!!!!                                    !!!!!!ttttttllllllssssssttttttqqqqqq!!!!!!                              ",
"            !!!!!!uuuuuuppppppppppppllllllqqqqqq>>>>>>!!!!!!                                    !!!!!!ttttttllllllssssssttttttqqqqqq!!!!!!                              ",
"            !!!!!!uuuuuuppppppppppppllllllqqqqqq>>>>>>!!!!!!                                    !!!!!!ttttttllllllssssssttttttqqqqqq!!!!!!                              ",
"            !!!!!!uuuuuuppppppppppppllllllqqqqqq>>>>>>!!!!!!                                    !!!!!!ttttttllllllssssssttttttqqqqqq!!!!!!                              ",
"            !!!!!!uuuuuuppppppppppppllllllqqqqqq>>>>>>!!!!!!                                    !!!!!!ttttttllllllssssssttttttqqqqqq!!!!!!                              ",
"            !!!!!!>>>>>>>>>>>>>>>>>>>>>>>>>>>>>>>>>>>>                                                >>>>>>>>>>>>>>>>>>>>>>>>>>>>>>!!!!!!                              ",
"            !!!!!!>>>>>>>>>>>>>>>>>>>>>>>>>>>>>>>>>>>>                                                >>>>>>>>>>>>>>>>>>>>>>>>>>>>>>!!!!!!                              ",
"            !!!!!!>>>>>>>>>>>>>>>>>>>>>>>>>>>>>>>>>>>>                                                >>>>>>>>>>>>>>>>>>>>>>>>>>>>>>!!!!!!                              ",
"            !!!!!!>>>>>>>>>>>>>>>>>>>>>>>>>>>>>>>>>>>>                                                >>>>>>>>>>>>>>>>>>>>>>>>>>>>>>!!!!!!                              ",
"            !!!!!!>>>>>>>>>>>>>>>>>>>>>>>>>>>>>>>>>>>>                                                >>>>>>>>>>>>>>>>>>>>>>>>>>>>>>!!!!!!                              ",
"            !!!!!!>>>>>>>>>>>>>>>>>>>>>>>>>>>>>>>>>>>>                                                >>>>>>>>>>>>>>>>>>>>>>>>>>>>>>!!!!!!                              "};
