/* XPM */
static char * gun_xpm[] = {
"128 72 88 1",
" 	c #FFFFFF",
".	c #B8B8B8",
"+	c #939495",
"@	c #666868",
"#	c #626465",
"$	c #AFB0B0",
"%	c #898B8C",
"&	c #3D4142",
"*	c #36393A",
"=	c #262728",
"-	c #1D1E20",
";	c #989899",
">	c #C5C6C6",
",	c #A1A2A2",
"'	c #7C7F7F",
")	c #565859",
"!	c #393C3D",
"~	c #343738",
"{	c #323435",
"]	c #565658",
"^	c #C3C3C3",
"/	c #666768",
"(	c #F3F3F3",
"_	c #BABBBC",
":	c #959797",
"<	c #6F7172",
"[	c #4A4C4D",
"}	c #3C3F40",
"|	c #2E3032",
"1	c #2D2E30",
"2	c #2A2B2C",
"3	c #1B1C1C",
"4	c #232424",
"5	c #ACADAD",
"6	c #888A8B",
"7	c #414445",
"8	c #B4B5B6",
"9	c #5E5F60",
"0	c #7B7C7D",
"a	c #27282A",
"b	c #6A6B6C",
"c	c #767778",
"d	c #E5E5E5",
"e	c #77797A",
"f	c #878989",
"g	c #868788",
"h	c #9FA1A1",
"i	c #525354",
"j	c #444748",
"k	c #4E5051",
"l	c #20201E",
"m	c #737474",
"n	c #B3B2B2",
"o	c #393836",
"p	c #909192",
"q	c #A6A6A7",
"r	c #171818",
"s	c #7B7B7B",
"t	c #BFBFBF",
"u	c #ABACAC",
"v	c #8B8C8D",
"w	c #1F2021",
"x	c #A7A8A8",
"y	c #AFAFB0",
"z	c #171718",
"A	c #8D978E",
"B	c #9B9C9C",
"C	c #262827",
"D	c #171817",
"E	c #161616",
"F	c #1E201F",
"G	c #828384",
"H	c #5A5B5B",
"I	c #939494",
"J	c #B3B3B4",
"K	c #2D302F",
"L	c #4E4F50",
"M	c #A6A8A8",
"N	c #A7A7A8",
"O	c #979898",
"P	c #7E7F80",
"Q	c #B8B7B7",
"R	c #9F9FA0",
"S	c #AFB0AF",
"T	c #A7A8A7",
"U	c #A3A4A4",
"V	c #BFBFC0",
"W	c #8F9090",
"                                                                                                                                ",
"                                                                                                                                ",
"                                                                                                                                ",
"                                                                                                                                ",
"                                                                                                                    .+@#        ",
"                                                                                                                $%#&**=-;       ",
"                                                                                                           >,')&!!*~{{--]       ",
"                                                ^/{/ (                                                 _:<[}!!!!!*|112334       ",
"                                              5/*{{=[|#                                            56#7}!!!!!*~{{{111233-.      ",
"                                            89!**|{4||{                                       >,0)&!!!!!*~~{{{{{{{112a33-+      ",
"                                          ^b!!!**|{4a2{                                   .:<[&}!!!**~{~{{{{{{{{|1a==433-c      ",
"                                        de!!!!***{{2-31                               5f#7}}}!!*~{{{{{~{{{{{122222=4=433-#      ",
"                                       g7!*!{{*~!{2|44{                          >h0)&}}!!**{{{{{{~{{{{1222222222244=433-i      ",
"                                     +j!!{a333*|{{a{=44^                     .:<[&}!!!*~~~{{{{~{{||222222222222222=4=433-7      ",
"                                   hk!~al33{mnb1{2{*{2=6                 5f#7&&!!**~~~~~~{{{||22222222222222222222=a=433-!      ",
"                                 $)*2433oc8   p!*|{!{2a{q           >h0)&&&!!*~*~~~~~{{{12222222222222222222222222aa=433-!      ",
"                               ^#1=3r!s.      g***!7{2aaa!b;    .+<[&&!!!****~~~{{|1222222222222222222222222222222===433-!      ",
"                               #rr3't       ^p7***k7{{{{aaa{uf#7&&!!*******~{||22222222222222222222222222222222222===433-{      ",
"                               {rr/      qe[!!****~{a4=a1~&&&}!!******{{||121222222222222222222222222222222222222a===433-{      ",
"                               2-3p  .v9!***!*******!12!&!!!*****~{{|2222222222222222222222222222222222222222222aa===433-|      ",
"                               {4=bcj!!!***!***!&7jj!2{!****~{||11112211221122222222222222222222222222222222222aaa=a=4-331      ",
"                               !!!!!!!!!**!}7jjjj7&&!*!*{{|1211111122222221222222222222222222222222222222222222aaa==4w-332      ",
"            6 x             ycj!!!!!!!!&7j[jj77&&!!*~~{|||1121111122221222122222222222222222222222222222222aa=4433rzzz-3-a      ",
"           8!A*         tv){4-4!!!&7j[[j777&}!!****{{22|111211111122222122222222222222222222222222aa=44w3333333rrrzzzz333a      ",
"           5{2a.    (Bb!{!7a-aajj[[jj7&&!!***~{|2=44444|11121111122222112222222222222222aaC=44w33333333333333rrrrrzzzz3331      ",
"           q{|a: 5'[{*&}~{~-44jj7&&}!!**{{22=444444=aa2111|1111112222211222222222aa44w-333333333333rrrrrr3rrrrrrrrDzzz333!      ",
"           qa{|!!!}!~{{{*21-42&!!!*{|2a4444444w3333{~~{11121111112222222a==443333333333333rrrrrrrrrr3rrrrrrrDDzzzzzzEEr3-[      ",
"           ,4|!!*{{{~|||{a2-4a{22a444444w3333333-44{~~{11111122aa=44w3333r3333rr33r3rrrrrrrrrrrrrzzzzzzzrrrrrrr3333rrr33-b      ",
"           B1{{{{{12{1|2244-4w44444444a4w4444======{~~{a=44w3333333333333333rrrrrrrrrrrrrzzzrrrrr33333-----www44444333-3-'      ",
"           i{{|{{{2aa444444--334=a2{{|{24aaaaaaaa22{~~{333333333rrrrrrrrrrrrrrrrrr333333------w444444444=4====CCCCC444433'      ",
"      d;b'c~|2a==44434444444--w2**!*~*~241{{{{{~~~~2aa=33rrrrrrrrrrr333333FFww444444444===aaaaaaaa222222aaaa2a2aaaa4=4433s      ",
"      [!**|=4444444444444444--=2!!!*~*~14*******~~~2444Frrrrr344444444====aaaaaa222a22222222222222222222aaa222aaaaa444433c      ",
"      b{!)x^,a444444===a=====-4a!!**{!!~4****~{1{{|244433rrrrrr=222222222222222222222222222222222222222a2222aa2222a444433c      ",
"            dGaa===a{7iHb'vB5.na~!**{!**=~*~*~|||1|=2a3rr#Bq5.^(ui2222222222222222222222222222222222222a222aaa22a2a444433m      ",
"           mv,tBG](            !~***{!**a*!*~*{2a22a1=rr[         q[2222222222222222222222222222222222aa22a2aa22a2a444433<      ",
"           9     't            j~***{**{a*!*~*~a22222333t           B722222222222222222222222222222222aa22aaaa222aa444433b      ",
"           BsGGGGg             [****~**a2*****~|1{{{a33!              I!2222222222222222222222222222222a2aaaa22222a444433b      ",
"                               i***!{*a2===!{~~{||{{433~                v!2222222222222222222222222222aa22aaa2222aa444433/      ",
"                               i***!{*44rrpt12{||1114rrw                  G{2222222222222222222222222222aaaaaaaaaaa444433/      ",
"                               k**!!{*4433n ia{||1114rrw                   (s{222222222222222222222222222aaaaaaa22a444433#      ",
"                              8&!*!*{*44--n ca{|||11=333(                    dm12222222222222222222222aaaaaaaa2a22a444433#      ",
"                              Jj*!!*{*4444J c={||111a333B                      ^b222222222222222222222aaaaaa222222a4444339      ",
"                               52~!***4a44; [4{||11|2333b                        t#2222222222222222222aaaa22222222a444433H      ",
"                               542a{**|122|B0]{|1111Kw33{                          8)2222222222222222aaaa22222222aa444433)      ",
"                               u41a241444#gc/7{111112a333.                           5i2222222222222222a2222aa2222a444433]      ",
"                               u42a144rrr:   d:{111122a4w[                             q[222222222222a2222222a22aaa444433]      ",
"                               x42a1==rrr:     n|112212a=wv                              B72222222222a2222aaaa2222a444433i      ",
"                               x41a1a=rrr:      H1|2111aa4a(                               :}22222222a222aaaaa22a2a444433L      ",
"                               M42a1a=rrr:      6112111a333;                                 v!222222aa2222222222aa444433[      ",
"                               N42a1a=rrrO      n|121112333#                                   G{222222aaa2a2222a2a=44433[      ",
"                               N42a1aarrr;       {|K1111-33|                                     0{222aaaaa2aa222a2444433[      ",
"                               q42a1a=rrr;       ]1211114333t                                     dm12aaaaaaaaaa22a444433j      ",
"                               ,42a1a=rrr;       P|21111a333f                                       >b2aaaaaaaa2a2a4444337      ",
"                               ,42a1a=rrr;       x|211112333i                                         t#2aaaaa2aaa24444337      ",
"                               ,42a1a4rrrB        |211111w334                                           Q)2a2222aaa44=433}      ",
"                               R42a1a4rrrB        [211111=333u                                            Si22222aa=44433[      ",
"                               B42a2a4rrr,        m2111112333c                                              u6m)&2a44443H       ",
"                               B42a1a4rrr,        B21111113337                                                    ^Tvc);        ",
"                               B42a2a4rrr,        >2111111w33-(                                                                 ",
"                               B42a2a4rrr,         &111111=333B                                                                 ",
"                               ;4222a43rrU         H111111a333m                                                                 ",
"                               ;4222a433rq         [1111112rrr;                                                                 ",
"                               :4222a43rrq        v2111111arr3                                                                  ",
"                               :{a22a4r3rq        8{11111144)B                                                                  ",
"                               ()||2a4rrrq         qj1117sx                                                                     ",
"                                 m|2a4rrrN           .pV                                                                        ",
"                                  W{{4rrrx                                                                                      ",
"                                   x!4rr3n                                                                                      ",
"                                    ^)i'8                                                                                       ",
"                                                                                                                                ",
"                                                                                                                                ",
"                                                                                                                                "};
