/* XPM */
static char *gun20[] = {
/* columns rows colors chars-per-pixel */
"733 526 252 2 ",
"   c None",
".  c #050606",
"X  c #060806",
"o  c #060709",
"O  c #09070A",
"+  c #060909",
"@  c #0B0B0C",
"#  c #080807",
"$  c #110E0E",
"%  c #0C120D",
"&  c #0E1A0D",
"*  c #12110E",
"=  c #131B0F",
"-  c #0D0D11",
";  c #0B0E16",
":  c #100D11",
">  c #0E1113",
",  c #0F1714",
"<  c #131314",
"1  c #191614",
"2  c #131B13",
"3  c #1B1A15",
"4  c #15161A",
"5  c #1A171A",
"6  c #161A1C",
"7  c #1B1B1C",
"8  c #211E1B",
"9  c #211E16",
"0  c #1C221D",
"q  c #162515",
"w  c #173115",
"e  c #24221D",
"r  c #29251D",
"t  c #2A281D",
"y  c #2B301E",
"u  c #161C22",
"i  c #1C1D22",
"p  c #171E29",
"a  c #0D1726",
"s  c #211E21",
"d  c #1E2124",
"f  c #1D222B",
"g  c #1B2528",
"h  c #1D2531",
"j  c #1E2834",
"k  c #232324",
"l  c #292623",
"z  c #252924",
"x  c #2C2A24",
"c  c #23252B",
"v  c #26292D",
"b  c #2B2B2C",
"n  c #29272A",
"m  c #312D25",
"M  c #312E2B",
"N  c #2E312D",
"B  c #343126",
"V  c #34322C",
"C  c #39362D",
"Z  c #3C392E",
"A  c #383628",
"S  c #252A32",
"D  c #2B2D33",
"F  c #242D3A",
"G  c #2A2F39",
"H  c #232631",
"J  c #2D3134",
"K  c #2D323A",
"L  c #28323B",
"P  c #333333",
"I  c #393633",
"U  c #3C3A34",
"Y  c #32353B",
"T  c #35393C",
"R  c #3C3C3B",
"E  c #373737",
"W  c #302F31",
"Q  c #413D34",
"!  c #413E3A",
"~  c #413C2E",
"^  c #3E403C",
"/  c #3F4035",
"(  c #285424",
")  c #286125",
"_  c #444135",
"`  c #44423C",
"'  c #4A463C",
"]  c #4D4A3C",
"[  c #494536",
"{  c #514C3D",
"}  c #50473C",
"|  c #54513E",
" . c #42402F",
".. c #2C3543",
"X. c #2E3A4B",
"o. c #2A3645",
"O. c #313641",
"+. c #343A43",
"@. c #3B3D43",
"#. c #343D4B",
"$. c #3A3E4A",
"%. c #333E52",
"&. c #3B3E50",
"*. c #2D394E",
"=. c #403F41",
"-. c #3D4144",
";. c #3C424C",
":. c #36424C",
">. c #364153",
",. c #3B4453",
"<. c #3B465A",
"1. c #3E4A5C",
"2. c #3C4855",
"3. c #3E4B61",
"4. c #3F5060",
"5. c #444443",
"6. c #494642",
"7. c #4C4A43",
"8. c #42454B",
"9. c #45494C",
"0. c #4B4C4B",
"q. c #474845",
"w. c #514D43",
"e. c #514E4A",
"r. c #4E504B",
"t. c #545244",
"y. c #5A5545",
"u. c #5C5946",
"i. c #54534B",
"p. c #5A564A",
"a. c #5D5A4B",
"s. c #56594D",
"d. c #434A54",
"f. c #434C5B",
"g. c #464A54",
"h. c #4B525C",
"j. c #4A5158",
"k. c #535453",
"l. c #5C5B53",
"z. c #5C5C5B",
"x. c #555758",
"c. c #564756",
"v. c #625D4C",
"b. c #615B47",
"n. c #625E52",
"m. c #625E5A",
"M. c #62495F",
"N. c #65614E",
"B. c #6A644E",
"V. c #656253",
"C. c #6A6553",
"Z. c #6D6955",
"A. c #64635B",
"S. c #6A665A",
"D. c #6D6A5B",
"F. c #66695B",
"G. c #726D5B",
"H. c #726B56",
"J. c #75715D",
"K. c #79745D",
"L. c #6F705F",
"P. c #414E62",
"I. c #444E65",
"U. c #455164",
"Y. c #4B5463",
"T. c #46546A",
"R. c #4A566C",
"E. c #4D596A",
"W. c #535B64",
"Q. c #525C6B",
"!. c #585C63",
"~. c #4D5B73",
"^. c #4B5C78",
"/. c #545E72",
"(. c #515F7A",
"). c #594C63",
"_. c #5A6269",
"`. c #556175",
"'. c #5A6474",
"]. c #53637C",
"[. c #5B667B",
"{. c #5D6A7D",
"}. c #5C6A76",
"|. c #4E617B",
" X c #6A6C6C",
".X c #666765",
"XX c #7A7563",
"oX c #797665",
"OX c #656C76",
"+X c #6C7278",
"@X c #747678",
"#X c #726E64",
"$X c #5E5F5C",
"%X c #827D68",
"&X c #837F72",
"*X c #81795E",
"=X c #4DF84A",
"-X c #4FDB4A",
";X c #4C9A47",
":X c #88836C",
">X c #8A8774",
",X c #938D75",
"<X c #99947A",
"1X c #918C72",
"2X c #A19A7E",
"3X c #536583",
"4X c #5C6B83",
"5X c #566A8B",
"6X c #5A6C8B",
"7X c #556886",
"8X c #596E91",
"9X c #5C7296",
"0X c #546987",
"qX c #626E83",
"wX c #677588",
"eX c #757C85",
"rX c #677997",
"tX c #717E94",
"yX c #657BA2",
"uX c #4E6284",
"iX c #758599",
"pX c #778290",
"aX c #778AA6",
"sX c #768BAA",
"dX c #8E928F",
"fX c #A49D84",
"gX c #A09F93",
"hX c #AAA489",
"jX c #BAB596",
"kX c #B1AC90",
"lX c #8996A7",
"zX c #8B9AAF",
"xX c #B5B7A7",
"cX c #99A4AA",
"vX c #C4BB9A",
"bX c #C4BEA3",
"nX c #C9C6A6",
"mX c #DAD7B5",
"MX c #D3CEAC",
"NX c #E3DCB4",
"BX c #E8E4BB",
"VX c #F1EDBE",
"CX c #C8C29D",
"ZX c #D7D6C9",
"AX c #EAE8C6",
"SX c #FAFAD8",
"DX c #F1EFCE",
"FX c #FBFBE8",
"GX c #FEFEF9",
"HX c #EBEBE6",
"JX c #E0DFC8",
"KX c #B6BDB1",
/* pixels */
"                                                                                                                                                                                                                                                                                                                                                                                                                                                                                                                                                                                                                                                                                                                                                                                                                                                                                                                                                                                                                                                                                                                                                                                                                                                                                                                                                                                                                                                                                                                          ",
"                                                                                                                                                                                                                                                                                                                          d.d.d.                                                                                                                                                                                                                                                                                                                                                                                                                                                                                                                                                                                                                                                                                                                                                                                                                                                                                                                                                                                                                                                                                                                                                                                          ",
"                                                                                                                                                                                                                                                                                                                        2.G g J c 0 z S N J T T                                                                                                                                                                                                                                                                                                                                                                                                                                                                                                                                                                                                                                                                                                                                                                                                                                                                                                                                                                                                                                                                                                                                                                           ",
"                                                                                                                                                                                                                                                                                                                        K d d c 2 q w w w w w q -.                                                                                                                                                                                                                                                                                                                                                                                                                                                                                                                                                                                                                                                                                                                                                                                                                                                                                                                                                                                                                                                                                                                                                                        ",
"                                                                                                                                                                                                                                                                                                                        #.0 0 q % q ) -X-X;Xw w T                                                                                                                                                                                                                                                                                                                                                                                                                                                                                                                                                                                                                                                                                                                                                                                                                                                                                                                                                                                                                                                                                                                                                                         ",
"                                                                                                                                                                                                                                                                                                                        O.2 0 2 & ) -X=X=X=X;Xq J                                                                                                                                                                                                                                                                                                                                                                                                                                                                                                                                                                                                                                                                                                                                                                                                                                                                                                                                                                                                                                                                                                                                                                         ",
"                                                                                                                                                                                                                                                                                                                        O., d 2 & ;X=X=X=X=X-Xq J                                                                                                                                                                                                                                                                                                                                                                                                                                                                                                                                                                                                                                                                                                                                                                                                                                                                                                                                                                                                                                                                                                                                                                         ",
"                                                                                                                                                                                                                                                                                                                        K 2 0 2 & ;X=X=X=X=X-Xq J                                                                                                                                                                                                                                                                                                                                                                                                                                                                                                                                                                                                                                                                                                                                                                                                                                                                                                                                                                                                                                                                                                                                                                         ",
"                                                                                                                                                                                                                                                                                                                        J , 0 2 & ( -X=X=X-X( q v                                                                                                                                                                                                                                                                                                                                                                                                                                                                                                                                                                                                                                                                                                                                                                                                                                                                                                                                                                                                                                                                                                                                                                         ",
"                                                                                                                                                                                                                                                                                                                        g % 0 , % w ( ) ) w q & v                                                                                                                                                                                                                                                                                                                                                                                                                                                                                                                                                                                                                                                                                                                                                                                                                                                                                                                                                                                                                                                                                                                                                                         ",
"                                                                                                                                                                                                                                                                                                                        g & q 2 % % & & & % % % 0                                                                                                                                                                                                                                                                                                                                                                                                                                                                                                                                                                                                                                                                                                                                                                                                                                                                                                                                                                                                                                                                                                                                                                         ",
"                                                                                                                                                                                                                                                                                                                        v 0 v 2 % % % % % % % % 0                                                                                                                                                                                                                                                                                                                                                                                                                                                                                                                                                                                                                                                                                                                                                                                                                                                                                                                                                                                                                                                                                                                                                                         ",
"                                                                                                                                                                                                                                                                                                                      d.S 6 d 2 % % % % % % % % d                                                                                                                                                                                                                                                                                                                                                                                                                                                                                                                                                                                                                                                                                                                                                                                                                                                                                                                                                                                                                                                                                                                                                                         ",
"                                                                                                                                                                                                                                                                                                                      ;.S d v 2 % % % % % % % % 0                                                                                                                                                                                                                                                                                                                                                                                                                                                                                                                                                                                                                                                                                                                                                                                                                                                                                                                                                                                                                                                                                                                                                                         ",
"                                                                                                                                                                                                                                                                                                                      ;.S v v 2 % % % % % % % % 0                                                                                                                                                                                                                                                                                                                                                                                                                                                                                                                                                                                                                                                                                                                                                                                                                                                                                                                                                                                                                                                                                                                                                                         ",
"                                                                                                                                                                                                                                                                                                                  9.;.;.G K c 0 % % % % % % % % d T                                                                                                   j.d.;.;.;.;.-.-.:.:.:.-.-.-.-.;.9.9.d.d.j.h.                              g.-.;.;.;.;.;.;.;.8.;.;.;.;.;.9.9.g.g.j.j.                                                                                                                                                                                                                                                                                                                                                                                                                                                                                                                                                                                                                                                                                                                                                                                                                                                                                                                                                ",
"                                                                                                                                                                                                                                                                                                              S J J O.L K +.v q % % % % % % % % 0 L T T T :.                                                                                        j.d.d.;.;.;.;.;.;.;.:.:.-.-.;.-.-.-.-.-.-.-.;.9.d.g.                      j.:.J K K K L J J Y Y Y ^ -.:.-.:.-.-.-.-.;.;.d.9.j.                                                                                                                                                                                                                                                                                                                                                                                                                                                                                                                                                                                                                                                                                                                                                                                                                                                                                                                                        ",
"                                                                                                                                                                                                                                                                                                          j.;.g g #.2.2.2.2.L 2 % , 2 3 q 0 2 2 d +.;.:.L Y                                                                                       j.d.f.d.d.d.2.2.2.,.,.;.2.;.L v v z 0 q q q q z N J N r.                  2.:.+.K K L L J J K K L L Y T T S S v v z z v S N J J T / q.                                                                                                                                                                                                                                                                                                                                                                                                                                                                                                                                                                                                                                                                                                                                                                                                                                                                                                                                  ",
"                                                                                                                                                                                                                                                                                                      j.f.d.J g J ;.;.;.;.+.J 0 0 d q 0 0 J z v d E -.-.T J ;.j.j.                                                                              j.d.f.f.f.f.f.f.d.f.f.d.f.;.q & & & & & & & & & & & = = y r.                d.2.2.2.2.;.:.+.T Y K L Y T T g & & & 2 & & = & & & & = q m r.                                                                                                                                                                                                                                                                                                                                                                                                                                                                                                                                                                                                                                                                                                                                                                                                                                                                                                                                ",
"                                                                                                                                                                                                                                                                                                    f.f.:.J v :.O.K g d c d 6 z g S S v d 0 d d 0 J D T z z T -.-.d.d.d.                                                                      j.d.f.f.f.f.f.f.1.f.f.f.d.;.q & & & & q w w w q q = & = 2 y /               ;.;.2.2.2.,.,.;.;.;.2.;.;.;.;.L 0 q q q q q = q q w w w q 2 q t r.                                                                                                                                                                                                                                                                                                                                                                                                                                                                                                                                                                                                                                                                                                                                                                                                                                                                                                                              ",
"                                                                                                                                                                                                                                                                                                f.f.O.T S G O.:.v z d v Y S c g d d z D D K D J c 0 z d d z P J N n ^ -.g.d.d.d.                                                            j.d.f.f.f.U.U.U.1.f.f.f.d.+.2 & & & & w ) ;X-X-X;X( w q & = e [             h.:.2.2.2.2.2.2.2.2.2.2.;.;.;.;.J d q = & & = w ) ;X-X;X) y w q e e 0.                                                                                                                                                                                                                                                                                                                                                                                                                                                                                                                                                                                                                                                                                                                                                                                                                                                                                                                            ",
"                                                                                                                                                                                                                                                                                              Y.;.d c S $.#.v d d Y O.O.v D J +.Y O.J d d g d g d J T T K L O.K J v v c b E @.@.g.d.f.                                                      d.d.f.f.f.f.1.1.1.f.f.2.K q & & & & q ) -X=X=X=X=X-X) w & & t _             9.;.2.2.2.2.2.2.2.2.2.2.2.2.2.2.L d q = & & w ;X-X=X=X-X-X;Xw q = t e q.                                                                                                                                                                                                                                                                                                                                                                                                                                                                                                                                                                                                                                                                                                                                                                                                                                                                                                                          ",
"                                                                                                                                                                                                                                                                                              f.d d ;.$.K d d v O.+.d v d ;.#.O.z v g L J Y J L T K J c 0 2 2 % % > % % % 2 6 n n T -.9.d.d.                                              j.;.2.2.2.1.1.2.1.f.d.2.D 2 , & & & q ( -X=X=X=X=X=X=X-X( q & 0 C           ;.:.2.2.2.2.2.2.2.2.2.2.2.2.2.2.2.L 0 = & & w ) =X=X=X=X=X=X-X;Xw = & 2 0 C                                                                                                                                                                                                                                                                                                                                                                                                                                                                                                                                                                                                                                                                                                                                                                                                                                                                                                                         ",
"                                                                                                                                                                                                                                                                                              f.n J :.G 0 g +.Y v g 0 O.O.#.g g g K ;.O.+.g 0 , , % % % % % % % % % % % % % % % < % % > z D K                                           j.8.,.:.,.,.,.>.,.2.2.2.c 2 & & & & & q ;X=X=X=X=X=X=X=X-X) w & e C           9.2.2.2.2.2.2.2.2.2.2.2.2.2.2.2.2.L q = & & w ;X=X=X=X=X=X=X=X-X( = & & = q C                                                                                                                                                                                                                                                                                                                                                                                                                                                                                                                                                                                                                                                                                                                                                                                                                                                                                                                       ",
"                                                                                                                                                                                                                                                                                              f.T K :.K 0 K O.d c S :.:.d d 0 G :.:.#.S 2 2 % % % % % % % % % % % % % % % % % @ @ @ @ @ % % 6 K Y                                     j.j.+.;.+.;.:.:.:.,.,.2.S 2 & & & & & & q -X=X=X=X=X=X=X=X=X;Xw & q V         ;.:.2.2.2.;.,.2.2.2.2.2.2.2.2.2.2.;.L 2 = & & ( =X=X=X=X=X=X=X=X=X) = & & & 2 q Z                                                                                                                                                                                                                                                                                                                                                                                                                                                                                                                                                                                                                                                                                                                                                                                                                                                                                                                     ",
"                                                                                                                                                                                                                                                                                              j.;.K #.:.k G #.c J #.K 0 d c :.,.:.v 2 % % % % % % % % % % % % % % % 6 @ % @ % @ @ @ @ @ @ @ @ % 4 Y                                   j.;.;.2.;.,.,.:.:.,.,.;.d , & & & & & & w -X=X=X=X=X=X=X=X=X;Xw & q P         :.,.,.,.2.,.,.2.,.,.,.2.2.2.2.2.2.:.L 2 = & & ) =X=X=X=X=X=X=X=X=X) = & & & & 2 V r.                                                                                                                                                                                                                                                                                                                                                                                                                                                                                                                                                                                                                                                                                                                                                                                                                                                                                                                  ",
"                                                                                                                                                                                                                                                                                              f.<.Y ;.2.v d O.c D :.k 0 Y ;.,.O.6 % % % % % % % % > 0 d +.+.2.O.v d 0 d d 6 > % > % @ @ @ > % % < 0 S d.                            j.;.:.d.2.,.2.2.<.,.2.2.:.0 2 & & & & & & q ;X=X=X=X=X=X=X=X=X) q & = V       ;.:.;.,.,.,.,.,.,.,.,.,.2.2.2.2.2.2.:.L 2 = & & w ;X=X=X=X=X=X=X=X-X( = & & & & & t k.                                                                                                                                                                                                                                                                                                                                                                                                                                                                                                                                                                                                                                                                                                                                                                                                                                                                                                                  ",
"                                                                                                                                                                                                                                                                                            j.f.,.:.U.U.c d +.S v #.J d :.,.c 2 % % % % % % % % > T h.`.'.qXQ.Q.W.d.T J d J d d v f 6 g c c O.+.2.2.,.2.:.2.2.2.:.;.;.d.d.        f.;.T 2.d.2.2.2.2.1.2.1.2.:.0 2 & & & & & & q ( -X=X=X=X=X=X=X-X( q & = B       +.#.:.:.:.;.;.;.;.;.;.;.,.2.2.2.2.,.:.v q = & & q ;X=X=X=X=X=X=X=X;Xw & & & & & & q ]                                                                                                                                                                                                                                                                                                                                                                                                                                                                                                                                                                                                                                                                                                                                                                                                                                                                                                                   ",
"                                                                                                                                                                                                                                                                                            ;.f.,.1.~.:.c v :.O.g #.K 0 J :.S % % % % % % % > d {.tXtXwXwXwXwXwX{.'.Y.h.h.2.+.:.:.:.2.2.;.:.:.,.,.;.O.K S c 6 % > 6 g g J Y +.9.-.8.T ;.d.f.f.2.2.<.1.1.1.2.O., & & & & & & & & q ) -X-X=X=X-X-X( q & & = B     ;.,.:.:.:.:.:.:.:.;.:.:.:.;.,.,.,.,.;.:.D 2 = & & & w ;X-X-X=X-X=X;XN q & & & & & & 2 ]                                                                                                                                                                                                                                                                                                                                                                                                                                                                                                                                                                                                                                                                                                                                                                                                                                                                                                                   ",
"                                                                                                                                                                                                                                                                                            j.P.2.R.R.#.d K ,.K c J +.d c #.g % @ @ % @ % , +.iXiXiXiXiXiXpXwXwXwXqX{.`.Y.Y.f.1.2.<.$.:.#.K f 6 6 % > % @ @ @ @ @ @ @ % % % > 4 z Y -.2.d.d.1.2.2.2.1.1.1.2.K , & & & & & & & & 2 q ( ;X;X;X) y q = & = = B 9.;.;.;.;.2.2.;.#.#.+.:.:.:.:.;.;.:.;.;.:.+.J q = & & & = w ) ;X;X) ) ( q = & & & & & & q q.                                                                                                                                                                                                                                                                                                                                                                                                                                                                                                                                                                                                                                                                                                                                                                                                                                                                                                                  ",
"                                                                                                                                                                                                                                                                                          ;.d.1.P.`.T.S d K >.S d #.#.d d :.c > @ @ @ > d '.aXaXaXiXiXiXpXwXpXpXwX{.`.Y.U.P.P.f.;.J d 4 > % @ @ + + @ @ @ @ @ @ @ @ @ % % % > 6 n +.,.d.f.f.f.d.2.1.1.P.1.;.G & & & & & & & & 2 q q w w w q q q q q q & q B -.-.-.-.;.;.;.2.;.:.#.+.Y L L T :.:.;.;.:.+.g & = & = = q q q q w w w q 2 q = & & & % & 2 ^                                                                                                                                                                                                                                                                                                                                                                                                                                                                                                                                                                                                                                                                                                                                                                                                                                                                                                                   ",
"                                                                                                                                                                                                                                                                                          -.1.1.U.^.2.S c ,.,.v g 2.O.d v :.#.> % @ > ;.iXsXsXsXsXsXaXiXiXiXiXrX4X`.Y.U.U.U.1.K 3 4 % % @ @ @ @ @ @ @ @ @ @ @ + % , c f S f S b T ;.d.d.f.d.f.f.f.f.U.P.1.@.v 2 & & & & & & & & & & & & & & & & & = = 2 q m -.;.-.-.-.-.-.-.-.-.-.-.:.:.:.:.:.:.+.T ;.Y J & q & = = = & & & & & & & & & & & & & & & 3 M                                                                                                                                                                                                                                                                                                                                                                                                                                                                                                                                                                                                                                                                                                                                                                                                                                                                                                                   ",
"                                                                                                                                                                                                                                                                                        j.>.>.1.T.R.:.c J 1.K c #.2.K d G >.c > @ % g iXzXzXaXsXzXaXiXaXaXiXrXE.Y.U.U.U.1.K 6 > > @ @ + % > % % @ @ @ @ @ @ @ > H :.2.2.Y.f.g.Y ;.d.f.f.1.1.f.f.f.f.f.f.2.S q 0 0 0 q 0 0 0 0 0 0 0 q q q q q q 0 0 0 0 0 n J J J T T -.@.T -.-.-.-.T T T T Y Y J J S d q q q q q q q q q q 3 q q 0 q q 0 q q q 0 0 0 ;.                                                                                                                                                                                                                                                                                                                                                                                                                                                                                                                                                                                                                                                                                                                                                                                                                                                                                                                  ",
"                                                                                                                                                                                                                                                                                      f.;.K ,.1.U.f.K S :.4.L c f.:.G d O.:.c % @ 6 Y.sXzXzXzXsXaXaXaXaXiX[.T.U.U.Y.U...6 % @ + @ @ @ % > 6 d 4 @ @ 4 % % > d v ,.E.~.~.f.h.-.@.2.d.f.f.1.1.f.f.f.f.U.1.O.g , 0 z z g z z z z d z z d d d d d d d 0 z z 0 e 0 0 q q q q q q 0 0 0 q 0 0 0 q q q q q 2 & 2 d d d d z z z z z z z z z z k d d z z z e T                                                                                                                                                                                                                                                                                                                                                                                                                                                                                                                                                                                                                                                                                                                                                                                                                                                                                                                     ",
"                                                                                                                                                                                                                                                                                      ,.K +.;.2.U.,.J K Y.>.G K U.:.c c :.>.6 % 6 ;.aXsXsXzXzXaXsXaXiX{.T.U.U.Y.U.:.6 % @ @ @ + @ @ % > 6 d d 6 4 d :.d.j.E.'.'.`.~.~.R.:.g.@.;.f.f.f.U.P.f.f.f.f.Y.U.1.L , , q 2 2 2 2 = 2 2 2 2 2 2 q q q 2 q q q q q & & & & & & & & & & & & & & & & & & & & & & & = q q q q q 2 2 2 2 2 q q 2 2 2 2 2 2 2 3 0 e -.                                                                                                                                                                                                                                                                                                                                                                                                                                                                                                                                                                                                                                                                                                                                                                                                                                                                                                                    ",
"                                                                                                                                                                                                                                                                                  f.,.;.;.;.+.1.1.K O.E.T.#.K 2.U.K d J >.K 4 % :.rXsXsXzXzXaXaXaXwX~.T.U.T.U.<.f > @ @ + + @ @ @ > , , 4 6 c d.[.[.{.{.{.{.{.{.`.~.~.T.>.q.-.2.j.f.f.U.U.f.U.U.U.U.U.1.G 6 % % % % % % % & & & & & & & & & & & & & & & & & & & & & & & & & & & & & & & & & & & & & & & & & & & & & & & & & & & & & & & & & & % 2 B                                                                                                                                                                                                                                                                                                                                                                                                                                                                                                                                                                                                                                                                                                                                                                                                                                                                                                                       ",
"                                                                                                                                                                                                                                                                                ;.$.:.:.+.O.$.f.:.>.~.^.U.#.#.Y.1.K c ,.<.g > d ;.sXsXsXsXsXaXaXwX`.R.R.~.U.S , % @ @ @ @ @ @ % 6 6 , @ 4 :.{.qXqXwXwXwXwXwXwX{.R.R.R.T.<.5.;.2.2.f.I.Y.U.f.f.d.f.f.U.1.K & % % % % % & & & & & & & & & & & & & & & & & & & & & & & & & & & & & & & & & & & & & & & & & & & & & & & & & & & & & & & & & & & % % 2 m                                                                                                                                                                                                                                                                                                                                                                                                                                                                                                                                                                                                                                                                                                                                                                                                                                                                                                                       ",
"                                                                                                                                                                                                                                                                            h.d.#.:.#.Y T #.2.f.Y.~.`.T.2.,.R.T.1.G K 2.:., % :.{.sXaXsXsXiXaXaX].~.~.^.U.d > % @ @ @ @ @ @ % > > > > 6 /.qXwXpXwXwXpXpXtXwX[.T.R.R.R.R.1.;.:.;.2.f.1.U.f.f.d.d.f.U.Y.1.S , g & 6 6 q 0 0 & & 2 3 2 & & & & & & & & & & & & & & & & & & & & & & & & & & & & & & & & & & & & & & & & & & & & & & 2 2 2 2 q q 0 0 d e q.                                                                                                                                                                                                                                                                                                                                                                                                                                                                                                                                                                                                                                                                                                                                                                                                                                                                                                                    ",
"                                                                                                                                                                                                                                                                            d.#.:.:.Y +.f.U.Y.T.E.~.R.1.1.R.R.U.+.#.1.1.G > % :.qXsXsXsXiXaXaXwX`.~.^.Y.d > @ + @ + + @ @ @ 3 6 > < ,.wXtXiXtXtXiXiXiXtXqX~.U.U.R.R.R.R.T.R.<.:.+.#.,.2.1.d.2.f.U.U.U.1.d #.:.+.;.+.T T T T Y J J J J L L L J L J J J J J J J J J J J J J J J J J J J L J J J J J J J J J J J J J J J J J J N J J T T J -.^ J T @.-.j.                                                                                                                                                                                                                                                                                                                                                                                                                                                                                                                                                                                                                                                                                                                                                                                                                                                                                                                    ",
"                                                                                                                                                                                                                                                                            d.O.#.T Y U.T.T.E.~.~.T.T.T.T.T.T.,.;.1.U.:.u @ @ :.{.aXsXaXiXaXrX[.~.`.T.c % @ + + + + @ @ @ % 0 0 d qXiXiXiXiXiXiXiXiXqX[.Y.U.f.U.T.T.R.~.~.~.R.T.P.>.>.+.;.;.;.d.d.f.U.2.c n x x T M N N Y :.2.2.:.P J P J P P P P P P P E E E E T E E T T T T T T R T R T T @.T ^ @.-.-.-.-.-.-.-.-.-.-.-.-.-.-.;.-.;.d.x.F.xXZXZXnX%Xx.                                                                                                                                                                                                                                                                                                                                                                                                                                                                                                                                                                                                                                                                                                                                                                                                                                                                                                                  ",
"                                                                                                                                                                                                                                                                            f.#.Y J :.Y.T.~.^.~.T.T.T.T.Y.U.P.,.1.P.<.g % + @ +.{.iXaXaXiXrX].^.].~.K > @ @ + + @ + + @ @ < 0 d wXiXaXiXiXaXaXiXwX[.T.U.U.U.T.E.T.R.E.~.~.~.~.~.~.R.T.P.1.:.:.:.;.2.2.:.n z z z z z z n z z x x e e 0 0 q 0 0 q 0 0 2 2 2 2 2 2 2 2 2 2 2 2 2 q 2 2 2 q q q q q q q 3 q q q 2 2 2 2 q 2 0 0 0 0 z z v S / XX:X:X:X:X:X_.                                                                                                                                                                                                                                                                                                                                                                                                                                                                                                                                                                                                                                                                                                                                                                                                                                                                                                                  ",
"                                                                                                                                                                                                                                                                            f.>.:.J ,.U.E.~.~.~.T.T.U.U.P.f.f.d.f.1.d > @ + @ +.{.iXiXtX6X].`.].(.:.4 @ @ @ @ + + + @ @ % e z `.iXaXiXaXaXaXiX[.T.Y.Y.U.Y.T.T.T.T.T.R.R.R.~.~.~.~.~.~.~.~.T.4.4.1.;.;.#.N z z z z z z z z z z x q 2 & & & & & & & & 2 2 2 2 & 2 2 2 2 2 2 2 2 & 2 2 2 2 = = 2 2 2 & 2 = = = & & , , & & & & & & & & & , 3 oXoXoX%X%X:XA.                                                                                                                                                                                                                                                                                                                                                                                                                                                                                                                                                                                                                                                                                                                                                                                                                                                                                                                  ",
"                                                                                                                                                                                                                                                                            f.1.2.E <.1.T.~.~.~.T.Y.U.f.f.d.1.d.,.f - + + + @ O.wXiXiXqX].`.].].T.J < @ @ @ @ + @ @ @ 1 _ a.g.iXiXaXiXaXiX`.T.U.T.Y.T.R.R.T.T.R.T.T.R.R.R.R.R.R.~.~.~.~./.~.~.~.T.T.T.d.x z z z z z z z n z z M 0 2 & , , & & & & & & & & & & & & & & & & & & , & & & & , , & & , & , , & & & & & & , & , , , , , & , , q J.oXoXoXoXoX.Xj.                                                                                                                                                                                                                                                                                                                                                                                                                                                                                                                                                                                                                                                                                                                                                                                                                                                                                                                ",
"                                                                                                                                                                                                                                                                            f.f.f.-.2.f.P.P.T.T.U.T.P.f.d.1.<.K d @ + + + + @ K qXiXiX{.`.].].].<.n 4 2 % % % @ @ % 3 y.hXhXOXiXaXiXiXqXR.T.R.T.T.R.R.T.T.R.R.T.U.T.R.T.T.T.T.R.R.R.~.~./.~.~.~.~.R.R.f.x z z z z z z n n z z x 2 & & , , & & & , , & & & & , & , , , & & , , , , , , , , & , , , , , , & & & , , , & & , , , , , , & & 3 a.:XoXXXJ.J.D.r.                                                                                                                                                                                                                                                                                                                                                                                                                                                                                                                                                                                                                                                                                                                                                                                                                                                                                                                ",
"                                                                                                                                                                                                                                                                            f.f.U.-.1.P.U.T.U.f.U.U.f.1.1.+.d @ O + + + + + + K {.rX4X`.].].].^.;.b 0 0 d d 0 7 7 7 ' <XMXxXaXaXiXaXtXT.R.T.R.~.~.T.T.T.R.~./.U.U.U.U.T.T.T.T.T.R.R.R.~.~.~.~.~.E.R.R.@.x z z z z z z x z n x x 2 , 2 2 2 2 2 2 , 2 2 2 2 2 & 2 & & & & & & & , & 2 2 2 2 2 , , 2 & & , , , 2 2 , , , & & 2 2 2 2 2 2 2 2 u.J.D.V.N.N.N.k.                                                                                                                                                                                                                                                                                                                                                                                                                                                                                                                                                                                                                                                                                                                                                                                                                                                                                                                ",
"                                                                                                                                                                                                                                                                            d.f.U.R f.U.T.T.T.1.1.1.1.1.>.4 @ + + + + X X + 4 K wX{.].`.].].].R.@.b v v v v S D J P :XMXZXsXaXsXaXiX~.R.R.T.^.~.R.~.^.^.`.~.~.U.Y.U.U.U.U.U.T.T.T.T.R.R.R.R.~.~.R.R.R.,.n z z z z z x x z z z n 2 & & & , , 2 2 , 2 2 2 2 & 2 & 2 & & 2 2 2 2 0 d S E -.;.J L c z 0 2 q , , & 2 2 2 , , 2 2 2 2 2 2 2 2 2 { C.v.N.v.v.v.r.                                                                                                                                                                                                                                                                                                                                                                                                                                                                                                                                                                                                                                                                                                                                                                                                                                                                                                                ",
"                                                                                                                                                                                                                                                                            f.1.P.R P.P.T.T.T.P.1.<.>.:.f @ + + + + + X X X 6 :.qX4X^.`.].^.^.2.Y J K Y Y Y O.O.O.q.@XjXcXaXsXaXsX`.R.~.T.`.].^.~.^.].`.^.~.T.T.T.U.U.U.U.U.T.T.T.T.T.R.T.R.T.T.T.T.T.:.z z z z z z z z z z z x , & & & & & , & & & & & & , 2 2 3 0 z J @.:.d.d.f.;.d.d.2.f.2.2.2.#.:.J c d d 6 2 q & & & & & & & & & % , _ N.v.v.v.a.u.i.                                                                                                                                                                                                                                                                                                                                                                                                                                                                                                                                                                                                                                                                                                                                                                                                                                                                                                                ",
"                                                                                                                                                                                                                                                                            1.f.U.R f.P.U.T.T.P.1.2.>...d + + X + + + X X X + :.{.`.^.^.^.^.R.2.,.:.:.,.,.;.:.;.:.0.dXgX@XaXaXaX4XE.~.T.~.].`.].].].4X].].^.T.T.T.T.U.U.Y.T.T.T.U.T.T.T.T.T.T.T.U.Y.U.T z z z z z z z z z z z e , & & & & & & & , 2 q 0 c J :.;.d.f.f.f.f.f.j.f.2.d.f.2.:.2.:.>.3.<.<.<.<.,.,.$.-.J S z k 6 2 2 2 & % % & / N.v.v.a.a.v.s.                                                                                                                                                                                                                                                                                                                                                                                                                                                                                                                                                                                                                                                                                                                                                                                                                                                                                                                ",
"                                                                                                                                                                                                                                                                            f.P.P.R f.P.U.T.T.P.f.<.2...p X . X + + + + X X O d.Q.^.^.~.~.~.U.Y.f.d.d.d.f.f.f.f.2.j.@X>XwXaXiX[.E.~.~.~.3X]./.].4X7X6X4X].`.~.1.P.Y.U.U.U.T.T.T.T.T.T.T.T.U.U.U.U.U.U.J z z z z z z z z z z z e , & & & & % 2 c K ;.2.f.j.f.f.f.1.f.1.1.1.2.2.2.2.2.2.2.2.f.1.<.4.4.<.3.2.1.1.2.,.2.2.;.;.;.-.T N z 2 2 2 U N.v.v.u.u.v.l.                                                                                                                                                                                                                                                                                                                                                                                                                                                                                                                                                                                                                                                                                                                                                                                                                                                                                                                ",
"                                                                                                                                                                                                                                                                            f.U.P.R f.U.U.U.T.P.f.<.<.O.u X . . . . . X X X @ f./.~.~.~.~.T.f.E.Q.Y.U.f.I.I.f.f.2.8..X$XqXiX`.E.~.~./.].3X`.`.].].].6XwX6X].^.T.].R.Y.U.U.T.T.T.T.T.T.T.U.P.P.U.U.U.U.N z z k k z z z z z z z 0 , & & % , 0 ,.f.E.f.f.2.2.1.2.2.;.:.;.2.2.;.2.1.1.4.Y.f.f.f.1.1.T.U.T.U.Y.f.1.f.2.;.2.d.2.d.;.d.;.@.-.J v x N.N.N.a.a.v.l.                                                                                                                                                                                                                                                                                                                                                                                                                                                                                                                                                                                                                                                                                                                                                                                                                                                                                                                ",
"                                                                                                                                                                                                                                                                            f.P.P.R 1.U.P.U.T.P.f.<.<.O.u X . . . . . X X + @ f.`.T.~.~.~.T.1.,.d.2.:.$.$.$.+.+.K T R ^ q.j.Y.^.`.`.`.4X].`.].].[.].`.].].3X6X6X6X`.`.`.T.T.T.T.T.T.T.U.U.P.P.f.P.P.f.n z k k k k k z z z z x 7 , % > d ;.f.Y.Y.1.1.:.:.:.2.2.;.,.2.2.f.U.U.U.U.4.R.Y.U.U.f.f.<.f.f.P.U.f.f.1.Y.h.f.2.2.f.f.d.d.;.@.-.-.;.T r.N.v.u.u.u.l.                                                                                                                                                                                                                                                                                                                                                                                                                                                                                                                                                                                                                                                                                                                                                                                                                                                                                                                ",
"                                                                                                                                                                                                                                                                            d.P.P.R 1.P.U.P.U.P.1.<.1.o.4 X . . . . X X X . O ,.Y.T.T.R.~.~.E.+.+.T :.$.$.#.#.+.+.O.K T -.f.~.`.].`.4X{.`.].3X7X].7X`.~.R.].rXrXwX6X7X].].].R.R.U.T.T.U.U.U.U.f.1.1.,.N k k k k e k k k k k n 7 d 6 :.U.Y.E.f.1.<.:.:.:.:.:.2.;.2.f.1.1.f.f.2.2.,.1.,.:.:.:.#.#.+.+.$.:.$.:.:.2.2.2.f.f.f.d.d.j.d.;.;.d.-.;.;.0.i.u.p.u.v.                                                                                                                                                                                                                                                                                                                                                                                                                                                                                                                                                                                                                                                                                                                                                                                                                                                                                                                ",
"                                                                                                                                                                                                                                                                            1.f.P.R 1.P.T.P.U.P.1.<.<.#.6 X . . . . . . . . @ Y T.U.T.R.T.^./.U.:.O.G O.$.$.$.$.$.+.O.+.h.~.3X].[.[.7X].].3X6X4X4X].`./.].].7X7X4XrX7X].].].].].`.~.T.U.U.U.U.1.1.f.;.b k z k k k z z z k z x d K Y.T.~.1.1.1.<.<.>.:.:.:.2.2.;.;.;.;.+.+.@.Y #.O.K K J L J L v D J v b J N J J T T @.;.;.2.;.g.d.;.;.d.;.;.-.-.-.r.p.a.v.                                                                                                                                                                                                                                                                                                                                                                                                                                                                                                                                                                                                                                                                                                                                                                                                                                                                                                                ",
"                                                                                                                                                                                                                                                                            f.f.P.R 1.P.T.U.U.P.1.<.<.#.6 X . . . . . . . . > :.U.U.T.R.T.~.T.U.1.,.;.Y G +.;.:.:.:.$.d.R.7X].`.].7X].].3X4X6X4X4X].`.].3X6X].`.6X6XwX7X].].].7X`.^.~.R.T.U.f.1.1.1.+.n z z k k z z z z k n P U.T.~.4.1.T.f.<.<.,.<.>.:.:.>.;.:.T T P N b b n n v c g v v v c c v P v n v b b z n v b J T T E -.-.-.;.;.;.;.-.-.-.;.5.i.a.                                                                                                                                                                                                                                                                                                                                                                                                                                                                                                                                                                                                                                                                                                                                                                                                                                                                                                                ",
"                                                                                                                                                                                                                                                                            f.P.P.R <.P.U.U.U.P.1.<.<.#.4 X . . . . . . . . > +.U.U.T.T.T.~.T.U.1.f.U.:.$...K :.;.:.,.T.3X3X~.~.7X].^.].3X6X6X7X`.].].7X7X6X].].].6XwXwX7X].7X4X4X].].].~.T.~.1.1.1.T z n z z z z z z n J 1.Y.R.U.<.<.>.4.4.<.<.<.>.>.:.:.:.T J J N N M n z k e z v z z n v d k n z z z d n x z n z z z N N P R R Y Y T -.;.;.-.5.-.-.-.-.g.                                                                                                                                                                                                                                                                                                                                                                                                                                                                                                                                                                                                                                                                                                                                                                                                                                                                                                              ",
"                                                                                                                                                                                                                                                                            U.U.P.R <.P.P.P.U.P.1.2.2.#.@ X . . . . . . . . > #.P.P.T.T.T.R.T.T.P.T.U.2.,.,.#.#.:.:.T.3X3X~.Y.].].R.|.].3X6X3X].].7X7X4X6X3X3X[.`.].7XwX3X7X6X7X].7X].].4X].{.E.2.1.K x z z n n n n N :.U.E.R.2.<.>.>.>.>.1.<.<.1.<.:.:.T L J P N N N M n z e e d d 0 0 0 0 d 0 0 0 0 0 0 0 e e 0 0 0 z k n n b N P P ^ -.-.;.8.5.R R ^ @.R 8.g.                                                                                                                                                                                                                                                                                                                                                                                                                                                                                                                                                                                                                                                                                                                                                                                                                                                                                                          ",
"                                                                                                                                                                                                                                                                            Y.U.P.R <.P.P.P.U.P.<.2.2.#.@ . . . . . . . . . 4 1.P.P.T.T.T.R.T.R.U.T.U.f.U.f.<.<.f.~.].3X].2.f.].T.R.].^.`.6X`.^.].6X3X8X6X[.3X3X3X7X7X6X7X6X6X4X7X].4XwXwXwX4X`.Y.T.;.,.#.T J J @.+.U.Y.~.1.1.<.%.%.<.<.>.<.<.<.<.<.;.-.T T J N M N z z e e 0 0 0 0 0 0 0 0 0 7 6 0 6 3 6 3 3 0 3 0 0 e e e e e k b b P ^ -.-.-.5.8.-.^ ^ 5.5.5.9.                                                                                                                                                                                                                                                                                                                                                                                                                                                                                                                                                                                                                                                                                                                                                                                                                                                                                                        ",
"                                                                                                                                                                                                                                                                            f.U.1.R 1.P.1.P.P.P.<.<.2.#.@ . . . . . . . . . 6 1.1.P.T.U.T.T.T.T.U.T.T.U.U.P.1.P.~.].].].,.:.T.U.f.|.^.T.3X3X~.`.3X3X6XrXwXwX4XwX6X7X3X7X6X6X4X6XwX4XwXwXqXqXqX`.`.^.T.U.f.2.+.;.Y.E.~.U.1.3.>.>.*.X.%.<.>.>.<.,.,.;.-.-.^ ^ E J M z z k 0 0 0 3 7 6 7 6 6 0 7 6 6 0 6 2 2 4 3 3 3 7 7 0 e 0 0 e e n b b P E R ^ 5.r.k.5.-.5.q.5.5.q.                                                                                                                                                                                                                                                                                                                                                                                                                                                                                                                                                                                                                                                                                                                                                                                                                                                                                                      ",
"                                                                                                                                                                                                                                                                            f.T.1.R 1.P.f.4.P.P.<.<.2.#.@ . . . . . . . . . g 1.<.P.T.U.T.T.T.U.P.T.T.T.T.T.P.P.~.].].R...#.P.<.U.~.P.~.6X~.~.3X3X3XwXrXwXwX6X6X6X7X].wX3X3X].4X].wXrXwX].4X[.4X].^.R.R.Y.1.1.~.^.T.1.<.3.3.>.3.<.*.X.<.>.>.2.,.;.+.T 5.0.^ P N n k 0 0 0 0 q 3 7 0 6 q 6 0 q 6 6 0 6 4 3 2 3 0 3 3 3 0 0 0 0 7 0 z n n v N R 5.q.r.z.k.q.q.0.q.6.5.5.8.                                                                                                                                                                                                                                                                                                                                                                                                                                                                                                                                                                                                                                                                                                                                                                                                                                                                                                  ",
"                                                                                                                                                                                                                                                                            f.T.2.R 1.P.P.1.P.P.<.<.<.X.@ . . . . . . . . . h <.<.3.P.P.T.P.U.U.P.U.T.T.R.R.T.T.~.|.].T.o.:.>.#.T.1.U.].~.U.].3X~.3X6X4X6X6X7X6XwXwXrX].3X3X7X].6XrXrX4X4X].4X~.^.R.T.Y.T.E.R.].~.1.2.>.>.>.>.3.3.%.X.<.3.%.2.;.T E ^ 0.r.^ N b v d 0 0 d d 0 0 d d d d 0 z d d 0 k e 0 0 0 0 k 0 0 0 k k n k 0 e n b b x n P ^ q.0.k.k.k.q.0.r.q.q.5.5.5.                                                                                                                                                                                                                                                                                                                                                                                                                                                                                                                                                                                                                                                                                                                                                                                                                                                                                                ",
"                                                                                                                                                                                                                                                                            f.T.2.R 1.P.P.1.P.1.<.,.<.X.4 . . . . . . . . . H <.<.4.<.1.T.P.U.P.1.U.U.U.R.~.T.R.~.^.~.>.G 2...#.U.<.U.~.1.U.].R.T.7X3X`.3X6X3XwXwXrXwX6X6XwX4X4XwX6XwX4X4X4X4X`.~.~.Y.T.~.~.]./.<.>.,.>.>.>.>.<.U.>.X.<.~.1.,.-.T R R 5.q.^ b N J v v z z z k k c c g c z v v g d z z z k k k k d v v v v J b b b J E J J b P P ` 7.7.7.l.i.7.0.0.q.q.q.5.-.5.                                                                                                                                                                                                                                                                                                                                                                                                                                                                                                                                                                                                                                                                                                                                                                                                                                                                                            ",
"                                                                                                                                                                                                                                                                            U.U.,.R 1.P.P.1.P.1.<.,.<.X.4 . . . . . . . . . f <.<.4.>.<.P.1.P.1.1.P.P.P.T.T.R.R.R.~.T...+.1.L :.P.>.U.3.<.~.~.<.~.3X~.E.6X5X].6XwXrX3XwX6X].3XrXwX4X7X[.].].`.^.~.Y.Y.E.`.].].1.<.:.;.<.>.<.>.%.T.3.>.>.P.f.;.T E ^ ^ P U E v k 0 0 6 6 7 6 6 4 2 6 6 > > 4 4 > 4 % % % 4 < 4 4 3 2 4 0 4 6 0 7 0 0 k k N b b J R ` _ 6.r.l.0.q.0.0.q.5.5.5.5.5.                                                                                                                                                                                                                                                                                                                                                                                                                                                                                                                                                                                                                                                                                                                                                                                                                                                                                          ",
"                                                                                                                                                                                                                                                                            U.P.1.R 1.P.P.1.1.<.<.,.<...4 X . . . . . . . + L <.<.3.X.#.U.<.1.<.1.1.P.U.P.T.T.R.R.R.U...>.1...2.:.#.1.%.1.R.>.P./.`.U./.6X^.~.6XwX].7X6X3X[.qXwX4X4X4X]./.`.`.`.E.Y.~.`.3X4XR.<.>.:.:.2.>.>.>.X.4.T.1.>.f.j.-.E E E E P E R z < % % % @ @ @ @ @ @ + @ @ @ + @ @ @ % % @ @ @ % @ @ @ @ @ @ % % % % % 2 < > 2 d v R 6.e.7.^ 0.0.0.i.i.0.q.5.q.5.5.0.                                                                                                                                                                                                                                                                                                                                                                                                                                                                                                                                                                                                                                                                                                                                                                                                                                                                                        ",
"                                                                                                                                                                                                                                                                            f.P.<.Y 1.P.U.P.1.<.1.,.<...4 X . . . . . . . + ,.1.<.,.G #.P.1.1.<.2.<.f.U.P.T.T.T.T.T.U.L >.#.O.,.L o.4.o.<.R.%.f.].1.f.|.~.P.`.wX7X[.3X[.[.6XwX4X4X4X[.`.~.`./.~.E.~./.].].].<.<.#.#.#.,.<.>.>.>.3.T.1.,.;.9.9.-.R E M V E E 0 % @ @ @ @ X X + @ @ @ @ @ + @ @ @ @ + % @ @ + @ @ @ @ @ @ @ @ @ @ @ @ @ % % % 6 v U 5.s.i.^ R ] 0.i.l.s.i.0.0.q.q.q.g.                                                                                                                                                                                                                                                                                                                                                                                                                                                                                                                                                                                                                                                                                                                                                                                                                                                                                      ",
"                                                                                                                                                                                                                                                                            f.P.2.Y 2.U.U.P.1.2.<.,.<...6 . . . . . . . . 4 <.1.<.#.f ..4.1.1.<.,.<.1.P.P.T.I.P.U.T.>.G >...$.f...#.3...<.1.#.1.T.,.U.~.f.Y.4X6X4X].].].4XqX4X6X4X[.].~.`././.~.~.~.`.].].<.<.>.X.L X.<.1.>.>.>.<.U.f.d.;.@.g.9.5.R N N E P 7 @ @ + X X + + @ @ + + + + + @ @ @ @ @ + @ @ @ @ + @ @ @ @ @ + @ + + @ @ @ @ % 6 v z P 0.i.R V U 7.i.i.l.l.l.r.7.0.s.i.r.                                                                                                                                                                                                                                                                                                                                                                                                                                                                                                                                                                                                                                                                                                                                                                                                                                                                                    ",
"                                                                                                                                                                                                                                                                            d.1.2.Y 2.U.P.1.1.2.<.>.2...6 . . . . . . . - h 1.1.%.L f ..1.1.4.<.,.<.,.1.P.P.P.P.P.U.#.K >.L >.f...<.3.o.<.#.o.P.#.#.R.T.d.^.6X3X].].`.].4X[.3X7X[.4X`.~.~.`.~.].~.`.{.].P.>.X.%.X...X.>.<.>.>.>.<.1.d.9.8.T 8.5.E E b M P E x % @ + + X + + + + X + @ + + @ @ @ @ @ @ @ + + + @ @ @ @ @ @ @ + + X + @ @ @ @ < v k n R r.^ b V R 6.7.0.i.A.l.r.i.k.l.x.r.9.                                                                                                                                                                                                                                                                                                                                                                                                                                                                                                                                                                                                                                                                                                                                                                                                                                                                                ",
"                                                                                                                                                                                                                                                                            f.1.<.P 2.U.P.1.<.<.<.>.<...u . . . o + 4 6 H >.P.1.X.f u ..1.1.1.,.,.<.>.<.1.4.3.P.P.U.+.O.<...,.:...,.....1.....<...#.U.>.f.].3X].].^.].[.4X].3X[.4X`.`.~.`.~.`./.`.4X].R.%.%.X.o.X.X.X.%.%.>.>.>.<.,.d.g.9.T @.-.J P b v P R z % + + X X + + + + + @ + + + @ + @ + + + + + + + + + + @ @ @ @ @ @ X @ @ @ @ @ < v v 7 P q.` n n V U ` q.0.i.l.$Xi.l.A.A.$Xk.8.                                                                                                                                                                                                                                                                                                                                                                                                                                                                                                                                                                                                                                                                                                                                                                                                                                                                              ",
"                                                                                                                                                                                                                                                                            f.1.<.P 2.P.P.1.<.<.<.>.>.L u + @ 4 f G G L O.2.1.<.L h u G 1.1.1.,.>.>.>.1.1.<.1.f.U.U...#.>...<.o.#.1.L #.1.F O.1.L #.R...1.3X].].`.`.].[.].[.`.[.].`.`.`.~.`./.`.].3X`.>.o.o.#.X.X.X.X.X.%.%.>.#.,.d.d.j.8.T Y P n n v v P ^ x < + + X + + + + + X @ @ + + + + @ + + + + + + + + X + + + + @ @ @ + + @ @ @ @ 4 c J d v 5.R V x x x C ` 0.7.k.A.$Xl.F.L.oX@Xk.8.                                                                                                                                                                                                                                                                                                                                                                                                                                                                                                                                                                                                                                                                                                                                                                                                                                                                            ",
"                                                                                                                                                                                                                                                                            f.1.,.P ,.T.P.1.>.,.2.#.#.L f h ..K ....o.X.>.f.1.<.F G f G <.1.1.>.>.>.>.<.<.1.<.<.P.1.G #.o.#.<.L >.1.F ,.P.S #.1.L >.P.F 1.3X^.~.~.~.`.].].].`.]./.^.].`.`.`./.].[.[.1.>.o...o.%.X.X.X.%.>.>.%.#.:.d._.x.-.P P P z k k v N R I % + @ + @ + + + + + + + + + + @ @ + + + + + + + + + X + + + + + + @ @ @ @ @ + < v K 7 k R ` P n e x x U q.7.w.k.V.$XF.oX&X,XdXj.                                                                                                                                                                                                                                                                                                                                                                                                                                                                                                                                                                                                                                                                                                                                                                                                                                                                            ",
"                                                                                                                                                                                                                                                                            f.<.>.P 2.T.P.<.>.>.<.#.#.#...o.#.#.#.#.#.#.,.P.<.<.j L H c <.1.<.>.>.>.:.<.<.1.<.1.P.<.L +.L #.1...>.<.L <.>.H 2.1.L >.3...1.].~.~.E.~.`.`.[.].].].^.`.].`.`.`.].].[.~.>.>.o.....#.#.X.*.<.4.4.#.o.;.d.x.x.-.N J b k k k z b E _ 0 + + X + + + + + + + + + X + + + + + + + + + + + + X + + + + + + + + @ @ @ @ > S K 7 0 N P M l e x x M R ` ` w.i.$X#X&X&XdXhXgXj.                                                                                                                                                                                                                                                                                                                                                                                                                                                                                                                                                                                                                                                                                                                                                                                                                                                                          ",
"                                                                                                                                                                                                                                                                            f.<.>.Y :.U.1.>.>.#.:.:.#.>.#.#.#.#.>.#.>.>.<.P.<.>.H L ..S <.1.<.>.>.,.:.<.<.1.<.1.U.<.L +.L #.<...:.X.K <.....>.+.L <.%.L <.(.~.~.R.~.`./.].`.3X].`.`./.`.`.[.].]./.>.>.>.X...o.o.:.:.>.4.R.T.>.+.;.r.9.r.-.v z z k k 8 k v P i.x + X X X + + + X X + X + + + + + + + + + + + + + X + + + + + + + + + + @ @ @ > c K k 7 n P b k e e e x C R C 7.w.i.F.>X<X1XgXjXgXr.                                                                                                                                                                                                                                                                                                                                                                                                                                                                                                                                                                                                                                                                                                                                                                                                                                                                        ",
"                                                                                                                                                                                                                                                                            f.<.>.P :.P.<.#.#.:.>.2.<.2.>.%.>.>.>.>.<.<.<.P.<.#.g L X.S <.<.<.#.#.>.:.1.<.<.<.1.U.1.G +.L X.X.L >.G O.1.L #.1.S K 1...K U.].R.^.T.~.`.~.^.~.].].]./.].`.].[.]./.<.>.X.>.:.X.o...o.,.2.U.`.W.d.9.k.q.E E P c d d k k e k n U 0.z + X X X X X X X X X X X + + + + + + + + + + + + + + + + + + + + + + + @ @ @ > d O.D 6 n N k k e e e k n P x U ` 0.s.L.,XfXhXkXkXdXg.                                                                                                                                                                                                                                                                                                                                                                                                                                                                                                                                                                                                                                                                                                                                                                                                                                                                      ",
"                                                                                                                                                                                                                                                                              <.:.P >.1.#.#.#.1.2.f.1.<.>.>.>.<.<.<.1.<.<.P.<.:.f f L S >.<.<.#.o.#.#.1.1.<.<.1.U.1.G ..G o.L K >.L #.3...>.1.H #.<.F ..R.T.E.R.T.~.~.~.~.~.`.^.]./.].`.].].`.U.>.>.#.#.>.#.o.o.o.#.<.1.f.h.x.k.0.R D b J d i 7 7 e e e l b 0.l @ X X X X X X X X X X + X X + O + + + + + + + + + + + + + + + + + + + @ @ + > d o.J 4 k b e e e e k e e V V V U ` i.i.#XfXkXjXkXxX.X                                                                                                                                                                                                                                                                                                                                                                                                                                                                                                                                                                                                                                                                                                                                                                                                                                                                      ",
"                                                                                                                                                                                                                                                                              >.#.P &.<...c #.f.1.P.4.<.>.>.>.<.<.<.4.1.<.P.<.#.4 p G S ,.<.<...L O.#.<.1.1.<.<.U.1.G ..G X.o.G >.F #.1.L :.<.G >.P.G O.U.U.R.T.U.~.~.~.~.^.~.~.`./.].`.].].~.<.>.#.>.:.>.:.X.X.X.>.2.2.h._._.r.^ N v v b d i 7 7 8 0 7 7 v 7.V % . . X X X X X X X X X X X @ O + + + + + + + + + + + + + + + + + + + + + + > d X.K 6 d b e 0 8 e k e 0 n b b M P ` 7.F.fXMXkXfXbXxX+X                                                                                                                                                                                                                                                                                                                                                                                                                                                                                                                                                                                                                                                                                                                                                                                                                                                                    ",
"                                                                                                                                                                                                                                                                              #.#.P >.<.c i K 2.1.f.1.<.>.>.>.<.<.<.1.1.<.P.<.#.4 d h G <.<.<...j H K :.<.1.<.<.P.1.G ..G X...G >.F #.>.G >.#.G >.1.G #.Y.T.R.T.U.R.E.~.~./.^.~.^.~.].`.`.`.U.>.#.L o.#.#.>.>.>.<.<.2.;.x._.k.R P v n k v d 7 7 6 7 7 7 7 k _ R > . . . X . . . . . . . X X + + X + + + + X + + + + + + + + + + + + + + @ + > d #.O.g 7 n e 0 8 e e e 0 k n n x V V / t.:XmXmXkXxXMXjX@X                                                                                                                                                                                                                                                                                                                                                                                                                                                                                                                                                                                                                                                                                                                                                                                                                                                                  ",
"                                                                                                                                                                                                                                                                              #.#.J #.>.6 7 G :.1.f.1.<.>.>.>.<.<.<.<.1.<.1.<.#.p f g L <.<.<.L f f S O.%.<.<.<.P.1.G ..S X.X.G X.j #...G #.G L 1.>.S d.T.R.T.I.U.T.T.R.T./.].~.~.~.^./.^./.1.:.#.o.o.L ..#.>.#.<.1.<.;.h.x.-.J b z k d d d 7 6 7 7 3 3 7 7 P C @ . . . . . . . . . . . + . + + + + + + + + X + + + . + + + + + + + + + @ O @ d #.$.6 4 k e 7 0 0 e e 0 e x x n C M V ' F.kXAXmXxXMXjXgX9.                                                                                                                                                                                                                                                                                                                                                                                                                                                                                                                                                                                                                                                                                                                                                                                                                                                                ",
"                                                                                                                                                                                                                                                                            d.$.O.J #.#.6 > f >.1.P.1.<.>.%.>.<.<.<.<.<.<.<.<.#.p f 4 ..2.<.<...p f c S ..<.<.<.P.f.F ..F o.X.F #.j X.X.G #...K 1.K L <.U.R.T.P.I.T.T.R.R././.^.~./.~.~.~.~.>.X.L ..L L L o.:.#.>.<.>.d.h.5.P v n k 0 d 0 0 7 6 4 7 3 3 4 7 V _ * . . . . . . . . . X + . . + . . + + + + . X X + + X + X + + + + + + + @ @ @ d X.:.d < k k 7 7 e e e 0 e x x n x x M U t.gXGXFXxXMXbXnX X                                                                                                                                                                                                                                                                                                                                                                                                                                                                                                                                                                                                                                                                                                                                                                                                                                                                ",
"                                                                                                                                                                                                                                                                      W.W.W.Y.R.#.G ..#.@ o f #.1.1.1.<.>.#.>.<.<.<.<.<.,.2.<.#.H i ; S <.<.<.o.H H f h ..,.,.2.P.P.S O.F ..#.G X.j X.X.G #.K ..1.S ..f.P.T.P.P.U.T.U.R.~.^.^./.^./.~.~.R.~.:.....L L F L ..:.<.>.<.,.j.9.T E n k d 7 7 7 7 0 6 < < 1 7 4 4 k q.1 . . . . . . . . . X X . . o . . . o o X X . X + + . . X + + + + + + + @ @ > c ..%.S 4 7 n 7 7 8 e e 7 0 x A x x x x V ] D.HXGXbXmXnXnXgX                                                                                                                                                                                                                                                                                                                                                                                                                                                                                                                                                                                                                                                                                                                                                                                                                                                                ",
"                                                                                                                                                                                                                                                                      8.r.r.r.`.T...K ..@ . f o.1.1.<.>.>.#.>.<.<.<.<.<.>.<.>.#.G , ; S #.<.<.X.G S f H F >.,.<.P.P.S ..L ..>.F X.j o.X.G #.L ..4.L +.P.T.T.1.P.U.T.T.R.~.~.~./.~./.~.~.T.T.#.L F L L F L K L o.:.#.f.j.-.P P z 7 7 4 4 6 6 6 < 4 4 4 3 4 3 k / 2 . X . . . . . . . . X . . . o . . . . X . . . + + X . X + + + + + + + @ O @ f o.>.L u 7 z 7 7 3 7 7 7 3 e x x z x b b C F.mXFXmXmXbXjXxXg.                                                                                                                                                                                                                                                                                                                                                                                                                                                                                                                                                                                                                                                                                                                                                                                                                                                              ",
"                                                                                                                                                                                                                                                                      ;...d.d.Y.`.R...K @ . - K <.1.<.>.>.#.>.<.<.<.<.>.>.,.>.>.S > > F ..>.<.%...L H S S %.>.,.P.P.L ..o.L #.F ..S o.*.S #.S L <.L #.P.P.T.f.P.T.T.T.T.~.~.~./.~.].~.~.T.I.o.L F G K F L o.L X.#.:.2.;.P N b d 6 6 4 < 4 6 6 > % % * 4 4 1 0 ` 4 X X . . . . . . . X . + . o . . . . . X X . . o + X . + + + + + + + O @ @ @ i o.<...4 d z 7 7 3 3 3 3 7 0 e r z x M V V t.xXGXSXMXjXxXgXz.                                                                                                                                                                                                                                                                                                                                                                                                                                                                                                                                                                                                                                                                                                                                                                                                                                                              ",
"                                                                                                                                                                                                                                                                      $.L O.Y.`.[.4XT.S u + 4 p <.<.<.>.>.#.>.,.<.<.,.>.%.>.>.#.S u > > L #.%.>.#.#.L G F >.>.,.P.P.G ..o.L %.F ..H o.>.S +.H ..,.G >.P.T.T.P.I.T.T.R.T.~.~.~./.^.[.~.R.T.1.O.F F F L F F ..X.X.>.,.,.-.b k d d 0 6 4 < 4 > 4 > @ @ @ > < < 4 V e @ . . . . . . . . . . + + . . . . . . . . . . . + + X + + + + + + + + + @ @ 7 o.<.#.4 7 k 0 7 3 3 3 3 3 3 e e e x V V V U oXGXGXmXnXgXhX&X                                                                                                                                                                                                                                                                                                                                                                                                                                                                                                                                                                                                                                                                                                                                                                                                                                                              ",
"                                                                                                                                                                                                                                                                      $...S :.Y.W.E.~.U.>.,.K #.<.<.<.<.>.#.>.<.<.<.>.>.%.>.>.#.j p > > G L X.>.>.>.#.....>.>.>.1.P.L L X.L #.j ..H ..>.j ..S L ,.S $.P.U.P.f.U.T.T.R.R.^.~.~.^./.].~.T.T.<.O.F h F F F F ..X.#.X.:.;.T v d 6 d d < > > > - > @ @ @ @ % > @ 4 x 3 + . . . . . . . . . + . o . . . . . . . . . . . . + + + + + + + + + + + @ @ 7 o.<.%.6 < 7 0 3 3 3 3 4 4 4 3 e e e x V B C p.mXGXAXxXhXkXdXr.                                                                                                                                                                                                                                                                                                                                                                                                                                                                                                                                                                                                                                                                                                                                                                                                                                                            ",
"                                                                                                                                                                                                                                                                      $.#...L f.E.Y.].].P.T./.E.<.<.<.<.>.#.>.<.<.<.,.>.%.>.:.#.u c > u ..h G #.>.<.>.#.o.<.>.>.1.P...G X.F #.j ..S ..>.j ..H K >.S #.1.1.<.<.P.U.R.~.R.^.~.~.~.]./.~.T.U.#...F j j F G L L X.:.:.#.+.Y d 7 7 7 0 > @ @ - @ @ @ @ @ @ @ > @ > e e + . . . . . . . . . + . . . . . . . o o . . . . . o + + + + + + + + + + O @ 7 o.<.>.f % 7 7 4 < 3 < < 2 2 2 3 8 e e x m Z ] fXGXSXbXgXhXdX X                                                                                                                                                                                                                                                                                                                                                                                                                                                                                                                                                                                                                                                                                                                                                                                                                                                            ",
"                                                                                                                                                                                                                                                                      #...#...j.W.W.^.].(.U.~./.1.<.<.<.>.#.<.<.<.<.<.>.#.>.#.$.g f g G X.f f ..#.<.>.<.%.<.>.>.1.P...G X.F o.j ..S L >.h ..G G #.F $.P.1.<.2.f.P.~.~.~.~.^.^.~.].~.R.U.U.#.K S h j F L G L o.:.2.;.;.b 0 7 6 4 < > - @ @ + @ + + + @ @ @ @ @ 7 l % . . . . . . . . . . . . . . . . . . o o . . . . . o + + + + + + + @ @ O @ 7 X.<.%.G 6 7 d 4 < < < * < < < 3 8 e e e x V _ V.GXGXMXgXdX,XdX                                                                                                                                                                                                                                                                                                                                                                                                                                                                                                                                                                                                                                                                                                                                                                                                                                                            ",
"                                                                                                                                                                                                                                                                      :.L #.#.9.9.9.~.].].].U.E.1.1.<.<.,.%.<.<.>.<.,.>.%.:.>.#.S f G #.%.f 4 G ..<.#.>.<.4.>.>.<.1.o.G X.S o.j ..G L >.h ..L G #.S +.P.P.<.<.1.P.R.T.R.~.^.(.~.].~.R.U.U.o...S f h F L L L X.<.,.d.-.b 7 < 4 < > @ @ @ @ @ @ @ + + @ % @ @ @ 3 r 3 . . . . . . . . . . . . . . . . o o o o + . . . . o + + + + + + + @ O @ @ 7 X.<.<...< 7 7 4 < < < < < * * < 3 7 e e e V U t.ZXGXmXkXdX>XdX.X                                                                                                                                                                                                                                                                                                                                                                                                                                                                                                                                                                                                                                                                                                                                                                                                                                                          ",
"                                                                                                                                                                                                                                                                      #.G #.#.@.R T 2.].].7X].P.<.1.<.<.<.>.<.<.>.<.>.>.%.>.:...G H ..>.>.f u S G #.K #.>.3.>.>.<.1.o.S X.F ..j ....G %.h o...F #.S ..f.P.f.f.P.P.U.U.T.E.^.(.~./.~.R.T.f.K ..S h h j F F ....<.f.d.-.z 4 > 6 < @ + + + + + + + + + @ > @ O @ < e @ . . . . . . . . . . . o . . . . . o . o + + . . . . o + + + + + + @ @ O @ 7 X.<.<.o.< 4 7 4 < < % > % < * * 2 3 3 8 e x V _ hXGXHXxX>X>X>X&X                                                                                                                                                                                                                                                                                                                                                                                                                                                                                                                                                                                                                                                                                                                                                                                                                                                          ",
"                                                                                                                                                                                                                                                                      #.L #.#.G < i K ].].7X3X].<.<.1.1.<.<.<.<.>.<.>.>.>.>.>.#...H #.<.>.G p f L +.S ..>.<.>.>.<.1.#.F o.F ..j L ..G #.h #.X.j #.G K 1.4.1.f.<.P.T.P.U.R.~.^.~.~.R.T.T.1.....F F F F F L X.<.>.h.h.-.k < > 7 - + + + + + + + + + + + @ @ O O > 7 < . . . . . . . . . . . o . . . . . . . . . + . . . . o o + + + + + + O @ @ 7 X.<.<.X.4 < 7 4 * < % % % * * * < 1 3 3 7 e m / D.JXGXgX>X>X>X@X                                                                                                                                                                                                                                                                                                                                                                                                                                                                                                                                                                                                                                                                                                                                                                                                                                                          ",
"                                                                                                                                                                                                                                                                      3.%.#.#.f + 4 #.^.].3X].7XU.<.<.1.<.<.<.<.>.>.>.>.>.>.>.#.#.L >.<.>.o.L f G ..p c #.>.%.>.<.1.<.G o.S ..j G ..G #.S +.%.j X.G K <.1.<.P.f.P.T.U.U.U.R.~./.^.R.U.U.<...F h j F L F o.#.,.>.f.h.@.6 > > < @ + + + + + + + + + + + @ O + O 4 e < . . . . . . . . . . . . . . . . . o . . . . . . . . o o o + + + + + O @ @ 6 X.<.<.X.6 % 4 < * * > % @ % % * * < 1 3 7 0 e x _ kXHXmX>X&XdXdXx.                                                                                                                                                                                                                                                                                                                                                                                                                                                                                                                                                                                                                                                                                                                                                                                                                                                        ",
"                                                                                                                                                                                                                                                                    1.#.K #.#.f o 4 #.R.(.3X].7X].P.<.1.P.<.<.<.>.>.>.>.>.:.>.:.,...<.>.#.#.o.S L L u f L X.#.%.<.1.<.S ..j L j G X.S ..h ..>.j #.K L <.<.2.f.P.U.U.P.T.R.R.T.~.R.T.U.U.>...F ..F F F ....o.#.:.d.h.T 7 > 0 < @ + + + + + + + + o + + O + + O @ 7 < . . . . . . . . . . . o . . . . . o . . . . o . . . o o o + + + + + + O @ 6 #.<.<.#.u @ < 4 * < * % % % % * * * < < 1 3 8 e m oXGXGX>X&XdXdX@X                                                                                                                                                                                                                                                                                                                                                                                                                                                                                                                                                                                                                                                                                                                                                                                                                                                        ",
"                                                                                                                                                                                                                                                                    ..c c #.#.p + < O.U.R.].3X].4X].f.1.P.<.<.<.>.>.>.>.>.>.>.,.<.X.<.>.o.#.#.......u u G G L #.<.1.<.S ..j ..j S ..h ..j ..>.h #.L S >.<.2.f.f.U.U.T.R.~.^.T.T.U.T.P.U.#...F ....F F L o.X.#.;.d.9.N 7 < k < @ + + + + + o . o o o + + + + + > 7 3 . . . . . . . . . . . o . . . . . o . . . . o . . . o o o o + + + + + + @ 6 #.<.<.>.f @ 6 4 * < $ % @ @ % @ @ * * * < 2 3 e e C mXHXgX>XdXdXgX                                                                                                                                                                                                                                                                                                                                                                                                                                                                                                                                                                                                                                                                                                                                                                                                                                                        ",
"                                                                                                                                                                                                                                                                    G 1 0 #.#.f O < O.U.T.~.].].7X4X].P.1.<.3.<.>.,.>.#.>.>.>.<.<.>.1.#.G ..#.X.+.#.H p H h H ..<.1.<.S ..j ..S S ..S o.S L >.f #.O.H >.<.<.P.P.T.R.R.R.R.~.T.T.U.P.f.f.:.L h j F F F L o.X.#.2.h.-.b 7 > 6 > @ + + + + + . . o + + + O + + + @ 7 4 . . . . . . . . . o . o . . . . . . . . . . . . . . . . o o o + + + @ @ @ 6 %.>.<.>.j > 6 7 * < < * % @ % @ @ < * * * < 2 3 3 x <XHXMXdXgXdXgX                                                                                                                                                                                                                                                                                                                                                                                                                                                                                                                                                                                                                                                                                                                                                                                                                                                        ",
"                                                                                                                                                                                                                                                                    f 1 < #.#.u O > G h.U.T.~.].3X7X3X].f.2.3.1.,.,.>.#.>.>.>.<.<.,.1.#.S S o.#.#.>...H h f f #.<.1.<.h L j ..F h o.h o.L G :.f X.#.S :.P.U.T.P.T.R.T.T.R.~.R.T.T.U.f.d.+.S f p f j h S F ..o.:.d.Y v 7 O @ @ @ + @ + + + . + . . o o + + + + @ < 3 @ . . . . . . . o o . o . . . . . . . o . . . . . . . . o o + + + + + @ @ 7 #.>.<.>.H > 4 7 * * % @ @ @ @ @ @ * * * * * < 2 7 e ' ZXJXgXgX>X&Xk.                                                                                                                                                                                                                                                                                                                                                                                                                                                                                                                                                                                                                                                                                                                                                                                                                                                      ",
"                                                                                                                                                                                                                                                                    c 2 4 #.#.u + - G h.E.T.T.^.3X3X3X7X].1.<.1.<.<.>.>.>.>.>.<.<.<.1.#.u f L ..#.>.#.K F f p ..<.<.<.H L h L ..h ..S #.G S #.h #.#.j :.P.R.T.P.U.R.R.R.R.~.~.E.T.P.P.f...F j j f f f d f H K +.Y P n 7 @ + O O O + + o . . . . + o + O @ + + @ > 3 O . . . . . . . . . . . . . o . o o . . . . . . o o . . . o o o + + + + @ 6 X.>.>.<...< < 4 * * * @ @ @ @ @ @ % * * * * < 2 3 7 m >XZXdXA.$X6.5.                                                                                                                                                                                                                                                                                                                                                                                                                                                                                                                                                                                                                                                                                                                                                                                                                                                      ",
"                                                                                                                                                                                                                                                                    #.S S #.%.- O > +./.].^.T.T./.3X3X3X7X].1.<.<.<.>.>.>.>.>.<.<.<.1.#.u p S F ..#.#.O...S p F <.<.<.h L j L ..f ..j #...F #.j ..#.f $.<.U.U.P.U.R.R.R.T.R.E.E.T.U.P.1...h u f f f g f d g c Y P v k 4 O O O O O + + + + + o . . o + + @ + + @ < 7 O . . . . . . . . . . . . . . . . . . o o . . . . . . . o o o + + + + + @ 4 *.>.>.<.o.4 < 7 < * * @ @ @ @ @ @ @ % @ * * < 2 3 7 z ] ZX,XF.R P `                                                                                                                                                                                                                                                                                                                                                                                                                                                                                                                                                                                                                                                                                                                                                                                                                                                       ",
"                                                                                                                                                                                                                                                                    :.:.K >.#.- O > G /.(.3X(.T.T.(.3X3X3X7X].<.>.<.,.>.>.>.>.>.<.<.1.>.S u f u G ..#.#.o.L f L <.<.,.h L S G ..f ..S o...S o.j ..#.f o.<.f.U.P.R.T.T.R.R.T.~.E.T.T.P.1...j u f g p g d f d k b P n 7 : O @ @ + + + + + + + + o o o o + + + + @ > 3 O . . . . . . . . . . . . . . . . . . . o . o o . . . . o + + + o + + + @ 4 *.>.>.>.X.4 > 7 2 * < % @ @ @ @ @ @ @ % % * < * 2 3 e Z jXfXV.^ R R                                                                                                                                                                                                                                                                                                                                                                                                                                                                                                                                                                                                                                                                                                                                                                                                                                                       ",
"                                                                                                                                                                                                                                                                    :...O.:.#.6 O > G /.].3X4X~.U.R.(.3X3X3X4X/.<.<.<.,.>.>.>.>.>.<.1.>.F u f , f G #.+.#.o.G o.<.<.%.h K F S ..f ..S o.#.S +.F L #.f #.<.1.U.P.U.U.U.R.R.R.^.R.T.T.4.1...j f f f g f f d d c b b k 7 @ + + + + + + + + + + . . . . . . + + + @ % 3 + . . . . . . . . . . . . . . . . . . . . . o o . . . . . o + + o + + + @ 4 *.>.>.>.X.6 < 0 3 * < * @ @ @ @ @ @ @ % @ @ * < 2 3 7 ] ,XjXL.U P P                                                                                                                                                                                                                                                                                                                                                                                                                                                                                                                                                                                                                                                                                                                                                                                                                                                       ",
"                                                                                                                                                                                                                                                                    ;.....:.#.u O > G ].3X3X3X3X~.Y.R.(.3X3X].4XR.<.>.2.<.,.,.#.>.>.<.<.o.F h 4 f f ....#.#...o.<.<.%.f L ..H o.f ..F ..%.S #.L K #.f #.1.f.f.U.P.P.U.R.R.R.(.R.R.U.P.P...j f f p u f f k d d v V n 4 @ @ O + X X X X X + X . . . . o o + + + + @ 7 - . . . . . . . . . . . . . . . o . . . . . . o . . . . . . + + + o + + + 4 *.>.%.>.#.u > 7 3 @ * % @ @ @ @ @ @ % % @ @ * < 2 3 3 B ,XjX] U R R                                                                                                                                                                                                                                                                                                                                                                                                                                                                                                                                                                                                                                                                                                                                                                                                                                                       ",
"                                                                                                                                                                                                                                                                    ,.#.G #.#.i @ < G ].[.3X7X7X7X~.U.~.].3X3X3X].R.<.,.<.<.,...#.>.<.<.%.....f f p L j ..#.#.%.<.<.%.f K o.S ..f ..F ..%.H #.G F #.h #.1.<.f.P.1.1.U.R.R.E.~.R.R.U.P.P.#.h p h F c c f f d c v N n < @ O O + X X X . . X . . . . . o o + + + @ @ 7 > . . . . . . . . . . . @ @ < < < > > @ - . . . . . . . . o + + + o + + + u *.%.%.>.:.f < 4 4 @ * % @ @ @ @ @ @ @ $ @ @ * < < 3 7 x :XjXq.U E P                                                                                                                                                                                                                                                                                                                                                                                                                                                                                                                                                                                                                                                                                                                                                                                                                                                       ",
"                                                                                                                                                                                                                                                                    8.#...>.%.c @ < f ].7X7X5X5X5X3XR.Y.~.3X3X].].4XT.>.<.<.<...#.%.<.<.,.>.#.L f p H u F ....>.<.<.%.S G X.S ..f ..j L >.S >...G #.f ..<.1.f.f.f.P.U.R.T.~.~.R.T.T.U.P.o.h p f h c c c d c c D b e @ @ O O + X X X . . . + . . . . X + + + + + @ 4 @ . . . . . . . . O < * 7 k b D D P P v k 6 4 O . . . . . o + o o o o + + u X.>.%.%.>.j > 4 < % % < @ @ @ @ @ @ % % % % % $ < 3 3 x oXkXr.E E E 0.                                                                                                                                                                                                                                                                                                                                                                                                                                                                                                                                                                                                                                                                                                                                                                                                                                                    ",
"                                                                                                                                                                                                                                                                    d.#.#.>.>.c @ 4 S 3X7X7X7X7X5X5X3XT.T.~.].3X3X3X].P.>.<.<...>.#.>.<.<.<.>.#.L f H u g F L #.<.<.>.G S o.S ..f ..F L #.H #.o.F ..f ..<.U.f.f.1.P.P.R.~.~.~.R.R.T.U.U.#.j p f h f f c d c S D v k > @ @ @ + + + + + o . . . . . . X + + + + O @ > @ . . . . . . . 1 1 k b b k 7 7 k z v b 7.e.b 7 @ . . + O O o + o o o . + 4 X.%.%.%.>.L > 4 < @ @ < @ @ @ @ @ @ % % @ @ @ * * 3 3 e w.xXs.R P R 0.                                                                                                                                                                                                                                                                                                                                                                                                                                                                                                                                                                                                                                                                                                                                                                                                                                                    ",
"                                                                                                                                                                                                                                                                    d.#.#.>.>.S @ 4 f 7X5X5X5X5X5X3X].~.T.T.^.3X3X3X3X].P.<.<.#.#.%.>.<.<.<.<.>.#.G F u u p h X.#.<.%.S H X.j L f ....F #.h #.o.j o.H ..,.~.U.U.f.P.T.~.^.R.^.E.~.T.P.P.:.F p f h f f f d c J D v k < > - @ + + + o o o o o o . . . . o + + + + @ < < . . . . . . < 3 v v z k 7 7 7 7 7 7 e U t.S.0.7 + . + O + o + o + o . + 6 X.%.%.%.>...> 4 3 @ @ % @ @ @ @ @ @ @ % @ @ @ % * * < 7 w.kXi.R P P 5.                                                                                                                                                                                                                                                                                                                                                                                                                                                                                                                                                                                                                                                                                                                                                                                                                                                    ",
"                                                                                                                                                                                                                                                                    f.O.#.>.>.S > 4 o.3X6X6X6X3X(.(.3X3X(.T.T.^.3X3X3X].].P.<.#.#.>.>.<.1.1.1.<.>.#.L h f u p L ..>.:.G j ..h F f ..o.F #.h #.X.h ..S ..<.U.T.U.f.P.~.~.R.R.~.R.R.T.U.P.>.F h f f f f c d c J G b n 4 % @ @ + + + o o o o o . . . . . o o + O O @ 4 4 . . . . . @ 4 D D z d 7 4 4 4 < > < 4 3 V V.D.i.6 + + + + + o . + o . + u X.*.*.%.>.o.> 4 3 % @ @ @ @ @ @ @ @ @ @ @ @ @ % * * * 3 ] kXl.` P P ^                                                                                                                                                                                                                                                                                                                                                                                                                                                                                                                                                                                                                                                                                                                                                                                                                                                     ",
"                                                                                                                                                                                                                                                                    f.+...%.>.H 4 > #.].3X5X3X].3X7X7X7X3X~.U.R.(.3X3X].3X].f.#.+.%.<.3.1.1.1.2.<.>.o...h u 4 H L #.:.L j o.f G f L o.G X.f +.#.j ..S G >.1.U.U.1.1.T.R.R.R.~.R.T.T.T.P.<.h h h f g d c d c J J P v 7 - @ @ @ + + o . o o . . . . . o o . o @ @ @ - > . . . . X 4 v P 7 7 7 4 < > > - - @ @ > 4 x V.,XU < + X + + o . + o . - u X.*.%.%.>.X., < < @ @ > * @ @ @ @ @ @ @ @ @ @ @ * * * 1 / jXA.^ P P U                                                                                                                                                                                                                                                                                                                                                                                                                                                                                                                                                                                                                                                                                                                                                                                                                                                     ",
"                                                                                                                                                                                                                                                                    h.$.G #.>...G J >.~.].].5X5X6X6X7X3X].].E.I.R.(.3X].].3X].>.K #.<.P.P.1.<.2.<.<.>.#.L f 4 f H $.>...j o.f F f L X.F #.S ..>.h ..G H <.<.f.T.1.<.P.R.T.R.~.R.T.T.U.P.<.S h h p p g d d f G K P v 7 - + + @ + + + . o o . . . . o o o o + O @ @ @ @ . . . . 4 7 b k 7 > > > - @ @ @ @ - @ @ @ 7 U hXjXk - o + o o . + + . > u X.*.%.%.%.X.4 < < @ @ * $ @ @ @ @ @ @ @ @ @ @ @ @ * * < Z fXF.6.U P U                                                                                                                                                                                                                                                                                                                                                                                                                                                                                                                                                                                                                                                                                                                                                                                                                                                     ",
"                                                                                                                                                                                                                                                                      ,.K ..>.>.U.Y.E.T.^.~.6X8X6X6X5X7X7X7X3X~.U.~.].3X].].3X].+...<.T.P.1.<.<.<.<.<.>.#.F p h f #.>.#.S ..f S h ..#.S o.H ..<.h o.L h >.1.P.T.f.<.U.T.~.~.R.~.T.T.U.P.,.G h h p f g u 4 p S K Y b 7 - @ @ + + + + . o . . . . . . . o o o + @ @ - @ . . . O 3 v k k 6 - @ @ @ @ @ - - - - - - < k ] kXF.6 + + + + . + + o - u X.%.%.%.%.%.u > < @ @ @ @ @ @ @ @ @ @ @ @ @ @ @ @ @ * < B fXF.` R P P                                                                                                                                                                                                                                                                                                                                                                                                                                                                                                                                                                                                                                                                                                                                                                                                                                                     ",
"                                                                                                                                                                                                                                                                      f.O.S #.%.,.E.E.E.T.R.3X8XwX6X6X5X7X4X6X3XR.U.~.(.3X].].3X^.#.<.T.T.P.<.>.<.<.1.1.>.X.G H f #.>.#.S ..g G h L #.S o.F ..>.f o.G f >.T.U.P.U.2.U.T.R.~.R.~.T.T.U.P.1.G j h f g f f d d H J J b 7 > + @ + + o o . . . . . . . . o o o o + + @ > 4 . . . * 7 M k 4 - @ @ @ @ @ @ @ @ @ @ - - - < x <XkXC < o + + . + X . - u o.%.%.%.%.%.p < 4 @ @ @ @ @ @ @ @ @ @ @ @ @ @ @ @ @ % * B ,XD.6.P P P                                                                                                                                                                                                                                                                                                                                                                                                                                                                                                                                                                                                                                                                                                                                                                                                                                                     ",
"                                                                                                                                                                                                                                                                        f.G ..#.$.2.Y.Y.Y.T.].7XwXwX6X6X6X6X7X3X(.T.U.~.].].].].7X~.1.P.T.U.<.>.>.<.3.P.<.>.....S #.>.#.j ..c G h F #.S ..G G >.h o.o.f 1.T.P.f.P.<.P.T.R.~.~.T.T.R.T.P.1.L h h f f p d d d H G J b 6 @ + @ + + o o . . o o . . . . o o o o + + @ < 7 O . O < k l k < @ @ - @ @ @ @ @ @ @ @ @ - @ - 7 R kXl.< @ @ + o + . . > p o.X.%.%.%.%.p < 7 < @ O @ O O O @ @ @ @ @ O # @ @ @ @ * e :XD.6.P P P q.                                                                                                                                                                                                                                                                                                                                                                                                                                                                                                                                                                                                                                                                                                                                                                                                                                                  ",
"                                                                                                                                                                                                                                                                          ,.K #.#.:.f.U.U.U.~.3X5XwX6X6X6X6X7X3X].^.U.T.^.].3X].3X].^.1.U.R.1.<.>.<.3.1.<.<.%.#.L #.>.#.j ..h G j F #.j ..H S >.j ....f >.P.f.1.1.U.P.T.T.R.].R.T.R.T.P.f...f f h h h f f d H J J n d < O @ + + o o o o o o . . . . . o o + + + @ - 7 O . # > k k 7 < - @ @ @ @ @ @ @ @ @ @ - @ @ - < U :XJ.7 @ @ + o + + . - p o.X.%.%.%.%.H < < @ @ O @ @ O O O O O O @ O # @ @ @ @ * e J.oXq.P P P 6.                                                                                                                                                                                                                                                                                                                                                                                                                                                                                                                                                                                                                                                                                                                                                                                                                                                  ",
"                                                                                                                                                                                                                                                                            ..#.#.#.#.U.Y.Y.U.(.7X6XwXwX6X5X7X3X].].R.P.T.^.].].3X].].T.<.U.P.3.>.<.3.1.<.<.<.>.#.>.,.#.j ..H L F S o.j ..G S #.f ..o.f #.1.f.1.2.P.P.T.U.T.^./.R.R.T.U.P...f f f h h h f f f S Y b d 4 @ @ @ + o o o o o o o o . . o o o o + + O @ < O . @ 3 b k 6 @ @ @ @ @ @ @ @ @ @ @ @ > @ @ - - C N.J.m @ + O + + + . ; f o.*.*.*.%.>.G > < $ @ @ @ @ O O O O O O O @ O O @ @ @ * e N.oXR I P P 5.                                                                                                                                                                                                                                                                                                                                                                                                                                                                                                                                                                                                                                                                                                                                                                                                                                                  ",
"                                                                                                                                                                                                                                                                            ,.#.#.#.#.>.U.U.U.T.].7X8X8X6X5X7X7X].].(.T.I.R.(.].3X].].R.U.<.1.P.<.1.3.1.>.<.3.3.<.<.,.#.j ..S L ..S ..f o...G >.h K ..f #.f.P.f.1.U.T.R.T.U.R.~.E.R.T.T.P.o.j p f h h p g g g S Y J d < + @ @ + + o . . . . o o . . . o + + + + O @ < + . O 3 x k - @ @ @ @ @ @ @ @ @ @ @ @ - @ @ - - V t.J.U @ + + . + + . ; f o.*.*.*.%.>.L @ < < @ @ @ @ O O O O O O O O @ O @ @ @ @ q y.oX_ U P P 5.                                                                                                                                                                                                                                                                                                                                                                                                                                                                                                                                                                                                                                                                                                                                                                                                                                                  ",
"                                                                                                                                                                                                                                                                            ,.#.>.#.#.$.>.Y.Y.Y.E.3X7X6X6X6X5X7X]./.~.R.P.I.R.].3X].].R.R.T.,.P.3.P.3.1.>.<.3.P.1.<.<.#.j ..F G o.G ..S #.X.L >.h G +.f #.U.U.f.f.T.T.~.T.U.R.R.R.R.T.T.P.o.j p p f f p p p f j K J d 4 + + O + o o . . . . o o . . . o + + o o + @ 4 O . O k l k < @ @ + + @ @ @ @ @ @ @ @ @ @ @ @ - e ] C._ @ O @ . o + . > f X.X.*.%.%.>.#.@ > % O @ @ O O O O O O @ O @ @ @ @ @ @ @ 3 [ oX` U P P U                                                                                                                                                                                                                                                                                                                                                                                                                                                                                                                                                                                                                                                                                                                                                                                                                                                   ",
"                                                                                                                                                                                                                                                                            2.#.>.>.#.#...2.d.d.f.~.3X5X8X6X6X3X].^.R.T.P.T.T.(.3X].].R.T./.T.<.P.T.3.f.>.<.3.3.3.1.<.#.h ..G S ..S ..G o.%.F #.F G X.p #.f.P.f.P.E.T.R.T.T.T.T.R.E.R.U.P.X.h p p f h f p p h F Y J k 4 @ + + + + + o . . . . o . . . o + + o o + @ 6 % . O s l k < @ @ + @ + + @ @ @ @ @ @ @ @ O - < e ' v.Q @ O < o o o . > h X.X.*.%.%.>.%.> > @ O O @ O O O + + O @ @ O @ @ @ @ % @ 1 _ oX` U P P P                                                                                                                                                                                                                                                                                                                                                                                                                                                                                                                                                                                                                                                                                                                                                                                                                                                   ",
"                                                                                                                                                                                                                                                                            d.#.>.>.#.#.o.o.f.d.d.f./.3X5X5X7X].(.^.R.T.T.T.T.(.3X].].R.T.~.`.f.<.T.T.P.<.<.3.3.P.3.<.#.h K ..S ..j ..F ..%.h X.G S ..f +.1.P.P.P.~.R.T.T.R.R.R.T.R.R.T.I.#.h u p p h f p p h G O.J n 6 @ @ + + o + o o o o o . o . . o + o o o + @ 4 @ . O 4 n k 4 @ O O @ @ @ @ @ @ @ @ @ @ @ @ @ < e _ t.x O . O O o o . + h X.X.*.%.%.>.>.- 6 < O O O @ O O O + O O @ O O @ @ O % % < C oX` I P P R                                                                                                                                                                                                                                                                                                                                                                                                                                                                                                                                                                                                                                                                                                                                                                                                                                                   ",
"                                                                                                                                                                                                                                                                            d.+.>.>.>.#.+.O.$.2.d.8.U.(.].3X3X3X].].(.^.R.T.U.R.3X].].R.T.E.].~.1.1.T.R.<.<.3.3.P.3.<.#.H ..L S ..j ..H L #.h #.S H O.f O.1.U.U.P.~.R.P.T.R.R.R.T.T.T.R.U.#.h u u p f f p p f H O.P z < @ @ + + o o o o o o o . o o . o + o o o + + @ @ . O 7 z z 7 @ @ @ @ @ @ @ @ @ @ @ @ @ @ @ @ - n _ w.m > . . . . o . > h X.X.*.*.%.>.%.4 6 4 @ O O O O @ @ + O @ O O @ O @ @ @ % 2 B %X7.U P P P q.                                                                                                                                                                                                                                                                                                                                                                                                                                                                                                                                                                                                                                                                                                                                                                                                                                                ",
"                                                                                                                                                                                                                                                                            d.$.>.>.>.#.+.+...:.d.2.8.T.(./.].7X7X7X3X(.~.T.U.U.].].].~.>.,.2.,.Y.P.U.].P.<.3.3.P.1.<.#.G L #.G o.h L j ..#.h o.F c ..f ..1.U.P.P.E.T.U.T.T.E.R.R.T.U.T.U.%.S u u p p p p p p h K J k < @ @ + + o o o o o o . . . . . o + o o o + @ @ @ . O < n z i < @ @ @ @ @ @ @ O @ @ @ @ @ @ - > M { ' 3 @ o o . . o . + h o.*.*.%.%.>.%.u 6 4 @ O O O # O @ + O @ @ @ O @ O @ @ @ < x oXt.U U P P 7.                                                                                                                                                                                                                                                                                                                                                                                                                                                                                                                                                                                                                                                                                                                                                                                                                                                ",
"                                                                                                                                                                                                                                                                            d.$.>.>.>.#.#.#.+...,.d.d.d.R./.3XwX6X5X7X].^.R.U.I.~.~.R.I.#.S G K f.T.T.^.R.3.3.3.3.1.<.%.S L X.G o.h ..G G #.f ..F f K f K 1.f.f.P.R.T.U.T.T.R.R.R.R.T.U.T.#.S p u u p p p p p H O.P n - @ @ + + o o o o o o . . . . o o + o o o o @ @ @ . O > c v k - - @ @ @ @ @ @ O O @ @ @ @ - @ 6 C ' U 4 + . o . . . . + h o.*.*.*.%.>.%.u 4 4 @ O O O O O O + + O O + O O @ O @ * < e oXt.U U P P 6.                                                                                                                                                                                                                                                                                                                                                                                                                                                                                                                                                                                                                                                                                                                                                                                                                                                ",
"                                                                                                                                                                                                                                                                            f.+.>.,.>.#.#.#.+.+.#.,.8.d.d.T.(.5X6X6X5X3X].~.I.2.2.$.$.#.Y Y K K K U.R.T.T.T.P.3.3.1.<.>.F G X.F ..h ....G #.f ..L f L k G f.P.1.P.T.T.U.T.T.R.R.R.R.R.T.T.%.G f u u p f p f c S O.Y v > - @ + o o . . o . o . . . . . o + o o o + @ @ @ . . * 7 P z k > - @ @ @ @ O O O @ @ @ @ - < x Q ] k > o . o . o o . + j o.*.*.*.%.>.>.p > < @ O O O O O O + + O O O O O O @ @ 1 0 0 #Xt.R U P P 6.                                                                                                                                                                                                                                                                                                                                                                                                                                                                                                                                                                                                                                                                                                                                                                                                                                                ",
"                                                                                                                                                                                                                                                                            h.#.>.,.>.#.#.#.#.+...>.;.;.;.d.~.7X6X6X6X5X<.%.+.Y O.+.+.+.+.O.K G S G <.T.P.P.I.P.3.1.<.>.F ..o.j ..j ..O.G #.f ..o.p ..c S 1.U.1.P.T.T.U.U.T.T.R.R.R.R.R.U.>.S f d u u p p i k v K J v 6 @ @ + o . o o o o o . . . . . o + o o o + @ - @ . . O 3 v Y k d < - @ @ @ O O @ @ @ @ @ 4 e m ` I 4 @ . . o o o o . + j o.*.*.*.%.%.%.h > % @ O O O O O O + + O @ @ + @ O @ @ % < 3 F.a.` P P V U                                                                                                                                                                                                                                                                                                                                                                                                                                                                                                                                                                                                                                                                                                                                                                                                                                                 ",
"                                                                                                                                                                                                                                                                            h.$.>.<.>.#.#.#.#.#.+.#.,.8.;.,.I.`.7X6X6X6X/.#.K Y Y O.O.O.K Y Y K G S G R.T.3.P.T.3.1.<.%.F j o.j ..S ....G #.h ..#.p ..H S 1.U.1.P.U.T.U.U.T.T.R.R.R.R.R.T.<.S g u g u p p i i v K J v 6 @ @ + + o . . . . . . . o o . o o o o o o + - - . . . 4 k Y v D i < @ @ @ @ @ @ @ @ @ 1 l x C R k < O . . o o o o o + j o.*.X.*.%.%.>.S > @ O O O O + + + o + + O @ O O O O @ @ % 3 y.u.' P P P P                                                                                                                                                                                                                                                                                                                                                                                                                                                                                                                                                                                                                                                                                                                                                                                                                                                 ",
"                                                                                                                                                                                                                                                                            f.$.>.<.>.#.#.#.>.#.#.#.>.;.d.2.d.U.`.6XwX8X/.(...K Y Y Y Y Y O.O.Y K D S G T.R.1.U.3.P.1.>.X.j o.j K F L #.G O.f ..%.p L j S >.f.f.U.T.P.T.U.T.R.~.~.R.R.R.T.1.S u 6 u u p p i i c T E b 7 @ @ + o o . . . . . . . . o . . o o o o o + @ 4 . . . + 7 T +.b i 7 4 - @ - : - < 7 8 x M V _ P < @ O . . o . o o o + j o.o.X.*.%.%.<.L > > @ O O + + + o o + + + + O + O O @ @ @ 1 [ Z.^ I P P V                                                                                                                                                                                                                                                                                                                                                                                                                                                                                                                                                                                                                                                                                                                                                                                                                                                 ",
"                                                                                                                                                                                                                                                                              :.>.<.>.#.#.#.>.>.#.#.#.$.>.f.<.d.U.3X6XrX].].,.L K K K K K K K Y K G S D O.U.R.1.1.4.3.>.#.L o.j ..h L #.S o.j ..%.u ..F H :.f.f.T.T.T.R.T.R.R.R.R.R.R.R.T.<.S g 6 u u p i f f S O.R M 4 @ @ + o o o . . . . o . . . . . o o o o o O @ 4 . . . . O 7 O.T J k k 7 3 3 k e e l l m V ! U 4 @ o . . . o . . o . + j o.o.X.*.%.%.<...- < @ O O + + + + + + + + + + + + + @ O @ < ' Z.^ I P P V 8.                                                                                                                                                                                                                                                                                                                                                                                                                                                                                                                                                                                                                                                                                                                                                                                                                                              ",
"                                                                                                                                                                                                                                                                              :.>.<.>.#.#.#.>.>.>.#.#.#.>.2.2.2.2.T.7X8X].].3...u 6 4 4 @ @ @ @ u u p i f f R.R.<.f.P.<.>...#.j L S G %.h o.S ..%.u ..L H $.f.U.T.~.~.~.T.T.R.R.T.R.R.R.R.1.S f u u u p p p g f K T P 7 @ @ + o . . . . . . . . . . . . o o o o o O @ 3 X . . . . @ 7 O.O.T D k 7 7 7 k 8 e b I W I 4 @ o . . o . o o o o . + j *.o.o.*.%.%.>.#.@ - @ O O + + + + + o + + + + + + O O O @ < V Z._ P P P P q.                                                                                                                                                                                                                                                                                                                                                                                                                                                                                                                                                                                                                                                                                                                                                                                                                                              ",
"                                                                                                                                                                                                                                                                              :.>.,.>.#.#.#.>.>.>.>.#.#.>.,.f.Y.2.2.T.7X[.].T...4 . . . o . + @ i 4 4 - @ > R.(.R.<.P.P.<.#.%...K G S #.f ..S G #.u K o.H :.P.U.T.R.R.R.R.T.T.T.R.R.R.R.T.1.S f u u u u u u g f K T b 6 @ @ + + . . . o . . . . . . . . . o o o o O @ 3 X . . . . . + > f D Y Y R R ! U I I P W k > + . . . . o + o o o o . + F o.o.o.X.%.%.>.%.@ @ @ O O + + + + + . . + + + + + + + O @ % x Z._ P P P P 6.                                                                                                                                                                                                                                                                                                                                                                                                                                                                                                                                                                                                                                                                                                                                                                                                                                              ",
"                                                                                                                                                                                                                                                                              :.#.>.>.#.#.#.>.>.>.>.:.#.>.>.>.U.Y.U.Y./.].].^...> . . . . @ u S #.$.K n c G T.~.].R.<.T.P.<.<...o.F f #.h ..S G #.u K #.h $.P.U.T.T.R.T.T.T.U.T.R.~.R.R.T.P.S f u u p u u p f H K T b 7 @ @ + + o . . o o . . o . . . . . o o o o O @ 4 X . . . . . . . + @ 7 v v P Y D z x 7 - O + . . . . . o o . . o o . o ..o.o.o.X.%.%.>.>.4 @ @ + O + + + + o . . + + + + + O + O O % r Z.^ P P P P 5.                                                                                                                                                                                                                                                                                                                                                                                                                                                                                                                                                                                                                                                                                                                                                                                                                                              ",
"                                                                                                                                                                                                                                                                              ,...>.>.#.#.#.%.>.>.>.>.>.>.>.>.>.T.T.U.T.].].T...@ . . . o u $.<.<.>.,.$.+.K P.R./.4X~.P.T.3.3.X.#...S ..f ..L F X.p L #.f #.1.P.T.T.R.~.R.R.T.T.R.R.T.R.T.P.S h 4 u u u u f S K $.T n 4 @ @ + o o . . . . . o o o . . . . o . . . O @ 7 @ . . . . . . . . . o O > 4 6 7 < < + . . . . . . . . . . . . o . . o ..o.o.o.X.*.%.>.>.4 @ @ + O O + + + o . . + X X + + @ O O O @ e N.R P P P P `                                                                                                                                                                                                                                                                                                                                                                                                                                                                                                                                                                                                                                                                                                                                                                                                                                               ",
"                                                                                                                                                                                                                                                                              ,.+.#.%.#.#.#.#.>.>.>.>.>.>.%.>.#.<.~.T.T.R.].3.O.< . . . - G <.<.#.#.>.#.+.+.I.R.^.].4XR.U.U.P.>.>.+.S #.h K L F X.f L %.f o.P.U.T.R.T./.~.R.T.U.T.R.T.T.T.I.G j u u u u u f G K :.8.I 6 + + + o o . . . . . . o o . . . . . . . o O > 7 @ . . . . . . . . . . . . . o o . . . . . . . . . . . . . . . o . . o ..o.o.*.X.X.%.>.,.- @ @ @ O + + + + + o . + + X + + @ O O O @ 3 a._ P P P P R                                                                                                                                                                                                                                                                                                                                                                                                                                                                                                                                                                                                                                                                                                                                                                                                                                               ",
"                                                                                                                                                                                                                                                                              f.$...#.#.#.#.>.:.,.<.<.>.>.>.>.#.>.U./.E././.1.#.6 @ . . < ..>.>.#.#.#.<.#.K ....~.].3X3XR.f.U.<.<.#...%.h S ..H ..f G #.c O.P.U.R.R.T.E.R.R.R.T.R.R.T.T.T.U.L j u u p u p p h K ;.j.P k - @ o o o . . . . . . . . . . . . . . o . O > 7 * . . . . . . . . . . . . . . . . . . . . . . . . . . . . o . . . . + F o.o.*.X.X.%.>.>.4 @ - @ @ O + + + + + o o + + + X + + O O @ 1 u.' P P P P P                                                                                                                                                                                                                                                                                                                                                                                                                                                                                                                                                                                                                                                                                                                                                                                                                                               ",
"                                                                                                                                                                                                                                                                                ,.#...#.#.#.>.>.,.<.<.,.>.>.>.>.>.<.E.E.~.~.+.K d d 6 6 d K #.>.#.#.#.#.2.+.G G #.].].3X3XT.3.U.3.>.X.#.f S ..f ..h G :.c +.f.U.T.R.T.U.R.~.R.T.R.R.T.T.T.U.K H u u p f f p u f +.d.R v 6 + o o o o . . . . . . . . . . . . . + o o > 7 < . . . . . . . . . . . . . . . . . . . . . . . . . . . . . . . . . + F o.o.o.X.*.%.>.>.p @ < @ @ @ + + + + + + + + + + + + @ @ @ @ < [ 7.P V P P P                                                                                                                                                                                                                                                                                                                                                                                                                                                                                                                                                                                                                                                                                                                                                                                                                                               ",
"                                                                                                                                                                                                                                                                                  $.L O.#.#.:.>.<.>.<.,.>.>.>.>.>.,.<.Y.U.U.,.S S K ..K +.G O.#.#.#.O.#.#.<.$.Y O.T.T.~.^.~.U.P.U.<.>.>.....#.h ..S S #.H o.P.U.T.R.R.T.T.~.R.R.T.R.T.T.T.f.K H u u p f f f g f L ;.P c 6 O O o . . . . . . . . . . . . . . . o o o > 7 3 . . . . . . . . . . . . . . . . . . . . . . . . . . . . . o o . . + F o.o.o.X.X.%.>.,.f - < @ O O + + + + + + + + + + + + O O O @ % Z 7.P V P P P                                                                                                                                                                                                                                                                                                                                                                                                                                                                                                                                                                                                                                                                                                                                                                                                                                               ",
"                                                                                                                                                                                                                                                                                  d.O.L +.#.#.>.<.>.<.<.>.>.>.>.>.>.>.<.,.,.>.$.k c ..2.,.G K O.#.O.+.#.$.+.O.Y Y O.:.$.+.$.U.P.f.1.>.<.#.>.<.h L h S #.H ..1.U.R.R.R.R.I.T.E.R.R.R.T.T.T.U...H u u 6 p p f f S K 8.P i @ O @ O . . . . . . . . . . . . . . . . . o < 7 7 o . . . . . . . . . . . . . . . . . . . . o o . . . . . . o o . . > ..o.o.o.o.X.#.>.,.H - < @ @ + + + + + + + + + + + + + O O @ @ < Z t.P V P P P                                                                                                                                                                                                                                                                                                                                                                                                                                                                                                                                                                                                                                                                                                                                                                                                                                               ",
"                                                                                                                                                                                                                                                                                    ,.O...#.#.>.,.>.<.<.>.>.>.>.>.>.>.>.,.;.;.;.D c ..2.2.G K ..O.#.#.#.Y ;.;.+.+.$.$.#.O.O.#.T.f.1.1.1.2.2.<.h ..S L #.S ..1.T.~.~.~.T.>.f.~.R.R.T.T.T.T.U...H p u u u u p f S L :.P i O O + o . . . . . . . . . . . . . . . . . . @ 1 3 . . . . . . . . . . . . . . + + . . . . . . o . . . . . . o o o . ; ..o.o.o.X.X.#.%.>.S > 4 4 @ + + + + + + + + + . + + O O O O O @ C p.P P P P P                                                                                                                                                                                                                                                                                                                                                                                                                                                                                                                                                                                                                                                                                                                                                                                                                                               ",
"                                                                                                                                                                                                                                                                                      #.G #.#.>.>.>.>.<...>.:.>.>.>.>.#.,.;.;.:.:.J O.,.d.G K K K >.#.#.K O.d.$.+.$.+.O.G i 4 u U.f.f.P.P.P.1.#.>...f #.K K 1.R./.~.R.P.$.,.~.R.R.T.T.T.T.P...H 6 6 u p u u f j L +.P d > O o . . . . . . . . . . . . . . . . . . . @ 3 7 @ . . . . . . . . . . . . . + + . . . . . . . . . . . . . o o o o ; L ..o.o.X.X.#.%.,.H > 4 4 $ O O + + + + + + + X + + + O O O O @ x p.I P P P P R                                                                                                                                                                                                                                                                                                                                                                                                                                                                                                                                                                                                                                                                                                                                                                                                                                             ",
"                                                                                                                                                                                                                                                                                      d.....#.#.>.>.>.#.v ..>.>.,.<.P.f.%.1.f.f.f.d.2.2.,.G K K #.>.>.:.K K O.G c s i i i 7 < < S ^.P.f.U.4.1.%.%...h %.K K 2.R.R.^.R.P.:.1.R.~.T.U.T.T.T.P.o.H u 6 u i p f f S K +.P k @ O o . . . . . . . . . . . . . . o o o . . < 7 8 @ . . . . . . . . . . . . o . . . . . . . . . . . . . o . . o o o a ....o.o.o.X.#.%.>.G < 4 4 < @ @ + + + + + + + X + + + X X + O O x p.U P P P P T                                                                                                                                                                                                                                                                                                                                                                                                                                                                                                                                                                                                                                                                                                                                                                                                                                             ",
"                                                                                                                                                                                                                                                                                        ,.L ..#.>.>.>.O.v D O.>.T.R.^.R.<.f.Y.f.f.f.U.,.<.G K K >.>.<.O.O...K 7 6 4 4 4 7 4 @ @ f I.3XP.U.P.3.>.%.#.G #.L J >.T.T.~.R.f.c.2.T.~.T.T.T.T.T.P.o.S u u u p d f f D T 8.P k @ O o o . . . . . . . . . . . . . o o o . . 4 7 8 $ . . . . . . . . . . . . o . . . . . . . . . . . . . . . . O O o a ..o.o.o.o.X.#.#.>...< 4 4 < @ @ + + + + + + + o + + + X + O O @ e v._ P P P P E                                                                                                                                                                                                                                                                                                                                                                                                                                                                                                                                                                                                                                                                                                                                                                                                                                             ",
"                                                                                                                                                                                                                                                                                          O...#.>.>.,.G 6 6 G >.~.~.T.P.,.1.f.,.,.8.f.,.2.G K G >.,.,.+.O.O.K 4 @ @ @ @ @ - @ O 4 P.3X].P.U.P.<.>.%.o.,.+.S 1.T.T.R.R.,.M.8.T.~.~.T.U.T.T.T.X.S g g c d i i f S T -.P k @ O o . . . . . . . . . . . . . . . o o o o < 7 7 * . . . . . . . . . . . . . . . . . o o + O O + + + + + + o O @ @ u ....o.o.o.X.#.#.:.#.< 4 4 $ @ @ + o + + + + + + + + + X O O @ @ 3 N.R E P P M E                                                                                                                                                                                                                                                                                                                                                                                                                                                                                                                                                                                                                                                                                                                                                                                                                                             ",
"                                                                                                                                                                                                                                                                                          ;.L ..>.>.#.f @ + < #.~.T.P.U.1.2.d.+.$.+.d.8.,.S G O.>.>.>.+.+.K G 4 O O O O O @ O O - 1.3X3X].P.P.P.<.>.>.3.+.S 2.R.T.R.T.g.M.c.T.R.^.T.U.T.T.U.#.S f p g p i i i S Y ;.V 7 O O o . . . . . . . . . . . . . . . o o o @ 4 7 8 3 > < - < : O O + + + + + + + + + O @ @ @ < < < < 4 < 6 6 7 k 7 4 u L L o.o.o.X.#.#.:.#.4 4 3 < < O + o + + + + + + + + + + O O @ @ 3 Z.R I P P V P                                                                                                                                                                                                                                                                                                                                                                                                                                                                                                                                                                                                                                                                                                                                                                                                                                             ",
"                                                                                                                                                                                                                                                                                            O.L #.>.:.u . . @ #.T.3.1.f.d.>.Y Y Y Y d.:.$.S S #.<.#.#.G #.G c < O @ O O O @ O O @ |.3X].7X(.f.1.<.%.>.P.<.L ,.T.U.T.P.d.).8.I.T.^.R.R.T.T.U.#.S f u p p i i i H O.d.P 7 @ O o . . . . . . . . . . . . . . . o O @ < 7 e k 8 k e 3 7 7 7 7 < - - < - @ @ < @ < - - 4 7 7 7 7 d c c c c c S 6 u L L ....X.X.#.#.>.:.i 7 7 < @ @ O + o + + + + o + O O + O + @ @ 3 C.R P P P P P                                                                                                                                                                                                                                                                                                                                                                                                                                                                                                                                                                                                                                                                                                                                                                                                                                             ",
"                                                                                                                                                                                                                                                                                            O.....#.#.f . . - #.4.<.,.:.;.:.b D b b :.+.$.S ..,.<.>.#.Y #.G c 4 O @ @ O O + O o @ U.3X].3X7X].1.<.>.<.T.1.K :.P.U.T.P.d.M.c.U.R.~.~.R.T.T.U.#.G f u u p p f f f L ;.b k < O o o . . . . . o . . . . o O O @ @ @ - 6 7 k x 3 * $ $ @ @ + + + + + + + + o O o + + + + O O @ - < < 6 7 i p d 6 f G S L ....X.#.#.%.>.g d e 4 @ @ O + o + + + o o + + + + O O O @ 3 Z.! I V V V P                                                                                                                                                                                                                                                                                                                                                                                                                                                                                                                                                                                                                                                                                                                                                                                                                                             ",
"                                                                                                                                                                                                                                                                                            +.#...#.#.u . . 6 $.1.:.:.+.+.$.D k z k $...O.v K <.,.>.#.K #.G i < o O O o o o o o @ >.].].3X7X5X(.1.<.1.^.P.:.2.f.P.P.P.g.M.c.U.R.T.~.T.T.T.T.#.G f u p f f p f h S +.J k < @ O O O O @ @ o o o o + + + @ @ @ @ @ > 4 7 k x 3 @ @ O o o . o . . o + + + + O o + + + + + O O @ @ > 4 6 6 i d d c G K K L +.o.#.#.>.,.c e k 7 7 4 > @ O O O O O O + + + + O O O @ 3 C.! I P P P P                                                                                                                                                                                                                                                                                                                                                                                                                                                                                                                                                                                                                                                                                                                                                                                                                                             ",
"                                                                                                                                                                                                                                                                                            +.>.....+.u . . 6 T 1.+.O.Y K ..v 4 7 7 +...G v #.,.>.>.>.Y #.G i : o + + o o o . . - >.(.].3X3X7X3X^.1.P.^.R.2.f.P.I.T.U.d.).c.T.R.T.^.T.U.T.T.#.J f u p p p p p h F L S i @ - @ O o o O @ @ @ O O @ @ @ @ @ @ @ - 7 7 7 k k 3 3 * @ @ + + + + + + + + + O O + + @ d c v D D d J P P T @.5.9.-.8.;.;.d.8.8.d.j.h.h.Y.R 5.R R P E E P P P P J e 4 @ @ @ O @ O O @ 3 C.` I P P P P                                                                                                                                                                                                                                                                                                                                                                                                                                                                                                                                                                                                                                                                                                                                                                                                                                             ",
"                                                                                                                                                                                                                                                                                            +.>.#.L ..- . . @ c >.K J D v K c @ < < #.#.S S >.>.>.>.O.+.#...f - + + + o o o o o o #.].3X3X3X7X3X7XR.P.R.^.R.P.P.T.T.T.d.).c.U.R.T.T.T.P.T.U.>.L f u p p p p p h F L J v 4 > @ o o O O @ @ @ @ @ @ - - > > - > 7 k k k k n 3 7 < - @ O + + + + + + + @ O + @ 7 +.f.`.'.OX+XeXeXpXlXlXlXlXiXlXlXzXzXzXcXcXcXzXlXlXlXlXlXzXlXpXpXiXdX@X+XOXOX!.D z 4 @ O @ @ @ @ < u.' I P P W P                                                                                                                                                                                                                                                                                                                                                                                                                                                                                                                                                                                                                                                                                                                                                                                                                                             ",
"                                                                                                                                                                                                                                                                                            +.>.>.L L - . . O p #.K v v k L f > @ > ..,.G K >.%.>.>.+.$.+...c - @ @ @ + o o + + - ..(.3X3X3X3X3X3X3XT.<.T.~.R.P.I.T.P.&.M.8.T.R.T.P.^.U.T.U.#.J d 7 i p p p f h j F S v 7 @ + > 4 4 4 6 7 < < < S c d k 6 < > 4 7 d i k l z R 6 > - @ O + @ + + + + @ @ @ v Y.E.Q.W.wXiXaXlXlXlXlXzXcXcXzXlXzXzXcXzXzXcXzXzXlXzXzXzXlXzXzXzXlXlXcXlXlXlXlXeXz.F.E c 6 D e < < < { ` I P P P P                                                                                                                                                                                                                                                                                                                                                                                                                                                                                                                                                                                                                                                                                                                                                                                                                                             ",
"                                                                                                                                                                                                                                                                                            +.>.>...F - . . O u X.K k k k G f - @ - L f.Y #.%.%.#.:.+.+.O.#.c H H p i 6 p u u H c ..(.3X3X3X3X3X3X3X~.f.1.T.E.T.T.P.1.&.c.>.T.T.T.3.R.T.T.U.#.K f i i g f f f f H G c k 4 @ < $.f.`.`.`.[.Q./.Y.d.2.,.,.+.d.:.Y Y T ;.d.;.Y .X-.4 - @ @ + + + + + O @ @ % j.`.Q.E.h.{.pXiXlXiXdXlXlXcXlXlXiXlXzXzXzXlXlXlXlXzXzXzXzXzXlXzXzXlXlXlXlXlXlXdXpXOX.X&X;.W.Q.Y.$.v k ] ' I P P P P                                                                                                                                                                                                                                                                                                                                                                                                                                                                                                                                                                                                                                                                                                                                                                                                                                             ",
"                                                                                                                                                                                                                                                                                            +.>.>...f @ @ o + 4 ..S k 7 7 K S - + @ S T.#.>.%.%.#.:.+.O...#.%.+.$.:.:.:.:.:.$.$.$.$.I.3X3X3X3X3X3X3XR.~.f.f.T.R.^.U.1.#.c.>.U.T.T.3.P.T.T.U.#.K c i i g f f f f h G c i < @ : ;.'.@.P P Y @.-.@.8.;.d.g.h.h.Y.d.g.j.h.h.Q.OX@X+X X< - @ @ @ @ @ @ @ @ * n {.{.E.U.f.`.wXpXiXiXdXlXlXzXzXzXlXlXlXlXzXlXlXzXzXzXzXzXzXlXlXzXlXlXlXlXcXlXdXiXpX@X$X>X.X$Xl.l.A.A.V.U ` P P P P P                                                                                                                                                                                                                                                                                                                                                                                                                                                                                                                                                                                                                                                                                                                                                                                                                                             ",
"                                                                                                                                                                                                                                                                                          ,.+.#.>...u a p f 4 < ..v k 7 7 G H - o - #.R.$.%.>.#.>.>.$.O.L +.,.,.#.:.>.,.,.,.,.,.,.,.;.R.3X3X3X3X3X3XR.R.^.P.f.T./.~.3.>.$.$.P.T.T.3.1.P.U.U.>.G c i i g f f h h h G c i 7 - - +.Y.@.7 7 k k i d k k k D c n v v v +.Y Y @.9.J 5..X6 - - @ @ @ @ @ @ @ < h.OXqX~.Y.Y.Y.{.pXiXpXpXdXlXlXlXlXdXdXdXlXlXlXlXlXdXlXlXlXdXiXlXlXlXdXdXdXlXdXpXpXeX+X.X>XXXI b M _ V 7.C ` P V P P P                                                                                                                                                                                                                                                                                                                                                                                                                                                                                                                                                                                                                                                                                                                                                                                                                                             ",
"                                                                                                                                                                                                                                                                                          ;.K #.>.#.S ; a H 6 > ..c k 7 1 v H - @ > ..^.<.+.#.#.#.:.G O.L O.+.<.,.#.$.:.:.$.:.:.:.;.,.,.~.3X3X].3X3XR.R.(.(.P.1.E./.R.>...<.I.I.U.3.<.1.U.U.>.S c i i d f p f h j G S k 7 - d d.W.Y 4 < > > > > > > 4 4 4 4 4 4 6 6 7 u i d k n 7.i > < @ @ @ @ $ < * n {.qX[.[.Q.Y.j.}.pXpXeXpXpXiXlXzXlXlXpXdXdXlXdXpXpXdXdXdXlXdXdXdXlXdXdXdXdXdXdXpXeXeX@X X.XfXn 6 6 7 k Q U ` I P P J P                                                                                                                                                                                                                                                                                                                                                                                                                                                                                                                                                                                                                                                                                                                                                                                                                                             ",
"                                                                                                                                                                                                                                                                                          ;.G ..#.#.S u 4 g u 4 ..S k 7 4 f H 4 u |.7X].T...+.#.#.#.S L K O...#.2.>.$.+.#.#.#.$.$.$.$.;.+.^.3X].3X(.R.R.(.3X`.f.P.R.^.P.>.<.P.P.P.P.1.P.P.P.>.D c i d f f f h j j F H i 6 - @ 8.Y.k > > > - > > > > > > > > > > > < < < > 4 6 7 z 7 4 < % % @ @ < < 3 g.qX{.{.4XW.Y.d._.eXpX+XeXpXpXdXdXdXdXpXpXpXeXeXeXpXdXpXpXdXpXpXpXpXpXpXeX@XeXdXeXeX@XeX Xz.fXU 7 4 4 7 _ ` ] R P P J N                                                                                                                                                                                                                                                                                                                                                                                                                                                                                                                                                                                                                                                                                                                                                                                                                                             ",
"                                                                                                                                                                                                                                                                                    f.f.:...G F ..#.L u 4 p 6 u ..S k 3 < c H > uX'.!.d.I.+.G #.#.O.P S L ..+.+.:.2.#.+.+.O.+.O.O.+.+.+.G $.R.].3X(.^.R.(.3X3X].f.1.^.T.<.1.P.T.P.P.1.P.P.U.<.L H f c f f h j S S F c i 4 @ 7 8.Q.Y > - - - > > > > > - - - - - - > > > ; > 4 6 0 7 3 4 < > > > < < b {.wX'.4X{.W.j.d.x.OXpXeXeXeXeXpXdXdXdXpXeXeXeXpXeXeXpXpXpXpXpXeXeXeXpXpXeXeXeXpXpXeXeX@X+X.XoX,X7 4 4 6 ` ' 7.U P P J V                                                                                                                                                                                                                                                                                                                                                                                                                                                                                                                                                                                                                                                                                                                                                                                                                                             ",
"                                                                                                                                                                                                                                                                                    f.;.#.....F L O...H u p 6 d L D k 7 4 c F >.8.P Y #.P.+.f K +.G M v H K ....#.>.>.+.#.#.Y K K O.$.$.K c v (.3X(.^.R.(.3X].].].1.f.R.T.T.P.T.U.3.1.1.P.P.<.K c i f f f h h j S S c k < @ 7 P E.k ; - - - - - - - - - - - - - > > > > - > , 4 6 e 7 3 < > < < > i 9.wXqX'.4X[.Q.f.j.g.OXpXpXeXeXeXpXpXpXpXpXpXpXdXpXeX+X@XeXpXpXeX@X@X@XeXpXpXeX@XeXeX@X+X+X@X_.l.,Xn < 4 k U ! 7.U P P P P                                                                                                                                                                                                                                                                                                                                                                                                                                                                                                                                                                                                                                                                                                                                                                                                                                             ",
"                                                                                                                                                                                                                                                                                    f.1.>.#...G j ....L H g i k #.K v 7 < f F 3.V r d L <.#.k d ..K z v H S K K #.:.#.G G L K S c S D D S c k K (.(.^.R.3X3X].].3X~.P.P.R./.U.U.P.1.3.1.P.4.<.G c i c c f d f j S S c k 4 @ < R E.n - - - - - - - - - - - ; - - > > - > - > , 4 7 e e 7 4 6 4 < < c {.wX4X`.4X[.'.f.h.d.!.+X@X@X@X@XeXeXeXeX@X+X@X@XeXeX@X@X@X@X+X@X+XOX+X@X@X+X X X+X@X+X X X+X.Xl.fXl.4 < 7 C ! 7.U P P V V                                                                                                                                                                                                                                                                                                                                                                                                                                                                                                                                                                                                                                                                                                                                                                                                                                             ",
"                                                                                                                                                                                                                                                                                      >.<.#...L S G K ..L f c J <.O.J d 4 f ..R.R k p ..3.>.c H G O.S v H S S G +.:.#.G d 4 6 > - O . O O @ > G (.].^.~.3X3X].3X3X3X^.1.P.^.^.T.P.3.3.1.3.3.<.K H d c c f d f j S S c n 4 @ 7 R E.v > - - - - - - > - - - ; > > - - - - - > 4 4 4 e 0 7 6 4 < < 6 9.wXwX{.'.qX{.{.Y.h.d.x. X@X@X+X+X@X@X@XeX@X+X+X@X@X@X+X+X@X@X@X+X+XOX+X+X+X X X.X X+X X X X X.Xz.fX>X7 > 6 V ` t.U P P P V @.                                                                                                                                                                                                                                                                                                                                                                                                                                                                                                                                                                                                                                                                                                                                                                                                                                          ",
"                                                                                                                                                                                                                                                                                      #.<.<.o.G S f G ....L D ;.<.:.Y v 7 L ..H U.Y v L P.f.k k c K K c S S D G ..>.+.D d : o . . . . . . . . F (.].~.(.3X(.(.].3X3X7X^.<.R.^.].P.1.1.1.f.P.<.K F f j h h h h S S S c k 4 @ @ R E.b < - - - - - - > - - > > > > ; - - - - > 4 < < k k e 7 7 6 6 v {.wX4X[.[.qX{.[.E.Y.j.r. X@X+X+X+X+X+X@X@X@X+X+X@XeX@X@X@X@X@X+X+X@X+X+X@X+X+X X.X.X X X X.X.X X_.F.fXz < 6 V 6.t.U I P J V @.                                                                                                                                                                                                                                                                                                                                                                                                                                                                                                                                                                                                                                                                                                                                                                                                                                          ",
"                                                                                                                                                                                                                                                                                      +.>.1.%...G h h ..o.+.K >.<.>.$.K c ....i f.W.-.<.T.>.G i S S G c S G G G K #.K D i $ O . . . . . . . . f ^.3X(.(.3X(.^.].].3X7X5XT.P.R.4X~.3.<.1.1.3.<.K F g f h j j j S S S f d < O 4 ` Y.J < - - - - - > > > - - ; ; ; - - - > - > 4 < < k k k 7 7 7 7 9.qXwX{.'.[.4X{.[.}.Y.h.r._.+XeX@X@X@X@X@X@X@X@X+X@X@X@X@X XOX+X+X+X@X+X+X+X+X+X+X X.X X+X X X.X X.XA.fX6.7 7 C 0.i.R I P J b T                                                                                                                                                                                                                                                                                                                                                                                                                                                                                                                                                                                                                                                                                                                                                                                                                                           ",
"                                                                                                                                                                                                                                                                                        o.1.>.o.L j u G +.#...1.<.2.:.+.D ..S 4 > < d.1.T.f.D i f f G S S G K L K K Y J c 4 @ . . . . . . . . f ~.R.R.~.(.(./.(.].3X3X3X7XR.1.^.].T.<.1.f.3.,...H f f h h h j S F F h d > @ c 5.f.b < - - > > - > > - - ; ; ; ; - - > > - > 4 4 < 7 n k k 7 7 b {.wXqX[.'.[.{.{.{.4XE.x.j.x.+X@X@X+X X+X+X@X@X@X+X+X+X+X@X+X+X@X+X+X+X+XOX X X X X X.X X+X+X X.X X X.XfX,X7 7 x i.y.U P P J N T                                                                                                                                                                                                                                                                                                                                                                                                                                                                                                                                                                                                                                                                                                                                                                                                                                           ",
"                                                                                                                                                                                                                                                                                        #.#.<.#.F S f h ..#.#.2.>.1.,.;.Y o.F > . . @ +.P.R.T.H p H S G D S K K K K b v v d 4 @ @ . . o O - < S f.$.+.+.T $.8.d.Y.3X3X3X3X6XR.1.~.T.P.1.1.P.<...F f f h h h h j F F S i > > F 8.d.b < - > > < 4 > ; - - ; ; > > - - > > - > 4 > < 8 v z k 7 d 9.+XwX4X'.`.[.4X{.{.4XQ.Y.j.x. X+X+X+X X X+X@X@X+X@X@X+X@X@X+X X+X+X+X X X.X X X.X.X.X.X.X X+X X X.X X.XoX<Xb 4 n s.p.U P P J M T                                                                                                                                                                                                                                                                                                                                                                                                                                                                                                                                                                                                                                                                                                                                                                                                                                           ",
"                                                                                                                                                                                                                                                                                          L #.#.L S h p L #.#.O.>.2.2.;.+.+.F @ . . . - <.P.~.T.i p f G S S K L G G G c i i 7 i 7 7 7 7 7 k K +.+.+.+.+.O.O.O.O.+.I.].3X3X5X4XT.P.3.P.1.f.P.<...F p f h j j j j F G S d 4 > S @.f.k 7 @ - - - - 4 > > - ; > > - - - > > > > 4 > < 7 b v z k D }.wXqX{.'.Q.[.4X{.4X{.'.Y.j.j..X+X+X@X X X+X@X@X X X X+X@X+X+X X X X X XOX.X.X.X.X.X.X.X.X X X X X.X X Xz.hX7.0 k 7.y.R I P P N T                                                                                                                                                                                                                                                                                                                                                                                                                                                                                                                                                                                                                                                                                                                                                                                                                                           ",
"                                                                                                                                                                                                                                                                                          :.L #...G h f h o.#...>.>.,.;.;.#.H @ . . . . 4 2.Y.R.%.p H S S S K K G S S S S f f i k d c S ..$.:.:.:.:.$.$.+.+.O.O.+.+.f.3X3X7X6X7XU.<.1.<.f.P.<.+.F u f h h j j h F F H i 4 > 6 G $.c 6 > 6 4 4 4 7 4 > - ; ; - > - - > > > < 4 > < 7 b n b b j.OXqX4X[.`.E.'.4X{.4X4X[.E.W.h..X+X+X+X X.X X X X+X@X@X@X@X+X+X+X X X X X X X X X.X X.X.X.X.X X X X.X X+X!.hX,Xz e V ] Q P P P V P                                                                                                                                                                                                                                                                                                                                                                                                                                                                                                                                                                                                                                                                                                                                                                                                                                           ",
"                                                                                                                                                                                                                                                                                            G O.#...S H f G #...+.#.#.$.$.#.H + . o o . O i 2.R.T.S d f G S S G G S H H H S c c D K K $.:.:.:.>.,.:.:.$.$.+.+.O.O.+.@.T.3X7X7X6X6Xf.<.<.f.P.1.+.G u p f h j h h S F S 7 4 > > < 4 < - 4 i v $.d K i 4 - ; ; ; - - - > > > > 4 < > k N l k P }.wX4X[.[.`.W.`.{.{.qX4XwX'._.x.x..X X X.X.X X X X X@X X X X X X X X X X X X X.X.X X X.X.X.X.X.X.X X.X.X X.X.XhXC e m _ ! P P P V P                                                                                                                                                                                                                                                                                                                                                                                                                                                                                                                                                                                                                                                                                                                                                                                                                                           ",
"                                                                                                                                                                                                                                                                                              K >.#.L H h f ..X.......O.+.#.H - . . o o . @ K d.T.P.S c H H S S G S H c c k G +.$.:.>.,.,.,.2.d.,.>.:.$.$.$.#.#.+.+.+.;.R.7X7XwX6X6Xf.<.1.4.P.#.F u f h h h h h S F S d < @ @ O + + o + - 6 P.S $.v 7 - - - ; - - - > > > < 4 < < k V x b g.+XwX{.[.'.Q._._.'.4X4X4XwX'._.h.j..X X X.X.X.X X X X@X+X X+X+X X X X X X X X X.X.X X X.X.X.X.X.X.X.X.X.X X XA.xX0.e l Q ` I P P V P                                                                                                                                                                                                                                                                                                                                                                                                                                                                                                                                                                                                                                                                                                                                                                                                                                           ",
"                                                                                                                                                                                                                                                                                              ..+.>...F H h S ..+.+.+...>...c @ + O O + o . @ +.1.P.T.G f H S G S H H c f k $.:.:.:.,.,.2.2.,.,.,.,.>.:.$.$.$.#.+.+.+.$.:.(.3X8XrX8X7X1.<.4.~.:.F f h j h h j S F F G k < - O o o . o o @ 4 <.K :.Y 7 ; - - > - - - > > < 4 4 4 > k M M R OXwXqX{.[.Q._.W.W.W.[.qXqXwX}.Q.d.8.!.@X X X.X.X.X X@X@X@X+X+X X+X X X X X+X X X X X X X X.X.X.X.X X X.X.X X@X$XgX,X7 t C ` I P P J P                                                                                                                                                                                                                                                                                                                                                                                                                                                                                                                                                                                                                                                                                                                                                                                                                                           ",
"                                                                                                                                                                                                                                                                                                ..,.#...S S f L +.#.+.>.%...c > O O O O O O O i #.f.~.R.S H H S S S H c f k L 2.>.:.>.>.2.,.>.:.:.>.,.:.:.:.:.$.$.$.$.$.:.,.(.5XrX6X6X7Xd.<.R.Y.F h h j j j j S G F G k < @ @ + o . . o @ < #.D ,.Y i > - - - ; - - > > < < 4 < > s M V x.qXqX4X'.'.Q.W.W.j.j.`.qXwXqX{.W.j.;.j..X X X.X!.z..X X+X+X+X X X+X+X X X X X+X X X X X X X X.X.X X X X.X.X X@X.X>XkXd e C ` U P P N P                                                                                                                                                                                                                                                                                                                                                                                                                                                                                                                                                                                                                                                                                                                                                                                                                                           ",
"                                                                                                                                                                                                                                                                                                +.#.>...F S h h ..:.O.>.%.#.4 @ @ @ @ @ @ < < 4 D <.T.(.R.S c S H S H c f k G ..<.>.>.>.,.>.:.$.$.:.,.,.,.>.:.:.$.$.$.$.$.:.,.].6XwX8X6X7Xf.P.f.F h h h j j j j F G v 7 4 @ @ + o . . o @ f ..b 2.Y i > ; > > > > > > > < < 4 < < e b R OXwX4X[.'.'.'.W.h.9.h.Q.qXwXqXqXE.f.;.9..X X X.Xz.!.!..X X+X X X X+X+X X X X+X+X X X X X X X X X X.X X X X X.X X Xl.fXJ e B ' U P P b P                                                                                                                                                                                                                                                                                                                                                                                                                                                                                                                                                                                                                                                                                                                                                                                                                                           ",
"                                                                                                                                                                                                                                                                                                  ..>.#...S h f G #.O.>.%.$.S 7 e e 8 3 e 7 7 7 k O.U.^.(.U.S H S S H f c H G G G G #.:.>.:.$.+.$.:.:.,.,.,.;.:.:.$.$.$.$.:.:.2.7X6XrX8X6X3X<.>...h h h h S F h F F K k 7 - @ + o o . o + 4 L b 2.Y i > > > > > > > > > < < 4 , < 7 h.W.qXwX{.{.'.'.W.z.j.8.{.'.4XqX4X[.~.f.d.9.z. X.X.Xz.z.!..X.X.X X X X X+X X X X X X X X X X X X X X X.X X X X X.X.X Xz.jXoXn B ' U P P P P                                                                                                                                                                                                                                                                                                                                                                                                                                                                                                                                                                                                                                                                                                                                                                                                                                           ",
"                                                                                                                                                                                                                                                                                                  +.:.<.o.G h f h o.O.>.%.#.D x b M V V b n n n b Y >.T.(.(.3.S S H H H H H S S G i S $.:.:.#.O.+.$.:.:.:.:.;.:.:.$.$.$.#.:.:.:.d.5X8XrX6X6X3Xo.F j h h h j F j S G K v 7 > @ + o o . o + 4 ..V 2.;.i > > > > > > > > > < < , , < S }.}.wXwX{.[.'.'.!.k.9.Y.qX'.{.4X4X[.`.Y.d.;.k..X.Xz.z.z.z.!..X.X.X.X.X X X X X.X X X.X X.X.X X X X X.X.X.X X.X.XA..X X.X%XfXk B [ U P P W D                                                                                                                                                                                                                                                                                                                                                                                                                                                                                                                                                                                                                                                                                                                                                                                                                                           ",
"                                                                                                                                                                                                                                                                                                    #.>.:...S h f G #.>.#.$.V V V V P P V b b b V R @.1.~.(.~.>.S H H H S p k S G G u K +.$.$.+.+.#.$.:.:.,.:.:.:.:.$.$.$.:.:.:.:.U.6XrX6X6X6X(.j h a p h h j h F F K v e - @ @ o . . . + < ..P 2.T k 4 , > > > > 4 < < > > , , 4 7 Y.wXwXqX[.'.'.W.r.q.8.E.Q.Y.'.{.{.[.[.Y.h.g.k..X.Xz.x.x.z.!..X.X.X.X.X X X X X X.X X X X.X.X.X X X X.X.X X X.X.X.X.X X.XF.hXI m [ U P V b V R                                                                                                                                                                                                                                                                                                                                                                                                                                                                                                                                                                                                                                                                                                                                                                                                                                         ",
"                                                                                                                                                                                                                                                                                                    #.#.<.o.F H h f ..>.#.#.P V M b P P N b b b b b V O.1.(.(.R...G H H c i k c S G S f G ..+.+.+.+.$.#.:.:.>.:.:.:.$.:.$.$.$.:.:.:.I.6X6X8XwX6XT.#.u a ; a p p h j L v k < @ + o . . . o 4 S R :.@.k 4 4 > > > 4 4 < < > < , , 4 4 h.wX4X[.[.[.'.x.q.5.;.;.$.;.Q.4X{.{.4X~.h.d.9.!..X.X.Xz.z.z..X.X.X.X.X X+X+X X.X X X X X X.X.X X+X@X.X.X.X X X.X.X!..X.XA.gXi.R Q U P P C U V R                                                                                                                                                                                                                                                                                                                                                                                                                                                                                                                                                                                                                                                                                                                                                                                                                                       ",
"                                                                                                                                                                                                                                                                                                      ..>.>.o.F S h S #.#.+.J D D D D J J D D b b b J Y #.T.(.R.P.K L S u S O.S c S G f u L K O.+.+.+.$.:.:.:.:.:.:.:.:.:.$.$.$.$.$.$.~.6XwXrX6X5X3X~.>.F j p p p p f c k 6 @ + o . o . + 7 #.-.#.;.z 4 4 , > > 4 4 < < < > 4 4 4 G Q.qX{.[.[.{.W.j.q.@.+.+.@.8.h.{.{.{.[.`.U.h.g.z. X.X.Xz.x.z.z.m.m..X X@XeXeX@X X X X X X X X.X.X.X.X X X.X.X X X X.X X X#X>XhXU ' ` ` 6.R Y P b V P                                                                                                                                                                                                                                                                                                                                                                                                                                                                                                                                                                                                                                                                                                                                                                                                                                   ",
"                                                                                                                                                                                                                                                                                                        +.<.#.L S j f ..#.>.L c , i i u > > - < 6 7 7 i H <.R.R.R.<.G f G O.+.O.k S G G c G K ..O.O.+.#.$.:.:.:.:.:.:.:.;.$.$.$.$.$.+.;.~.8XrX6X5X8XrXwX3XR.<.%.L H S G k 7 < > o o . o @ 7 G ;.,.,.v 4 4 4 > , , 4 4 < < < 4 4 4 4 '.4X[.`.{.{.Q.j.5.@.5.7.0.i.l.[.{.4X[.`.Y.h.d.x..X.X.X!.z.z..X X@X@X@XpXdXdXpX+X X X@X+X@X X X X X X X X X.X X X X.X.X X.X#XhX7.a.x.$.Y Y T T Y P V R                                                                                                                                                                                                                                                                                                                                                                                                                                                                                                                                                                                                                                                                                                                                                                                                                                 ",
"                                                                                                                                                                                                                                                                                                        ..>.>...F S H S #.>...f O O O O @ @ @ O O + o @ 4 G f.T.R.T.,.......O.+.O.k S G K ..K L K ..O.+.#.$.$.:.:.:.;.;.:.:.:.:.:.:.:.$.,.3XyXwX6X6XrXrXrX3XR.R.R.T.P.#.#.G D v c 6 4 - > i o.d.>.,.v 7 6 4 4 4 < < < < < < 4 6 4 c h.[.[.`.[.[.W.8.R 0.i.p.v.b.w.Q.4X4X[.4XQ.Y.j.j.!..Xz.x..X.X X@X@XdX@X@X@X+X+X X X X X@X@X X X X X X.X.X.X.X.X X X X.X X X#XnX>Xh.j.j.$.T T T T +.T Y 6.0.                                                                                                                                                                                                                                                                                                                                                                                                                                                                                                                                                                                                                                                                                                                                                                                                                            ",
"                                                                                                                                                                                                                                                                                                          #.<.#...F H h L #.O.d O @ O O @ @ @ O O O O @ : 4 #.f.T.T.R.>.L K O.+.$.G c S K K O.G G K L ..O.O.+.$.$.:.:.;.:.:.:.:.:.:.:.:.:.,.8XrX6X6XrXrXyX9XR.I.R.R.R.R.R.R.T.U.1.#.#.+.K P :.f.:.@.v 7 6 4 4 4 4 4 < < < < 4 6 4 6 ;.`.[.'.`.Q.d.@.5.7.q.6.6.6.6.W.4X4X{.{._.Y.j.9.!. X.X.X X+X@X+X@X@X@X X X+X+X+X X X X@X@X X X X X X X X X X X X X X.X X X.XjXkX.Xj.g.d.9.-.T T T T Y Y T q.                                                                                                                                                                                                                                                                                                                                                                                                                                                                                                                                                                                                                                                                                                                                                                                                                          ",
"                                                                                                                                                                                                                                                                                                          #.>.2.#.L S h H +...4 @ O @ @ @ @ + + O O O @ @ > f #.P.T.<.......O.+.#.#.v H G G F G H G G K K K K O.O.+.#.$.$.$.$.#.$.$.$.$.:.;.d.5X8X6XrXrXyX9X].U.~.7X7XwXwX6X].6X6X4X4X4X`.Y.T.R.@.T b 7 6 6 6 4 4 6 4 4 4 4 4 6 6 6 f.'.{.[.Q.f.-.Y 5.@.R R ! ` 5.j.{.4X{.{.`.Y.j.j._.+X@X X X X X X@X@X X X X.X X X X.X.X X X.X.X.X X X X X X.X.X X X X.X.X X.X#XkX_.E.Y.gXxXgX5.+.T T T Y Y ^ e.                                                                                                                                                                                                                                                                                                                                                                                                                                                                                                                                                                                                                                                                                                                                                                                                                        ",
"                                                                                                                                                                                                                                                                                                            #.1.>...S H h L ..< @ O O @ @ O + + O O O @ @ @ > S #.P.#.......O.O.$.#.O.c S K H L H H c H f f H H G S S G K K ..O.O.O.O.O.O.+.;.,.7X6XrXrXyXyX7XR.(.rXrXrXwXwX6X4X4X[.[.4X/.Y.P.~.@.P v 7 6 7 7 6 6 7 6 6 6 4 6 7 6 d f.`.{.'.E.j.@.$.5.q.7.e.p.y.w.q.'.4X4X4X{.E.h.d.W. XeX@X+X X X X X+X+X+X X X X+X X X X X X X X X X X X X X X.X X.X.X X X X.X.XkX X4X'.cXxXdXq.@.+.T Y P R i.x.                                                                                                                                                                                                                                                                                                                                                                                                                                                                                                                                                                                                                                                                                                                                                                                                                        ",
"                                                                                                                                                                                                                                                                                                            O.>.<.o.F H h H ..@ + + @ @ @ @ o + O @ O @ @ @ @ > G >.:.O...#.+.+.:.,.>.O.H G H L S f u 6 i g g g f f f f f c f f c H H S c H G Y ;.5X9XrXyXyX8XR.5XyXrXrXrXwXwX4X4X4X7X4X].E.T.~.Y P v i 7 7 7 7 7 6 7 7 6 6 6 7 7 k U.Q.{.`.Y.8.R 5.q.0.w.b.v.y.' R _.qX4X4X4XE.Y.j.h..XdXpXpXeX@X@X+X+X@X+X X X X X X X+X@X@X@X+X X X X X X.X X X X X X X X X X.XfXjXqXeXxXcX+Xk.T Y P U 6.J.oX6.                                                                                                                                                                                                                                                                                                                                                                                                                                                                                                                                                                                                                                                                                                                                                                                                                        ",
"                                                                                                                                                                                                                                                                                                              +.<.>...S S H ..@ O + @ @ @ @ o + O O O @ @ @ @ > f ..>.&.K ..+.+.+.$.:.>.K S c G F f 4 4 4 6 6 d p i i i u u 6 4 < < 4 u u u p c O.(.9XrXyXyX8XR.3XyXrXwX+XOXwXwXqXwXwXqX4X[.R.f.P M v k 7 7 7 7 7 7 7 7 7 6 7 7 7 v d.`.[.`.h.8.-.5.q.0.p.t.t.w.Q U Y.{.4X4XqXQ.Y.f.j.@XdXdXpX@X@X@X+X+X+X+X X X X X@X@X+X+X@X@X+X+X X X X X X.X X X X X X X X X.XoXxX+XdXZXxXOXj.' ` i.V.1X>Xn.R                                                                                                                                                                                                                                                                                                                                                                                                                                                                                                                                                                                                                                                                                                                                                                                                                         ",
"                                                                                                                                                                                                                                                                                                                :.<.#...S H L @ + + + @ @ O + + O @ @ @ @ @ @ @ p G %.f.#...#.#...+.:.>.:.G S S G H d 6 4 4 4 4 6 6 4 4 4 4 4 - - - @ - - - u k S P.6XrXyXyX8XR.|.rXwXW.j.8.W.h.0.9.x.!.h._.h.U.P M v k 7 7 7 0 d 7 7 7 7 6 7 7 d v +.`.[.Q.j.;.;.8.8.7.w.w.p.y.' C 8.[.4X4X4X`.Y.d.h. XdXdX@X+X X X+X+X+X+X X X X+X+X@X+X+X+X X+X+X X X X X X X X.X X X X.X.X X X.XkX.X#XJXHX{.W.oXXX:XkXhXG.U Y                                                                                                                                                                                                                                                                                                                                                                                                                                                                                                                                                                                                                                                                                                                                                                                                                         ",
"                                                                                                                                                                                                                                                                                                                #.,.>...S H S @ + + + O @ @ + + @ @ @ @ @ @ @ @ f U.>.f.<.<.O.>.#...+.:.>.:.G G S G S f u > - - - - - - - - @ @ O o . . o O - i c ,.9XrXyXyX5XR.~.9X8XY.R Y P P P R P P P P R ;.R x n z k k 0 0 7 7 7 7 7 7 7 0 k k O.`.[.Q.j.;.;.8.q.0.u.b.t.V e 7 T `.qX4XqX{.U.f.g..X@X@X@X+X X+X+X@X@X@X@X+X+X+X@X+X+X+X+X+X+X+X X+X@X@X@X@X+X+X+X+X X X X@X+X.XkX>XS.fXJXxX'..XnXmXnX:XR P Y                                                                                                                                                                                                                                                                                                                                                                                                                                                                                                                                                                                                                                                                                                                                                                                                                         ",
"                                                                                                                                                                                                                                                                                                                  :.1.#.L H S @ @ @ + + O O @ @ @ O + @ @ @ @ @ u <.1.<.<.<.>...%.#.O.O.#.,.,.O.G K S H d 4 - @ + @ @ @ @ @ @ O . . . . . . o @ 6 +.8XrXrXyX5XR.~.7X8X`.8.T P P P M P P P P P Y @.b n z k k k e 8 7 7 7 7 7 7 7 k k +.`.{.Q.h.;.;.d.0.p.v.] e 3 4 < d _.qX4XqX4XE.Y.h.!.+XpXpXeX@X@XeXeXpXeXeXeXeXeXeX@X@XeXeXeX@X@X@XeXdXlXdXpXeXeXeXpXdXdXpXpXpX+XoX<X6.i.HXHX@X.XmXNX<Xy.C P Y                                                                                                                                                                                                                                                                                                                                                                                                                                                                                                                                                                                                                                                                                                                                                                                                                         ",
"                                                                                                                                                                                                                                                                                                                  #.>.>...H c @ @ @ @ O + @ @ + O O O @ @ @ @ O > R.>.>.<.<.1.o.L #.#.....#.>.<.$.K G G c 4 > @ + @ @ O O O O O . . . . . . o @ 4 O.8X9XrXyX8X^.T.3X6X`.8.T P P P P P P P E R E +.b n z k k e e e e 7 7 7 7 7 7 k b b Y.{.`.W.j.;.d.0.w.m 7 > - - - < Y.{.4XqX4X'.W.W.j.OXpXdXdXeXeXeXpXdXpXeXeXeXpXpXpXpXpXpXpXpXpXpXpXlXcXcXlXdXiXdXcXcXcXcXcXlXdX.XhXk.q.KXHXcX@XjXjXv.U V Y $.                                                                                                                                                                                                                                                                                                                                                                                                                                                                                                                                                                                                                                                                                                                                                                                                                        ",
"                                                                                                                                                                                                                                                                                                                    #.<.#.S f - @ @ + + + + @ @ O O O @ @ @ O + @ R.>.>.<.1.T.4.L K ..o.......:.2.2.:.K S S d 4 @ @ O O O O O # . . . . . . o @ 4 S 6X9XrXyX8X~.T.(.4XQ.9.T P P P P M b J P R 8.;.P n v k k k e k e 7 7 7 7 7 0 z b D `.{.{.'._.d.8.S.V b n e 7 4 e 7 -.{.4XqX4X{.`.Y.h._.eXlXiXpXeXeXpXdXlXlXiXpXpXiXiXiXiXlXlXlXlXlXlXlXlXlXlXlXlXzXcXcXcXcXcXcXlX@X,XfXi.#XHXJX@X#X%X[ V P -.                                                                                                                                                                                                                                                                                                                                                                                                                                                                                                                                                                                                                                                                                                                                                                                                                          ",
"                                                                                                                                                                                                                                                                                                                    +.>.>.G i @ @ @ + + + + @ @ O O O @ @ @ O O - T.<.,.1.P.P.P.>.S ........F ..O.:.>.>.+.S c f - @ @ O O O # . . . . . . . o O > S 5X9XrXyX8X^.R.R.6X/.d.@.P P P M V M P P R r.g.b v v z k k e e 0 7 7 7 7 7 7 k W J U.{.wX{..Xx.OXh.p.u.u.v.u.y.w.Z 5.'.4X4X4XqXQ.Y.h.'.tXlXlXlXiXpXtXiXlXlXpXpXpXiXlXlXiXlXcXzXlXlXlXiXlXlXcXcXcXzXzXzXcXcXcXzXzXpX.X<X6.' KXHXgX$X} Z D Y                                                                                                                                                                                                                                                                                                                                                                                                                                                                                                                                                                                                                                                                                                                                                                                                                             ",
"                                                                                                                                                                                                                                                                                                                      #.>.K 6 @ @ O + + O O O O O O O @ @ @ O O f 3.+.<.1.P.3.3.>.o.F L F S S S H S L +.$.$.K f c 7 - @ @ # # . . . . . . . . O - f 7X9XrXyX8X(.^.T.6XQ.d.R P P P V P P P P R r.r.P v b n z k e e 7 7 7 7 7 7 7 k P J f.{.wX{. X_.+X_.W.x.!.!._._..XA..X_.4X4X4X4X'.E.W.W.OXdXlXlXlXiXiXiXlXlXlXpXpXlXlXlXlXlXcXcXlXlXzXlXlXlXcXcXcXcXcXcXcXKXKXKXcXdX+X<XA.i.oXHXZX_.w.C E                                                                                                                                                                                                                                                                                                                                                                                                                                                                                                                                                                                                                                                                                                                                                                                                                               ",
"                                                                                                                                                                                                                                                                                                                      o.#.K > O @ @ + + O @ O O O O O @ . . . . p P.%.>.<.P.3.3.>.X.o.o.F f u g f f h S S K K k f d f 4 @ O . . . . . . . . . O - 4 7X6X9XrX9XuX^.T.3X/.d.@.R P P P P P P P R 0.j.-.b J b n k k k 7 7 0 e 7 7 7 k P P f.[.wXqX}.!.OXOX'._.Y..X X+X+X+X+X_.4X4X4X4X{.Q.Q.W.OXpXlXlXiXtXtXtXtXiXlXpXeXlXcXcXlXpXdXlXpXdXdXdXlXlXlXcXlXlXlXcXcXcXzXcXcXdXeX.XoXR q.nXHXgXr.I                                                                                                                                                                                                                                                                                                                                                                                                                                                                                                                                                                                                                                                                                                                                                                                                                                 ",
"                                                                                                                                                                                                                                                                                                                        #.Y < O @ + + O @ @ O O O O O @ . . . . f <...>.1.3.I.1.<.X.o.o.F f u f g u 4 4 u f h n H H d c 6 @ @ O . . . . . . . o - 4 3X6X9X9X8XuX^.T.~.`.d.5.T P E E P P P P R q.x.q.P P M b v z k e e e e 7 7 e n J b ;.[.wXqX{.z.@XOX}.'.Y._.+XeXwXwXOX_.[.4X4X4XqX`.Q.Q.'.lXzXzXlXlXiXlXlXlXzXlXlXcXKXcXlXeXwXiXpXeXwXpXpXlXlXlXzXlXzXcXcXcXlXlXlXlXpX@XoXr.` dXHXZXk.=.                                                                                                                                                                                                                                                                                                                                                                                                                                                                                                                                                                                                                                                                                                                                                                                                                                ",
"                                                                                                                                                                                                                                                                                                                          #.u O + + O O O @ O O O O O O o o @ @ H P.#.,.3.1.T.<.<.*.X.o...j g f p u > 4 4 , 4 v c S S f 7 u < @ . . . . . . . o @ < T.6X9X9X8XuX^.T.R./.j.-.R T Y U U E P E R 5.x.8.J P W b v z k k e e e 0 7 e n v v f.4XwXqX_.z.@X+XOXOX_.W.OX+XwXOXOX_.'.4X6XqX4XqX{.+XOXtXlXdXiXlXlXlXlXzXzXzXlXlXlXdXlXpXtXdXlXpXpXpXpXlXlXlXlXlXlXdXdXlXiXiXpXlXdX+X X.Xq.i.ZXHX+Xi.q.;.                                                                                                                                                                                                                                                                                                                                                                                                                                                                                                                                                                                                                                                                                                                                                                                                                            ",
"                                                                                                                                                                                                                                                                                                                          #.p O @ @ O O + O O O O X O > G v G G G 1.#.,.1.1.I.<.>.*.o.....F g f u u 4 4 4 > > n c S S G G f i - O o . . . . . o O < U.5X8X9X0XuX^.R.R.`.h.8.R R R U P U P P P @.j.9.P P P V b z k n z k k e e k k v V ;.qXwX+X_..X+XwX+X}.'._.'.OXOXOXOX'.Q.4X4XqX4XwXwX{.'.'.eXpXeXeXwXwXeXeXeXeXeX@X@XeXeXeX@X@XeXeXwXwXwX+X+X+X+X+X+X+XOXOXOXOXOX+XpXeX@XfXk.w.dXHXxXz.i.r.q.                                                                                                                                                                                                                                                                                                                                                                                                                                                                                                                                                                                                                                                                                                                                                                                                                          ",
"                                                                                                                                                                                                                                                                                                                            d @ - - @ @ @ @ @ @ O O @ D           P.#.#.>.<.3.3.%.*.o.F F F h f g u u 4 4 > > z c S S G G S p i @ O o . . . . o O i 2.5X8X9X5XuX~.(.T.`.h.8.R R R R U P U R R 8.j.j.-.Y P P v n n n n k k k k k z v P R qXwX+X_._.wXwX}.+XOX_.W.'.}.}.}._.W.4X6XqXqXwXwX[.OX_.j.-.g.g.9.q.R R R R R R R R ` 6.` R ^ -.^ ` ^ ^ R R R R q.q.q.q.r.r.k.k.!.k.A.gX#Xi.i.HXHXz.7.7.r.q.                                                                                                                                                                                                                                                                                                                                                                                                                                                                                                                                                                                                                                                                                                                                                                                                                        ",
"                                                                                                                                                                                                                                                                                                                            k < < < > > > > < < < @ < D           E.#.+.>.>.1.P.%.X...F F F j h f f u 4 4 , ; k c S S G G G S i 6 @ o . . . . . O 4 f.7X8X9X5X3X~.(.P.E.W.8.R R R R R U U R 5.q.9.g.q.E P P M b b b v n n n z k v N R -.wXrXOX'.wXrXwX'.wX+X+X}._.'.}._.Q.W.{.wXqXwXwX+X'.'.Q.d.-.;.-.R P U R R R R T T T R R R R R -.T R R R R R R R R R R R R R @.R R R 0.x.>X7.7.MXHXgXk.6.6.7.i.q.                                                                                                                                                                                                                                                                                                                                                                                                                                                                                                                                                                                                                                                                                                                                                                                                                    ",
"                                                                                                                                                                                                                                                                                                                              - + + X X . + + o . . + c           ~.#.+.>.#.<.3.>.o.F F F F j f f f u 4 4 4 > 7 n S S G L K G H p @ . . . . . . O < :.5X8XrX7X7X~.uXP.Y.W.9.5.R -.5.-.R R R 5.5.q.8.8.Y P P P P P P M n b b v z b J R q.[.rX{._.qXwXqXQ.OXwXOXQ.h._._._.W.Y.'.wXqXqXwXwX`.`.Y.d.d.j.;.d.8.8.8.8.@.-.-.-.@.@.@.@.@.@.5.5.R R R R R @.^ ^ @.@.5.5.-.-.8.5.q.8.k.9.A.l.gXGXnXA.i.7.6.6.q.q.                                                                                                                                                                                                                                                                                                                                                                                                                                                                                                                                                                                                                                                                                                                                                                                                                  ",
"                                                                                                                                                                                                                                                                                                                              c @ . . . . . . . . . . 4           T.>.O.#.X.>.3.>.o.L F F F j f h f u u 4 4 > 7 v G G G L K G G d @ O . . . . . + > >.0X8X9X7X7X^.(.P.4.W.j.q.5.q.q.q.5.5.q.5.5.5.5.@.R R R R E U P P V P V b v b P ^ 0.'.wX4XQ.{.4X[.Q.[.wX'.h.h.W.W.W.W.W.W.wXqXqXwXwX[.W.Y.Y.Y.W.x.x.x.h.h.h.h.h.x.x.x.x.x.x.x.x.j.k.k.k.k.j.j.j.k.j.k.k.k.j.j.j.j.k.k.k.x.x.x..XdXHXFX.Xe.i.a.l.i.q.5.q.                                                                                                                                                                                                                                                                                                                                                                                                                                                                                                                                                                                                                                                                                                                                                                                                              ",
"                                                                                                                                                                                                                                                                                                                                d O . . . . . . . . . O $.        R.O.K ....#.1.>.X...F F F j g f f u u 4 4 4 4 v G G K L L K G d @ O . . . . . + > ..7X5X6X7X3X^.3XP.<.W.j.0.q.5.q.q.q.q.q.q.5.5.-.@.@.-.5.R R R R E E P P V N P P 5.q._.4X[.Q.[.[.'.E._.qX'.'._.W.W._.Q._.W.qXqXqXwXwXqX`.`.'.Q.d.9.9.g.g.5.8.9.q.q.9.r.q.9.q.q.q.q.q.0.0.q.q.q.q.q.0.0.9.9.9.9.9.9.9.0.9.q.r.x.#XdXmXHXgXk.5.6.7.i.s.l.i.0.                                                                                                                                                                                                                                                                                                                                                                                                                                                                                                                                                                                                                                                                                                                                                                                                            ",
"                                                                                                                                                                                                                                                                                                                                  c i i - - O O - - u 6 u         Q.+.S G ..#.<.>.X.o.L F S j f f f u u 4 > 4 4 x G G G L L L G c O o . . . . . + > L 7X7X5X3X3X^.3X^.<.Y.h.g.0.5.5.q.q.0.0.0.q.8.5.-.8.8.q.5.R R ^ R R P P P P P E q.6.Q.[.'.Q.`.`.`.W.E.[.qX}._.W._._._._.W.}.qXqXwXwXwX'.[.`.'.h.8.8.;.;.;.$.R R R R 5.-.R R ! ! 5.5.q.7.5.5.5.` 6.` ` ` ` 6.6.6.6.q.7.7.6.q.0.l.fXkXFXbXs.` ' 0.7.7.0.i.a.q.-.                                                                                                                                                                                                                                                                                                                                                                                                                                                                                                                                                                                                                                                                                                                                                                                                        ",
"                                                                                                                                                                                                                                                                                                                                  $.$.$.$.$.$.$.$.$.#.+.+.      /.Q.d.f S ....<.<.X.o...F F j f p f g i 4 4 6 4 l S G S L L L G S @ . . . . . . O @ L 3X7X7X3X3X^.3X^.>.U.Y.h.0.q.5.q.q.0.q.q.q.8.8.8.8.q.q.q.R R ` R ` R R R P E E R ` Y.'._.Q.Q.`.`.W.W.`.qX}._.j._._._._._.W.qXqXqXqX{.OX[.{.'._.W.x.h.j.W.W.x.x.g.g.j.j.j.d.d.8.9.9.d.g.9.9.9.9.g.9.9.9.9.9.9.j.j.r.r.k.k.x.z._. XnXHXJXi.' ` ` 7.7.i.0.q.0.i.0.-.                                                                                                                                                                                                                                                                                                                                                                                                                                                                                                                                                                                                                                                                                                                                                                                                    ",
"                                                                                                                                                                                                                                                                                                                                                            `.'.{.Y.;.c H G ..<.<.X.o.o.S F F f f f g p 6 4 6 < z S S G L K ..G S @ . . . . . . . @ ..3X7X7X3X7X~.3X(.%.d.Y.h.j.0.q.q.q.q.q.7.q.q.8.8.9.q.0.q.5.5.6.6.6.5.` R U U R R ` j.Q.Q.Q.Q.Q.`.Y.Y.Q.wX'._.h.x._._._._.h.'.wX4X{.[.qXqXOX}._.Y. X.XOX'.!.!.!.!.!.!.!.!.W.z.W.x.x.!.!.z.!.!.!.!.!.!.!.!.!.W.W._.z.z.z._._._..X@XjXFXFXl.k.6.` 7.7.q.6.i.i.i.i.0.-.                                                                                                                                                                                                                                                                                                                                                                                                                                                                                                                                                                                                                                                                                                                                                                                                  ",
"                                                                                                                                                                                                                                                                                                                                                          E.[.{.Q.h.;.f f H ..,.<.X...F F F F f j h f u u 4 4 < k S S G L K ..G S - . . . . . . . O ..].7X7X3X7X~.3XuX<.#.j.Y.z.r.0.r.k.r.r.r.7.q.0.0.q.q.0.0.q.q.q.q.q.5.` R R R R R ` 5.E.W.W.W.Q.'.W.Y.E.{.OX_.h.h._.'.'.'.W.W.OX{.{.[.{.wX{.'.W.5.8.q.5.Y R R R V V V V V V b b b b b b P V P I P P P P P I R R q.q.7.7.q.0.k.k.t.jXHXHX#X0.q.0.i.n.s.0.7.7.0.7.i.0.r.@.                                                                                                                                                                                                                                                                                                                                                                                                                                                                                                                                                                                                                                                                                                                                                                                              ",
"                                                                                                                                                                                                                                                                                                                                                        Y.'.[.`.Y.j.+.d f h ..>.>.%.L F F F S j F j p u u 4 6 < k v G L L K L G S > . . . . . . . O G ].7X7X3X7X^.uXuX<.#.j.Y.x.x.k.x.k.r.k.k.k.r.r.k.k.k.k.r.0.q.r.q.q.6.5.R R R 5.-.6.9.W.Y.Y.W._.'.W.Y.W.'.OX_.W.h.'.'.OXOX.XW.OX{.{.[.[.wX{.W.8.P v n v k k 8 8 e 8 8 k k e 7 3 e e k k e k k k k k k k n n l n n n n x x x M V Q 7.MXHXdX6.6.e.0.7.i.s.i.s.s.n.l.i.s.k.-.$.                                                                                                                                                                                                                                                                                                                                                                                                                                                                                                                                                                                                                                                                                                                                                                                          ",
"                                                                                                                                                                                                                                                                                                                                                        Q.{.{.Q.Y.;.@.d f f L >.>.%...L ..F S j o.F f p u 6 6 4 7 c G L L K L G H 4 . . . . . . . O F 3X7X3X3X3X^.uX3XP.#.U.Y.W.z.x.x.x.x.x.k.x.x.k.k.k.k.r.k.r.0.r.0.q.q.5.5.5.5.q.5.0.5.Y.h.Y.W.`.`.Q.W.Y.Q.qX'._.j.W.OXOXOXOXx.'.qX[.[.4XqXqXj.R Y T T Y T T E I V V V I M M b b b b b b P P N N N P E V C U I I P R E R R ^ -.5.5.q.dXHX>Xq.` 6.q.q.6.5.6.7.0.e.w.i.i.k.q.i.$.                                                                                                                                                                                                                                                                                                                                                                                                                                                                                                                                                                                                                                                                                                                                                                                        ",
"                                                                                                                                                                                                                                                                                                                                                      Y.'.{.[.Y.j.;.Y c H H G >.>.%.o.o...F S j F F h d u 4 6 < 1 k G L ....L S H 4 o . . . . . . @ S 3X3X7X3X3X^.uX3XR.,.f.Y.W.!.!.z.z.z.z.x.x.l.k.k.k.k.r.k.k.k.k.r.0.9.q.q.q.q.q.0.r.5.f.Y.W._.'._.x.Q.Y.W.{.{._.h.x._.OXOXOXOXW.4X[.[.4XqXwXx.8.8.9.d.d.h.j.j.r.g.9.g.g.0.g.d.d.9.9.9.9.g.g.g.9.0.9.9.g.r.r.q.k.r.k.x.x.r.r.x.x.x.k.XXHXgXA.6.q.0.i.0.r.0.7.q.0.0.q.7.e.i.7.0.e.0.-.                                                                                                                                                                                                                                                                                                                                                                                                                                                                                                                                                                                                                                                                                                                                                                                  ",
"                                                                                                                                                                                                                                                                                                                                                      E.`.{.'.Y.j.g.T H G S S ,.<.X.o.o.o...F j j F S f u 6 6 < 4 z S L ....L S H 7 o . . . . . . + h 3X3X7X3X3X(.|.3X~.1.,.h.Q.W._._._..X$X$X$Xz.x.x.x.x.x.x.x.x.x.k.r.r.9.0.r.q.q.k.r.q.h.W.Q._._.x.j.W.W.Y.`.qX'.W.h._.OXOX+XOX_._.[.[.4XqXwX'.W.x.h.z.z.W.z.x.x.k.k.k.k.k.k.j.j.r.j.j.k.k.k.k.k.k.k.k.k.x.x.x.x.x.x.z.z.m.z.z.$X.X#XoXmXKXr.k.0.7.0.i.0.l.k.s.i.l.i.i.0.i.i.e.e.i.i.0.q.                                                                                                                                                                                                                                                                                                                                                                                                                                                                                                                                                                                                                                                                                                                                                                              ",
"                                                                                                                                                                                                                                                                                                                                                    Y.Q.`.[.`.h.h.h.8.S G S S <.<.X.o.o.o.o.F F F F F f u u 7 6 < s G K ..L L S S 7 @ . . . . . . + h 3X7X0X].3X^.(.0X(.U.>.j.Q._._._..X.X.X_._.z.z.z.x.z.z.x.x.x.x.z.x.k.k.k.k.j.r.z.k.0.9.Q.'.'._.x.g.j.W.f.`.wXOXW.d.W.+X+X+X+X+X_.'.[.{.qXqX'._.x.R 5.5.5.T I I P P x x x x n n n n x x x x x x x n V x x x b b b P U R R ` ` 6.6.e.p.nXkXl.k.l.i.l.F.l.i.i.V.D.s.i.i.t.7.n.Z.V.l.n.i.e.e.q.-.                                                                                                                                                                                                                                                                                                                                                                                                                                                                                                                                                                                                                                                                                                                                                                        ",
"                                                                                                                                                                                                                                                                                                                                                    E.E.Q.Q.Y.h.h.j.-.S D S H <.<.#.X.o.o.o.F F >...F f u u i 6 - k K L ..L K S S 7 @ . . . . . . + f 3X6X7X3X7XuX3X0X3XR.<.d.W.'..X.X.X.X.X.X_..X_._._._._._.z.!.!.z.z.z.z.z.x.k.k.z.x.k.j._.'.'._.k.5.5.W.Y.Q.OX{.W.h.W. XOX X+X@XOX`.[.[.{.qX{.9.b k 7 7 7 i 7 < 1 1 < < 1 < 1 4 1 < 1 < 3 3 1 1 4 < < < 3 1 3 7 8 3 3 3 e e e e k n C u.<Xs.i.A.S.l.t.V.l.i.0.s.s.t.t.i.w.i.C.S.V.s.l.n.l.i.i.7.0.                                                                                                                                                                                                                                                                                                                                                                                                                                                                                                                                                                                                                                                                                                                                                                    ",
"                                                                                                                                                                                                                                                                                                                                                  E.'.Q./.`.Y.Y.8.T b G S H H <.<.%.X.o.o.o.F ..>...j h f g i u > i K L K L G S S d @ . . . . . o O S 3X7X3X3X3X3X3X0X3X(.<.<.Y.}.OXOXOX.X.X.X X.X.X_._._._._._._.!.W.z.z.z.z.x.x.x.z.z.!.j.`.'._.x.q.5.6.j.W.W.{.qX'._.Y..XOX X+XeXpX'.`.[.{.4XOXR b n z n k c k k e e 8 8 8 8 7 7 7 7 7 8 7 7 8 7 7 7 7 3 3 7 7 7 e e k 0 3 7 e e k 7 l _ N.D.t.7.i.V.l.t.7.t.7.i.l.i.0.s.i.s.e.l.D.i.i.v.n.D.n.s.i.i.q.e.                                                                                                                                                                                                                                                                                                                                                                                                                                                                                                                                                                                                                                                                                                                                                              ",
"                                                                                                                                                                                                                                                                                                                                                  Q.[.Q.Q.E.Q.f.T V k L c f h <.<.%.o.o.o.X.....X.o...F S f u f < i K K L L G S S v @ . . . . . + @ H ].0X3X7X3X3X].7X0X3XR.2.E.OX+XOXOXOXOXOX XOXOX.X.X.X.X.X_._._._.W._._.!.z.z.z.!.!._.k.W._.!.j.5.6.6.r.W.W.'.wX{._.h._. X X@XpXdX@X'.[.{.{.qXj.R R R T Y T J Y Y Y b b P P M P P P P V M P P P P P P b N V P P P P U P P P R R R R P i.J.:Xs.` _ ' ` 6.0.0.r.7.i.i.i.7.q.i.7.7.i.i.i.s.s.s.V.S.A.i.i.i.i.                                                                                                                                                                                                                                                                                                                                                                                                                                                                                                                                                                                                                                                                                                                                                            ",
"                                                                                                                                                                                                                                                                                                                                                  `.qX`.h.d.f.@.Y b k K d f c ,.3.>.o.*.X.o.....o.o.X.o.S f u g 4 7 v K G G G H G D @ . . . . o + @ G 3X7X7X3X3X3X].7X5X0X~.2.f.[.wXwXwXwX@XwXOXOXOXOXOX.X.XOX'.'._._._._._._._._._._._.W.W.x._.x.0.5.7.7.q.W.W._.OXOX_.h.W. X X@XeXpXeXOX{.4XqX}.j.r.q.-.g.d.d.8.8.8.8.8.8.8.8.8.5.8.8.5.8.8.8.8.8.8.8.8.8.8.q.q.q.q.q.0.9.0.r.r.r.0.0.e.l.:XfX6.R T -.q.6.6.5.7.0.` ` ` R 5.7.7.0.r.i.i.i.l.0.i.l.S.S.V.l.i.i.7.                                                                                                                                                                                                                                                                                                                                                                                                                                                                                                                                                                                                                                                                                                                                                        ",
"                                                                                                                                                                                                                                                                                                                                                Y.Q.'.[.h.f.h.R P b k S i f H ,.3.>.%.>.X.o.o.o.o.F ..o.j g u u , 7 c G S H G S G D - . . . . - < 7 >.3X0X0X].3X7X].7X6X8X(.T.d.Q.wXtXtXtXeXeXwXwXwXwXwXOXOXOXOX'.'.'.'._._._._._._._._._._.!._.k.5.5.6.6.q.Y.E.W.OXqX`.W.W..X X+X@XeXpXOX[.4X4X{.j.q.T P P 8.5.-.5.5.5.5.5.5.6.5.5.5.5.5.5.5.5.q.q.6.6.6.q.q.7.q.q.7.7.7.0.0.r.i.r.0.0.i.p.,XfXR R R E @.0.7.R Y R R 5.7.7.6.0.i.7.0.V.i.q.6.` ! 7.7.V.V.l.l.i.i.i.                                                                                                                                                                                                                                                                                                                                                                                                                                                                                                                                                                                                                                                                                                                                                      ",
"                                                                                                                                                                                                                                                                                                                                                Y.Q.Q./.h.f.8.R P b z S 4 f S >.3.>.<.<.o.o.o.o...h j F j f u u 4 6 c H c c H S G D 6 6 6 4 6 7 i d :.7X7X7X(.3X7X3X3X5X9X].~.d.Y.4XiXtXtXtXtXtXwXwXwXwXwXwXwX+XOXOX}.'.'.'._._._._._._._.'.W.x.k.5.q.q.7.5.r.Q.Y.}.wX{.W.h._. X+X@XeXpX@X'.{.4XqXk.E n k k b n n n n l l l k k k l k l l l l x x x x x n b b x x x n n V V x C V U U R R Z K.:X0.@.5.` E E R R R R ` ` 7.l.i.6.i.i.0.w.7.5.q.` ` ` ! q.i.s.l.l.i.l.l.0.                                                                                                                                                                                                                                                                                                                                                                                                                                                                                                                                                                                                                                                                                                                                                  ",
"                                                                                                                                                                                                                                                                                                                                                Y.Y.Q.Q.d.d.-.R I M z H > p S >.3.>.>.>.o.o.o...F j F F F h f f u u 6 p f f H S S D c d d s i k k n R.7X7X7X3X3X7X3X3X5X9X3X~.U.Y.4XiXiXiXiXpXtXpXtXwXwXwXwXwXwXqX+XOXOXOXOX}.'.'.'.'.'.{.}._.k.q.5.7.0.0.7.7.W.E.`.qXqX'._._..X X@XeXpXeX'.[.{.{._.P e 7 0 k e k k e l r e k k k k k k k k e e l k l l k k k l x x x l l x n x x x x n x x [ XX#XT R ! T 5.0.0.7.q.6.i.0.i.S.i.0.i.q.i.i.6.7.k.s.` q.6.0.7.0.s.l.l.l.V.0.                                                                                                                                                                                                                                                                                                                                                                                                                                                                                                                                                                                                                                                                                                                                                ",
"                                                                                                                                                                                                                                                                                                                                                Y.Q.`.Y.d.j.-.R P M n f > f L <.<.>.%.*.o.o.o...F S ....j j h H f u 4 6 f f f S c D c d 7 7 7 7 i n 3X7X7X0X3X(.3X3X3X5X9X5X~.^.f.T.rXiXiXiXiXiXiXpXtXpXpXtXtXwXwXwXwXwXwX+XOXOXOX}.'.'.OXOXOXk.q.w.p.s.p.t.t.h.Q.E.'.qX}._.h..X X@X@XeXeX}.[.[.{.`.P 7 7 < < < < < < < < < < < < 1 1 1 1 1 1 1 1 3 3 3 3 3 3 3 3 3 3 3 3 3 3 3 3 7 7 3 7 8 V N..XT R ` q.5.7.x.A.V.i.s.r.i.a.w.7.l.i.i.s.i.7.6.0.7.7.6.5.q.5.q.7.q.i.l.s.0.                                                                                                                                                                                                                                                                                                                                                                                                                                                                                                                                                                                                                                                                                                                                              ",
"                                                                                                                                                                                                                                                                                                                                                Q./.`.Y.I.-.T T P n v i > f K <.<.>.#.X.X.o...o.o.o.o...h F F h f 4 ; 4 u f f S v v c d 7 7 7 7 k $.(.7X0X7X3X(.3X3X3X5X6X6X~.^.~.E.wXiXaXiXiXiXiXiXiXiXiXpXtXwXwXwXwXwXtXwX+X+X+XOXOXOXOXqXqXW.r.p.N.v.v.v.a.r._.Y.Q.wXOX_.d.x. X X+XeXeXOX{.[.{.'.-.7 7 0 i 6 4 7 4 4 < < < < 1 3 3 7 7 7 1 7 7 7 7 7 7 7 7 3 3 3 3 7 7 3 e e e e e e x n x ] 0.R q.i.A.A.l.i.Z.C.i.i.i.i.l.l.i.s.F.s.6.i.7.7.r.q.e.7.q.0.q.5.7.q.6.0.i.i.7.@.                                                                                                                                                                                                                                                                                                                                                                                                                                                                                                                                                                                                                                                                                                                                          ",
"                                                                                                                                                                                                                                                                                                                                                Q.[.`.f.8.E Y P V n z 4 - c L >.<.<.%.X.....o.%.<.>...F h F F f f u u 4 < f f S J v c i i 7 7 d v f.7X7X7X7X3X3X3X3X3X7X7X8X|.(.^.Y./.rXaXaXiXiXiXiXiXiXiXpXwXwXwXwXwXtXtXwXwXOXqXqX+XOXOXqXwX}.0.N.V.N.N.v.p.0._.Y.Q.qX{._.x.x..X X+X@XeX.X'.[.{.Q.P J n v Y P D v v v v v v v b b b b b M V b b b b V V V P P P P P P P P P P P I I C U U C v.dXq.7.i.i.A.S.a.a.a.n.n.S.s.i.S.S.n.a.s.q.q.t.q.k.l.0.0.s.0.i.i.0.7.` ` 7.0.i.i.q.                                                                                                                                                                                                                                                                                                                                                                                                                                                                                                                                                                                                                                                                                                                                        ",
"                                                                                                                                                                                                                                                                                                                                                Q.`.`.Y.;.$.Y b n z 7 > - c G #.3.<.>.X...%.*.X.*.*.F j j F j p j p u 4 > 4 i c K c k i 7 7 7 d z ].7X7X7X0X3X3X(.3X3X7X7X8X7X|.].~.R.6XiXaXiXiXiXiXiXiXtXiXtXwXwXwXtXtXwXwXwXqXqXqXqX+X+XwXwXOXx.N.V.V.v.u.t.] W.Y.W.'.qXOX.X!._. X@XeXeX X'.[.{.W.-.T E P R R T Y T T T T T T T ` ! ` ` ` ` ` R 6.6.6.6.6.6.q.q.q.7.q.q.7.q.q.` ` _ ` 6.q.i.:XnX0.i.l.0.i.F.S.D.G.D.n.D.F.l.V.V.i.i.s.i.0.i.w.i.l.i.7.q.t.` r.w.l.r.6.` ` 7.0.s.r.                                                                                                                                                                                                                                                                                                                                                                                                                                                                                                                                                                                                                                                                                                                                      ",
"                                                                                                                                                                                                                                                                                                                                                Q././.f.8.;.Y b v n 7 > ; p f ..1.<.3.>.X.%.*.o.o.o.o.F j j h p F h u 6 4 < u f G n d i 7 7 k k K 7X7X7X7X7X3X3X].7X].7X7X8X8X|.]./.~.~.rXiXiXpXiXiXiXiXtXtXtXwXwXwXwXtXwXtXwXwXqXqXqXwXwXwXqXqX_.v.v.v.v.b.w.' 0.W.W._.wXwXOXW._. X@XpX@X X'.{.{.Q.;.@.P b M M b b b b b b b b b M M M M M V V V V V V V V V C P P P P I I U U I U U U V C v.<XnXe.6.i.i.l.#XoXD.D.oX#XD.C.l.F.F.i.i.V.V.i.i.n.n.7.7.0.0.l.0.i.i.0.i.7.q.6.` 6.7.s.7.                                                                                                                                                                                                                                                                                                                                                                                                                                                                                                                                                                                                                                                                                                                                    ",
"                                                                                                                                                                                                                                                                                                                                                Y.`.Q.h.8.@.8.@.P n 7 > ; p 4 G 1.<.3.3.%.o.o.o.....o...j h j h F S u p u , > f G S S v c S K D f.0X7X7X7X7X7X3X(.7X].7X7X6X8X7X].^./.~.4XiXiXpXiXiXiXiXiXiXtXtXtXtXtXtXtXtXtXtXwXqXqXqXqXwXqXwX'.i.{ { { w.] ` ! W.W.Q.wXqX}.W.!. XpXdX@X XOX'.[._.@.b k 7 7 7 7 7 3 3 3 7 7 7 7 7 7 7 7 7 7 7 7 7 7 0 7 7 7 k e k k k k e e e e e e e e x U >XxXF.7.i.S.D.L.#XoX#XZ.F.F.V.V.S.#XF.l.t.V.a.s.V.i.6.i.7.i.i.n.V.V.V.i.V.i.s.6.6.6.7.i.q.T                                                                                                                                                                                                                                                                                                                                                                                                                                                                                                                                                                                                                                                                                                                                 ",
"                                                                                                                                                                                                                                                                                                                                                Q.Q.Y.Q.j.-.P R Y b k 6 + u 4 H <.>.>.>.%.o.o.F F ..o...F j F F j j u u u 4 ; 4 f #.<.<.<.<.T.2.7X7X7X7X7X0X0X3X3X7X].7X7X6X9X8X].].^.~.].rXiXiXtXiXiXiXiXiXiXiXiXtXtXtXtXtXtXtXtXwXwXwXwXwXwXwXOX!.x.w.w.w.7.0.8.x.Q.W.{.wX{._.W.@XdXeX@X X{.'.[._.R N k 7 k z k k k e e 8 e e e e e e e e e e r e r r e r r x x n x x l x x x x x x x x M B ' nXfXl.l.#X:XoXoXD.Z.D.C.G.V.V.D.D.a.D.p.w.s.0.i.a.w.w.V.l.0.p.V.t.p.a.a.V.V.a.s.i.7.q.7.q.T                                                                                                                                                                                                                                                                                                                                                                                                                                                                                                                                                                                                                                                                                                                               ",
"                                                                                                                                                                                                                                                                                                                                                Q.E.Y./.Y.j.8.R P P b f ; 6 4 S <.<.#.#.X.X.X.o.L ..o.o...F F F j j p u u u 4 4 h R.].0X9X9X8X6X6X5X6X5X6X0X0X3X3X7X3X7X7X8X9X9X3X].^.].[.rXiXiXrXiXaXaXiXiXiXiXtXwXtXiXpXtXtXiXiXiXtXtXwXwXwXwXqX{.qXOXqXOXqXOX}.z._.Y.`.wX+X'.W. X@X@X@X_.OX{.[.{.R N k 4 7 4 4 < < * * * @ @ @ @ @ @ @ $ * * * * * * * * * < < 1 < < < < 3 9 8 8 e e e k x Q JXfXF.D.G.D.D.C.V.D.J.Z.F.#X#XV.C.n.p.t.' r.i.0.l.s.w.i.n.p.i.i.q.0.t.w.a.V.V.Z.V.n.s.7.6.7.5.                                                                                                                                                                                                                                                                                                                                                                                                                                                                                                                                                                                                                                                                                                                            ",
"                                                                                                                                                                                                                                                                                                                                                h.`.f.h.g.h.8.T R Y z f > u u ..<.>.<.#.X.%.>.*.L ..o.o.o...o.o.F j f p u u u 4 F T.8X9X9XrX9X6X6X5X7X6X6X7X0X3X].5X3X3X7X8X9X9X8X].^.].~.4XiXaXrXrXiXsXsXaXaXaXrXwXtXiXaXiXiXiXiXpXiXiXpXwXwXwXqXOXrXiXiXiXaXrXwXOX_.Y.Q.qXwXOX_.!.@X@X.X'.qX{.[.{.R b 7 < 4 @ @ @ @ O @ O @ @ @ @ @ @ @ @ @ @ @ @ % * * * * * * * * * * * * * * * * * * 1 x [ HXnXoXG.G.Z.v.v.v.V.XX#XD.V.#XD.n.y.w.p.a.7.i.i.7.t.i.7.7.0.i.p.7.e.l.a.0.l.s.C.Z.Z.C.Z.i.q.6.5.                                                                                                                                                                                                                                                                                                                                                                                                                                                                                                                                                                                                                                                                                                                          ",
"                                                                                                                                                                                                                                                                                                                  j.k.k.g.d.d.                    E.f.;.8.g.5.@.@.P n S > f H ..3.<.3.#.X.%.>.X.L ..o.X.o.......F F h h S f u u h 1.7X9X9X9X9X6X6X6X7X5X5X7X0X0X3X5X3X0X7X8X8X9X9X3X|.^.7X[.wXiXrXiXrXaXsXsXsXaXiXwXwXiXiXaXiXaXiXiXtXtXiXtXtXwXqXOXtXtXtXiXiXiXiXtXW.Y.W.}.wXOXOX_. X X.X{.qXqX'.{.-.P k 4 e 7 8 8 8 8 8 8 8 8 8 8 8 8 8 8 8 e e e e e e e e e 8 8 7 7 7 8 7 8 8 8 8 8 7 e x N.JXZXS.n.u.v.Z.D.G.G.J.D.G.D.u.v.s.s.s.` p.p.w.w.w.' 7.w.q.7.q.i.s.a.t.a.s.s.V.s.C.S.G.G.Z.V.0.7.5.                                                                                                                                                                                                                                                                                                                                                                                                                                                                                                                                                                                                                                                                                                                        ",
"                                                                                                                                                                                                                                                                                                              h.f.,.8.9.k.k.0.q.8.d.d.              E.;.8.;.-.8.$.b v G u G K >.4.<.<.X.#.>.%.X.L o.X.X.o.F F F j j F H L f u p u 1.3X9XyX9X9X8X5X6X7X7X5X7X0X0X3X5X7X7X7X6X8X9X9X5X|.^.].].[.iXaXiXiXrXyXsXsXaXiXrXrXrXtXiXiXiXiXiXiXtXiXiXtXwXwXqXOXrXrXrXiXiXiXiX!.E.Y._.wXwXwX_..X.X'.OX4XqX{.'.5.P n 4 7 7 8 < 3 < < < 1 1 < < 4 4 3 3 3 3 3 3 3 3 3 3 3 3 3 3 3 3 3 3 3 7 7 7 7 7 7 e Z J.HXZX#XV.v.v.C.C.V.V.Z.Z.u.u.w.w.a.w.w.p.t.7.y.' ' ' 5.i.7.` i.w.7.p.w.0.i.i.l.l.s.V.s.V.S.Z.C.a.7.5.T                                                                                                                                                                                                                                                                                                                                                                                                                                                                                                                                                                                                                                                                                                                     ",
"                                                                                                                                                                                                                                                                                                          Y.!.'.Q.j.d.d.2.;.r.r.k.q.T @.;.;.d.h.      d.d.$.P @.T W b G p ..#.<.3.1.>.#.%.>.>.X...o.X.X...F F F F j F L F h u u u h 8X9XyXrX9X8X6X5X7X0X7X5X0X0X7X5X0X7X0X5X8X8X9X9X3X^.^.6X6XiXaXaXiXrXrXrXsXsXaXyXaXaXiXiXiXiXiXiXiXiXiXiXiXiXiXtXOXrXrXtXaXiXiXiXOX_.Y._.qXwXOX_.!.'.{.4X[.'.{.'.0.P z 7 x m m x x x x x x x x x x x x x x x x x x x x x m m m m x x x x m B m m m m m V C w.ZXGXG.Z.Z.D.G.D.Z.v.t.w.w.w.i.' 7.s.a.w.i.' 7._ R w.` ` i.i.' w.7.` 0.6.s.l.V.V.i.l.i.i.s.a.V.Z.V.0.5.R                                                                                                                                                                                                                                                                                                                                                                                                                                                                                                                                                                                                                                                                                                                   ",
"                                                                                                                                                                                                                                                                                                      Y.W.x.W. X.X_._.Y.d.d.;.d.r.k.0.R E P R R $.;.j.h.d.,.:.P P P z K f #.>.<.1.3.>.%.>.<.<.%.o.o.o.o...F ..o...F F F L K f p p f R.9X9XrX9X8X8X5X7X0X5X5X0X0X7X8X0X7X0X5X8X8X9X9X5X|.^.6X6X6XsXiXiXiXrXrXyXsXsXsXaXyXiXaXsXaXiXiXaXsXlXlXaXaXaXiX+XrXrXrXtXaXiXaXwXW.W.W.}.tXwX+X'.OX{.{.`.`.'.W.q.R n e P P P P P I U U U U U U U V C U U I C C I U C U R U U U U U U U U Q Q Q Q Q Q U V ] ZXGXD.Z.V.v.v.u.v.p.7.' ' ! _ 0.t.q.w.s.' ` R ` 6.` 7.w.6.w.w.` 7.6.0.i.i.D.#XG.S.l.V.s.V.s.a.a.G.G.V.6.^                                                                                                                                                                                                                                                                                                                                                                                                                                                                                                                                                                                                                                                                                                                 ",
"                                                                                                                                                                                                                                                                                                  Y.Y.W.j.h.W.W.h.W._..XW.Y.,.#.:.g.i.e.q.P P P R -.` ` 5.R @.;.Y Y D ..G #.<.<.1.3.<.>.>.>.>.%.X.o...F ......o.o.F ..G ..G G h f p F 8X9XrX9X9X8X6X7X7X5X5X0X0X7X8X7X7X0X7X8X8X8X9X9X7X^.].6X].sXsXaXiXaXiXrXaXsXsXaXaXaXaXsXaXaXiXaXzXzXsXaXaXsXiXwX{.wXrXrXrXiXiXwX!.W.W.'.wXwXqX[.{.4X`._.`.'.x.` P b e k n z k l l r l r e e l l e e l l e e e e e l l x n l x k k x x x x m M M V V V C } ZXGXdX#XG.G.V.u.t.w.' P ! 6.! ! q.7._ ` R R R R q.q.R ` 6.R ` ! ! 7.7.0.n.V.V.C.S.V.l.C.n.Z.D.D.Z.D.oXG.w.R                                                                                                                                                                                                                                                                                                                                                                                                                                                                                                                                                                                                                                                                                                               ",
"                                                                                                                                                                                                                                                                                              Y.W.OX_.W.!.W.W.f.f.f.x.x. X+XW.>.f.d.j.k.z.l.q.P J P R R R ` ! ` ` ` R ..K >.<.,.<.1.3.<.>.#...X.%.X...F o.o.o.o.....o.....o.#.F h u S R.8X9X9X9X6X6X7X7X5X0X7X0X0X5X7X0X7X5X5X8X8X9X9X8XuX^.0X].9XsXsXsXsXaXiXrXaXsXsXsXsXaXaXaXiXaXaXlXsXaXaXaXsXaXtXOXwXwXwXwXwXrXrXOX_.W.Q.wXiXwX{.{.[.`.Q.Q.[.'.U M e 3 4 3 4 4 * < < < $ $ $ * * * * * * * $ * < < < * < < 3 < < < < 1 3 3 3 7 7 e e e m [ ZXHXfXZ.C.H.V.v.w.w.7.` R R 7.! U ` T 5.! I R ` R ` ` R R R ^ ` R 5.i.7.w.a.i.i.i.S.l.n.D.S.D.F.F.F.G.D.V.V.`                                                                                                                                                                                                                                                                                                                                                                                                                                                                                                                                                                                                                                                                                                             ",
"                                                                                                                                                                                                                                                                                          Y.W.Q.OX}.Q.Q.Q.Q.W.W.W.Y.Y.h._.@X$Xd.U.,.:.8.k.z.l.i.T J J Y Y Y P P P R R 5.q.9.8.,.<.1.3.<.>.%...#.%.>.X...o.o...o.F o.o...o.L L F F j S <.7X6X9X9X6X6X7X7X5X0X0X0X0X5X7X0X0X7X5X5X8X8X9X9X0X|.|.6X3XrXsXsXsXsXsXyXrXiXsXsXsXzXzXsXaXaXaXaXaXaXaXaXsXsXtXOX4XwXwXwXwXwXwX{.W.W.W.{.tXqX'.'.`.Q.W.Q.[.x.R V k 0 8 e 3 7 3 3 < * * * < < < < * * * * < < < * < < 1 1 1 1 1 7 3 3 e e e e k n x e m dXGXGXxXD.v.y.t.t.w.7.6.6.' P P I P P I T q.q.E R R I U I -.5.@.5.7.6.` p.7.7.7.7.s.s.F.S.D.D.XXD.F.V.Z.D.C.D.v.q.                                                                                                                                                                                                                                                                                                                                                                                                                                                                                                                                                                                                                                                                                                          ",
"                                                                                                                                                                                                                                                                                      Y.W.W.'.[.{.[.OX[.`.Q.`.'.'.Q.Q.f.h.!._. XQ.d.$.#.;.h.k.x.k.q.P J K Y Y Y Y Y Y Y R R ` 7.q.f.3.<.<.>.#.%.%.*.X.o.o.........o...o.X.F o.....S h ..R.5X9X9X8X6X7X7X5X0X0X0X0X7X7X0X0X7X5X5X8X8X9X9X8X|.(.3XuX6XsXsXsXsXsXaXiXrXsXsXsXsXsXzXaXaXiXaXaXsXaXaXsXsXiXwX'.[.qXwXqXqXwXqXW.W.Y.'.qXOX'.Q.Q.W.Y.`.'.g.P M z b V V V V V M M V V M M M M M M M b M b M V V V V V V V V V V V P P C I P I R U V V #XZXGXMXC.v.p.q.e.e.0.` U U U R U P T R R E q.5.R R Y T R R 5.0.q.5.7.` 6.` ` 7.6.i.a.S.oXG.oX#XoXoXG.F.C.Z.J.V.V.0.                                                                                                                                                                                                                                                                                                                                                                                                                                                                                                                                                                                                                                                                                                        ",
"                                                                                                                                                                                                                                                                                  Y.Y.Q.'.{.OX{.OXqXOX{.}.{.OXOX}.'.Q.Q.h.f.Y..X.X8.;.2.:.,.8.h.k.z.i.q.Y J Y T T Y T T T R R R 5.6.d.4.>.%.%.>.X.....o.X.....F F *...X.o.o.o...o...j ..,.0X8X9X9X6X7X7X7X5X0X0X7X7X3X3X0X7X5X5X8X8X8X9X9X8X|.|.5X3X9XsXsXsXsXsXaXiXrXaXsXaXaXaXaXaXiXiXiXaXaXaXaXsXaXrXOX`.[.7X4X4X7X4X'.W.Y.Q.{.}.'.W.W.W.W.'.'.q.P n k b M b b b x x x x x x x n n n n n x l x x n n n x x x b b b b b V V V V V P U U b q.gXHXGXmXa.t.7.` 5.q.0.` R R ! R R ! R Y R 5.R R R R I P T q.R R 6.! ` R R ` q.7.i.i.a.D.D.#XG.#XXX>XoX#XJ.#X#XJ.V.C.i.                                                                                                                                                                                                                                                                                                                                                                                                                                                                                                                                                                                                                                                                                                      ",
"                                                                                                                                                                                                                                                                              Y.Y.Q.'.'.'.}.'.'.OXOXOX{.'.Q.Q.'.OXOXOX'.Q.Y.Y.W..X!.x.Q.d.$.,.d.h.z..XA.k.5.Y P R 5.5.6.0.0.i.7.0.0.w.7.;.#.#.>.#.o...o.%.o.o...F X.o.o.o.X.o.o.G ..G G #.~.7X9X8X6X7X7X7X7X0X7X3X7X3X3X0X5X5X5X8X8X8X9X9X9X0X|.3X5X].7XyXsXsXsXsXsXsXrXyXaXsXsXsXsXsXsXiXiXiXaXaXaXaXwX[.Q./.[.3X3X7X7X[.x.W.Y.'.'._.Y.W.W._.[.Q.Y.8.V k n x k k r e e 8 8 8 e 7 e e e e e e 7 7 7 7 e e e e 8 e e e e l l x x x x V m m M n.xXJXGXAXi.q.6.` R P R R R 5.5.5.! R R R E -.5.-.q.` ^ q.5.P 5.R 5.` U ` ` ` 0.e.i.n.V.a.S.C.D.S.Z.#X#XZ.Z.J.oXoXJ.C.V.q.                                                                                                                                                                                                                                                                                                                                                                                                                                                                                                                                                                                                                                                                                                    ",
"                                                                                                                                                                                                                                                                            Y.Q.'.}.'.[.[./.Q.'.'.[.[.`././.'.OXOXOX[.'.'.Q.Q.W.W.W..XOXd.:.U.Y.d.j.W..XA.l.k.` R R 7.` 0.l.l.n.n.V.l.i.i.q.#.>.%.X.X.X.*.o.o.o.o.X.....o.X.o.o.F K +.S ..>.3X8X9X8X5X7X7X7X0X7X3X7X3X3X3X0X5X5X8X8X8X9X9X9X8X3X].3X3X].].0XsXsXsXsXyXsXyXyXaXaXaXaXaXyXtXiXiXrXrXtXrXrXwX`./.[.3X3X3X[.].x.W.Y.'._.W.Y.W.E.`.}._.!.g.-.v b M V m x x x m x x x x x x x x x x x x V x x x x m m x M x x M V V V C C U U U 5.+X@XdXJXMX' T ^ 6.^ E R R R Y T @.=.R R R Y R -.5.5.k.r.R q.q.T @.R q.6.5.7.q.q.i.l.i.n.i.V.l.V.C.Z.D.#XD.D.C.C.F.G.D.XXZ.R                                                                                                                                                                                                                                                                                                                                                                                                                                                                                                                                                                                                                                                                                                   ",
"                                                                                                                                                                                                                                                                        Y.Q.'.{.OX{.{.[.[.[.[.OX'.'.OX[.qX`././.`.[.{.Q.Y.Y.f.f.f.d.j.k.k.f.d.,.,.f.Y.Y.W..X.XA.i.@.T 5.` 6.i.k.l.a.a.a.p.l.5.%.%.%.%.X.X.X.o.o.o.o.....o.o.X.o.F F :.....+.T.7X9X8X6X6X7X7X7X7X(.0X3X3X3X0X5X5X8X8X8X8X9X9X9X8X3X].|.|.0X3X|.9XyXyXyXyX9X9X9XyXrXtXrXrXrXrXrXrXrXrXrXwXrX4X/.[.[.3X4X[.].Q.W.Y.`.W.Y.W.W.Q.`.}.OXz.0.V 3 e l e e e e e e e e e e 8 e e e e e e e e 3 e e e r 8 e e k e r r x x x m M V 7.r.z..X XgXdX5.R Y R R Y Y T -.q.5.R Y R Y @.R @.5.q.5.5.q.i.6.6.@.q.q.q.r.0.7.i.i.q.e.i.i.s.a.S.S.D.D.D.oXoXoXD.C.Z.C.C.D.D.i.T                                                                                                                                                                                                                                                                                                                                                                                                                                                                                                                                                                                                                                                                                                 ",
"                                                                                                                                                                                                                                                                      Q.'.'.[.[.OXOXOX[.OX{.OX[.OXOXOXqX{.{.{.[.'.Q.[./.Q.Q./.Q.Q.E.!.z.!.'.OXj.2.f.U.d.d.Y.Y.z.S.k.T D P Y 5.q.q.k.l.s.a.s.s.-.#.%.%.X.X.X...o.o.o.o.o.o.o.X.X...G L X.X.#.>.].8X8X6X6X6X5X0X3X(.0X3X3X3X0X5X5X8X5X8X8X8X9X8X8X7X3X3X|.uX3X|.^.uXyXyXyXyX9X9X9XrXyXrXrXrXrXrXrXrXwXwXwXwXwX[.[.[.3X[.].].`.x.W.Q.Y.Y.W.W._.'.}.'.z.7.U U U U C C V V M M M m x x r r x n x m m x x x x x m M m M M m V C V V C U Q V Q 0.j.h.x..X>X>XR P P P Y Y R P Y E R P Y E Y P T 0.5.R 5.R R ` R R R q.e.i.e.l.s.' s.i.0.i.l.A.V.G.XXoXoX#XG.oX:XXXD.oXoXD.C.Z.a.5.                                                                                                                                                                                                                                                                                                                                                                                                                                                                                                                                                                                                                                                                                                ",
"                                                                                                                                                                                                                                                                  Q.Q.Q.Q.'./.'.OX[.OXOXqXOXqX'.'.[.qXOX[.`.`.Q.}.{.OX`.[.OX[.}.Y.Y.g.j.h.!..X.XW.h.f.Y.Y.'.Q.#X.X@.D Y Y K E R 5.q.7.7.7.t.i.i.;.#.%...X.....X.X.o.o.o.o.%.X.#.o.L G X.>.>.#.P.7X8X6X6X6X6X7X].(.7X3X3X3X3X0X5X5X5X5X5X8X9X8X8X8X7XuX|.3X0X0X3X|.uX3X9XyXrX9X9XyXrXrXrXrXrXrXrXrXrXwXwXwXwXqX[.[.[.[.[.{.4Xx._.W.h.Y.W.W.'.OXOX_.x.q.5.q.7.7.7.q.6.` 6.6.6.6.6.6.6.6.6.6.7.7.7.q.6.6.6.6.' ' ' 6.6.6.6.6.6.6.7.7.q.` q.h.j.h.x.$XdXdXE P D P R 8.q.q.R R T Y Y @.5.5.R E q.^ R R E 5.7.` 6.e.7.i.A.i.l.s.0.l.l.l.n.S.XXJ.G.oX:X%XG.G.G.oXJ.C.oXG.G.G.D.6.                                                                                                                                                                                                                                                                                                                                                                                                                                                                                                                                                                                                                                                                                                ",
"                                                                                                                                                                                                                                                                Q.'.'.[.[.'.OX[.'.[.OXOXOXQ.Q.'.[.OX'.'.[.[.[./.Q.Q.Q.Y././.E./.Y.Q.Y.E.h.f.Y._._.8.d.d.E.`..XA.Y S D D K T 7.7.w.7.6.7.6.e.7.i.i.;.X.....o.X.*.X...X.o.X.%.%.%.#...G G ..,.,.<.3X8X8X6X6X5X3X(.(.3XuXuX3X3X0X5X5X8X8X8X8X8X8X8X9X5X7X3X|.].3X8X8X3X|.uX9XyXyXyXyXrXrXrXrXyXrXrXrXwXwXwXwXwXwX4X[.[.[.[.].].Q._.Y.Y.Y.Q._.}.OX_.z.r.` 5.6.5.5.5.` ! ! ` ^ 5.5.5.` 5.5.` 5.6.6.6.5.5.5.5.` ! ! ` ` ` ` 5.` ` ` 5.7.5.q.W.j.j.j.h.@XgX#X5.R E E E T R R T Y @.9.5.@.@.5.q.^ -.` R R R ! q.i.q.q.n.l.V.n.q.t.w.s.S.#XoXG.D.oXXXD.G.G.G.Z.Z.Z.#XG.C.Z.V.Z.J.0.T                                                                                                                                                                                                                                                                                                                                                                                                                                                                                                                                                                                                                                                                                               ",
"                                                                                                                                                                                                                                                              Q.[.[.[.OXqX{.{.[.qXOXOXqX[.qXqXqX'.Q.Q./.`.Q.Y.Y.Q.Q.'.'.[.'.[.[.Q.Q.h.j.d.d.8.r.x.Y.f.Y.Q.!.x.P S D G G G I _ ` ] ] ] ] w.e.7.6.i.w.8...X.X.%.*.o.o.%...X.#.>.%.>.#.L S G #.,.#.U.5X8X8X6X5X3X(.(.3X3X3X3XuX0X0X5X8X8X8X8X8X5X8X9X8X8X6X0X|.|.].5X8X8X7X7X3X9XyXyXyXrXrXrXrXrXrXrXrXrXrXrXrXrXwX[.[.`.`.`././.!.E.Y.W._.'.'._.!.k.5.5.6.6.5.5.5.` ! R ` -.5.5.5.` 5.` ` 5.6.5.5.` 5.q.5.` R ` ` ! ! ! ` ! ! ` q.5.5.x.h.j.h.h.x.@XjX.Xq.@.5.8.9.5.R R @.-.8.r.k.r.r.5.5.5.R 5.6.q.q.e.6.e.l.v.t.u.p.V.i.l.V.V.oX&XoXoXXXH.S.G.H.G.Z.D.Z.G.G.#XJ.#XG.D.Z.S.T                                                                                                                                                                                                                                                                                                                                                                                                                                                                                                                                                                                                                                                                                               ",
"                                                                                                                                                                                                                                                            Q.[.[.{.OXqXqX[.'.[.'.'.[.[.[.{.{.`.[.[.[.OXqXOX[./.[./.[.[.'.'.`./.Y.Y.h.W.x.h.x.z.W.d.Y.OXOX!.Y D D G D P R 6.' ' w.y.a.i.` R ` ` q.7.6.8.>.X.X.X.X.o.*.X.o.%.%.%.>.>.L G S ..<.<.<.].8X8X6X0X3X(.(.3X|.].3XuX3X0XuX5X5X8X9X9X8X8X8X8X8X6X6X3X^.|.|.3X6X8X8X7X(.8XyXyXyX9XrXrXrXrXyXrXrXrXrXrXrXrX4X/.E.T.T.T.T.j._.E.Q.Q._._.W.x.5.R 5.5.5.5.5.! R @.5.^ ` ` 5.5.` ` ` 5.6.5.5.-.5.5.5.5.-.^ ` ` ` R R ! ! ! q.5.-.j.h.j.h.h.x.z.@XnXj.@.@.R R 5.5.R R 8.0.q.q.7.q.r.6.R 6.6.q.i.i.p.i.n.p.y.n.p.t.t.i.V.V.XX%XG.oX:XoXG.J.#XG.G.%XXXoXG.G.%X%XoXXX:XoXoXoX0.Y                                                                                                                                                                                                                                                                                                                                                                                                                                                                                                                                                                                                                                                                                             ",
"                                                                                                                                                                                                                                                            Q.[.{.OXqX{.qX{.[./.`.E./.Q./.[.{.{./.W./.qXOX[./.'.[.Q./.Q.Y.}.}.Q.Q.Q.W.h.h.9.k.g.f.Y.[.@X X@.D c c c P ` ] Q Q ' p.l.l.s.` I I R R q.0.6.@.+.+.X.X.X.<.X...X.X.%.>.<...S S S #.#.>.T.5X8X6X3X].(.(.3X(.|.3XuXuX0X0XuX5X8X8X9X9X8X9X9X8X8X6X7X].|.].].].7X6X6X].].uX9XsX9X9XrXrXrXyXyXrXrXrXrXrXrXrX[.E.U.U.U.U.U._.Q.Q.W.W.W.h.g.-.-.5.5.-.@.@.@.@.@.5.5.5.5.5.5.^ ^ 5.5.5.-.R ^ =.-.-.R R -.` ` R ! ! R ! q.q.5.x.x.j.j.j.h.x..XdXmXr.8.g.r.5.R q.6.-.0.k.x.k.l.7.7.i.6.t.i.n.i.n.V.V.a.n.p.p.a.p.n.y.u.J.XXoX#XD.V.F.D.V.v.D.XX%X>XoXoXG.XX%X:X%XXXXXS.XXZ.@.                                                                                                                                                                                                                                                                                                                                                                                                                                                                                                                                                                                                                                                                                            ",
"                                                                                                                                                                                                                                                          Q.[.[.qX{.OXOX[.[.[.`.Y./.Q./.[.[.{.`.E.[.[.[.`.Q.Q.'.`.Q.Y.Y.Y.Y./.[.[./.Y.d.;.5.8.d.Y.{.OXQ.@.S S S z b U _ ] ` ` ' _ ` 7.7.R Y T ` R Y ^ q.R P R R $.>.<.o.....X.%.>.>.#.L G S G L #.1.3X8X7X3X].(.^.uX(.3X3XuXuXuX0X0X5X8X8X8X9X9X9X9X9X8X8X6X3X].|.|.^.].].7X].].3XuX5X9X9X9X9X9X9XyXyXyXrXrXrXrXrXqXE.Y.E.T.Y.Y.z._.W.W.x.j.9.-.-.-.5.-.-.-.-.-.-.-.5.5.5.5.5.-.@.-.5.5.-.-.-.5.5.5.-.-.5.5.-.5.5.5.5.5.5.5.8.Q.Q.h.j.j.j.h.x._.gXZXj.-.-.8.5.R 5.r.k.k.i.k.i.k.0.0.k.V.a.p.G.G.v.u.Z.n.n.v.p.V.n.V.D.C.V.G.V.V.C.V.G.Z.D.#XZ.V.G.XXXXG.XXZ.J.K.oX#XZ.Z.Z.#X-.Y                                                                                                                                                                                                                                                                                                                                                                                                                                                                                                                                                                                                                                                                                           ",
"                                                                                                                                                                                                                                                        Q.'.[.OXqX[.}.qX[.qX[./.[.[.'.'.{.{.qX[.[.'.Q.'.{.'.`.'.[.[.[.'.[.'.Q././.Q.Q.f.q.j.d.Y.Y.Q.Q.@.G S v n v n V U Q ` U I b P T R R I P P R R P P R P E R R R q.9.:.o.>.>.>.>.#.#.G S f S #.<.R.6X7X3X(.(.^.uX|.uX3X3XuXuX0X0X0X8X5X8X9X9XrX9X9X9X8X8X6X7X].].^.~.^.].].].3X|.~.uXuX9X9X9X9X9X9XrXyXrXrXwXwXrX[.E.Y.Y.T.T.Y.W.W.x.j.9.@.@.8.9.9.8.8.8.8.9.8.8.8.8.8.8.5.-.8.8.8.8.8.8.8.8.8.8.8.8.8.8.8.8.8.8.5.5.@.-.`./.Q.Y.j.j.j.j.x. XgXnXg.5.R R 5.` q.0.l.#XS.F.l.V.V.a.a.a.Z.G.V.Z.Z.u.u.v.H.D.Z.G.J.oXZ.H.H.C.Z.V.v.N.D.oXoX#XoXG.Z.G.D.G.C.Z.C.D.D.#XG.J.C.V.i.@.                                                                                                                                                                                                                                                                                                                                                                                                                                                                                                                                                                                                                                                                                          ",
"                                                                                                                                                                                                                                                      Y.Q.[.[.[.[./.'.{.{.qX{.`.qX[.'.qX[././.E.Y.Q./.Q.Q.Q.Q.Q./.'.Q.W.E.Q.Q.OX_.Q.h.r.W.W.8.Y.Y.Y.Y S S c k n N P ^ ` ^ U Q U E R T R R T @.-.P P P P E R P R 5.` R R ` R @.:.>.>.>.,...S h h o.<.P.0X0X3X(.~.^.uX|.uX3X3XuXuX3X0X0X8X5X5X8X8X9X9X9X9X9X8X8X5X7X3X].^.R.E./.`.3X3X|.^.~.^.^.5X9XyX9X9X9XrXrXrXwXwXwX[.E.Y.U.U.U.U.d.d.9.$.@.-.;.;.;.;.;.8.d.9.8.8.8.d.8.;.;.;.8.8.;.;.;.8.8.8.8.d.d.d.d.d.8.8.8.8.-.@.;.`.]./.Q.h.f.j.j.j.j.@XxXgXd.q.! ` 5.e.s.n.p.a.V.v.a.s.Z.G.F.V.p.v.v.u.y.V.v.V.v.C.G.Z.C.J.G.N.v.Z.C.N.G.G.D.J.%XXXXXXX#XG.G.G.J.G.Z.Z.G.G.G.oXXXG.J.i.@.                                                                                                                                                                                                                                                                                                                                                                                                                                                                                                                                                                                                                                                                                        ",
"                                                                                                                                                                                                                                                      Q./.{.'.[././.[.Q.{.qXqXqXqX[.`./.Q././.E.Q.Q./.Q./.`.Q.Q././.`.`.{./.`._.Y.f.8.h.Q.j.W.Y.,.G S D G z z b P q.i._ P P ^ 5.5.P Y Y +.T 5.5.Y Y P Y R ` R R P R R P Y R R q.i.0.8.;.#.S f p G %.P.].0X|.(.~.^.uX^.uX(.uXuXuXuX0X5X8X8X5X8X8X9X9X9X9X8X9X8X6X6X5X7X].^.R.R.E.~.].3X].|.^.^.^.^.5X9X9X9X9X9XrXrXrXrXwX3XE.Y.U.U.U.U.f.d.,.,.$.$.$.@.@.$.$.$.$.@.;.;.@.@.+.;.;.;.+.+.+.+.+.+.+.+.@.+.+.+.+.@.+.+.+.$.d.E.[.`./.W.h.f.f.j.j.j._.nXdXd.q.s.n.n.a.v.C.Z.v.u.v.v.v.u.v.V.V.a.t.v.v.V.v.v.G.XXV.V.H.Z.y.V.v.y.u.H.XXC.Z.XXJ.Z.oXG.G.Z.oXoXXX%XXX%XXXJ.G.G.XX%X:XoX#X0.                                                                                                                                                                                                                                                                                                                                                                                                                                                                                                                                                                                                                                                                                        ",
"                                                                                                                                                                                                                                                    Q.'.[.{.`.[./.[.4X`.{.4XqX{.OXQ.[./.[.qX[.{.OX[.[.[.[.Y.Q.`.[.qXqX'.`.Q.Q.h.d.-.W.Y.W._.!.;.G S K J b b b P U ` 6.E D Y @.5.` P J Y +.-.@.R Y Y @.5.T Y R ` R Y E P Y -.8.-.^ 6.6.` 7.` b i j #.>.~.7X|.~.~.^.uX^.(.(.(.uXuXuX0X5X5X5X8X8X8X9X9X9X9X8X8X8X8X8X6X6X7X].`./.E.R.^.|.|.3XuX|.uX|.^.uXuX8X9X9X9X9XrXrXrXrX4XQ.Y.Y.U.U.U.U.U.U.U.U.U.f.U.U.Y.Y.Y.Y.Y.Y.Y.h.h.Y.Y.Y.Y.Y.h.h.f.f.j.f.f.f.f.d.d.d.d.d.d.f.f.Q.[.[.`.Q.h.d.d.d.j.h.&XKX$Xg.i.w.y.V.V.v.y.v.v.p.y.w.N.Z.p.t.t.t.t.t.t.p.v.H.C.V.Z.Z.y.Z.y.u.N.p.C.V.V.G.G.C.J.G.Z.G.XXG.Z.D.#XK.%XoX%X%XXXG.K.G.G.#XD.l.@.                                                                                                                                                                                                                                                                                                                                                                                                                                                                                                                                                                                                                                                                                      ",
"                                                                                                                                                                                                                                                  E.Q.[.{.[.{.{.}.qX4X{.[.[.'.{.[.`.`.[.[.{.[.Q././.Q./.[./.Q.Q.'.W.Q.`.'.Q.h.$.;.f.h.Y._.!.@.D v v c v V b V P b P P P D c S D J D S c S K Y T Y Y Y E R P P Y R R R R R R 8.0.7.5.R ^ 7.r.q.5.T @.9.U.(.(.~.~.~.(.^.^.^.^.uXuXuX0X0X5X8X8X5X5X8X8X9X8X8X8X8X8X8X8X6X6X7X].`.^.~.^.^.~.|.3X3X3X3XuX|.^.^.^.0X9X9X9X9XrXrXrXqX[./././.E.E.E.T.E.T.U.U.U.I.I.I.Y.Y.Y.Y.Y.Y.h.j.Y.Y.Y.Y.U.h.h.f.f.f.f.f.d.d.d.d.d.d.d.d.f.Y.'.4X'.Q.h.j.j.j.j.z.kXxX0.8.l.V.t.w.w.w.w.u.C.C.Z.y.y.v.v.y.u.u.w.w.v.V.v.Z.Z.v.y.u.t.t.p.p.Z.C.u.Z.H.v.C.D.v.C.Z.H.G.Z.oXG.n.Z.Z.XXG.XXXXK.C.G.C.V.C.S.i.                                                                                                                                                                                                                                                                                                                                                                                                                                                                                                                                                                                                                                                                                      ",
"                                                                                                                                                                                                                                                  Q.[.[.{.[.qX{.qXOXOX[.[.`.`.[.[././.[./.Q././.{.`./.Q.Q.Y.Q.Q.Q.h.W.Q.h.8.8.d.8.d./.W.Y.J v c i u i i z b V M b P P P P K J P D D P R R Y E Y P P J P P J P P T 5.q.6._ R U ` 7.6.` ` q.t.q.q.0.i.l.V.n.i.0.` i.z.~.^.^.^.^.uXuXuX0X0X8X8X8X5X5X8X8X8X8X6X6X8X8X6X6X6X6X7X].].].].|.^.^.|.3X7X5X7XuXuX|.^.^.^.0X9XyXyXrXiXrXrXrXwXwXqXqX4X4X4X4X4X[.[.[.`.`.`.`././.E.E.E.U.f.T.Y.Y.E.E.Q.Y.E.E.E.Q.Q.Q.Q.Q.E././.`.`./.[.{.'.Q.W..Xx.x._.dXxXdX9.8.7.t.t.t.w.u.a.y.t.u.Z.N.t.t.v.y.t.a.a.' 7.V.V.u.y.u.] t.w.t.v.p.p.Z.V.v.C.V.u.V.n.v.v.G.oXXXG.J.G.n.C.V.D.C.G.G.J.C.Z.D.S.Z.a.@.                                                                                                                                                                                                                                                                                                                                                                                                                                                                                                                                                                                                                                                                                    ",
"                                                                                                                                                                                                                                                W.[.'.[.[.{.OX{./.[.OX[.[./.[.Q.[./.[./.Y.h.`.[.{.'.'.[.[.{.[./.Q.Q.d.@.8.j.z.x.Q.Q.!.8.J H c f v v z k n P R U U b D T @.@.R D S Y @.-.q.q.5.5.Y J P V P P P V M P U Q U P U _ _ ` _ ^ ' 7.i.p.t.] ] t.u.y.w.t.i.t.x.^.^.~.^.^.^.uXuXuX5X5X5X5X5X5X5X8X8X8X5X5X6X6X6X6X6X0X7X7X3X3X].].].].].].7X0X7X0X3XuX|.uX~.(.6XiXaXaXsXsXsXsXsXaXiXaXtXtXrXtXrXrXwXwXwXwXwXqXqX4X4X4X4X`.Q.4X4X4X{.{.{.{.{.[.[.{.4X4XqXqXqXqXqXwXqXwXwXOXOX X@XgXxXMXAXMXz.8.8._ ' w.7._ ' t.a.a.y.7.w.t.7._ 0.i.y.y.t.t.' v.y.] ] ] ` p.] 7.p.w.t.V.V.t.p.i.w.a.w.V.S.Z.oX%XZ.G.D.u.V.V.V.G.G.G.G.oXG.XXG.D.S.                                                                                                                                                                                                                                                                                                                                                                                                                                                                                                                                                                                                                                                                                    ",
"                                                                                                                                                                                                                                              W.Q.'.'.[./.qX[.'.qX4X{.`.{.Q./.Q.[.`.`.Y.d.Q.Q.'.`.[.OXqXOX{.qX{.Q.f.:.d.Y.Y.Y./.W.d.+.G c f S v b v k k v P ^ ^ P D K K D J Y J G G +.$.@.T Y P D J P P R q.R Q R ^ R ^ R 5.R R 7.t.i.' ` ' 7.t.t.t.w.t.t.y.t.t.p.v.V.V.Q.^.^.^.uXuXuXuXuX0X5X5X5X5X5X8X8X8X5X7X5X5X4X4X6X6X4X0X5X7X7X3X3X3X3X].3X].3X6X5X0XuX3X7X3X/.`.E.wXaXaXaXaXsXaXiXiXaXaXaXsXsXaXaXsXaXaXaXaXaXiXiXiXrXrX4XwXrXrXtXtXiXiXiXtXiXiXiXiXtXiXiXiXtXtXeXwXwXwX+XOXdXmXHXGXHXbX0.5.8.@.P 6.7.0.` ` ` 7._ R R _ R E R ` 6._ ` w.U _ q.R 7.w.` ` i.i.7.i.s.7.p.w.q.7.p.l.C.p.C.G.C.C.G.V.V.V.V.D.G.H.XXoXoX%X>X:XoX#XD.                                                                                                                                                                                                                                                                                                                                                                                                                                                                                                                                                                                                                                                                                    ",
"                                                                                                                                                                                                                                              Q.'.[.{.`.'.qX`.[.[.qX[.'.{.Q./.`.[.Q./.E.f.W.f.Q.[.[.[.[.{.{.{.W.8.;.d.Y.f.U.h.h.8.Y G c c G D v z z v v P P P M v c S D D K J D S K Y G G 5.R R R ^ ^ ` q.0.q.` 5.9.q.r.k.k.r.q.8.0.i.6.! ` q.e.i.i.0.0.i.i.l.i.6.q.7.7.x.Y.uX^.uXuXuXuXuX0X5X5X5X5X5X5X5X5X7X0X5X5X6X6X6X6X0X7X5X5X5X7X7X7X7X3X3X].].].7X6X7X7X3X3X[./.Q.`.Q.wXtXiXiXiXpXiXiXiXaXaXaXaXaXaXaXaXaXaXaXaXaXsXsXaXwXqXaXsXaXiXiXiXiXiXiXiXiXiXiXiXpXtXeXeX+X+X+XOXOX@XnXHXGXGXHXdX9.5.;.8.P P R R R Y Y Y P Y R R ` R P P ` ` R ` R R 6.R R ` ` R ` i.w.` 7.` R 6.` q.t.w.V.C.p.v.Z.n.V.n.V.G.V.Z.G.K.H.oX%X:X>X,XXXJ.#XA.                                                                                                                                                                                                                                                                                                                                                                                                                                                                                                                                                                                                                                                                                  ",
"                                                                                                                                                                                                                                            W.Q.[.{.{.'.qX`.[.[.[.{.E.[.{./.`.{.Q././.Y.2.Y.E.`.{././.[.`.`.h.$.@.Y.f.Y.Q.d.d.$.J c c k c k i 7 i k s i k v v v G T Y +.K D S D G K K K G P P P P I P R 5.i.r.q.0.9.q.r.k.i.0.q.q.0.0.q.q.q.0.i.k.k.e.q.` 5.q.6.6.q.r.k.z.l.i.T.uXuXuX3XuX5X5X5X5X5X5X5X5X5X0X3X5X5X6X6X6X0X7X7X5X5X5X6X8X8X6X7X3X3X].|.].].].].].`.Q.E.E.E.W.j.Q.'.tXwXeXeXwXtXpXiXiXiXaXiXiXiXiXiXaXaXiXaXsXsXrXwXtXaXaXiXpXpXiXtXtXpXtXtXtXwXwXwX+XOXOX X.X X@XgXAXGXGXGXGX.X8.8.;.8.R T P P P Y Y T 5.R P Y R 5.` P E R T R R T @.5.U I ` ` ` ` 6.! U U U R 6.7.i.p.w.u.a.t.y.0.e.V.n.V.D.C.G.D.XXH.J.#X:XoXK.C.G.oXq.                                                                                                                                                                                                                                                                                                                                                                                                                                                                                                                                                                                                                                                                                ",
"                                                                                                                                                                                                                                          W.Q./.4X[.'.qXOX[.[.[.qX`./.qX'.`./.[./.Q.E.Y.h.Q.[.{.Q.`./.Y.f.;.$.$.d.h.Y.Y.d.$.G H f c i n c D M b k i k v P D c G K K K v c D K Y 5.5.5.R P P I ! ` 5.` 6.5.5.R T @.@.T J D P R P R ^ R ` 0.q.q.q.q.6.` R ` 6.7.e.7.i.' ' 6.7.7.7.T.^.uX3XuX8X8X5X0X5X8X8X5X5X3XuX3X5X6X5X0X4X0X0X5X5X8X8X8X9X9X8X5X7X3X].].|.^.~.E.Y.d.d.j.9.d.d.d.;.8._..XOX+XOX+XwXwXtXpXwXtXpXpXiXiXiXiXiXiXaXiX[.wXiXiXtXtXtXtXwXwXwXwXwX+X+XOXOXOX.X_.z.A.#XdXnXGXGXGXGXHXk.8.;.;.;.T R P P R R R T 5.q.5.R I R R R R R R 5.5.R R 5.0.` P U I P R U R ` ` R 5.0.5.q.w.w.] ' 0.n.i.A.S.V.XXG.Z.H.C.G.V.D.Z.G.G.Z.N.J.S.                                                                                                                                                                                                                                                                                                                                                                                                                                                                                                                                                                                                                                                                                ",
"                                                                                                                                                                                                                                          Q.'.{.'.`.[.{.[.{.{.[.[.[.[.{./.[./.{./.Y././.[.[.[.`.`.`.E.f.;.@.d.j./.Y.h.d.Y S c G K c k c v P v b c f c c S S S S S S n v S G Y @.-.! P W Y @.r.e.e.e.q.R R R R R R P b b k k k z n v b v ' ' U P V ` ] U V b b ! _ ] Z M V I ] ] ' f.~.|.3X5X8X5X5X5X8X8X8X5X3XuX3X0X5X0X0X7X4X5X6X6X8X8X8X9X9X9X8X5X7X3X].].|.~.U.8.-.@.R R @.R T Y T 8.Y -.8.j.9._._.k.x.x.W.!.'._._.'.'.OXOXOXOXQ.Q.+XOXOXOX'._._._.'.OX'._._.z.x.k.k.i.k.l.oXjXDXGXGXGXFXxXg.8.;.;.-.E Y P P T 8.0.0.R R q.q.R R q.` R ` ` R ^ q.7.! ` ` R U U U R ` R R q.6.R i.p.` ` R ` ' ` i.s.a.S.G.S.S.S.v.Z.C.Z.V.G.S.V.G.C.H.l.5.                                                                                                                                                                                                                                                                                                                                                                                                                                                                                                                                                                                                                                                                              ",
"                                                                                                                                                                                                                                        W.'.{.'.Q.`.qX[.{.OX4XqX[.[././.[./.'.[.Q.h./.{.{.Q.'.qXQ.`./.d.-.d.Q.h.h.,.O.H f G K H c f i k k i i d d p f H H c S S S S S v D J J P Y =.R T $.;.8.q.q.I M v v v P R P P M n i k z n n 8 8 e k V m x z M ` ` Q C V m m C V b M P / ` 7.7.j.R.^.|.uX5X5X5X5X8X9X5X5X0X3X3X0X0X7X7X4X6X6X6X8X8X8X9X9X9X9X8X6X7X3X3X3X].T.8.R U U P V V b b b v n b b v d d d d d k k k z z n v v n z z n T -.P P P P P E P P V P P R R R R P ` I R 7.:XjXMXHXGXHXMX#X9.8.;.;.8.Y @.q.5.R ! 5.0.e.! R _ ! R 5.i.7.` 6.e.` R ` ` ! U R R R R R R ` U R e.0.` q.Q ! ` R 6.0.0.l.n.p.u.Z.a.n.a.Z.V.G.H.G.%XoXoXXXZ.G.#X                                                                                                                                                                                                                                                                                                                                                                                                                                                                                                                                                                                                                                                                              ",
"                                                                                                                                                                                                                                      E.Q.{.[./.Q.[.[.[.[.[.[.qX[.{././.{.E.E.`.Y.Q././././.`.[.4X`.E.;.h.Y.Y.d.O.S f f H f p i i 6 < 6 i p u f H K K S S G D D S v c c v S D D Y T Y Y Y Y T P P P P b v k k v M x k k v I R U P V V V m l k 7 k n V U Q Q C V V M x M b V _ 7.t.t.` ^ ;.h.~.^.uX5X5X5X5X5X8X5X5X0X0X3X3X0X4X6X6X8X8X8X9X9X9X9X9X9X8X6X5X7X7X7X/.U.8.R P V M b n n k k z z k 7 < < < < > > > > < < < 6 6 4 6 7 7 7 7 6 7 7 7 7 7 7 7 7 7 e e e e k k z n n R y.C.oX<X<X,XoXi.8.;.;.;.;.R R q.0.q.e.7.0.w.' R q.i.7.q.w.l.s.7.7.7.R ` ` ` ` ! ` 0.7.5.R ! 6.! R ` R ` ` U ! ! R q.l.w.7.i.w.w.7.0.l.V.S.Z.XXH.XX:XoXoXJ.J.D.7.                                                                                                                                                                                                                                                                                                                                                                                                                                                                                                                                                                                                                                                                            ",
"                                                                                                                                                                                                                                      W.`.[.'.Q.Q./.[.Q.`.`.[.[.{.[.`.`.{.Y.Q.Q.Q.[.E.Q.{.`.Q.{.{.f.,.;.f.Y.f.G c f f H G S c i 7 i k k d d p H K S S J Y D S S D J T T T R Y Y Y Y Y D S c s c z k k z n k k n V n 7 k D P U _ ' U m m V C Q M n z k V U U M k I ` ' ' U R V U ' ' ` U R ` 5.f.U.|.^.^.uX5X5X6X6X0X3X3X].0X0X4X5X6X8X9X9X9X9X9X9X9X8X8X6X6X6X5X4XE.d.@.P V b b n k k k d i 7 6 4 < > - - > > > - - > > - - - - - - - - - - - - - < < < < > < < < < 4 7 7 7 z b R ' u.n.V.n.e.8.;.;.;.-.` q._ q.` i.' I ` p.p.7.i.n.V.Z.a.n.s.] 7.6.6.7.6.` 6.q.` 6.i.0.` q.` R 6.! R q.6.Q ` q.` i.s.q.! ! 5.0.q.i.l.a.V.G.oXC.G.%XoXJ.C.K.XX                                                                                                                                                                                                                                                                                                                                                                                                                                                                                                                                                                                                                                                                            ",
"                                                                                                                                                                                                                                    W.Q.`.{./.'.[./.[./.[.Q./.{.[.[.[.[.`./.Q.Q.[./.Q./.`.Q.E.[.Q.d.;.f.f.f.+.S G H H c c k i 6 6 i i i i u i f H G G K K D D K +.;.Y J b v v D Y Y 5.T P n k k i i k k k s s s m x k n b b P U U V l z W R 7.6.Q U P P Q Q R E T Y ` r.0.6.` R ! ! U R R 5.5.q.0.-.d.4.~.~.|.3X5X0X3X0X7X7X4X].7X7X6X8X9XrXrX9X9X9X8X8X6X6X6X6X7X`.f.-.P D b v n z k k i 7 7 6 4 4 < < < < > > > > > < > > < < > > - > > > > > > < < < < < < < < < 4 7 7 7 k k n I w.p.n.n.0.8.;.-.;.E I t.t.t._ Q Q I R 7.n.v.p.s.a.V.V.w.w.q.7.p.7.6.s.s.6.e.e.7.` ' R ` R R 7.7.! R 0.0.R 6.q.R 6.R ! 6.q.7.0.7.i.l.t.S.S.H.v.C.XXG.C.Z.S.7.                                                                                                                                                                                                                                                                                                                                                                                                                                                                                                                                                                                                                                                                          ",
"                                                                                                                                                                                                                                  W.Y./.[.[.`.{.[.[.{.`.`./.[.Q.[.[.`.[./.`.Q./.`./.Q.Q./.E.[.[.Q.;.$.d./.d.S G K c k 7 4 - > 6 u i f f f H S G H S K K Y K Y +.+.Y J b n n v S D G W b v k i k z v b b b s k M M n k i k k v V V V n v P Y 5.r.7.' I P P V P P R 5.5.7.0.6.R R R ^ R R R R R @.5.R P R ;.f.f.R.].|.].7X4X4X6X6X7X3X5X6X8X9XrX9X9X9X8X8X6X6X5X7X3X].W.8.Y b v v z z k k d i 7 7 7 6 6 4 4 6 4 4 4 4 4 4 < 4 4 4 < < > < 4 4 4 4 4 4 4 4 4 4 4 4 4 4 6 7 7 7 0 k x Q { p.n.l.0.8.;.-.-.7.Q U U ] U P ' w.Q ` ` v.a.p.w.t.t.] ] w.7.i.l.7.7.a.l.6.7.7.` q.` R 6.6.6.e.e.6.q.0.i.` ` ! 5.6.R 6.q.` 7.s.i.e.q.7.i.l.n.u.C.oXD.C.oX#Xq.                                                                                                                                                                                                                                                                                                                                                                                                                                                                                                                                                                                                                                                                        ",
"                                                                                                                                                                                                                                  h.Y.Q.'.`.[.OX{.{.4X/.`.`.{.Q.[.[./.[.[.E./.`.`./.E.`./.[.[.Q.Y.;.f.d.f.K c O.G f 6 < 4 > u p H S c d H D G G G S S D S S D b v D D J D b S S S v v b k 7 i c b R R R I V M V V C x i i i k v M V P Y Y Y R q.7.R R @.-.5.! E E Y E T R T Y T -.q.q.q.8.5.R R T T @.5.r.k.r.5.j.Y.T.^.`.4X6X9X0X7X5X5X6X9XrX9X9X8X6X6X5X5X7X7X].`.Y.8.Y M v v z k k k i i 7 7 6 6 4 4 4 4 4 4 4 4 4 4 < < < < < < > > < 4 4 4 < 4 4 4 4 < < < < 4 6 6 7 7 0 k n Q { b.n.l.q.8.;.-.R ] ' Q P U Q I U ' 7.w.' ` ` ' ` w.w.` 5.0.7.7.w.p.i.w.t.` ` w.0.q.7.6.` 0.7.6.6.i.0.` ` ! ` ` ` 6.7.6.0.i.6.q.i.q.q.` 6.7.l.n.v.D.#XZ.G.V.7.                                                                                                                                                                                                                                                                                                                                                                                                                                                                                                                                                                                                                                                                        ",
"                                                                                                                                                                                                                                Y.d.f.Q./.`.[.OX[.{.{.Q.`.[.[./.[.4XQ.`.`.Q.`.Q.E.`.qX/.[.[.Q.Y.8.;.d.U.,.S G O.c i < u i 4 p c H f c G K O.O.Y K D S G G v v c v S v b v c n n k n v b V v c D Y Y P P b k k n M I U V M b b V b n d z v v D U 6.-.-.-.-.q.0.7.6.! R E R 5.R T -.8.0.r.k.k.0.7.5.R 5.5.q.0.e.i.i.i.0.f.h.E.4X6X].].6X6X6X9X9X9X9X8X6X7X7X7X7X3X`./.h.8.Y b v n k k k d 7 7 7 7 6 4 4 < < < < < > > > > > > < < < < > < < < < < < < < < < < < < < < 6 6 7 7 7 k x Q { b.n.l.q.8.;.-.R U I V b P ` ` _ V U ' 7.` _ ! ! 6.s.i._ R p.a.` w.p.7.w.i.6.0.s.t.i.p.w.7.s.i.q.` 7.R ` 6.6.7.6.6.q.i.i.q.w.` ] ' q.i.0.e.e.l.S.V.XXG.H.oXoX0.                                                                                                                                                                                                                                                                                                                                                                                                                                                                                                                                                                                                                                                                      ",
"                                                                                                                                                                                                                              Y.Y.d.f.E.Q.Q.'.[.[.[.[.E.[.{.[.Q.[.`.E.`./.{.Q.Y./.4X`.Q././.d.d.+.d.f.;.K c K H p 4 4 i i i f p H H G ..+.O.K G S G G Y Y T T J v c k c n k k i s k k v E P J J J b U P b n n v v P R ^ ` U V b b v v v k z v P R 5.-.-.8.0.0.q.5.R R E R R R E T -.q.r.0.5.^ R 5.0.7.5.5.5.5.q.7.0.0.0.i.s.h.W.!.E.].[.6X9X9X9X8X8X5X0X0X5X7X7X].E.d.-.P b v n k k k 0 7 7 7 6 4 4 < < < > > > > > > > > - < < < < > < > < < < < < < < < < < < < < 4 4 7 7 7 k x Q { p.v.s.5.;.;.R U ! R I I P I ` ' ` U U _ U P R 0.0.i.s.i.] ' y.0.^ ! ` ` 0.0.e.s.n.w.t.n.v.7.e.e.6.7.6.` e.q.q.l.i.7.0.n.7.7.w.6.0.` 0.i.7.i.l.l.V.V.XXJ.G.v.w.                                                                                                                                                                                                                                                                                                                                                                                                                                                                                                                                                                                                                                                                      ",
"                                                                                                                                                                                                                              Y.d.I.f.Y.Y.W.`./.[.{.`.[.{.qX`.Q.{.Q.Y./.`.`./.E.[.{.Q.E.`.U.d.K O.8.d.;.H S G f f > 6 i 7 i u S G G K O.O.K K S S G Y +.Y Y Y D k k v v D v b v k c b D b v k k z z v V b v D Y Y P R ` ` U M D P R P P Y P Y Y Y T T +.@.@.@.R @.T T $.q.0.7.5.^ R Y -.0.5.-.R 5.k.x.i.l.s.i.7.w.7.' 7.i.p.p.V.V.V.0.x.~.~.3X7X7X6X5X0X0X7X7X0X].Y.d.@.P b v z z k k 7 7 7 6 6 4 < < < < < > > > > > > > - - > > > > > > > < < < < < < < < 4 4 4 4 6 6 7 7 7 k m Q { p.n.s.5.;.;.E P W @.q.0.` R I U U b M P P J D U i.p.t.w.w.7.' ] U _ ` ` e.a.Z.p.Z.V.V.n.u.] ] 7.i.s.i.` ` k.l.i.l.s.w.p.w.` w.w.e.s.w.i.s.w.p.l.i.n.V.H.H.G.oX`                                                                                                                                                                                                                                                                                                                                                                                                                                                                                                                                                                                                                                                                     ",
"                                                                                                                                                                                                                            Y.d.Q.f.d.f.U.E.E./.E.[.{.Q.[.{.[.Q.`.Y.Q.Q./.[.Q./.`./.Q.E./.Y.#.D 8.d.@.K H S S H i > 6 6 6 f G L G K G G G G K G G G K K K K D n d k v J Y P P P b n n z k v k k k i k v v v v v v v V U P M D K T -.-.^ R R T Y Y P Y K Y Y @.q.5.T @.8.r.k.l.x.k.7.5.^ 5.5.` _ _ 0.s.n.v.y.] R _ ] w.w.' ' ' w.{ { ' _ 5.8.f.T.~.(.7X5X7X7X5X7X`.Y.d.R P b v z k k 0 7 7 6 6 4 4 < < < < < < > > > > > > - - - < > - > > > > > > > < < < < 4 4 4 6 6 6 6 7 7 k m Q w.v.n.s.5.$.Y P R P D R q.e.7.7.R U P N P Y R ^ R _ i.w.` q.7._ Q U R q.0.q.w.Z.S.p.a.p.w.u.p.7.v.n.p.V.a.0.` a.V.a.t.q.w.a.0.l.V.s.V.D.S.a.a.t.t.i.i.i.a.Z.G.i.w.5.                                                                                                                                                                                                                                                                                                                                                                                                                                                                                                                                                                                                                                                                  ",
"                                                                                                                                                                                                                            Y.h.Y.E.f.:.U.U.Y.T.Q.`.E.E.'.[.`.E.E./.Y.Y././.Q.Y./.E.[.[.E.2.+.d.,.j.$.H S G S f 7 > > 4 u h ..K K K G S G S G G S G G S S v v v v S J Y Y Y D N k 7 i i d b b V b z k k k i 7 i i k k v P Y T +.@.;.5.5.-.-.@.T @.@.@.5.5.q.-.5.T Y Y T @.$.0.i.i.! P P ` ] t.' Q Q Q Z [ [ Q U U | y.v.{ Q A V Z Q _ [ ' ' { [ k.1.P.R.3X6X8X6X].Y.,.E P b v z k k 0 7 7 6 4 4 < < < < < < > > > > > > > > - - - > - - > > > > > > > < < 4 4 4 4 6 6 6 6 7 7 d x Q ] v.n.s.5.@.Y Y -.8.5.R P ! ` ! P R ` R P P R ` 7.R U _ U ` ' R ` ' R ! s.V.y.w.v.w.w.w.w.p.V.u.a.D.Z.u.p.v.w.' y.a.w.7.p.v.F.V.D.D.V.V.G.J.S.C.V.s.i.0.i.i.v.V.V.i.                                                                                                                                                                                                                                                                                                                                                                                                                                                                                                                                                                                                                                                                  ",
"                                                                                                                                                                                                                          h.d.h.h.Q.8.:.f.f.U.U.E./.f.E.Q.[.Y.E.`.`.Y.Y.Q.Q.Y.Y.Q./.{.Q.d.$.$.f.f.;.S c S S c i 6 - - u H f G O...K K G S H S S G G S c k k k k c D J v v b b v k k c k k v v v b k v v P b b k z c S P T T T +.-.;.q.5.-.T T @.$.8.e.e.e.0.q.5.5.R Y D c v W U { ] I x b R ' { ] Q V l B U C A m V _ ] ] _ C C Z Z ~ Q [ ] y.y.q.W.f.8.1.P.].].^.Y.;.@.P v z k k d 7 7 6 6 4 < < > > > > - - - - - - > > > - - - - - - - - - - > > > > < < < < < < < 4 4 6 7 0 V Q w.a.l.0.5.@.5.R D Y ` ` R R R R R I R q.0.6.I _ w.R P P M 5.q.' ' e.i.w.] V.v.[ ' ] ] a.n.v.G.G.Z.C.G.D.V.y.w.] w.w.y.a.V.v.V.G.G.V.Z.v.n.Z.G.J.G.D.V.l.s.i.s.n.i.w.q.                                                                                                                                                                                                                                                                                                                                                                                                                                                                                                                                                                                                                                                                ",
"                                                                                                                                                                                                                        Y.d.d.h.Q.Q.d.f.j.f.d.f.T.f.2.Y.`.Q.Y.Q.[.E.Q./.Y./.E./.`.[./.Y.:.+.8.f.d.J c G S f i 6 4 - 6 c H G K ..O.O.+.K G S S G K J J n d i i i i d 7 7 i k v k k k v n k k k 7 7 k v G T -.@.R R P G J G K Y T +.@.8.8.-.^ @.@.$.8.9.0.q.@.@.$.5.` ` R P s k n V C x l x m C Z U Q Z V m m m x x r m Z Z C m l x C ' { y.v.t.r.j.h.z.k.6.j.d.1.f.f.d.+.J v k 7 7 7 7 6 6 4 4 < > > - - - - - - @ @ @ @ @ @ @ @ - @ @ @ @ - - - - - > > > > > < < < < < < 6 6 7 n C ` w.i.e.R K @.q.5.R P P P P P ` q.` I ` 7.' ` U _ R P U _ R ` t.t.] y.y.t.7.y.w.[ [ w.p.Z.F.a.Z.XXJ.v.u.V.V.v.y.t.v.v.u.Z.C.v.v.V.V.p.C.G.C.V.G.oXoXXXC.V.V.s.n.a.S.s.                                                                                                                                                                                                                                                                                                                                                                                                                                                                                                                                                                                                                                                                ",
"                                                                                                                                                                                                                        d.,.f.Y.Y.f.Y.Y.W.d.+.,.f.2.d.Y.E.E.Y.`./.E.[.Y././.`.`.`./.Y.d.#.@.d.h.8.G G O.c u 4 - > > p G K +.....+.+.$.+.G H G K J J D v k 7 i i i 7 7 4 7 i d d 0 7 7 4 7 7 i k k c D Y T @.-.R Y Y P Y Y Y Y @.@.@.5.q.-.-.R +.+.@.@.q.@.Y Y Y P P I Q M l l x B C x e 8 e m x m m m e e x U C A x e x m m x l x C _ y.u.w.k.W.W.j.i.e.k..X.Xk.j.d.;.T J S k 7 4 < < < > - - > > - @ @ @ @ @ @ @ @ @ @ @ @ @ @ @ @ @ @ @ @ @ - - - - - - - - - - > < < < < 6 3 k V U _ ` ` T J P Y q.R b P R P P P R t.w.7.C Q ` I U ' U R ` 7.` ' t.w._ ' ' _ t.' ] s.Z.y.V.G.J.G.XXG.C.u.p.v.C.H.N.u.Z.N.y.p.N.u.u.v.v.v.v.v.Z.H.Z.XXXXXXD.D.n.n.n.i.i.q.                                                                                                                                                                                                                                                                                                                                                                                                                                                                                                                                                                                                                                                              ",
"                                                                                                                                                                                                                      E.d.;.f.f.h.Y.h.W.Q.8.$.d.f.$.1.E.T.T./.`.Q.[./.Y./.[.`.Q.E.U.d.,.Y f.Y.j.+.S O.G i > - 4 4 a S O.$.O...O.#.+.:.$.G S K Y G v n i 7 7 7 k k i i d k i 7 4 4 4 < < 4 6 7 i k D Y Y Y Y P J J J K T @.-.-.q.8.-.-.T E Y D D v G D E I P D b b k k x l 7 < 8 r B V Z m 8 e 3 e x e 7 7 0 V _ Q C x x x k 8 8 7 e C ` q.j.h._.z.l.x.z..X@X&XoX.Xr.g.,.f.8.-.@.v v i 7 6 < > > > - - - - - - - - - - > > > - - @ @ @ @ @ < < < < < < > > > > < < < < < < 4 7 n M ! q.5.5.8.q.0.7.R P E P Y $.q.q.` U _ ` ] _ I U U P 6.w.Q U s.s.] ] w._ _ _ _ ] n.y.w.Z.J.N.N.G.N.N.C.Z.N.N.v.N.XXXXC.v.Z.p.w.y.v.V.v.v.V.D.V.y.v.v.Z.V.Z.Z.Z.S.a.s.s.#Xt.                                                                                                                                                                                                                                                                                                                                                                                                                                                                                                                                                                                                                                                              ",
"                                                                                                                                                                                                                        ;.:.;.8.Y.d.d.h.W.d.Y.W.f.;.f.Y.R.Y./.E./.{./.Y./.`.Q.Q.f.d.$.G @.;.Q.d.D G L d > - 4 i 4 f L ..#.L ..+.+.+.#.+.G S K Y D v d 4 4 i k k k k i 6 4 6 7 7 i i 6 4 6 i i i k D Y Y Y Y T Y K Y O.@.;.;.8.9.8.-.-.@.R P v k i s n v n k k s k 8 x x r 3 : : 4 8 x m Z m x x l e 7 7 e k b R ] U V v V C I C x l b Y h.W.!.z.l.j.h.h..XoXoX#XS.A.kXgXS.9.Y.h.j.j.R E n 7 6 < < < < < < 4 4 4 3 7 7 7 7 7 7 7 0 4 4 4 3 7 7 7 7 k 0 7 7 7 7 7 7 7 0 0 e V ` 7.0.q.T P Y Y ` w.` P Y ^ R P P ` 0.i.7.7.` _ U P P ` ` ` t.w._ Q p.7.` ' ] q.w.w.] p.v.V.u.Z.J.C.N.C.V.N.C.N.Z.Z.V.V.Z.H.C.u.v.N.v.v.v.C.H.C.p.p.v.y.t.p.v.u.N.V.Z.V.s.p.i.p.7.                                                                                                                                                                                                                                                                                                                                                                                                                                                                                                                                                                                                                                                            ",
"                                                                                                                                                                                                                        f.+.+.8.I.f.$.d.Y.d.f./.Y.+.8.U.I.f./.E.Q.'.E.Y.E././.Y.d.,.G O.8.f.d.Y G G f 4 > 4 i i f H L O.K K L ..O.O.+.Y D v G S k i i 4 4 i k i 7 7 7 4 < 7 k k k c v c d k v v c D J K Y Y +.T E Y +.;.-.@.@.T Y Y Y T R ` R V i i k k 8 7 1 < 1 3 3 8 3 3 1 3 1 1 8 l e e 7 k M V b v k k k x _ R U P P _ ' ' ` R 8.j.j.x.z.l.j.j.W.z.n.V.n.V.D.kXkX2XC.7.q.8.f.W.x.z.r.R P P v v k 7 k N V n n n V P P P C V V n V V C C P P C M n b P P V b b U U ` 7.i.0.r.5.R 6.` ^ U P R R R P P R R 5.U ` 0._ R I ^ _ U V R e.e.` ] 7.U Q ] U q.t.] ' a.v.t.t.v.N.y.v.N.N.Z.V.Z.G.J.C.v.H.G.N.v.N.Z.N.C.C.G.H.H.V.Z.D.v.y.u.v.u.p.v.v.v.N.G.V.a.a.G.v.5.                                                                                                                                                                                                                                                                                                                                                                                                                                                                                                                                                                                                                                                          ",
"                                                                                                                                                                                                                        Y.,.$.:.:.d.,.U.T.U.f.Q.f.@.d.d.d.d.Q.f.T./.Y.E.Q././.Y.;.D G $.h.$.;.J K H u u > < i i f h G G G K L L S S G S n c k 7 4 4 7 4 4 4 4 4 4 7 i 7 7 d k k c v c k d c D G K Y Y Y Y Y Y Y Y +.+.Y Y Y E E J D Y Y Y V b b 7 1 7 e l x r 3 1 < < < 1 3 3 3 < 7 e x m b v v v v P R R R M z b M b x m Q ' ' 8.j.Y.!.z.k.0.9.g.x.l.n.n.w.a.a.hXhX<Xa.` P P R 6.8.8.Y.j.x.k.r.q.q.q.7.0.0.0.7.r.0.0.0.0.i.7.0.7.6.7.e.7.0.i.e.i.i.k.i.i.i.0.0.0.0.i.i.k.9.5.R 6.` ` q.` R T 5.0.q.` P b P 6.q.` R P P P P @.q.6.U ' 7.] ' ` ! I ' ' _ s.p.] ' N.Z.w.t.y.w.y.y.y.V.G.G.C.G.G.Z.v.N.Z.Z.N.v.C.J.%XJ.H.C.Z.V.v.v.Z.V.v.N.C.v.u.C.v.C.XXD.D.C.n.n.                                                                                                                                                                                                                                                                                                                                                                                                                                                                                                                                                                                                                                                          ",
"                                                                                                                                                                                                                        Y.8.O.:.$.:.d.Y.Y.d.d.Y.8.d.Y.Y.,.8.Y.f.f.Y./.Y.U.T.Y.,.D v ;.d.$.8.Y K G p p i > < i p H H S G G G G H f c c c k k 7 4 4 4 4 < - < 4 4 7 7 d d c c d k v D v c v K K O.-.;.@.+.Y K K J J D v v D J J J D v v v n k 0 7 < @ < 7 7 B V m t 7 < 1 8 8 3 3 3 1 7 z V b P R P E P R R ` _ U I I C A M P V @.j.h.z..X.X$Xz.r.0.q.7.e.i.k.l.jXkX1Xi.5.R R U R ` ` R @.@.8.d.g.0.9.9.8.8.;.;.;.;.;.;.;.;.;.;.5.@.@.-.;.8.8.8.8.9.d.d.9.9.9.9.9.g.g.8.8.5.6.q.` I P P ! q.P P Y 7.0.q.^ U J P ' U P R 6.` R I P q.6.U U U I R I Y R 6.' ' p.t.' ' v.t.7.y.w.w.a.V.u.v.D.G.N.v.Z.Z.N.V.v.Z.G.XXH.G.oXoXC.u.C.Z.J.C.G.XXG.C.C.v.v.v.u.C.J.J.oX,Xv.r.                                                                                                                                                                                                                                                                                                                                                                                                                                                                                                                                                                                                                                                        ",
"                                                                                                                                                                                                                          f.K #.$.+.;.d.U.f.2.d.;.f.Q.Q.;.d.d.Y.d.Y.T.2.,.Y.;.G v ;.8.f.f.$.S K f u f i 6 6 4 H G S G G G G S f i i p k i k i 7 4 4 4 @ - 4 7 i k k k d i 7 i d c S S S G K O.$.;.8.$.T J K K J J J J J D v v k d 7 6 < < < 4 3 8 < < < 2 7 l m t 1 < 3 x x x m M x s z n v v v D D R R R I P P U R ` ` ! R 8.j.g.5.8.j.!. X#X#Xn.i.k.x.z.A.nXvXjXi.-.R R ` ' ' I P P R 5.5.T 5.q.5.@.R @.@.$.@.T T -.5.@.@.T T Y T T O.@.@.@.O.+.+.@.+.+.+.T +.@.@.@.Y @.q.7.6.` I I U ` R P Y R 7.0.0.6.^ U U P P R @.q.e.7.R I ! R U U U R ` R U 5.7.w.` ` ] _ ` w.` ` t.t.w.v.n.N.p.v.V.u.p.y.p.a.V.v.v.C.G.D.S.XXXXC.y.u.C.J.oXXX%XG.C.N.v.u.y.y.v.V.K.,XD.Z.                                                                                                                                                                                                                                                                                                                                                                                                                                                                                                                                                                                                                                                        ",
"                                                                                                                                                                                                                          d.O.K +.:.;.2.f.U.T.f.,.f.Q.Y.,.f.d.f.2.,.2.$.$.,.Y J d.d.Y.;.d.G G S p f k u 6 4 H ..G K K K K G S c k i i i i i k 7 7 4 : - < 7 k k k k k k k k k c S J J K K Y +.@.Y Y E v d S K J J J J b v v v 7 4 @ O @ @ $ 1 3 3 3 3 4 < 3 l e 3 < 4 3 7 n P U ` R P D D N v v v n b P P P P V P R 5.q.5.8.j.k.l.k.W.j.z. X:X&XS.z.z.z.S.nXjX:X7.R P U _ _ R P R 6.6.` U R U 6.0.6.R R q.0.0.7.5.R ` i.7.5.=.5.q.-.` Y ^ q.` ^ E @.5.q.7.6.! R R U P Y $.q.0.e.s.7.! ! ! ` R U R 5.0.i.q.R R R R P v P 6.w.w.` P U R T ^ ` U P 5.0.` R 7.6.` ! R R 6.q.` _ w.i.7.] p.t.7.t.t.t.i.i.t.t.n.C.u.w.u.t.t.Z.C.s.a.a.v.J.XXJ.XXD.v.C.u.t.t.t.u.v.:X,Xv.i.                                                                                                                                                                                                                                                                                                                                                                                                                                                                                                                                                                                                                                                      ",
"                                                                                                                                                                                                                          Y.Y S K +.$.,.:.>.d.d.,.$.,.,.d.Y.2.d.+.O.$.#.O.K #.h.j.I.$.8.Y S S f u c d 4 4 f ....O.+.O.K G G S H k i u 7 7 7 i 7 4 - - < 4 i k i i k S v v D J K K J D D J J G S v b D v v J J b v v k k d d k 7 7 4 4 < @ @ * < < < 4 4 4 4 8 r 8 7 7 k v b P R R R P Y E ^ R E E P P P P P V M P T 8.d.h.h.x.i.r.W.OX@XoX>X1XJ.l.z.!.S.nXMX1Xs.R M b v U U U J D R 5.0.6.U P P ` ! R 5.q.0.s.n.s.0.5.` ! R 6.0.i.e.0.q.` ` _ R R R @.q.l.i.6.R R R P b J P 6.0.i.' I R q.7.' P V P 6.7.` P P -.8.6.R P R U ` ! P Y ` ` P 5.0.` I R ` R R R R 5.` R R ` 7.6.R ` ` R _ 6.` ` 7.7.` 6.i.i.q.w.t.` 6.] ` 7.i.w.t.a.n.a.a.V.V.D.H.C.D.v.t.t.t.u.v.,Xv.v.q.                                                                                                                                                                                                                                                                                                                                                                                                                                                                                                                                                                                                                                                    ",
"                                                                                                                                                                                                                          Y.d.G G G K :.:.:.;.f.+.#.>.d.Q.Y.;.d.d.O.O.:.D Y h.Y.f.;.8.Y G H G p p i > < u G #.O.#.#.O.G H S H S k 4 < u 7 4 7 4 < - < 4 7 i i 4 i k D K Y T Y K K K D D D H c k k k k k k c z k k e 7 < 6 7 7 4 7 7 3 @ @ @ @ < < < < 4 4 @ < 3 7 k n b J P E R R Y Y Y T -.q.` ` R U I V V U P @.8.W.W.h.!.x.9.8.j.k.S.:XXXu.i.k.z.G.jXjXoX7.5.^ R R P P P P P P P ` 0.7.R I P R R P R 5.r.i.n.w._ 6.w.0.` P R _ 0.e.` R ` 0.` R P P E 6.7.` ! =.5.! U P b P P 6.` R R 5.7.6.! U P P R U P E @.8.g.0.` 6.` ! U P R @.q.q.` ` i._ U U R T 5.6.` 5.5.7.` R 7.5.R ` R R 5.7.5.5.i.0.` ` 7.6.` 7.' ! ` ` ! 5.0.i.i.7.w.6.i.p.p.v.D.G.J.v.y.v.u.u.:X:XZ.i.                                                                                                                                                                                                                                                                                                                                                                                                                                                                                                                                                                                                                                                    ",
"                                                                                                                                                                                                                            d.G c S S K $.;.;.d.2.f.d.f.Y.h.$.f.Y.@.,.Y.@.d.Y.2.;.d.Y D H S ..f u > , i c #.K K O.O.O.H k c S H i - < 4 4 4 4 < - - < u i d i 7 i c K Y T K J S D Y Y J G K S k k k d 7 7 7 6 4 4 7 7 7 7 4 7 7 7 7 3 @ @ * < 4 7 l x x l 3 6 7 7 d k b J J P P R Y Y +.+.-.7.7.6._ R U U _ 6.q.d.f.h.W.!.x.0.q.5.I ` Z [ 7.0.0.l.<XnXvXJ.` U I _ _ V M P U U P I U Q ` ' U b P R 6.5.U P E ` q.6.I I ` 6.6.R I P ! 6.R R R 0.i.0.` E P U ` ! ! 5.5.5.0.7.' R P ! ` ! R R ` 7.i.7.! U R ` R I P Y 5.0.0.` U I R R I P q.0.i.6.6.q.R @.` _ R 5.0.e.` ` i.` R _ ! 5.6._ ` 5.e.0.! 6.6.` ` 6.` ` ` ` ! ` q.' ! ' 7.' ` ' 6.0.7.i.a.D.G.J.v.V.v.y.N.:XV.D.7.                                                                                                                                                                                                                                                                                                                                                                                                                                                                                                                                                                                                                                                  ",
"                                                                                                                                                                                                                            j.Y S S S G K ,.,.,.>.:.U.,.d.8.d.Q.d.d.W./.f.f.2.;.d.@.S H H G G u - 4 f c L +.G K O.O.K H i f H i 4 < - < 4 4 < : - : 4 u 7 i i i k S Y O.Y K J v c K Y Y Y Y D c d k k 7 i 6 4 < < < 1 1 4 4 4 4 4 3 e % @ < 4 7 e x C U C n 7 k x v v D D v J P P Y Y Y T R ` w.` U U R ` ` 8.j.h.Y.W._.OX+X.Xu.i.e.7.7.i.z.z.A.2XCXnX:Xi.` b b C _ U P b P 6.6.' P V V V P J Y -.0.k.0.6.I U R ` ! R 5.q.i.i.6.` ! 5.! R =.q.i.i.0.` R ! ` ` P P R 7.w.t.] I P R ` ` U P P U ` 7.! P Y R 7.5.` R U ! R 5.R T @.0.6.R 5.q.i.R Y q.t.! ` w.e.! R V.n.w.7.w.! 6.7.w.w.i.i.6.` i.w.` ` ` 5.7.0.7.6.q.0.` ' ] _ ` 7.q.` ' ' ' q.7.w.t.V.C.G.V.C.v.u.%X>XH.s.                                                                                                                                                                                                                                                                                                                                                                                                                                                                                                                                                                                                                                                  ",
"                                                                                                                                                                                                                            Y.+.K S K S K Y >.d.:.:.f.2.#.2.Y.Y.;.Y.W.Y.Y.:.@.,.$.G c S G L p 4 - i S G O.K K +.....S c i 4 u 4 < - - > < < - - - < 4 4 7 7 i f v D K Y K J J G J K K K D b k 7 6 7 k k z z k 7 < < < < 4 < @ @ < 4 4 3 3 4 7 k n x m x k k v P T ^ Y T E E T P G J D S J P P U I I R 6.q.5.9.d.d.d.Y.'.+XoXoXG.w.k.k.z..X.XD.nXnXMXXXs.' _ R I I R U P P Y 5.7.i.7.! P x x b D P R i.s.i.6.` R R U P I ` i.w.' I P R ` I P R ! 0.0.` P P R ` 6.! R ! P R 7.! J T q.7.7.q.5.R R R _ R T @.9.r.k.0.0.` R U U R 7.0.i.l.e.7.7.6.P R i.n.w.7.y.0.' ` y.y.w.a.y.t.t.a.v.t.v.p.t.` t.w.w.i.i.0.a.n.n.w.w.i.] ' ] ` 6.e.7.7.w.w.7.i.7.w.w.y.p.Z.n.N.u.v.:Xl.S.q.                                                                                                                                                                                                                                                                                                                                                                                                                                                                                                                                                                                                                                                ",
"                                                                                                                                                                                                                              d.K G K S O.S $.:.>.:.,.>.d.f.f.d.d.f.d.f.$.@.d.$.S H p K K G f 4 ; S K O.G K K G S H k i 4 - - - @ @ - - - @ - - - 4 4 4 7 7 d v c c D D S D J Y K Y Y D v v 7 - < i i i k z 8 7 4 < < 4 1 1 < < < @ < 4 4 7 k e z M x l k c J @.9.0.0.5.^ E P S v J P J D b D I _ R U ^ 7.9.j.8.$.;.Y.W. XXXG.' R 5.8.k.z.G.vXvX<Xu.7.` ' ' Q U P P U V b n P ` ' Q V P U C V b b b _ w.6.R R 5.0.6.6.R P Q R ! E R 5.5.q.6.q.R R ! 5.=.@.5.q.0.i.7.7.! ` ! U V v P 7.i.i.i.q.R P U U I U E R 7.s.p.` R 6.q.! R ` w.a.p.` ` ' Q I 6.n.S.S.y.7.7.U ' v.y.u.v.V.u.p.V.V.t.t.w.t.p.v.a.i.v.n.a.p.V.C.u.n.a.i.i.i.p.p.n.l.p.a.i.w.e.7.7.7.` i.V.v.v.y.%XoXp.s.                                                                                                                                                                                                                                                                                                                                                                                                                                                                                                                                                                                                                                                ",
"                                                                                                                                                                                                                              f.Y K G K G S Y Y $.;.:.>.U.d.d.:.d.>.:.Y +.d.$.S c u G O.S G c 4 p L G G K G S S c i i u < @ @ @ @ @ @ @ - @ - - < 4 4 i i d v v c c v c c S J v c v d 7 7 k 7 4 4 k k 7 7 7 3 < $ : 4 4 7 7 7 7 7 4 4 1 4 7 7 4 7 k k z n b K @.;.9.q.R J v v v v P R P P P P V C V k P 8.j.h.d.;.;.d.r.v.Z.' U @.8.k.a.<XkXkXK.Q Q M V Q _ U M b M R ! U V I I ! U P P R ' ' _ U P P 6.6.R R -.q.i.i.e.w.6.Q ! R Y @.5.0.i.0.i.5.` 6.5.! R P ` ' ' ! R U ! ! U I I I P ` 0.5.R Y @.q.q.q.R U R ` 0.q.R 5.0.l.0.! U ' ` I ` w.t.! _ ' D.G.V.a.t.' ' p.C.G.v.v.C.V.u.y.v.p.v.v.u.v.C.Z.p.y.a.p.t.y.v.N.D.Z.Z.G.G.Z.V.C.G.k.q.q.0.k.k.k.0.q.i.C.v.y.v.v.i.i.e.                                                                                                                                                                                                                                                                                                                                                                                                                                                                                                                                                                                                                                              ",
"                                                                                                                                                                                                                                +.G S K S S S K K +.$.$.,.d.#.O.,.K Y T :.@.H p u f G Y G S k u c S L D G G S D c i i 4 < - - - - @ @ @ - - < 4 4 i k c c D v v c v c S v v D c 7 7 - - < 6 7 4 4 4 7 4 1 1 3 * @ * 4 4 4 7 7 7 7 7 k k e k k i 7 7 e k v J Y T T ^ ` R v k c c v G Y Y P M x M I U R 8.j.j.j.8.;.h.8.7.a.' P T ;.8.7.,X<X<XK.w.! P M x M V I P P P I 6.' ` ! U ` ! R R R ` w.t.' U P I R U P I R ` 7.p.n.i.` I I P P J R R 6._ P P R 7.7.7.5.R I R ` ! R R R R ! 7.5.! U ` q.R E R ^ 7.l.t.] Q U Q R U R i.S.V.i.7.w.' I I 5.l.S.n.w.p.D.C.a.V.C.V.u.u.G.K.v.u.v.v.v.v.y.v.G.H.C.v.C.V.t.] t.y.t.v.v.y.N.G.N.C.Z.C.XXoXr.x.x..X.X.X.XA.x.A.l.S.u.u.H.D.A.i.5.                                                                                                                                                                                                                                                                                                                                                                                                                                                                                                                                                                                                                                            ",
"                                                                                                                                                                                                                                d.G S G S S c G c K O.:.:.,.+.+.O.O.,.:.K K u 4 p H K S G c i i c L K G G K K G c i 4 4 < < < - - - - > 4 4 4 4 i c G K Y D D D J K K +.J S D v k 7 4 4 < < < - : < < < < : < 1 4 1 1 4 4 4 1 1 4 4 k n M I v v c k k z v v b J J P J P c f k c S D P I C x x V Q 7.q.j.j.9.8.-.-.8.5.v.a.` q.;.8.] H.%Xv.Q ! Q U I V M M M M m b b M ` { w.Q V C U Q U U U _ ` ` I P R 6.7.6.` P E E ! w.q.R R 5.5.6.5.^ U U U R R E R ` e.7.7.6.5.6.` I P P ! q.t.p.` R R ` 7.! U R ! ] w.p.' U R 0.0.` 6.p.V.v.t.w.] Q U U i.S.D.V.t.v.v.p.s.n.G.#XZ.a.C.v.t.u.t.u.H.G.H.V.V.G.V.t.y.u.y.p.p.t.y.V.Z.u.y.N.u.y.v.XX:Xk.x. X&X>XoX%X%X&X#X#XD.H.v.C.p.n.#Xe.                                                                                                                                                                                                                                                                                                                                                                                                                                                                                                                                                                                                                                            ",
"                                                                                                                                                                                                                                h.Y H S S S c S c S K $.O.+.+.;.>.d.,.K D d ; u c S G S f k 4 f L O.O.G G K G S k 4 - 4 4 4 4 @ @ > < 7 i 4 > 4 f G Y +.K v v K Y Y +.+.J v c b n k i 7 < < < - < - : @ @ O @ 1 3 7 8 7 4 7 7 4 4 7 k k b Y T R P J v v c c v b b c c v v c d k k v v V C x s b P -.h.h.j.9.$.@.T Y b C i.i.j.h.e.v.H.[ l x n m V V M M P R ` C I b b b V Q P W P R ` 5.6.' _ I I U P P ^ 7.0.k.i.7.` _ ! R U D P R 0.' ' _ R U P b b V P I _ 6.! R 5.7.6.` P P P U 7.q.U E 5.7.i.q.i.w.' ! ` Q P R 7.V.V.t.' ] p._ ! 7.p.7.Q q.t.D.C.t.t.v.t.t.p.D.G.D.V.v.v.p.p.V.V.u.N.J.J.V.v.v.u.w.u.y.u.V.Z.v.v.N.V.y.{ t.v.v.%X<X9.r.hXkXkX,XhXfX<XkXkX,X#XXXZ.Z.S.D.n.q.                                                                                                                                                                                                                                                                                                                                                                                                                                                                                                                                                                                                                                          ",
"                                                                                                                                                                                                                                  +.H S H S c S c S G K K K Y +.;.+.Y S k u 4 H O.G K f u 4 u H ..$.K S G G S k 7 : - < 4 4 4 @ @ - i k 6 > < u c G Y O.D v c K Y Y Y J n k 7 k k d i 4 - < 4 4 4 4 1 < @ @ - < < 4 1 4 4 7 8 7 i k v b v P Y P b b b v P Y Y J S v v c k i 7 7 7 7 k k B m k b T 9.j.j.k.0.8.@.T P k x 6.x.!.z.v.K.v.~ e 7 8 x m V M P U ! ` 6.7.' R M n M V P P P R ` w.w.` I I V V V V P R i.i.7.! I R ` 6.R R P P R _ V V P _ _ R U P P I 6.7.R Y T q.i.0.7.` ` _ Q U M P ` t.s.C.a.w.` Q Q C M I a.G.C.t.` ' 7.! U w.V.n.' ] p.p.t.w.n.S.V.y.u.p.C.a.w.V.G.C.u.p.Z.D.u.v.V.u.v.u.y.p.V.H.C.Z.G.Z.N.a.N.u.u.y.C.1X>Xj.x.%XhXvXkX<X<X>X:XhX2X,X#X#XV.i.s.V.i.                                                                                                                                                                                                                                                                                                                                                                                                                                                                                                                                                                                                                                          ",
"                                                                                                                                                                                                                                  ;.S H S G c G c H S G S G G Y O.G c i 6 4 u G G Y O.p 4 u c S +.O.G S S n k 7 4 @ - 4 4 4 < - @ < k i < 4 4 i S K K Y K v c J Y K D v k i 7 7 7 7 4 < @ @ 4 7 7 7 4 < < < 4 4 1 1 < < 1 4 7 7 s k D D b b b b v v v D J T T T P v k d d b k 7 7 7 7 8 x V b Y 8.h.h.x.W.x.j.9.q.R I I 0.z.i.b.%X%Xv.M 7 7 7 k n b M b z b M I ' ] _ I V M V V b b z V ! Q I n b R ` ' ' Q b I _ 6.` R Y R q.i.0.5.R P ^ ` U E E R 5.6.6.6.6.6.` R R R ` ` 7.w.7.` ` 7.q.` P I U ' t.' Q P ! 0.' Q U U v.n.w.! ' y.] ` ' t.v.V.p.] ' ] 7.S.F.#XZ.p.7.7.0.6.7.n.S.n.w.7.n.p.w.p.7.i.n.V.p.p.J.G.Z.v.V.Z.u.N.N.p.C.K.:Xn.i.x.fXkXMXhX:XfX%X&X%X2XXX>XoXl.k.i.V.s.q.                                                                                                                                                                                                                                                                                                                                                                                                                                                                                                                                                                                                                                        ",
"                                                                                                                                                                                                                                  d.K i S S c S c S H S H S D O.G c i 7 4 u H Y D $.K H p L S S $.K S c k k i 4 - @ - 4 4 < - - - < i 6 6 p p c G K K G J J D J J D v c k i 7 7 4 < < < @ O 4 i 7 7 1 < : : 4 7 7 k 7 7 7 7 i 7 i 7 d k k v v b v c v D K K K T J c k c n V P n k 7 7 7 e k V -.g.j.g.j.W.!..Xm.s.e.0.k.x.i.w.H.*XH.7.P V M n n x M I I P v k n z b V V M M P ! U R I P I R ! R P R ` 6.7.' _ R Q R P W W P R q.i.i.q.` ` 6.6.R R ! ' 7.' ! I R q.q.5.! U ! R ' ` ! R 5.7.0.i.s.] _ Q U P P R ` i.i.0.Q Q w.w.R ! 0.a.t.' _ w.p.] q.i.t.' w.V.D.D.a.t.7.` 6.7.s.S.D.s.` ` q.` 6.t.w.w.0.i.l.i.p.a.w.t.i.7.e.n.V.p.p.G.k.d.k.vXSXmX,X>X:XhXkX>X<X>X>X,X1XoXXXl.i.i.-.                                                                                                                                                                                                                                                                                                                                                                                                                                                                                                                                                                                                                                      ",
"                                                                                                                                                                                                                                    Y f S H H H S H S S S S S K c d i 6 i p S S G O.f f G >.L O.#.S H k i 7 4 : @ @ - < < - - - - - 4 6 6 f f c S K S v J Y K S v c i d i d 7 6 4 < < < @ @ < 7 7 7 4 < @ < 7 i s n v k k k k i 7 4 6 i d i d c v c c S J K J N b v v v b N U C b k e e r n E 8.d.8.;.8.Y.!.#XC.7.q.r.z.i.{ *XK.w.V W P I I V b b U ' ` ` ` I M n n M I P P W P ! ' w.' ` R U P P E R q.7.7.Q V I R _ ! I V P P _ 7.` P Y R q.0.7.7.U ! ` ! R R 5.q.k.s.s.e.` ! ` U U R ` 7.l.v.v.t.' Q P P R 7.7.e.a.i.Q ' ] ` I ! n.S.n.7.p.s.t.R 6.i.i.i.w.7.a.s.0.0.i.i.t.` i.V.p.6.6.6.` ` q.i.t.6.` 0.0.! ` 6.6.7.7.q.w.n.a.7.7.k.x. XvXHXjXvXkX<XG.<X1X%XfXxX<XhXjXfXs.#Xs.7.                                                                                                                                                                                                                                                                                                                                                                                                                                                                                                                                                                                                                                      ",
"                                                                                                                                                                                                                                    :.H H S c H S S G S S S S c u k u 4 c S D K G G f h #.%.K G G k i 7 4 < : @ @ @ - - @ @ - > - - 4 4 4 p p f H H c v J Y D v k 7 4 7 7 7 4 4 : < < < < < 4 7 7 7 7 4 < 7 k k k v c k 7 7 7 7 d d i i d k d c c k k v v v v v v v v v v v b V x e e 7 v Y ;.8.;.8.;.d.d.l.Z.b.U -.9.z.i.N.J.v.I v b I Q C l k n D I ^ 7.' Q m k z M V C M P v M I _ Z V W R 6.5.5.! Q I I Q W S E q.0.t.6.R P M P ` ` R R 5.0.i.i.w.7.w.] Q I I R 6.a.a.p.' _ ` w.' Q U U U w.p.` P R ` q.` ! t.v.v.' U ` t.] Q V ' C.Z.u.] t.w.q.` 7.n.n.i.6.7.7.6.6.q.0.0.q._ 6.` R 5.q.6.6.` 6.0.7.` ` ` 6.5.6.7.7.0.w.w.w.7.7.7.0.j._.AXDXkX,XkX:XH.%X<X%X,XnX:X,XvXvXoXoXoXl.`                                                                                                                                                                                                                                                                                                                                                                                                                                                                                                                                                                                                                                     ",
"                                                                                                                                                                                                                                      K H G G c G G K G G S S f i i 4 H S H G Y G H f G >.K G S k i 7 4 < @ @ @ @ @ - - @ - < 4 - 4 p p p u u f f f c S J D k d i 6 4 4 6 4 < < @ @ > > < < 4 4 4 4 7 7 7 7 k k k k i 7 4 4 6 i k v c c c c k c c d k c c k d k k v k d 0 7 7 e x e 7 z P -.;.-.R $.d.d.8.w.y.V M ^ 7._ y.N.B.Q P W V C Q V e 8 n D v V I U C M n D Y 5.q.6.` R P C U U P P P Y E 7.7.6.` P M V v D R q.i.i.' U P P ! ! U U P ! w.i.] U I ' w.] ! I U U ` 7.R P P ` s.w.6.` Q U C V N R e.i.a.t.Q Q Q ` I U ` 0.7.U C ` y.' ! 6.i.7.` 7.n.n.l.0.q.7.R ! ` q.l.s.q.R R R 5.q.q.i.7.` 5.6.` 5.q.7.6.q.0.0.7.7.w.w.7.7.7.r.g.S.SXSXmXmX,XvXjX:XhX<X<X%X%X2XfXkXhXoX>Xn.0.                                                                                                                                                                                                                                                                                                                                                                                                                                                                                                                                                                                                                                    ",
"                                                                                                                                                                                                                                      Y H G G H G G K L G G S c u u p K S H +...G G H L O.G G H i i 4 4 < @ @ @ @ @ - < 4 - < p u i c H f f f c H S S S S v c k d k i 6 6 4 4 % < % @ > < < : : < < 4 7 7 i 7 4 4 7 7 7 7 6 i d c c c c c k c v D v v v k k 0 k k e 0 7 7 4 > 1 x x z Y 8.d.d.8.@.$.j.8.6._ m b R 5.^ U ~ ~ r l n 8 e l x M n k z n z n M C Q x n D Y R 5.q.q.` R U U V M b P R ` ` ` Q I I Q U I P M b _ t.7.U P D R 6.7.6.! I I R ` ` ! ! 6.e.i.s.w.` U U U U R ` 6.6.w.t.w.' Q U I I U i.V.a.t.' U V V U ` q.t.0.' _ ' _ P R i.s.w.7.q.i.i.` ` 6.6.! U R q.e.` R ` 5.` q.0.i.i.w.6.6.0.q.q.7.i.i.w.w.p.i.7.w.i.0.0.r.x.oXAXAXjXnX>X<XMXhXfXkXfX,XhX:X1XfXfXfX%X#Xi.7.                                                                                                                                                                                                                                                                                                                                                                                                                                                                                                                                                                                                                                  ",
"                                                                                                                                                                                                                                      ;.S G G S S S G L G K H c 7 i H S G K @.L K S H H G K G c 7 < 4 4 < - @ @ @ - 4 7 7 - > p f H G c f H c S K K S c c v v v b b 7 6 6 6 7 4 6 < > > 4 4 : < < 4 4 7 i 7 4 < < 4 4 7 i i i c v v v v k c v D Y J J D b z d 7 7 4 4 < 4 % @ 3 z P +.;.9.9.5.R @.;.-.t.y.] m x R R b C Z B 3 7 7 7 7 7 7 7 e 7 i i i s x x x z v D W P I I ` ' P b V I U I V V P P U U P P P P ` ` ` U M V I I P Y R 5.6.0.7.6.` 5.` ` ! Q ! 7.p.a.p.7.6.6.` R V I I ` 6.w.] ! U ` q._ I U w.y.Q U U ` Q I U 7.i.t.] ' R U U _ t.i.l.i.6.` ' ` ! ! 5.5.` R P ` ` R R q.6.! =.7.i.7.R 5.q.6.6.w.s.S.n.p.p.p.0.0.V.n.r.j.x.fXhXnXhX:XkXfXvXBXnXkXkXkX,X:XK.%X2X,X%XV.l.7.q.                                                                                                                                                                                                                                                                                                                                                                                                                                                                                                                                                                                                                                ",
"                                                                                                                                                                                                                                        G S D S H S S K S K k c 7 c G S Y Y K F #.H H H K K v i : @ < 4 4 < @ @ - 4 i i 4 - 4 f H G S f i c S K K D c d c v D J P k 4 < 6 4 4 4 7 4 < < i i 7 7 7 7 i k i 7 4 4 4 6 i k k d d k k k v v c c v J Y Y Y J b z k e 4 < 4 0 7 4 4 7 v -.8.d.9.R R P Y $.W x m V Z U R v x V t 3 7 7 k b n n n n n n k 7 7 7 8 k k z n v v n n v M M b v b P U 6._ ! ! I P P P P U U P ` ] ' R P P I P W v P R 5.7.w.! U R q.i.w.w.] ] w.w.6.! ! 7.e.0.6.` P U ` ` ! ` ` 7.w.] _ U ' ` U P ! q.` P U ] w.' R ` 6.7.! _ _ w.w.6.` ` 6.! R 5.7.7.6.! R E R ! 6.e.0.q.6.6.7.` 5.7.i.i.i.i.p.V.a.t.p.p.a.oX#Xk.x.!.nXjXmX<XkX,XnXNXDXMXfX>X%XXXZ.D.G.%X<X<XG.l.i.q.                                                                                                                                                                                                                                                                                                                                                                                                                                                                                                                                                                                                                                ",
"                                                                                                                                                                                                                                        K c D S S S G S f G d k i G S Y Y K G G K f p G K S d 4 @ @ < 4 4 : @ + < i k i 4 4 i H G S c f p c K O.J c i i c v D D n 7 < @ < 4 < < 4 4 < 4 i i i k k i i d i i 7 i u i k k d d k c k i k v v v D J K J b n k 8 7 3 < < 2 0 k l 8 v @.d.d.8.R U R P b z 7 3 7 M q.q.` M Z B e 7 0 k b P I P V v b C V b n k k n k n n k 8 7 7 s k k n v v v b P _ _ V b b P U P P V V M P R M v P R q.R ! I W P R 6.5.E Y Y q.l.n.a.7.` R ` ` ! ! 6.i.i.p.7.! ! w.` Q ' 7.i.w.7.` ` ` ` R ! q.t.' R U ' ' R P R 0.w.6.R _ ` _ R 5.6.' ` U 6.q.6.R ` ` R R R 6.i.i.0.0.i.i.6.e.s.n.n.V.n.p.v.u.p.D.#X>Xl.x.x.oXmXJXMXMXnX1XfXmXMXNXjX:XH.H.D.Z.G.G.%X,X%Xn.s.0.q.                                                                                                                                                                                                                                                                                                                                                                                                                                                                                                                                                                                                                              ",
"                                                                                                                                                                                                                                        ;.S S H G K K S c S d d i G S Y K K L F H F h S S c 6 - @ @ < 4 4 : @ @ 4 k k k 7 7 f S S H f f d c K K v k u 4 d c v k 7 7 < @ > < 4 4 4 < @ 4 i i d k k 7 4 7 i i 7 i k k i i d k c c c k c v v v v v v z k k k 7 < 1 7 4 < 3 7 8 k Y 8.8.^ T V R 5.T P v e n M R ` Q Z _ _ B k k k k v b P C l k n b P I I V b v M C I I V b b n n z b M b z v M V U P b b D I ` ` R I P W P R P Y -.0.s.w.w.6.R ! ` ` R E Y ` l.n.i._ P U q._ R U U ` w.t.7.! U ` w.7.` ! ` t.] Q U ' ` U P ` i.p.' I U _ I U ^ q.0.t.7._ R U R R ! 7.7.6.R ` R E Y ! ` ` ` R q.0.7.5.e.i.i.i.Z.D.G.N.v.v.v.V.u.H.<XfXk.h..XkXAXnXhXfXnX,X<XnXBXMXfXG.v.C.C.Z.G.G.D.%X:XoXl.k.0.                                                                                                                                                                                                                                                                                                                                                                                                                                                                                                                                                                                                                              ",
"                                                                                                                                                                                                                                          K H H G K K c S c c i c D H G G ..L S ..h f f c i 4 > @ - < 4 4 - - < 6 k k i 7 i c H H f p f c S S D c d u 6 p f k 7 4 4 4 < < < 6 4 4 - @ 4 i d k k d 4 < 7 k i i d k i 4 i f c v S S G G S v c k k k d 4 4 7 7 4 4 3 4 < 1 3 l R 8.d.g.9.d.8.;.8.R P V V ` ` _ M x Z ~ B 0 7 k b v b P C I v n v D P U I x 8 n v I ! 6.` Q I P P P P R I R P I P P P I ^ ! ` 5.6.6.` U P P P P Y Y 5.i.s.w.U P E 5.7.0.i.7.5.6.7.i.6.` R ` 0.i.q.' Q U R R ! 5.6.q.e.i.7.U ! w.U R R 7.q.6.! ! w.' I M ` ' ` C _ t.i.' ` _ Q U U R 5.i.i.6.R R ^ 5.5.5.0.7.q.` q.` ` 6.n.A.S.S.Z.Z.Z.V.y.V.C.C.G.%X>X!.!.A.HXHXHXBX<XfXjXBXNXFXDX2X%Xv.B.B.G.H.V.V.C.XX%XG.l.w.0.                                                                                                                                                                                                                                                                                                                                                                                                                                                                                                                                                                                                                            ",
"                                                                                                                                                                                                                                          +.c H S G G H G k S i S c H D S ..G G #.H i 6 u 6 4 > - : < 4 < - 4 4 i k i i i i d k f u f c c c S c i 6 u u u i i 4 < 4 7 4 < 4 4 4 < < < 6 i d i 7 4 7 4 6 i k k k i 7 4 7 f c S K S v v S v v c n k k 7 7 7 4 < @ < < 1 k R 9.h.j.j.9.;.d.x.z.l.7.P V P 5.@.V x Z [ A e 7 i d d 7 k n x x z c S P P ` Q M s z v D E ! ` ! P v D P ` q.q.q.q.` U W P P E R I V U ! U P P P Y @.5.@.R ! R ! R R ! q.q.q.l.l.i.0.6.` _ _ ` q.0.t.s.a.t.' ` ! U ` ' 7.e.p.w.6.` ` ! R =.q.0.e.i.6.! ` I I R q.7.` R _ _ _ R ! 6.` R P U q.i.R R 6.7.6.` 7.i.s.q.6.q.' ' 7.p.v.oXoXG.V.v.C.u.v.G.XX:X%Xs.W._.fXnXZXBXDXNXnXfXmXNXBXDXvXG.v.B.B.v.Z.n.i.i.Z.XXXXG.l.a.q.                                                                                                                                                                                                                                                                                                                                                                                                                                                                                                                                                                                                                          ",
"                                                                                                                                                                                                                                            c c c S S c S k G c D f G G D L G L H i < < < > > > - @ - - - < 4 4 7 i i d i i d f i p c H f d f i 4 4 u 4 4 4 4 < < 7 7 < - < < < < < 4 4 6 6 4 4 4 7 7 7 d k k k i 7 4 6 i c c S c k k c v v v v v n d 7 4 < $ < < < 7 M 8.j.g.9.9.;.8.j.!.A.v.` U R P V l e m C V b k d 7 4 4 4 7 7 k k k n k z l V V V V b D P Y R ` ` M c n P R 5.q.e.t.' P P P R q.i.7.` M M P P E T 5.@.0.0.e.7.5.! ! R R ! 5.7.i.s.a.7.6.0.0.q.' _ ` ' t.w.7.! R q.w.w.' ` ' t.t.P P ` 7.I b P e.V.p.' ` ` _ V U 6.0.r.` R U ` ! R q.i.0.6.^ R q.` R R q.7.' ` ` i.t.` 7.i.p.i.t.u.J.:XXXD.Z.Z.n.u.H.%X<X>Xr.k.z.xXDXBXmXfXMXvX,X<XBXDXMXkXK.B.B.H.v.y.V.n.l.S.J.J.XXG.a.a.                                                                                                                                                                                                                                                                                                                                                                                                                                                                                                                                                                                                                          ",
"                                                                                                                                                                                                                                            K c f H G H c c G H D i L G K L h F 4 < - @ - @ @ - < @ @ @ < 4 7 4 i k k c i d c c c f H S c d d d p 4 > > > > < < < 7 4 @ @ < < < < 4 6 4 < < 4 < : 4 7 i d i 7 i i 7 6 i i k c c k d i c S S v D D k 4 < 4 4 4 3 7 7 M 8.d.9.5.-.;.d.;.-.I ' [ Q ` j.5.x 8 e m B e e 0 d 7 7 d 7 7 d k k i 7 6 7 7 k 0 n v b D D D I ! U V v v D D P Y R _ U P P Y Y q.0.e.7.I W W W M P P I ! 6.! I P R R q.q.` 5.` ! ` 0.7.5.6.6.i.i.w.7.` ` ` _ ` 6.7.i.i.s.7.` Q ` R J I 7.7.! P U 7.i.! R 6.w._ V I ' 7.7.U R 6.` R I 7.n.s.0.` ` R 6.q.7.0.l.i.q.` q.q.0.i.S.F.Z.a.v.G.G.C.XX:XXXH.G.%XfX#Xj.x.A.AXMXkXbX<XfXvXvXjXDXNXBXkXJ.C.H.J.G.t.t.V.&XoX,XXXG.K.C.V.7.                                                                                                                                                                                                                                                                                                                                                                                                                                                                                                                                                                                                                        ",
"                                                                                                                                                                                                                                            d.S S S G S c S G S S f G G Y ..H 6 4 < @ @ @ - @ - 4 @ @ 4 4 7 k d k v n k k v K K K c f S S c c S c 4 - - > > < > - 4 < - : < 4 7 4 i s 4 @ - < < < 4 7 7 i i 7 6 i i i d i d k f k k k S G D v n i < @ O @ < 3 e v T 8.d.9.8.@.+.@.T b n z e e M ! ! x 8 e t m e 4 3 7 7 e k n v n 7 7 i i n i 7 7 7 i i i k s k k k z n v n S v v z n D I _ P Y Y Y Y ` 6.! M b D P R R U P P P W E W Y -.k.l.s.i.i.7.! I ` 6.^ 5.0.s.V.v.t.' ` _ U U ` 0.p.V.p.7.Q Q U R R q.0.7.6.U U R R T 6.0.0.` R I U ^ U E 5.q.6.! ` 7.a.y.! _ 7.] ` ! V.V.Z.p.w.7.i.7.t.Z.G.XXG.C.Z.H.K.%X:X:X:XoX:X<Xi.j.z..XHXSXnXkXkXbXfX<XmXmXAXNXfX%XB.C.J.G.v.w.n.MXAXMXkX%X#XG.C.V.5.                                                                                                                                                                                                                                                                                                                                                                                                                                                                                                                                                                                                                      ",
"                                                                                                                                                                                                                                              Y K G G S k G G G H f G D Y ..p < - < - - < 4 @ < 4 < 4 7 4 7 c c S c i i c G Y +.Y c d S K S K K g > - - > < 4 < - < 4 4 4 7 k 7 i i 7 4 : 4 4 4 4 4 4 4 i k i 4 u i f i i i d i i k v S n i 7 7 < @ @ O @ < 7 k R 8.d.d.8.5.5.8.@.D 8 7 1 * 3 x k 8 3 3 3 3 e e 4 6 7 0 d k v z 7 7 i d z b V V P b n k s k k s 7 8 s s i k z k k k n v P P P P P P P E ` R D D P T ;.8.q.6.` ! P W P Y R 7.l.l.V.s.w.6.! ! ' ' ` ` ] p.u.t.' _ ' 7.` U R _ a.u.7.! U P M P ' i.i.p.` P P U R R q.i.i.i.` _ _ _ E R -.q.7.6._ ' 7.` R Q 0.w.7.w.t.v.a.7.i.a.n.t.v.Z.J.J.C.C.Z.Z.C.V.C.XX>X2X>Xr.x.$XhXMXSXGXHXmXmXfX<XMXDXBXmX<XK.V.Z.J.Z.p.6.i.fXFXFXkXhX,XXXJ.Z.i.                                                                                                                                                                                                                                                                                                                                                                                                                                                                                                                                                                                                                      ",
"                                                                                                                                                                                                                                              d.K G S S c K S G h h S v K L d < @ @ - < 4 - @ < 4 6 i d 7 i c G S d i i c K Y K v k k S S S G c 4 - - > > 4 4 < - - < 4 7 k k i 7 4 4 4 4 u i 7 4 4 i i k c c k p d c f i i i i i d d i 7 4 < @ O O O @ 4 7 b @.d.j.j.5.P b P W v 7 4 4 1 e V M 8 3 1 * * * < e 7 7 7 0 k k M k 7 k v v v D P U U V b b V P b V M b n 7 i k v M V D k n v b D D v D D J Y R P P Y Y @.q.q.6.` ! R I I I I P R ' t.t.7.` ^ 7.i.i.i.t.' ] ' t.7.6.q.q.e.i.` U _ t.R P U _ ` P U Q ' ' ! P I R 6.R R 6.s.V.i.` U I E R 5.q.7.w.7.] ' ! ! ! 5.i.n.a.p.a.p.t.i.a.F.S.D.V.N.V.N.V.D.G.K.G.G.oXoX,XoXk.x.$XnXnXDXSXFXGXDXhX,XAXAXmXmXjXV.v.Z.K.G.v.w.i.A.jXAXbX>XfX<XXXG.H.7.                                                                                                                                                                                                                                                                                                                                                                                                                                                                                                                                                                                                                    ",
"                                                                                                                                                                                                                                              Y.$.G c S H K G G H H c D K G c < + @ 4 4 - @ @ > 4 u i d i i c S k i i i S Y K S n i d c v v c i < @ @ 4 4 4 4 < @ - 4 7 i k k 7 < : 4 4 4 i k 7 4 7 c S S G Y G k k H k f k k k i i 4 4 4 < @ O O O @ * 7 b 8.j.j.j.5.n 7 3 8 8 1 1 4 3 n x e 8 9 t 3 1 3 4 4 3 7 7 7 7 7 7 k e i d v D D D b b n v v b P T R ` I x k s c D R R R R P D D D D P W S S P Y E P D S G Y Y ! R R E P E R ! 6.` ` Q _ 7.7.' ^ ^ q.i.C.V.V.p.] _ U Q ` w.t.a.p.7._ ' ' R P ! 7.7.` U U ! I P T 5.7.6.R U 6.t.! E ` 0.6.R U R 0.7.' ` w.] ` ` ' t.V.C.a.y.V.V.Z.v.V.D.XXJ.Z.Z.Z.V.V.Z.C.G.XXXX,X1Xl.j.z.oXvXkXjXBXxXdXAXMXkXDXAXAXnX2XZ.v.C.J.K.C.7.i.A.hX2XmXkX,XfX<X#XJ.C.                                                                                                                                                                                                                                                                                                                                                                                                                                                                                                                                                                                                                    ",
"                                                                                                                                                                                                                                                d.G f S S K G G S G S K K S f < @ @ 4 4 - - @ < 6 i i i i k c k i i i k D K K S c i i k c v c 6 < @ @ 4 6 6 4 - o @ 7 i i k k 4 @ < 7 i 7 i i 4 4 i S K Y Y Y J c k c v v S S n i i 4 4 4 < > @ @ @ @ < 8 Y 8.8.R R E M 8 1 1 1 1 < 3 k z e 3 3 r m x z e 0 7 7 3 3 3 3 4 4 7 k d d k n k z z k k k v D Y Y R U x s k v D Y @.7.7.` P D D Y R R T Y T R T Y P D D D D v P R R E P R ` q.0.7.' _ ' ] ] ` Q Q R ] t.v.u.] _ ` w.t._ Q ' t.u.' _ ` ' Z I ! ` ' 7.6.! P P v P ! q.q.7.q.` ` R R ` 5.q.0.7._ _ w.] ` ` i.i.s.t.t.t.u.u.p.p.n.G.J.J.G.C.Z.J.G.J.XXXXXXC.C.N.G.:XF.k.W..XhXHXAXjXnX&X>XfXnXZXmXkXnXjX:XG.v.V.G.G.v.0.7.n.kX<XvXjX>X>X,X,XoXG.i.                                                                                                                                                                                                                                                                                                                                                                                                                                                                                                                                                                                                                  ",
"                                                                                                                                                                                                                                                Y.$.H S S S G G S G G Y K G f 4 @ @ 4 4 < < < 4 i d i i i i i i 4 6 d c c G D c c d i i c c d 4 < - - 4 6 6 4 - @ - 6 d k k i 7 4 4 i i i 7 4 < 4 k K O.+.Y Y D c c c S D K D k 7 i 7 7 4 4 7 < @ $ 3 z E ;.;.$.@.R E M x k z k e e P b n 3 < * 3 e k z e 3 3 0 0 k k k i k k z k d 7 7 7 7 7 7 k k v b D b I Q M n n S J Y Y E ! C b D K Y -.5.$.$.@.R Y Y Y P P R E P P P I M k M P I ] t.t._ I R ' t.i.t.' U _ [ w.] I U 7.p.i.` Q Q ] ` U C _ ' P V P U I I U R Q I V M R q.i.w.6.` _ P I ! 6.i.i.p.7.` ` _ R ` t.Z.Z.D.v.t.t.t.w.p.Z.Z.K.XXJ.C.v.V.C.G.G.XXXXG.Z.G.%Xi.j.W..XnXFXBXMXMX:X>XkX,XkXJXkXkXjX>XC.N.C.K.G.n.e.0.>XMXkX:X%X%XXX%X%X>XJ.S.q.                                                                                                                                                                                                                                                                                                                                                                                                                                                                                                                                                                                                                ",
"                                                                                                                                                                                                                                                  d.G S G c G S S S K Y K G p 4 - - 4 < < 4 4 i d i i i i 4 u 7 6 i f i k c k i k k 7 7 i i 7 4 4 < < 4 4 4 < < - - 4 d i i i 7 7 7 k k i 7 4 < 4 c K O.Y K G D c c S G D D k 4 : 4 i 7 4 1 < @ $ 7 M R $.$.$.@.@.@.R Q U M I T P V M k 7 3 * $ 1 e 7 < @ @ 4 7 k b P P b b v z z k n n k 7 7 7 s i d k k z k n b n v v D b v v M M v D Y O.@.-.8.-.R Y D P Y T 5.5.` R P P I I M b M V U Q _ ' _ _ w.v.n.V.v.t.[ Q R ` ' ' ' p.n.p.` U U ` R P b U ` ` V V P U P P ` q.` P P I ` 7.I P R 7.' U R Q 7.p.' Q ` t.t.w.w.p.V.V.v.t.t.v.V.v.u.a.N.Z.C.V.V.Z.Z.S.C.V.D.G.XX#X#Xk.k.!.:XmXGXFXnXjXnXhXkX:XMXnXAXMXMX>XV.B.C.G.G.a.6.i.A.mXhXkXkX>XfX:X,X1X>XD.l.                                                                                                                                                                                                                                                                                                                                                                                                                                                                                                                                                                                                                ",
"                                                                                                                                                                                                                                                  Y.+.S K S D S H H G v S S u 4 - - < - < 4 4 i i u 7 i i 7 u i f c d 4 i k f i i i 4 4 4 4 4 4 < - : < < < < - - < 6 6 4 7 7 7 7 i k i 4 4 4 4 6 c K K K G K G H v J J D n i 4 : 4 7 7 4 @ @ O 1 n R @.$.;.;.8.9.8.5.V e x R 9.5.M e 8 3 * @ < < * * @ @ @ 4 7 k v P b n e k v v P P R P V b 7 i i d i 4 4 7 k k n k s s k k n k v v D Y O.+.@.@.R R J S D Y Y 5.7.` U V b P _ U ! ' ' _ U C C U U Q U ] v.v.u.] Z U ' t.[ U U t.p.t.` U P I P J P _ 7.` P V V V P R 6.6.q.` P U R _ U P R i.t.t.' U U _ ` ' ` 7.n.V.V.p.t.w.y.t.t.v.G.Z.Z.u.p.u.v.u.n.D.oXD.V.s.V.S.XXA.k.x.z.nXJXDXDXDXMXhXnX<XhXkXDXJXAXCXXXN.V.C.H.G.n.q.e.A.JXbXfXnXMXnX&X>XfX,X%XG.r.                                                                                                                                                                                                                                                                                                                                                                                                                                                                                                                                                                                                              ",
"                                                                                                                                                                                                                                                  Y.d.K G G G S H H K v S G p - @ - < @ < 7 4 p k f 6 i c d d H c c c i k c c i u i 7 4 4 4 4 4 4 - - - @ : - > < 4 4 < 4 4 4 4 4 7 7 4 4 4 4 6 i k S G K K G G S S S v c c i 4 4 4 7 4 < @ @ @ 7 P -.$.8.8.d.8.T V k 3 1 e V ^ P e 1 1 9 @ @ % < * < 6 4 4 i c v z z 8 7 7 k b J P P E P P x i k v J P v z v k k k 7 7 s k k z v v W b D G Y J P P P P P D Y Y ! 6.` P k z n b P _ t.w.w._ U _ ] { U C C C ] t.t.' C U 7.t._ M C w.' I P R _ M b b R ' U P P _ Q P b V P ` ` U P R 7.q.6.Q ` 7.p.y.` U ' w.t.' ' ' V.Z.v.t.a.V.V.p.a.v.H.G.V.v.V.H.D.C.a.V.V.V.i.t.V.S.k.j.z.#X&XkXDXSXAXAXkX>XjXhXBXDXDXmXvXJ.v.V.H.G.H.a.7.7.S.AXVXMXoXoXZX>X>XjXhX,X%X#X                                                                                                                                                                                                                                                                                                                                                                                                                                                                                                                                                                                                              ",
"                                                                                                                                                                                                                                                    Y.+.D G S G H D Y K G S p - @ - 4 @ 4 6 u c G H 7 i v c S S d f S c S S S d 7 i i 7 i i 4 4 4 4 < < 4 4 4 6 4 < < < < < 4 7 7 4 4 < < 4 7 d i f H S G G D D S c c k d k k 7 4 4 < < < @ $ 1 n 8.d.g.8.8.5.P z 7 3 1 8 b n e 7 1 * @ @ < 4 6 4 @ < 7 7 k k k d k k 7 e k c D Y Y D v e k i k v b D R R P b k k k V V b n n v v v v v v v S b v v D P D D Y Y P V Q I V M n v V P _ [ U V m U _ ] ] ' _ U _ ] _ Z I I Q ] ` R V U U U P P U ` R P b P ` R P J R ` R U V I ` _ P Y ^ i.l.t.i.Q ` ] w.` ! ' i.i.a.t.w.u.a.i.i.V.G.Z.G.Z.Z.Z.G.C.v.n.D.D.D.Z.v.s.n.a.s.i.r.x.!.A.ZXkXkXAXDXjX>XfX,XmXBXjXkXBXvXXXV.V.Z.G.Z.i.7.0.#XmXNXHXkX>X,XnXnX,XfXfX%XXX#X                                                                                                                                                                                                                                                                                                                                                                                                                                                                                                                                                                                                            ",
"                                                                                                                                                                                                                                                    Y.d.K K S G H G Y G K G u - < @ 4 < 7 4 p S K d 6 f v v S c d i c K K G c 7 7 7 7 d k d 4 < 4 7 4 7 7 7 i i 4 4 4 6 4 4 7 7 i i i 7 4 7 d i i d c c S D S v v c k d i d i 7 < @ @ @ O O 1 V 9.j.9.! @.$.T n 1 < * 1 e b k 3 < * @ X @ 7 d k d 7 6 7 d d d 7 6 6 7 7 i n v D b z k k e 7 7 k v v n b v n n d k v b P P Y b v v z c n n n v n c c c c k c n k k k P ' ` U P V V C Q Q Z m x V Z _ ] ] _ U C C _ V m M C Q U U V V U Q V b b P _ U U P P Q U P b P _ ' _ C P I U P U _ t.p.u.w.Q Q ' ' ` _ ] v.Z.Z.V.p.t.u.y.y.v.%X%X%XXXZ.D.D.V.n.Z.J.XXJ.D.n.a.n.D.i.r.h.!.dXHXHXkXjXMX,X&XgX,X<XmXhXkXBXvX:XZ.V.Z.G.V.i.6.i.S.bXnXNXCXhXhX%XhX1X>X<X:XoXG.S.                                                                                                                                                                                                                                                                                                                                                                                                                                                                                                                                                                                                          ",
"                                                                                                                                                                                                                                                      Y.Y G H S H G Y D K K 4 < 4 - 4 i i 4 u G S i 6 c S v v c d u v O.Y S i 6 4 7 i k k i 4 - : 7 7 7 i i 7 4 < 4 4 7 i i 6 7 k k c k d k i i i k c S J D c c c v k d d i i < @ . . . # $ b 8.d.9.I M Y $.M 7 $ @ 1 8 x e 7 < $ @ @ @ < i v v b z d d k k v v k 7 7 7 s k k s 7 7 4 7 v i i k v v n n k k 7 7 k c v D J P P v n c v v D D D v v v v b b V b z k k x V V M M n 7 x Z Z Q V M V Z / [ ] _ Z V b P ' ` Q M M x Q U V v P U R I P b V I b D P ! 6.! P P P R _ P P R 6.7.7.' ` ' w.' Q _ w.i.t.7.t.t.v.N.t.w.s.S.Z.V.V.n.Z.Z.Z.a.v.D.D.S.V.v.V.V.v.a.V.S.k.x.x.z.nXmXSXFXNXjXbX>XnX<XgXmXfXnXAXhX%XC.Z.G.D.y.a.0.0.l.nXxXZX@X<XjX>X:X,X<X<X,XXXG.S.                                                                                                                                                                                                                                                                                                                                                                                                                                                                                                                                                                                                          ",
"                                                                                                                                                                                                                                                      Y.O.S H H H S J S K G 4 4 4 - < d i 4 u S L i < c G S v c c d S Y K c i 4 4 7 i k k i 4 @ : 7 k k n i 4 < 6 4 4 i d 4 < 4 d c S S c k i i c S G Y Y v k c v v v c v k 7 : O . . . < z @.9.8.P b b P b 7 < $ 1 8 8 7 1 3 1 $ * i i 7 d z k e 7 7 k v b J J P b v k 7 7 k e k 7 7 4 7 7 i i k 7 k n z x z c v v b J J D v c c v v S P Y P b v v J R ` ` U U V M n l x V M x k 8 x x x k 8 x m V Z Z Z Z V x v V _ ' _ C b n M P P P P R ` ` U P V b J P P R 6.q.6.U C P I P P P q.p.i.y.q.] 7.] ` ` t.v.n.v.y.w.t.p.t.p.Z.J.G.J.Z.V.v.u.a.s.a.Z.H.J.Z.n.V.n.p.s.V.k.j.x..XmXBXmXDXFXBXAXfXnX1XhXAXnXDXAXjXG.C.C.G.G.a.q.i.i.l.mXAXkX:X>XkXvXnXjXfXkXfX>XG.V.V.                                                                                                                                                                                                                                                                                                                                                                                                                                                                                                                                                                                                        ",
"                                                                                                                                                                                                                                                      Y.:.H S f S D D D +.G u < 6 > < v d i p S K d i f D v c c c c c D S k i 4 4 7 k c k 7 4 < 4 i k c k i 4 4 7 7 i i 6 @ - 4 d n S D v k s k S K Y +.Y c k c D b v D v i 7 $ @ @ @ < v T ;.d.R b k k k 7 < < 1 8 8 8 < @ @ $ @ < 7 k k k k 1 < < 7 k v J b P b z k i i k v I v b n i i 7 4 7 i 7 7 k z v v v v J D J D P b n v D D D P Y P v k v J E 5.q.q.6.' Z l s x C Q U C V x x l l x x x l r x m m x k k e x Z Z V k k v P Q P b P _ _ P P P U P W P M I q.` U P U _ _ R U Q ' u.] ` ` p.a.t.s.w.t.n.V.p.' w.n.F.F.V.V.Z.G.G.V.s.n.V.V.V.u.v.Z.Z.a.t.p.V.S.V.k.W..X%XjXnXnXMXNXSXmXkXMXhXxXDXBXSXHXkXG.C.Z.H.G.a.0.6.l.oXmXjXnX>X@XfX:XjXjXkXhXkXkX>XG.S.n.                                                                                                                                                                                                                                                                                                                                                                                                                                                                                                                                                                                                      ",
"                                                                                                                                                                                                                                                      Q.,.S S f G D S D +.S u > 7 < 4 c c i i c S d i i c c k c c i d v k 7 7 i 6 7 k k i 7 4 < 4 i k k 7 7 4 4 7 i i 7 < @ - 4 k v c c k k k c G Y Y T J v k c D D v k 7 < $ @ @ @ 4 v Y ;.d.;.b k 8 7 8 3 1 1 8 n k 1 @ o + @ : 4 7 7 7 7 8 7 4 4 7 k D J v z 7 < 3 k z n b P Y P n k k k k k k k c k k d d d c v c D D b v v v v D D D D b v n D Y Y P P P U Q l 7 7 7 k V Z Z V x 8 e B B m x x m V V m m x n e 7 k M V M b W P P ` ` U M C P N J P R 5.! R I I ` ` R E R ` 7.t.7._ Q Q R _ w.a.V.V.V.n.p.p.p.t.t.i.a.S.D.S.n.v.Z.C.n.V.G.#XD.Z.v.u.a.a.a.a.V.S.k.x.z..XjXHXDXjXvXvXAX,X>XfXAXDXxXkXjXmXkXD.C.H.G.G.v.7.7.i.&XZXnXMX>XkXMX,XkXhXfX>XfXvXvX<XG.S.l.                                                                                                                                                                                                                                                                                                                                                                                                                                                                                                                                                                                                    ",
"                                                                                                                                                                                                                                                  Q.'._.8.G S c Y Y D D O.S p > 4 4 4 d c i f p k i i i i d c c i 4 i d i 7 6 i 7 i i i 7 4 < < 4 i i 7 7 4 4 4 7 7 6 4 < - - 7 v v k k n c c v K Y Y Y D k k c D J k 7 < @ O + O @ i J @.;.-.J d k k 7 3 1 1 8 b v 8 < $ O @ 4 < < $ < < < 4 7 7 4 i i i 7 7 8 7 4 < 7 k n n n n k 8 s k n v b D J D v v k c v v v c v c c c k c c c k c c k k n v D b v n V U Z C n 7 7 7 l V C x 3 1 1 r V B m V Q Z m x V U U P b k M P b n k n b U ` 7.Q V V V v n V P R U U I U U I P R [ t.t.t.t.' Q ' _ ' ' t.p.n.Z.u.p.p.p.w.t.v.D.J.G.G.v.i.V.V.n.D.XXXX#XG.V.s.v.V.V.#XD.k.x.!.#XSXGXGXFXMXCXnX,XkX<XfXDXAXdXkXmXhXG.Z.H.K.C.p.' 7.k.>XDXSXhX,X&XnX<XvXvXhX%X,XhXMXjX>XG.S.e.                                                                                                                                                                                                                                                                                                                                                                                                                                                                                                                                                                                                  ",
"                                                                                                                                                                                                                                              Q.'.'.'.'.8.G S H Y G v P Y S i > > 4 4 d d 7 f p p u i i u p c i i i d d i 4 4 6 4 6 7 7 4 4 4 4 7 7 < 4 7 4 < < 4 4 < < < < 4 d z k k v c v c D K K K D v d k c v z 0 3 < @ O O O < k T @.T b b P J n 8 k 8 k M M 8 1 * $ @ 4 4 : < < 4 4 4 4 7 7 4 < < < 4 1 7 7 7 7 7 7 i s e k k k k c n n b P J b v c k v G K T Y D v v k d d i i d d i s s k k k i 7 7 z 7 e x k 7 7 7 3 e l V x l e 8 x x M C C x e n V _ 7.' ` I b M V b P M v z b R U N v D R R E V b b V M P P ! q.q.' ` U _ ' U U ` 7.i.t.] w.] t.i.0.i.n.V.n.v.a.y.u.C.n.p.s.D.J.S.S.Z.Z.C.Z.a.v.Z.D.G.m.k.z..XkXSXGXGXSXDXMXAXhXMXvX>XhXDXjXjXmX<XZ.Z.J.XXZ.a.7.5.k.fXmXFXMXoXfXfXxX<XXX%X%X<XmXCXMXjX:XG.S.                                                                                                                                                                                                                                                                                                                                                                                                                                                                                                                                                                                                  ",
"                                                                                                                                                                                                                                        E./.}.'.'.'.}._.j.S c S Y S D D Y S u ; - > u f p d f c i i i c d f G i p c S c d 7 u 6 4 4 i i 4 < 4 i i 7 4 4 4 u 4 < 4 4 < @ - 4 7 i k 8 k v c v D D D D c n c k k k k 7 2 * * @ O O < z Y +.Y v Y @.;.R n 8 k n P V 8 1 1 $ $ @ - : < 4 7 i k k 7 1 4 4 7 z k k i 7 7 7 7 4 4 4 4 4 4 i k n n n z n v v v d i d H G Y Y Y J v k k c v N b b v v n k k k k 7 7 7 4 4 3 7 1 1 1 < < $ < e x r e l l m Z [ Q V k k b P ` w.' C b v P 6.` R U P P P C V b n n U ` ` R U P M v b P _ i.w.y.` R _ _ U U ^ i.a.V.v.w.q.w.p.p.p.v.C.V.C.a.t.u.V.n.p.V.G.J.XXJ.D.Z.Z.V.N.a.V.D.m.z.z.#XJXGXSXSXGXSXBXSXSXDXhX,XmXSXmXAXBX%XZ.C.G.:XJ.p.7.0.i.>XZXAXHXfXjXfX%XoXS.S.%XMXCXmXMXNXhX%XG.S.                                                                                                                                                                                                                                                                                                                                                                                                                                                                                                                                                                                                ",
"                                                                                                                                                                                                                                    Y.Q.[.[.}.OXOXOXOXOXW.S c S S n Y D Y H 4 + - 4 i f i c c d k k i i H k S i i D D S d i i i 7 7 d k i 4 7 k i k k 7 7 d 7 4 4 4 : - < 6 i i i d k c n c c S S c k k k k i 7 7 < @ @ O O O @ k Y +.+.Y D O.$.$.R v 7 8 n n e 1 1 $ @ @ @ @ : 4 7 s k s 4 : < 4 7 k b P D b k s 7 7 7 4 4 4 7 7 7 7 s 8 8 i i i k c d i f S Y Y K K P v k c D K Y R R U b i k k b V V x k 7 3 3 3 1 3 e 7 e 8 3 1 8 8 3 1 3 3 l V V V n z v b I _ _ P v v D E 5.6.7.` R P U R U V b M V P P P E ` _ U M I I ] 7.R V I ] t.7.^ ] ] V.a.] _ e.V.V.n.p.p.p.V.V.p.w.a.V.Z.V.v.V.Z.Z.Z.n.V.S.G.D.D.G.l._..XkXDXSXGXFXSXFXSXBXNXmXkXjXSXGXGXFXMX1XH.N.Z.XXXXa.q.7.k.2XkXNXMXmXkXkXhX#X#X#X>XmXDXnXbXmXMXjX1X#Xn.                                                                                                                                                                                                                                                                                                                                                                                                                                                                                                                                                                                              ",
"                                                                                                                                                                                                                                Y.Q.Q.'.'.'.}.OXOXOXOX'.W.K H G D G +.+.Y K 4 - > g p c p c c i c S k 4 S c c k i c J v d 6 6 i d d c c k 7 7 k k n n d i i i 7 i 7 5 4 4 7 d k i i k c n n c S c k k k k i 4 4 < @ O + . + @ 7 D $.d.;.+.K O.@.P V e 4 e k k 7 3 < @ $ $ @ @ 4 7 s k i 4 < : 1 7 k k v b n 7 1 7 s k k k k k k d i 7 i k c d d d i d c f f S K Y K D v b v v J Y T T ` U m 7 i k n V V V m t 3 < < 8 x m V V V m 3 1 3 3 7 e 7 e e M M n k k e k n P P v S J J R q.q.` P J P E E R R ! P M b b P U ` ` ` ` R I R ! U P U ` i.i.i.' ] i.w._ ` i.V.F.V.n.i.i.u.t.w.i.n.G.G.D.V.u.a.V.v.p.V.oXoX#XV.k.z.#XZXSXSXDXFXFXDXSXnX>XkXmXJXMXZXAXHXMX%XH.C.Z.J.G.V.0.q.k.oXCXfX2XoXkXMXnXfX:XbXfXjXAXAXbXnXAXNXvX>XS.i.                                                                                                                                                                                                                                                                                                                                                                                                                                                                                                                                                                                            ",
"                                                                                                                                                                                                                            Y.Q.Q.'.'.OXOXOXOXOX_.W.!.g.@.S H Y K K $.+.Y S u < 6 d d d S S v d G K c i k S k k 6 f S v d 6 4 7 k c S S k 7 7 k k n v k 7 4 i i d k k i 7 i k k k c c k c v S v n c c k i 4 < < @ O + . . O < v +.d.d.;.+.+.$.@.k 7 < 4 k b e 3 3 < $ < : @ : 4 s k 8 4 4 4 4 7 k n k 7 7 1 1 < < 7 k k k k k k k k k v D G D D v k f c c d d c S c c c v v D J D b v x x n k i k k k x V Z m 3 $ < 4 e x x V C x 3 1 7 m V Q V M l l 8 8 k z k k k n V b c n v v P U V b b v v v P P Q ` I P V b v P V U _ ' _ U U U U U U ` i.p.p.q.q.w.t.' ` 7.p.G.D.Z.i.t.n.l.i.a.D.XXoXJ.C.a.v.C.V.a.C.oX#Xl.x.x.1XBXGXGXDXDXDXSXSX&X>XhXfXBXBXnXbXnXvX%XD.C.H.G.Z.p.i.0.l.<XvXnXoX#X&XfXkX:XG.nXkXnXMXBXBXMXMXmXCXhXXXS.                                                                                                                                                                                                                                                                                                                                                                                                                                                                                                                                                                                            ",
"                                                                                                                                                                                                                        E.Q.Q.'.W._._.Q.!.h.g.8.$.O...#.O.S v K G K @.O.K S i 7 7 v f u H K S i S K c f i c c c d d c v k 4 4 7 d S K v i 4 i k k k n s < < 7 d k n k 7 5 k k k c K G k k v D D D D D d < < > @ @ + . . X < v @.,.;.8.-.@.$.@.J 4 @ < 7 V k 3 1 < $ < < 1 < 1 7 7 4 < 4 4 7 i k k 7 7 7 7 7 7 7 i i k n k k i 7 4 4 d v S J K J D v c c c c H S c k k v D v v k d d 7 7 7 8 7 4 7 3 7 3 e x e @ @ * < 3 3 8 m Z m 8 7 8 k P ` 6.Q M k k b P P M b M b b x 7 i k i k x b b v v b v z M C M n b P U U U P M V P P P P U 6.7.0.` ` 7.t.6.U 5.i.s.i.i.q.w.s.l.0.7.i.l.V.V.S.S.C.Z.C.s.s.V.C.V.V.V.l.z.x..XfXSXGXFXGXSXBXBXSXkXgXhX>XjXFXZXDXnXjX>XC.C.D.G.v.i.7.k.G.<XnXJXfXoXfX<X1X,X#XfXMXmXNXnXMXAXNXjXMXvX>XS.A.                                                                                                                                                                                                                                                                                                                                                                                                                                                                                                                                                                                          ",
"                                                                                                                                                                                                                    Y.Q.h.h.W.h.g.8.+.Y K G K ..K Y @.Y +.S S J D D Y Y S S i k 7 S S u f K D c k G H c d k c k v d d c n 7 4 6 f S S k i 7 i k k k k 7 < 4 7 k k k i < 4 k v D G J c k k v G K J D n 7 < @ @ @ O X . . @ v ;.d.9.P Y @.$.@.b 7 < @ < e 7 < 1 * @ $ $ < 1 4 7 7 4 : < 4 4 7 k 7 7 1 < < 1 7 7 k k k n n k i i 7 7 i k v S D K J D c f c S J K K K D v c v v k n k d d 7 7 x e 4 : @ @ @ $ $ 1 3 * @ @ * < 1 3 x l 7 s k z v P Q Q M k n J P Y ^ U P M b x V v z k k z n l k z n k k n V C b n b C R ` _ U P P P P E P P ` i.i.7._ ! ` 6._ ` 7.l.V.n.i.0.w.t.t.0.0.l.#XG.XXn.V.V.C.N.a.V.Z.D.D.l.x.!..XmXBXSXFXSXDXDXSXSXjXMXjX>XfXHXSXDXDXkXoXV.C.H.G.n.6.6.0.n.hXDXmXNXfXjX,XhX%XD.G.hXBXAXMXNXjXnXhXkXMXkXH.n.l.                                                                                                                                                                                                                                                                                                                                                                                                                                                                                                                                                                                        ",
"                                                                                                                                                                                                                Y.Y.h.8.@.Y Y K K G G G #.O.+.8.$.Y G n c S D D D D G G G n i k 7 D J i u H v S k H H H k i c k c d i d k k 4 7 f c c i i i 7 i k i n i 7 4 u d k i 7 4 4 k G K K D k k c S K Y K n d 6 @ @ @ O X . . O k +.;.;.-.b b Y Y n 7 < < < < < < < * @ @ 1 < < 4 1 < 1 4 4 7 7 7 7 7 4 < < > < < 4 4 7 7 i i 7 4 6 7 d k k v b J D S D S c k c D K K K Y J v k d k c b P N b M x k e e 3 < @ @ @ @ 3 8 3 @ @ @ @ $ 3 3 7 7 7 8 s 8 k x x k k n S D D U ` C b n v P R I M M v b N V V b n z z n v z k z z n U ` ' P b U R ! I V P ` i.q.! R 6.6.6.` 6.0.a.a.i.6.6.0.i.t.q.q.i.n.n.l.i.l.n.a.a.a.l.l.V.z.x._.dXGXGXSXSXGXVXBXDXSXDXBXkX<XfXxXFXFXAXfXoXG.C.G.J.n.7.6.0.V.jXFXBXMXjXNXhXfXhXoXJ.oX,XMXDXnXjXhXjXmXMXmX,Xn.n.0.                                                                                                                                                                                                                                                                                                                                                                                                                                                                                                                                                                                      ",
"                                                                                                                                                                                                            Y.j.8.Y J K G f c c S K O.Y Y K G K S v s s i S G v Y Y G S K c i n 7 S K d u f H c S k k k c 4 i i c k i i i i i i d k k i 7 k i 7 4 < i k 7 7 i i i 7 7 7 i c G Y Y D c k c S K Y D k 7 < @ O + X . . + 4 J @.T Y b k k n n 7 4 < < 7 1 < * * $ $ 7 k s 7 4 < < 4 7 8 k k 7 3 3 3 < < 6 7 4 4 7 i i d d i i 7 4 i k c c c k k c c c c c c v D J J J J b v k n v D P E I V k 7 e r m e 7 < * $ $ $ * 3 : $ @ @ < 3 1 < < 4 1 7 3 7 l n n n v v v b P M n z v D P R U I b n J R R R U I C b k b M x n n x V I I I P P U ` ` U P U ` R R R 6.7.i.e.7.` 6.6.` ` q.r.i.i.w.7.0.i.i.i.i.i.s.p.s.l.l.l..X.X XMXDXGXGXFXSXSXNXAXhXxXAXBXDXZXmXMXSXMX,XoXG.J.J.H.a.w.q.0.D.ZXFXSXkX>XmXBXfXhX<X#XJ.hXjXBXJXkXjXfXAXDXmXkXC.v.Z.0.                                                                                                                                                                                                                                                                                                                                                                                                                                                                                                                                                                                    ",
"                                                                                                                                                                                                          Y.;.+.K L G H S G ..O.T Y Y Y Y Y n n v v z s k D G S O.Y K S K v i n i c S c u f H c S k i d c i u f H c d i i d i k k k d 7 4 i i 7 < < i i 7 7 7 7 7 7 4 i k v D Y Y S c c c S D D k i 6 - O + . . . . @ z +.;.+.P k 7 8 k s 4 < < 7 e 7 < * * < 7 i i k 7 < > 4 7 8 k z 7 < % 3 7 7 7 7 7 7 7 4 7 d d v D c k d d d c c d k c c c c c c c c c D D D D b z n b P v n l e 3 4 * 1 3 3 8 8 r 8 < * < 1 r l e 7 1 < < < 3 7 7 7 7 7 s s x i s k z z z b V M v n c v P I M k n S P R ! ] ] Q V V U Q I U U I V P P I P P P U ` ` U P R ` ` ` R 5.6.0.0.6.5.6.6.` ` ` q.0.w.0.q.0.i.s.s.i.i.p.l.C.l.l._. X>XGXGXBXGXGXGXSXSXjX1XkXhXDXFXZXnXBXNXmX>XG.C.G.K.G.i.0.7.e.G.mXSXSXoX&XdXmXnXoXXX%X%XkXnXmXvX<XkXjXMXDXDXnX>XD.D.G.                                                                                                                                                                                                                                                                                                                                                                                                                                                                                                                                                                                    ",
"                                                                                                                                                                                                        Y.;.S f f H S G K Y ;.@.Y G O.O.D k i k n k z v D G G S +.Y S c K v i k i k v S f f H G G c i k i i d k H c c n k k i k k k k i 7 u i 7 4 7 i i i 7 4 4 4 4 u i k k c G v k c c c c b n i 4 < @ + . . . X O 7 Y ,.;.T P v 7 7 8 7 < < 8 k 8 < < * 1 7 7 4 < < @ @ < 4 7 s k 8 < @ @ < 7 7 7 7 7 < < > 4 u 6 k k k k i d c S J D D D D D G S v c c k c c c v n s 4 7 7 3 3 3 1 1 @ @ @ @ * < 3 e e < * 4 3 8 l m l 8 < 1 7 b b P M b v i s k n s i i s s z b b n z k k n V I b v S S D M Q U x k b V P ` 6.7.7.R P I R R R U I I U R R R R 6.7.` ! R ` 6.7.5.5.6.q.7.0.6.6.6.0.w.7.0.i.l.l.a.s.a.n.n.z.z..XMXGXGXGXSXNXFXSXDXCXfXnXkXvXAXFXmXMXSXnX,XG.Z.Z.G.H.t.q.0.i.S.AXDXDX#XdXkX,X%XG.S.G.<XkXMXmXhX,XkXjXmXmXAXBXhXS.G.D.S.                                                                                                                                                                                                                                                                                                                                                                                                                                                                                                                                                                                  ",
"                                                                                                                                                                                                      Y.;.G S G ..O.+.Y O.#.+.K G G v k i i i i n S R T R D H H +.Y H k c k d i d v c S f S S O.G S k c i 7 c c S d c v c c k i c n c k k u i i i i k k i i 7 4 5 4 i k k c c v k k c c k n k i 4 < - @ . . . X + < J -.;.+.E @.@.v 7 7 4 7 8 b 8 1 < $ $ 7 i 7 < O O + + @ 7 7 7 7 1 < @ @ < 7 7 7 7 6 < @ 4 u i d c k k i i k D Y +.+.O.+.Y K J D S D J D v v n c k 8 1 : < @ @ $ $ $ < @ @ @ @ @ @ * < < 4 3 7 3 7 8 r 3 3 7 z b W E R I M z s k b P b N b s k k k n n k k k n b M v b b b I ] U M b b D P P _ ' ' R P Y R ! ` ` ` R R I U R R ^ q.e.i.6.` ` 6.6.5.5.q.7.i.i.0.6.6.7.t.w.i.s.n.C.Z.n.V.S..X_. XAXSXGXGXGXSXDXSXFXvXfXnXfXfXSXFXGXSXAXjX%XD.Z.G.K.D.i.` 0.k.D.FXSXMXV.>XkX,XhXn.G.G.XX%XnXBX1X>XkXnXAXNXmXBXMXXXG.J.D.i.                                                                                                                                                                                                                                                                                                                                                                                                                                                                                                                                                                                ",
"                                                                                                                                                                                                      :.G G K +.$.Y K K K K G S k k i i k v P P Y +.+.P Y K H H G S S i i i f 7 c c K G f S K +.v G H S i 4 i D D c i G D v k 6 k D c c i 4 i i s k c k i d k k k i d k c c S S S c c k i i 7 4 < < @ . . . . . < D @.:.Y P -.;.R b z k z b b 7 < < $ O $ 4 7 4 - O @ @ O @ < 7 < < < < < < 7 i i 7 7 4 4 6 7 d k v v v c k c H G Y +.+.+.Y K K K J K K Y Y Y v k i 7 7 l 8 k 1 $ $ @ @ @ @ @ @ O O O @ @ < < < 1 1 1 < 1 1 7 i n D D v b V b s s z v P R R I V b n b M P P v c s k 7 k k k k n I R V b b b P P ` 7.` R Y Y T ! ` ` R U P U R R R R R 6.w.q.` R ` q.7.` ` 6.0.i.w.q.` 0.i.p.y.y.p.V.Z.F.D.S..XOXfXNXNXDXFXGXFXSXSXFXSXxXMX<XkXSXFXGXGXAXhX%XD.C.G.K.V.i.q.7.l.S.nXFXjXH.Z.kX,XkXn.V.#XoX%XkXmX1X:XnXAXDXMXNXMXBXhXG.G.G.F.i.                                                                                                                                                                                                                                                                                                                                                                                                                                                                                                                                                                              ",
"                                                                                                                                                                                                    ,.K O.Y +.K K K K G c f H G S k c G Y Y P Y Y J P E T D S S S H S c i i i k D c K K k c K Y S c G S i 7 i v D v i v J v i 4 i v c c i : 7 k k k n s 4 i k n D D k i c v G K Y G s 7 i 7 4 4 < @ + . . . . < D ;.T v J ;.,.@.b k 7 7 z b 7 < < $ @ @ : 4 : @ O O @ - - > > : @ @ @ < < 7 7 7 7 4 < 4 6 7 7 7 d k k c v v v H S G K Y Y Y K D G J Y Y T Y P v 8 7 7 7 8 e e l 8 8 < @ @ * 8 1 * @ @ @ @ @ @ @ @ @ @ @ < 7 i i k k k k z z n k k v v D P I I V v v b P U Q I P b k k b b z z k n V V b b b v P P R ` R Y Y R 5.5.5.! I P P I U _ R R R 5.6.q.6.` ` 7.7.6.6.q.w.i.i.w.0.i.a.v.u.a.V.C.C.J.F..X@XhXFXSXFXFXFXFXSXBXBXMXmXkXjXDXDXAXAXDXMX1XK.G.H.G.J.V.i.7.7.l.#XfXHXkXS.%XvX2XfXV.V.fX,XkXkXMXhX>XBXSXGXDXmXAXAXBX,XG.J.Z.l.q.                                                                                                                                                                                                                                                                                                                                                                                                                                                                                                                                                                            ",
"                                                                                                                                                                                                  ;.K O.$.$.O.S G O.O.c i c G c i f c D D P Y @.Y T J -.5.T K K K H S v i i i n K d K Y c c S Y G k S c i i 7 n v b k c J v i 7 i c c n v < < k n s 7 4 4 i k c J Y k 7 k S K Y +.K k 4 7 i 7 7 4 @ . . . . < b @.T b v @.,.;.P z 7 4 7 7 3 1 < $ @ < < < - @ @ @ @ @ - < - @ @ @ O @ < < < 4 6 < @ < < 6 7 6 6 6 7 i d c v H H c c c S S v S v c S K K v v z k 7 i 7 7 1 < < < * * @ @ @ @ 1 3 7 3 3 < < < 3 1 : @ - 4 4 6 7 7 7 7 7 7 s k k b k v v v v V V n z v b b P P V M k k v V U P P P V P P P P P P P P P Y Y Y P E R 5.5.` U I I I U R R R R ! q.e.i.i.w.w.i.t.7.7.i.n.V.Z.n.v.u.u.u.p.v.J.%X>X.X.X@XHXGXGXGXGXFXSXDXDXDX,X<XmXAXGXmXSXmXmXjX1XJ.Z.G.J.J.v.7.w.0.l.#XAXmXS.#XfXkXnXMXl.n.kXnXjXkXvXjX<XkXDXBXAXBXmXAXDXmXG.J.V.a.i.                                                                                                                                                                                                                                                                                                                                                                                                                                                                                                                                                                            ",
"                                                                                                                                                                                                  Y Y $.$.O.S S S c i i d i k k S S K Y Y @.9.0.5.Y @.8.5.Y K K S H v v i i k c Y k D Y c i S K K v k k d k 7 i n D k k D k i i 7 k c k k 7 < k c i 4 4 4 i c v b v i i k S K O.Y G k 7 7 i 7 7 : O . . . $ v +.@.Y T @.:.;.T v 7 : 4 4 1 < < * @ : 4 4 : : < 4 4 < : - - @ @ @ @ @ < < < < 4 4 < < < 4 6 7 7 6 6 i d i c c H c c f f f k c v v k d k k i 7 < 4 7 7 7 4 1 < @ @ @ @ @ @ @ @ @ % % @ @ @ @ * e e 7 7 7 6 6 7 7 7 i i i i s s s 7 i k k d k k x z k z z z v b n k 7 i k n P R R U P b D Y T R R R R I P P E E P R @.5.6.6.6.` ! R R ! ` 6.' ` ' q.s.t.] 7.p.a.v.u.a.v.D.G.C.v.u.V.C.V.Z.:X,X.X XfXGXGXGXGXGXFXmXDXSXnX<XjXfXkXSXGXGXDXDXkXoXD.Z.G.XXK.p.i.7.e.V.oXHXAX&X#XgX<XfXoXD.D.>XjXnXjXfXjXhXkXnXmXnXmXkXNXAXDX:XH.XXn.a.7.                                                                                                                                                                                                                                                                                                                                                                                                                                                                                                                                                                          ",
"                                                                                                                                                                                                ,.G O.$.+.K G H f i i c S c f G +.+.@.Y $.8.8.! Y T Y J P D K G H f c c i 6 k k J c v Y v c S G D S k i i k d 6 i n k d k i i i i i i 7 d i 4 k i 4 4 4 4 i c v n k d i k G K Y J v 8 < 7 7 7 1 O + . . @ d Y :.,.d.,.$.@.@.b 7 * @ 4 7 1 < < $ < 4 : : < 4 i k k i < - @ - < < 7 7 6 < < 4 4 7 i i 7 6 7 7 i d k c v c c c c c k k c c c c k k k k i 7 : : < < < < < * * @ @ O O @ @ @ @ @ @ @ @ @ @ O @ @ 4 4 7 7 6 4 4 7 i k v v v k 7 i i k k z k d i 7 7 7 d k k 7 7 s k n z i k n v P U P J D D Y T @.=.` R P P P E R R Y T 5.q.e.7.q.` R R 5.0.i.i.i.a.t.t.p.t.w.w.a.C.Z.D.G.N.v.N.v.y.y.v.G.%X>XoX X@XnXSXDXFXFXFXFXFXHXFXxXdXxXhXjXMXBXGXGXBXhXK.Z.Z.D.XXG.V.w.e.0.l.fXHXAX,XA.xXfXkXC.V.G.%X,XhXMX&XhXnXkXvXkXJXxXhX<XAXMXfXS.J.Z.v.a.7.                                                                                                                                                                                                                                                                                                                                                                                                                                                                                                                                                                        ",
"                                                                                                                                                                                              ,.G G K O.Y G S H f i S K J D K #.O.T J K +.Y T P D b v J b P S S S i i d d i c k S D c D S S S S c v c i i i k 7 4 i d c d i i i i i 4 4 7 i 4 7 i 4 4 4 7 i k k k k k i c G G Y D n 7 < 7 i 7 : O . . o 7 D $.d.d.d.>.:.-.D 7 < @ < 7 4 < < * < 7 - @ - < < 7 z k 4 @ @ : < 4 7 k 7 4 < 4 4 6 7 v k 7 7 6 7 d c c D K J c k c c H S G G k k k c c n k s 7 4 4 < < < < < 1 $ @ @ @ @ @ @ @ @ @ @ @ * * @ 4 4 4 7 7 7 7 4 4 7 i c D D b V n k z v D P P b b k i 7 k 7 7 7 4 7 7 8 k k k n n v P I P J J J T @.@.` R P D D P R R Y Y R 7.0.7.6.` R P R ` 7.l.D.C.u.t.t.y.y.t.t.t.u.v.v.v.N.V.C.u.{ t.v.H.&XA..X>XJXGXGXGXGXSXBXFXFXFXkXMXnXjXNXAXDXAXGXNX<XG.Z.Z.K.K.D.v.0.7.k.l.jXFXGX#XH.mXkXhXH.n.XX:X>X>XjX>XkXJXBXkXfXMXHXjX<XfXAXjXV.F.J.V.n.l.5.                                                                                                                                                                                                                                                                                                                                                                                                                                                                                                                                                                      ",
"                                                                                                                                                                                              +.+.$.K D Y K S d f S S G S G K K Y R ;.-.T b b P P E P D K -.+.H S v i i c i D k c c k v n v S v c v c i 7 d i 4 4 i i v k i i i i i 6 6 4 4 i 4 4 4 4 4 6 i i i i i k k H H S D n k 7 4 4 7 7 @ o . . < c +.d.d.$.@.@.;.Y 7 < < 4 7 4 < < * < < @ o O : < < 4 7 < @ O O - 4 7 i 7 1 < < 4 7 7 7 k k 7 6 < i v D G K K J c k k H S K Y G c f c S D D v n k 1 @ @ < < 3 8 t t e * @ @ @ @ @ O O O O @ @ $ < 4 7 3 7 7 7 7 7 7 s c c v k k i k v D J I U P V n 8 i n V n k k 4 4 i k b b v v v v P P D D K Y @.@.` R P W P P P R R R 5.6.6.6.6.' ` _ ^ ' t.a.C.a.] _ _ ] t.y.u.u.t.t.t.{ y.w.N.v.v.] y.C.K.z. X>XGXGXFXGXGXGXNXSXGXFXDXSXfXkXBXGXGXDXSXCX,XJ.N.G.K.J.Z.a.0.0.i.m.MXDXDXS.S.nXkXvXC.C.%X,XoX%XkXhXfXDXDXkXhXhXDXHXkXjX,XjXN.v.#XC.v.n.i.R                                                                                                                                                                                                                                                                                                                                                                                                                                                                                                                                                                     ",
"                                                                                                                                                                                            ,.Y O.D S S S c d c H G G H G @.@.-.K +.9.-.E v Y @.@.P D +.;.-.R Y S D i 6 c c v v v c k c v v K S S G c k i k i 7 < k k d v k k i i i d i i 4 i i 7 5 4 4 4 i i i i i k k c k k k k s i 7 : : < O . . + 7 Y d.d.E b M Y P i < < 4 7 4 < < < < @ O o o @ : < 4 < : @ @ O o : 7 i 7 < < < < 7 k d d k k d 7 7 k D Y K J D D v c c S G K K D c k k v S v k 7 1 < @ O @ @ * 1 0 e e q * @ $ $ @ $ @ O O @ @ @ < 4 4 < < 7 i i 7 7 i k d k i 7 i k c v v v v P V k 7 i k b P P V n i k v D R P Y P P P P J D G K Y @.5.` ` R R P P U R R ! ! R _ ' 6.` ` ' { ] ] t.t.{ ' _ Z U _ ] y.t.{ ] ' _ _ ' ] y.u.y.N.t.k. XkXGXGXFXGXGXGXSXAXSXhXjXAXMXnXDXFXSXGXAXkX%XG.Z.Z.XXJ.u.p.i.0.i.m.AXBXBX:XoX:XZXjXl.n.,X,X%XS.oX,XjXAXnXkXvXkXkXAXAXjX<X<XZ.v.G.G.v.a.a.7.                                                                                                                                                                                                                                                                                                                                                                                                                                                                                                                                                                    ",
"                                                                                                                                                                                          f.Y G D c c c c c G K O.-.Y Y $.@.@.K +.+.Y P n J Y G b n D Y Y Y v Y Y J d i c v c v v v c c G G S K K Y k c k c 7 k 7 k S i k c n n 7 i k k k i 4 i i k i i 4 i d k k k c c k i i i i 7 4 4 : @ O O . o @ z ;.d.E b n M P 8 < < 4 7 4 < @ @ < @ + . o O @ : < @ @ @ @ @ @ : 4 7 i 7 4 4 < 7 d k k k k k k k c c G Y K G S S c c H D G K G c c k k k k 7 < < $ @ @ O O @ @ @ * < 1 9 @ O @ $ < 7 7 < 1 < < 4 4 7 7 i i 7 7 7 7 7 7 7 7 7 7 i d d n v z z z v V k 7 s k z v M M n d n S Y R 5.R R Y D b J J G K Y +.-.q.q.5.R P P U R ! ` 6.q.' ' ` ' _ U C V V U _ ] [ _ Z Z Z _ ] ] ] ] { t.{ ] [ ' t.y.y.q.x..XBXGXFXGXSXFXGXFXBXDXhXfXkXAXBXBXSXZXFXNX<X%XG.C.K.J.Z.v.7.0.r.i.oXHXSXnX#X@XgX:X,XS.n.:X:XoX%X%X,X<XmXmXkXnXnXkXkXAXAXhXfXD.S.%XoXn.v.a.s.5.                                                                                                                                                                                                                                                                                                                                                                                                                                                                                                                                                                  ",
"                                                                                                                                                                                          ,.K k k S G S S Y ;.$.$.O.O.+.K D K S c v S v v k v n D Y Y Y P E J S v Y J d k v f c v S G c K K S G +.O.c c v n 7 i c c G i k c c n 7 4 c c v d < 6 k c c 7 < i c c S S c k c i i i i 7 4 < : O . . . O s Y ;.R b z k x n 4 * 4 8 7 < < @ @ @ O . . o O @ < @ @ @ @ @ @ < 4 4 7 7 4 < < 4 7 i d d 7 i k k c c v D D S S c v c c D S S S c k k c k i 7 < @ O @ @ @ @ O O O O @ * * * @ O O @ @ * < < @ @ < 7 7 k c k k i i i i i i i 7 7 7 7 7 i d i 7 7 i 7 7 0 7 d k k k b b k f c S J J Y Y P v n c v D G J K Y T 5.q.5.` I P P ! 6.i.i.w.] ` ' w.t.] _ Z C Z Z Q Q Q Z C V Z _ [ [ [ ' { y.y.t.{ w.u.] 0..XoXGXSXGXGXGXDXGXGXFXDXfXMXjXxXFXFXmXvXAXjX1XJ.J.J.J.K.v.p.i.` 0.z.hXDXFXGXxX@XMX:X,XG.l.S.S.G.>X<XfXhXxXmXfXjXfXjXkXvXAXnX<XoXV.>XoX#Xn.n.a.s.5.                                                                                                                                                                                                                                                                                                                                                                                                                                                                                                                                                                ",
"                                                                                                                                                                                        ,.K D G K K D G Y $.:.+.@.Y K H S f f f d c k D Y Y D K +.! T v v K T T Y S P P c c i v v J Y v K K S D +.+.n i v c k i k v Y k i c v n 7 4 i c v 7 < 4 d v v 7 - d D S G J c k k k k k k 7 4 < @ O . . . < D -.;.T P b 8 8 l 8 7 7 7 < < @ @ @ O O . o o O @ @ @ O @ @ @ @ < < 4 4 < - - - < 6 i i 7 4 7 d c c c c c c c k k c n c c c c k i i d k i 4 < @ O O @ @ O O @ O O O O @ @ @ @ O O @ @ @ @ @ @ - 4 7 5 k k k k i i d k k k M k i i i 7 7 7 7 7 7 7 7 7 7 i s s k k k k k k c S J J J P P v c c v v S D G J J Y ^ 6.` R P E ` q.p.V.y.' ' ] y.v.v.y.] _ U Q Q _ ] ' _ _ C Z _ _ Q _ _ ' y.t.t.] t.' x. XjXGXGXFXGXGXGXDXGXGXAXjXmXfXfXAXGXGXGXDX2XK.H.H.K.K.K.D.w.i.0.7.m.kXFXBXFXmXkXZXhX,X>Xl.C.J.S.,XfX:XnXBXvX2X<XfXfXBXAXBXmXhXXXS.,X>XD.V.n.n.n.i.R                                                                                                                                                                                                                                                                                                                                                                                                                                                                                                                                                               ",
"                                                                                                                                                                                      Y.,.K K K G J K Y Y Y $.+.+.;.+.S f c D G v n G Y Y D S +.@.T P D Y Y Y G P D D R b c v v v K Y n J O.D D Y Y v i k v k 7 i v G v i k v k i 4 7 k k 6 < 6 i v v 7 < i K G G G c k d c n n k 4 < : @ O O O < k Y ;.;.@.T Y k 7 8 e 8 7 7 < < @ @ O O O O o + O @ O o o O @ @ @ - < 4 7 < 4 < - 4 6 i i 7 i i k c v v c c c c k k c c c c c k s i i s i 4 4 < @ @ @ @ O O O @ @ @ O O O O O O O O O O O @ : 4 7 i c n n k i 7 < 7 i k c k k k i 7 7 7 i d d i 7 7 7 i d z z s k i i k k k c v D G Y Y Y P D D v v v v v v v v D R R U U U R t.y.u.u.] Q _ ] y.u.u.] _ Z V Z _ ] u.| { ] ' _ _ ] ] [ Q ] t.{ | y.6.x. XHXGXFXGXFXGXFXSXFXGXFXMXAXhXvXSXFXGXGXNXhX:XH.H.J.K.K.Z.i.7.i.k.V.ZXSXDX>X#XvXAXmXMX:Xl.l.:XXX:XhX:X%XBXDX1XoXjXnXbXSXAXvXkX:XV.S.XXG.D.n.V.n.l.7.                                                                                                                                                                                                                                                                                                                                                                                                                                                                                                                                                              ",
"                                                                                                                                                                                      ,.K Y G K G J +.;.;.+.K +.;.Y D v D D K v c G K Y D K G v D D W Y Y D b b c K +.-.P v c D v Y Y c S +.G v Y Y v i i c n 7 i n v v k i k i k 7 6 i d 6 4 6 7 c v i 4 7 v K G G c k s n c n 7 < @ @ @ O + < n P +.;.;.@.T J k 7 8 8 8 7 3 < < @ < < : < $ @ @ @ @ @ @ @ < < < @ > 4 i k k k i 6 7 7 d k c c n c S S S v S c H c v c c S S c c c k i i 7 7 7 7 1 3 1 @ O O O @ $ < * $ O O O O O O O O O @ < 4 4 i k k i i 7 7 i i f c v v k i 7 7 7 i k k z d i i i d n v b b v v z z n k s c v D J Y Y Y P P J D J D J J S D b P I C b n V V Z ' ] ] Q C Q Z _ ' { Q B m t B Z [ _ [ [ _ _ [ ] t.t.w.' ' w.' ` k.!.oXGXGXGXGXGXFXFXFXAXGXDXDXNXjXBXFXSXBXGXNX:XK.J.J.J.J.J.V.s.7.r.l.S.SXSXmXoX#X>XkXAXvX1Xn.n.:X<X2XkX2X>X,XCXnXoXoXBXHXnXDXMXBXS.V.G.#XV.V.V.a.v.n.s.5.                                                                                                                                                                                                                                                                                                                                                                                                                                                                                                                                                            ",
"                                                                                                                                                                                    h.T K Y -.-.K +.:.;.Y J +.+.Y D v c k d c c D S D n n Y Y G D S T P G D D v S K +.5.q.E v v S J Y c c K D S D G v d 7 k k i 7 k n c k i i i i i 4 i k 7 4 4 4 i n k 7 i c K Y G n k k n c k 4 @ O + @ @ < k J +.@.$.$.+.Y b i 4 7 k e 7 * < * @ : < < 4 4 < @ O - - > < 7 i < - < 7 d k v c i 7 4 i k v v D D D D D D G G K K K c c S D D D G G n k 7 7 7 7 7 1 1 * @ O O O @ $ 1 1 < $ O O @ < 4 4 7 4 < 4 4 4 4 4 : < 4 4 7 i i d c v v v v i 7 7 i k k z z z k i k c b D P P P b n n n n n n v D J J J J D D D S D Y R R ^ P P C C V M l e m B V C C m r l B C Q [ _ Z B Z Z U _ [ [ [ _ _ _ [ { y.t.] ] p.] k.$X<XGXFXGXGXGXFXFXSXDXDXjXjXBXDXGXBXSXGXDXjX1XK.K.J.J.C.Z.N.t.i.r.z.>XHXDXJXz.@XgXfX&X#XS.V.A.G.:XkXCXvXXX:X<X<XhX<XfXAXBXhXAXAXfXC.V.%X:XH.p.p.a.u.n.i.5.                                                                                                                                                                                                                                                                                                                                                                                                                                                                                                                                                          ",
"                                                                                                                                                                                    8.Y K -.$.Y ;.8.+.K v D c b D b v v v c c v D J v v Y @.T G S Y 8.-.@.Y E R T v D P ^ R P J v v K f k c v G v v c v 4 7 i k i i k k k 4 7 i i i i 7 k i < 6 4 4 k d i k c D Y G c k k c c i < O + + @ < 7 b T @.+.$.+.T D n 7 < 7 k k 4 < @ @ O @ - : < 4 < @ o @ < 4 4 4 4 : < 4 i d d k d 7 < < i c D J J D v v D D J K Y O.K c c S G G G G D c i 7 7 4 < < 1 1 $ # X # O @ @ $ < * O O O @ < 4 7 7 4 1 4 4 i 7 7 i 7 4 6 7 i i 7 5 7 7 k k k i i d d d d z v z n c D D D G P P b z k k v b c v S S D S b v c v D D J T E R U V M U U C Q _ Q Z B B C Z C B C B B C B B C C C C Q _ ' ] ] [ _ ' ] { ] ] v.a.6.j.@XbXBXGXGXGXGXGXSXSXFXvXhXmXjXnXSXAXAXGXAX2X:XXXH.J.XXZ.a.i.0.i.x.z.kXHXFXjXXX XgXkXhXn.Z.a.l.S.oX:XhXjX<XoXfX,X,XkXjXhXnX<XfXmXmXn.C.>XoXV.a.i.n.l.a.l.i.                                                                                                                                                                                                                                                                                                                                                                                                                                                                                                                                                          ",
"                                                                                                                                                                                  ;.+.K Y +.+.+.Y Y J D J b c n c J Y Y D n G G D c n Y Y Y W S Y 8.8.@.P Y $.5.q.R Y T R T T -.T S b d k k c c c v n k 7 4 7 i i k d d d u i i d i i i d d 7 4 i 6 i d d c c S D D c c d i i 4 @ O O @ @ 4 z P +.+.+.+.$.Y n 7 - < n v 3 < < @ O . O @ @ < < @ @ O @ < i i 7 4 4 < 7 k c d i 7 7 < < i c J K J b c c v G K K Y O.Y S k c G K D S v k 7 4 7 4 < * * * @ # # O O O @ @ @ $ O O @ @ < 4 7 4 4 < < 4 i d k k k i 7 7 i i i s s i 6 i i i d i 7 i d k z z v S G J G S D b n k k k n n n c c v v c v n k n v b v n n x n 7 0 k 7 e x B B m t m B C Z Q _ _ U Z Q Q [ ' ' _ ' ' ] ] { { ] [ ' { u.y.V.C.q.j.#XHXGXSXGXGXGXGXGXFXMXnXDXBXhXnXHXmXGXFXnX,XXXJ.K.J.J.G.t.7.0.r.l.oXCXFXGXBXjXn.>XfXjXXXV.V.l.n.XX,X<X,X:XXX,XkX,X<XhXjX<XfXkXfXfXS.v.XXH.v.t.p.n.C.V.V.n.7.                                                                                                                                                                                                                                                                                                                                                                                                                                                                                                                                                        ",
"                                                                                                                                                                                d.O.O.Y Y +.+.+.J b v D b D v D Y +.O.J v G v c c c G D K Y Y Y Y Y O.Y Y $.8.8.r.9.5.$.-.-.@.8.q.-.v d k d c k k v S k 7 4 i i 7 v c k i i i i c d 7 k c c v 7 7 k d c c v v c c c c k i < < @ O O @ @ : 7 J ;.@.T Y +.@.P 7 < < 7 n k < * @ @ o . . o @ @ - @ @ @ @ 4 i k 7 7 k i k c n k i i 7 7 i i c D J D v c k k S K K K Y K S c c S D S n k i < < 4 1 * * $ $ $ O + + O O O O O @ $ @ - 4 4 4 7 i 7 4 4 4 i d k v v k 7 7 d k v D S n k i i i i i i i d k c k c c c S S v D D v c v v v v n c c n n c k k i i i d 7 7 7 7 e 7 1 < 1 1 3 e r r 8 3 r x m V U C x x x U { { ] ' _ U t.v.Z.G.C.N.u.t.w.N.Z.e.r.x.J.HXGXFXGXGXGXGXGXFXDXNXAXkXhXMXFXFXGXHXkX:XXXJ.J.XXZ.N.s.q.0.k.l.oXFXGXFXNX:XS.%X,XvX:Xi.S.V.n.V.fXhX>X:XG.,XhX>X<XkXMXfXfXjXjX>XV.s.G.XXn.7.p.v.u.V.V.V.n.6.                                                                                                                                                                                                                                                                                                                                                                                                                                                                                                                                                      ",
"                                                                                                                                                                                ;.Y K Y +.Y Y J v c J D D v J K D K G D D v v D P Y @.T @.+.@.@.Y T Y R Y Y Y @.@.@.Y Y @.5.T -.-.5.E f f k H c k S G k i i i k 7 c D c d 7 d d c k 4 i v J v i 6 c v S S c S v c c c d i < @ o o @ @ @ < z @.;.P b Y 8.@.i < < 7 b s < < @ @ O o . . o + O @ < @ @ @ < 7 i i 7 k n v n k k i i i i k k k c c n c c k k H G G K G S c H c c c c 7 6 7 < < < @ $ @ @ O O @ O + O O O + O O @ @ @ < < < < 4 i 7 4 7 i k k n k 7 7 i k v D G D v k i i i k k v k k k d d d d k n c c v S S v k k n c v P P P P b n z z n b n 7 7 7 3 < < < < < < * 8 r e 3 3 8 9 e B Z Q B x m B Q y.t.y.y.[ _ p.Z.G.Z.v.y.u.N.N.i.e.r.k.oXGXGXGXDXGXGXFXFXGXSXDXCXjXkXSXFXGXSXBXhX%XK.K.J.XXJ.p.i.0.0.l.S.vXGXFXFXhXF.XXXXmXMXG.s.n.D.V.S.XXfX,X:XG.G.hX,X,XjXnXnXjXjXbXjXS.a.n.%XH.v.w.a.V.V.V.V.V.a.6.                                                                                                                                                                                                                                                                                                                                                                                                                                                                                                                                                    ",
"                                                                                                                                                                              $.Y K Y Y +.S D v c c c c S K D v G K D +.+.@.Y Y Y $.j.8.@.$.9.q.$.T P R T Y Y P P G +.$.@.5.-.@.@.5.R P f c G c c S G c 7 i d n i d D S k 4 i k S d 7 i c K K 7 6 c J J K v v D v S S d 7 - @ o o O @ @ 7 Y ;.T k n $.@.b 4 < < z s < < * @ O o . . o o O O @ - - @ @ - 4 7 7 7 i n k i d i 7 i i d k c k d k k k d k k c c S S c n c v v c n i < @ - @ @ @ @ @ O O O O O O . . . O O O + O O @ @ @ < : @ 4 4 4 4 6 4 4 i k i i d c v v v v c i i i d c v v M n d d c k v v c c S v v D n d k n v S D D P V n k k k v v M x e < < < 3 e r r e e 3 e t x x r e t x m V V m V V V Z ] u.y.t.t.y.V.Z.C.v.t.y.V.C.s.0.x.A.2XAXGXGXGXFXBXDXSXSXxXNXBXBXFXGXDXSXSXmX:XK.J.J.Z.J.D.p.w.r.r.l.#XHXSXGXDXhXF.oX>X<XjXn.i.s.S.D.l.S.%XoX:X:XS.V.,X<X<XfX<XfXnXNXvXkXn.a.:XD.V.a.w.y.n.V.n.V.C.n.                                                                                                                                                                                                                                                                                                                                                                                                                                                                                                                                                    ",
"                                                                                                                                                                              K K G Y $.G c k c G K K H c S K Y G D +.;.+.T Y +.$.$.@.+.$.8.8.@.Y Y Y @.P P n i i z c n D b U b b P P b v c G G c D K D 4 i k c i u S D c 7 7 k S i 7 7 c J Y k < d K J J v c v J D S d 4 @ o @ @ @ @ 7 b $.+.Y v n Y D 7 < < < 4 1 : @ @ @ + . . . o O O o O @ @ @ @ - 4 7 7 i i i 4 < i 7 i i i d k k k d d d k k k k k c c k d c v v c k d i < - @ @ O O O O # O O + O X O O + O O O + + @ @ - 4 4 4 4 6 4 4 7 u u 7 i i i 7 i k d i 7 i k c k k c c v c k i i i i k n c c c c c c k k d k n v b v v z V e 7 i 7 7 7 3 3 3 < * < * < 3 e r e 1 1 e B V C Z Z Z V Z Q _ ' ' ' ' ] ] w.] [ ' t.v.N.a.i.0.0.s.k.r.r.#XbXDXBXGXGXGXFXNXAXvXhXAXMXDXFXFXAXSXHXCX:XJ.G.J.J.Z.N.a.7.7.k.l.oXGXGXGXSX%XV.oXkX>XG.n.k.i.n.G.C.n.G.S.D.:X#XS.&XfXkXkX,X,XhXMXAXAXn.l.J.G.V.y.V.a.t.p.n.V.v.V.i.                                                                                                                                                                                                                                                                                                                                                                                                                                                                                                                                                  ",
"                                                                                                                                                                            +.+.K K Y $.v v v c K Y v S G K G S D Y +.$.@.T Y Y Y Y Y G Y Y Y D S G D n s z s k d k i i 7 d 7 i k z x V 7 c G G c v K D 7 7 i k k 4 c D v i 4 d n i i 7 i c S v 7 6 D K D S v c K K n 7 @ @ + @ @ @ 1 v Y @.+.Y b n n 7 < 4 7 < < < < @ O O + . . o o @ O O @ < < - - 4 i i k k i i 7 i n n c n k k k k k k k k c n k k k n c k c c c c k k k k k 7 - O O O @ O O O @ O O O O $ @ @ @ @ @ @ : 4 7 i i 7 7 7 i k n n n n k d i i i i 7 7 6 4 i k c v c c c k d i i k k c n n n n c k k k k k k k k k 7 i 7 7 7 4 : : < @ $ * $ @ $ < * 1 3 e x 9 1 3 8 t Z _ ' ' ~ B C ' w.w.t.p.u.w.w.t.p.t.t.w.i.w.w.w.7.0.i.x.j.0.A.xXGXSXDXSXGXFXSXBX1XfXnXjXDXGXFXGXGXSX<X%XXXJ.J.J.Z.y.] 7.q.k.S.kXGXGXGXDXF.V.F.vXhX%XV.l.l.l.G.#XV.C.S.S.>X1XV.D.fXfX&X%XkXnXmXbXkX%Xn.H.XXH.a.t.a.p.t.a.V.V.V.D.7.                                                                                                                                                                                                                                                                                                                                                                                                                                                                                                                                                ",
"                                                                                                                                                                          $.Y Y J @.Y S G Y S G O.D c S S v D K K Y Y T R @.@.@.T Y P D D S v v c k u k z n Y T Y Y Y P b b D k b J b C N b D D S v D D i 7 i i k i d S v d 4 i d i d i 7 d v v d i S K J J v v J K c 7 + + @ @ @ 1 z Y +.+.+.Y b k k s 7 i 7 1 < $ @ O O % + @ O o o @ @ @ < 4 < < 4 i d n v k 7 7 k c G J Y G b n d d n c k c D v c k c v v S G S d i d i k v n e < O O @ @ @ @ @ @ @ O O @ $ < < $ @ @ @ < 7 i k i 7 4 4 u k b W b n c k k k k k k k k i d c n n k d k c k c n k k c c v S D P D z i k k k v v v n z k e 8 8 e 3 < $ $ $ @ @ @ $ * * < < < < < 1 3 8 x Z ] [ _ Z V U _ w.p.y.7._ R ` t.r.i.w.7.q.0.t.w.0.r.j.h.k.oXSXGXGXGXVXSXGXGXDX<XhXkX2XSXGXGXGXGXNX:XXXK.XXK.J.Z.p.] ` r.l.#XJXGXSXFXMXA.V.<XhXnXhXs.l.l.A.D.%XG.l.S.J.G.,XoXD.,XfX1X:X&XbXDXJXfX1Xa.v.>XXXv.v.i.i.w.i.a.V.S.#X#X                                                                                                                                                                                                                                                                                                                                                                                                                                                                                                                                                ",
"                                                                                                                                                                          Y Y Y Y $.K S K Y D K K S S K K K K K @.5.@.T T 9.$.@.D D D D v k i i n n D Y $.;.g.k.W.!.x.x.W.j.8.k.0.5.7.` ^ ^ P v S S D v i 4 7 4 k k d c k k u i i i i i i i k v c d c J Y D S v S J k < @ + - @ < k P Y +.$.$.P n 8 s k k k 7 4 < @ O + + + + O o o O @ - < 4 4 < < > i c c v k 7 4 k G Y Y Y J D k 7 i c D D J J v k c D G D G G S k i i i k n k < @ O O O @ @ @ @ @ @ . O O @ < < < @ @ @ 4 7 7 7 7 4 : - 7 k S D n k k k c v v v v n k i d k c v v c c v D G J D v S D J J J D P n i i k k c n k 7 4 4 < < 4 e e e r e 3 $ $ < 3 8 9 9 3 3 * 1 3 3 8 e m Z _ _ U U U Q ] 0.t.7.` ` 5.7.i.i.0.6.q.0.i.i.e.0.g.j.0.V.DXFXFXGXGXSXDXDXSXNXMX<X<XAXFXGXGXFXhX:XXXG.K.XXXXC.i.q.0.r.z.dXGXGXFXAX:X.XoXhXvXmXG.s.l.l.n.#X,X%XV.C.>XoX&X1X#XS.fXhXkXhXnXkXNXnXjXn.v.XXoXn.t.w.7.s.s.t.n.n.D.%X#X                                                                                                                                                                                                                                                                                                                                                                                                                                                                                                                                              ",
"                                                                                                                                                                        $.Y Y K -.Y Y S K K K D K G $.;.;.Y T ;.d.$.Y +.;.Y G n v c k i k u S J $.h.W.!.W.W.Q._.!.x.W.Q.}.'.'..X_.!.z..X_.!.x.T v S D n i 4 7 < 6 d f f d k i i u i d d i i d k v k d b J D v v k v d > O O @ < 7 b Y +.+.+.;.Y k 7 s z z k 7 < $ @ + + . + + . o o O < 4 7 4 4 < - 4 i n c n k i 7 i D +.Y b v n 7 i d v D G K P v c c S J G D D c i i i k k i 4 $ @ + O O O @ @ @ @ @ + O @ @ @ : < @ @ @ 4 i i 4 7 4 : < 7 k v v k k k d k v v v n k i i d k k c c k c S D J D v S D v v z z z z z k i i 7 7 4 1 < $ @ @ @ $ * 1 e e r 1 * < 3 r t t t e 7 e t x Z Q Q _ ! _ ] ] ' ' ` R _ ` ` R U R ^ 6.q.6.' 6.7.0.i.i.i.g.j.k.1XjXSXFXSXFXFXDXNXSXVXCXhXkXVXNXSXGXNX,XXXJ.H.C.Z.G.V.i.7.0.x.A.MXGXGXFXSX#XA.>X,XhX1Xn.s.i.l.n.>XfXfXn.l.1X<X>X>X:XS.D.#XfXkXkXkXkXfX,XG.C.G.%XC.y.p.p.s.V.n.a.v.n.#X#Xi.                                                                                                                                                                                                                                                                                                                                                                                                                                                                                                                                            ",
"                                                                                                                                                                        8.O.Y Y +.Y D c K Y Y Y K +.d.d.@.$.,.;.T Y K D D c d 4 i u i s P +.d.h.W.Q.Q.Q.Q.Q.j.h.'..X@X X!.x.!.'._..X.X.X.X.X.Xx.Y n c i 7 < 4 < > i d k k k d k i i c k i k k c c c d k S v c v i 7 7 @ + O @ < k b Y $.+.Y Y b 7 7 k v b s 1 $ @ O o o o + o o o o O < 7 7 7 6 < < 7 k c n n c k d k c Y Y v n n k k c v G G G G S c k c D D D S c i 7 s v k 4 < @ O X . + O O @ @ @ @ O O @ @ @ @ @ @ @ < 4 i c d s i 4 4 7 d d 7 7 i k k d k c n k k d k k c c c c c c v c c c c n z d i 7 7 7 s 7 7 4 < * $ @ $ < $ @ @ @ $ @ @ $ 3 3 * $ < 1 e x B B e 9 e x V Q _ ` U V P R 6.q.6.` _ R _ _ ` ` ` ` ` ` ` ` ` q.i.i.i.k.0.j.,X2XkXCXSXFXSXSXSXMXhXCXBXMXSXFXxXCXHXkX:XK.Z.C.C.C.v.v.i.0.k.z.#XHXFXGXSXHX,XA.oXnX:XS.i.s.l.k.n.:XhX:XA.l.l.oX1XoXG.#XG.XX%X,X1X1X,XhXMXjXp.n.>XC.t.' v.V.i.V.n.s.a.V.XXJ.q.                                                                                                                                                                                                                                                                                                                                                                                                                                                                                                                                          ",
"                                                                                                                                                                      h.+.Y $.T Y Y k K G K O.K +.8.,.+.Y Y Y Y J c k i 7 7 d v K $.j.z.x.h.h.Q.E.f.f.,.;.$.@.T 8.I R R 9.d.8.d.d.h.x.+X@X@X XS.q.D v 7 4 : 4 4 4 u i c S c k i n d S c i c S G D c c d c c k k d 4 < + X @ @ 7 b M Y $.;.P b z 7 4 k b W 8 < @ O . . . + + O o o o @ - 4 4 6 7 7 i k k k k k k d k k c G D n c n n n v D G G D S c c c c v v c c c s 7 i i 4 @ @ O O O + + # O O O O O + + O @ @ @ @ @ < < 4 i i 7 i i 7 4 4 4 < 4 u i k s i i d k n v G K J v k d c v D J J D v c k d i i i 7 7 7 4 4 7 e 4 < < @ @ @ @ @ @ @ O @ @ $ * $ @ $ * * 3 r r r r r x V Q _ ' U P P R ` 5.6.q.` R R R ` q.7.q.q.6.` ' ` ` 6.i.i.k.r.l.#XHXSXSXDXSXGXDXDXnXhXDXAXDXGXFXvXCXVX<X%XK.J.V.V.C.p.w.0.i.k..X<XmXGXGXGXmXjXl.oXmXhXoXk.k.l.l.n.:X,X,XoXV.n.D.#XoXS.V.J.oX%XhXjX<X,X>X<XkXS.p.:X:XC.p.w.p.7.i.i.i.t.n.D.#Xn.                                                                                                                                                                                                                                                                                                                                                                                                                                                                                                                                          ",
"                                                                                                                                                                      8.O.+.@.@.J v G G G Y Y G +.$.+.Y +.+.Y v k 7 < 6 d Y 8.x.W.Q.W.!.W.'._.!.d.d.2.8.d.8.8.$.@.;.$.8.d.h.k.9.-.-.8.8.` w.s.s.k.T v k 4 - 4 i 4 d i k S G n 6 c S J c d c G K K n c c v v k i 7 4 < O + < 4 k P P Y @.:.Y b 7 < 7 k M k 1 @ @ o . . . o @ O O O @ @ - < < 4 4 k z k d d i i i i i d c v n k k c n c v D S c c c n c c c c c k d d d 7 < @ @ @ O O O O O O O + + O O # . . + O O O @ @ < 4 4 4 4 4 < 4 4 < 4 4 6 d c k k i i d d k v v J Y D v c c c D D J J b n d i i d k d 7 4 7 7 7 7 7 e e e @ @ @ 1 3 1 1 $ $ @ @ $ 1 1 * < < 3 3 e x x x M M V P I U P E R R ^ ` 5.` ^ ` q.7.7.q.6.` ` 6.q.7.7.7.e.i.r.g.r.fXDXGXGXFXSXSXVX,XoXMXMXjXNXDXAXSXHXNX:XK.J.Z.H.C.y.t.w.6.0.k..XfXGXGXSXSX:X$XZ.jXnXMXhXl.l.l.z.A.%X>X%XoXD.l.l.%X%XJ.C.S.XXXXoXMXjX>X>XkX:XC.n.%XG.v.p.p.7.w.' 0.l.i.a.C.oX#Xn.                                                                                                                                                                                                                                                                                                                                                                                                                                                                                                                                        ",
"                                                                                                                                                                    8.Y K @.T +.v v Y D K K G G Y Y Y +.;.Y k 7 d 7 J +.h.E.Q.Q.f.Y.E.E.h.d.R ;.2.;.8.d.E P n k n P P P W P P Y R T T T R R R R r.8.Y v 6 < < n k k i k c Y c i k S K v d c S G Y D c S Y D k 4 4 < - < O < k b P Y Y +.;.Y z 4 < 7 b x 7 * @ # . . . . o O O o O @ @ : < < < 7 k k d i i i 7 i 7 i k d k i i k k k c c c c c c c n c c c c k i u u 7 4 - o + O O O O + X O X . . . . . . . o + + O @ - : < 4 4 4 6 4 - < < 6 i v D D v c n k k k k v b D D D v v v S D G G v k d i i k c z k e 4 < < < < < * * @ O O O @ $ 1 8 8 1 @ @ < 3 e x V V B l x C U U I U U R P P P E E P P R ` ^ ` q.0.7.7.7.q.` ` 7.0.i.i.t.i.7.0.g.0.G.ZXGXFXGXGXSXkXv.V.vXfX2XNXjXvXSXDXjX:XH.H.B.C.Z.u.] ` 7.r.x.F.MXGXGXGXkXA.$XoXmXmXmXV.k.l.l.x.m.%X>X#XD.S.n.s.l.G.%X%XS.S.G.oX%X>XhX,X<XkXkXa.V.%XC.w.7.q.q.w.t.t.V.F.V.#X%X#X0.                                                                                                                                                                                                                                                                                                                                                                                                                                                                                                                                      ",
"                                                                                                                                                                  Y.+.Y Y Y +.J b Y Y K G S K Y @.O.O.+.P d c v Y 8.W.Y.Y.Q.W.d.;.,.;.;.:.@.$.$.+.Y n s 7 3 3 3 1 1 8 8 3 8 7 8 e e e k k 8 7 7 k l Y D i 4 - i G S k i c D D k k S S c c d c D Y D c S Y J i < > > @ : @ 4 k b Y @.Y O.8.Y 8 < 1 e k 7 < @ o . . . . . o o o o O @ - < 4 4 7 i i i i i i i i i 7 d n k i i d k k k k c H H c c c c c c c c i u i i 4 < @ O O O O @ @ O O O O O O O + + + + + O @ - - < 4 4 4 7 i k k 7 4 6 i v J T Y v c v v k k c v v v k c v v c c c d d d i i 7 7 7 7 7 * < < % @ @ @ O @ @ @ O O O @ $ $ 8 e 8 3 * < 3 7 x C C V M V P R ` 6.7.` R U U R R R R R R ^ 6.q.5.6.5.7.7.q.` 5.6.0.i.s.u.t.0.q.j.i.p.oXHXGXFXFXFX%Xw.J.<X,XjXnX:XXXBXmX,XK.Z.N.V.C.C.p.] ` 6.k.z.#XFXGXGXGXdXD.#XdXfXkXJ.V.i.l.l.x.n.XX>XG.V.F.S.l.s.n.oX:X:XA.S.D.oX&X<X&XXX#X:Xn.p.>XH.t.` 7.7.7.i.n.a.t.s.V.oX%XG.5.                                                                                                                                                                                                                                                                                                                                                                                                                                                                                                                                    ",
"                                                                                                                                                                  ;.K O.Y T +.v D K K K D D K ;.$.O.Y D i c d.Y.W.Q.E.'.!.d.8.d.d.d.8.8.;.T Y c k 7 7 < 7 7 7 4 < < 1 < 1 4 4 1 e e 7 6 e 4 @ @ < 3 e Y k 4 - 7 c P v d c D b c k S S S c f c v D D k H G J 7 - + @ < < < 7 n P @.Y M P $.Y 1 < 1 8 7 * $ O . . . o . . o @ @ @ @ @ 4 7 i d k d i i i d k c c k 7 i k k k k c c c k c S S S S S v c f f c c c c n 7 < < @ @ O @ < $ @ O O O O @ @ @ O O O O @ - 4 7 4 7 4 4 7 i n v b z i i c S P Y v k c c k k d k n n k k c v c c c c c d i u 7 < : @ @ @ @ @ O @ @ @ O O O O O O O O O O O @ $ $ $ < 1 3 e V C U V b J P R ^ ^ R R R E E R ^ 5.5.^ ^ ` 6.6.6.6.` ` ` ` _ _ R _ ' p.a.t.` q.k.S.jX%X%XjXSXGXHXjXN.t.C.%XmXjX:XJ.fX2XXXG.Z.C.v.u.n.p.] 6.6.r..XgXGXFXFXGXBXk.#X>XMX,Xn.i.i.s.l.l.l.#X,XoXA.l.V.n.n.n.D.oXoXJ.l.n.XX:X,X,X#XV.>Xn.a.oXV.p.' ' i.s.t.t.s.p.t.p.S.oXJ.n.                                                                                                                                                                                                                                                                                                                                                                                                                                                                                                                                    ",
"                                                                                                                                                                h.K K Y T +.K D G K K Y K G $.+.O.K n v G Y.Q.`._._.d.-.T 8.f.8.d.;.Y Y n v k 6 > 4 6 4 4 7 7 7 i k k k 7 4 4 4 8 e 8 s k l 8 4 4 7 x V n 7 < 4 k S S v k c v v c c v S v c k c c D c k c n 7 @ + @ 4 4 4 7 b @.-.P M M @.k $ 1 1 1 < $ @ . . . . . + + o @ < < @ - 4 d k v S k d i d n v D S c i 4 7 k c H D G S k c S D G D G G c f f v v v D k : O @ @ O O @ * * @ O O O O @ $ @ @ O O @ < < 7 i k 7 4 4 i k v n n 7 7 d v J b v 7 7 i i i i i d n n c v v c k c v S S i 7 4 4 < < 3 4 * % @ @ @ @ @ O @ @ O @ @ $ * $ - @ $ < < 7 3 4 7 7 k z v v v v v J P P E U U U E R 5.q.q.^ R ^ q.r.i.i.i.` ` 6.7.0.w.w.w.w.p.p.' ` i.G.MXAX:X2X<XCXDXvXkX1XG.hXHXHXhXK.hX1XG.C.N.C.C.u.] i.i.0.q.k.A.nXGXGXFXDXkXC.l.AXBXmXi.i.l.m.l.l.l.S.%X%XS.z.A.A.A.G.oXG.%XS.n.i.s.fXvXkXoX%X,XhXn.G.%XS.a.7.` i.a.7.q.w.6.w.a.S.G.G.0.                                                                                                                                                                                                                                                                                                                                                                                                                                                                                                                                  ",
"                                                                                                                                                                ;.J O.Y ;.+.D D K K O.T J Y G G n d c $.h.Q.`.W.;.-.$.d.8.;.8.Y b v v v d 6 6 6 4 7 7 7 7 d k i c D P I M n s n b n v P P I R b v b C V b i < 4 k k c k k c c c c k c S S S c c v S D k i k 7 @ + @ 4 7 7 k V 8.d.Y b M b 8 1 8 7 < $ @ # . # X . . O @ @ < 4 < @ < 7 k c S S c i 4 i v K J S k 7 < 7 d c D J K S k c S K G D S S c f f c S S n < O o o O O O @ @ $ @ O . # O @ @ O O O O < 4 7 7 i i 4 4 7 d k k k k 7 7 d v J b k i 6 i i i i i d c v S S v k k v D D k 4 > - > @ @ @ % @ @ O O @ @ < * @ O O @ $ < e e l e 8 7 e l x b b M V b v v b M J D b D P P P P P R R ^ ^ R R -.q.r.l.s.0.` R 6.i.i.a.n.p.w.' ] y.` i.XXHXAXvXjXvX2X,XG.>XMXjX1X>XHXFXDXjX%XZ.C.N.N.C.N.] _ 7.k.k.x.z.HXGXGXSX,XF.z.<XjXAXnXe.0.i.l.x.x.s.V.G.D.D.l.l.S.oXD.D.A.D.S.#Xn.l.V.G.:X2X<XMXNXa.V.:XS.i.e.7.' ' 7.q.7.0.7.s.n.S.G.G.0.                                                                                                                                                                                                                                                                                                                                                                                                                                                                                                                                ",
"                                                                                                                                                              8.K G Y T @.K v D K Y O.K G D S u k D d.Y.f.d.f.;.;.@.T Y P b z k d 7 7 i 7 i 7 7 i k c v v n k c S D Y R R Y P P Y Y Y +.@.5.0.5.R P R E P c 4 < 7 d k i i k c k S c c S S S c c G S S c 6 4 < @ O @ 6 7 0 b T ,.d.Y b n e 1 7 n 8 < @ # # # O o . . O - 4 7 4 < @ < 7 k c v v c i 4 7 c K J S k 4 4 i k S G J J v n c S K K G H c c c c v S n i @ O O O o O O @ @ @ O # O @ @ @ @ @ @ @ @ < 7 7 i 4 4 < 4 i k n k 7 i d 7 d c v v k i i f c k p f k v D G S c k k S D k < < @ - < @ @ @ @ @ @ O O O @ $ e 1 * @ @ * < < 3 8 3 4 7 7 k v b M b v n v J P P P P P P P P I P P P P P U P P E ^ ` 7.t.q.R R ` t.p.u.y._ ] t.{ _ U 0.K.ZXGXSXjXjXhXp.s.MXDXBXkX1X,XmXDXMX%XC.N.C.v.t.u.w.R R q.k.z.#XDXGXGXmX:Xx. X&XmXmX>Xi.0.i.l.z.z.S.l.l.n.V.A.l.i.C.G.#XD.S.A.D.J.V.l.G.oX:XjXBX2XC.p.:XS.p.` i.t.7.7.' 6.i.t.t.t.V.D.oXG.                                                                                                                                                                                                                                                                                                                                                                                                                                                                                                                                ",
"                                                                                                                                                              ;.K K T @.J b D O.Y Y Y K G G s d $.d.W.E.,.>.$.d.@.J v b S c 7 4 > 4 i 7 7 7 4 i v J K Y P D K Y R Y +.T Y Y @.@.5.-.Y Y R R T R Y Y 5.! T Y i < 4 i k d i k c S v c H S K S c v K Y c k i < @ @ - > 4 8 k P ;.2.>.$.P k k k n k 7 < O # # # O # o o o @ 7 i 4 < < < i k c D S k d i i k v b c k d i k c G J D v c c c c G G G S c f c c S v k 4 < @ O O O O O $ @ O # # + O @ @ @ @ @ $ < < 4 7 4 < - < 4 7 d k 4 4 4 7 7 i i d k k i c v v d i k c S D S v k i k v S k 6 7 - - @ @ O O O @ @ @ @ @ @ @ * < $ @ @ $ < < 7 e k k i k k n b P b v v v D W P Y R Y P P P P R R U P P U U U I U U U Q ' _ Q U Z _ ] ' C m Z _ ' q..XjXSXFXGXFXvXC.i.>XvXvXAXAXoXjXkXhX<XXXZ.a.N.C.y.' Q _ R 5.0.m.hXMXGXGXBXV.A..XdXkX#XA.l.k.q.k.A.A.z.S.l.l.l.V.S.l.i.a.n.V.D.#XoXoXF.l.Z.kXjXkXkXnXH.v.:X%XV.i.] ] w.` 7.w.7.w.a.a.p.S.G.XXV.                                                                                                                                                                                                                                                                                                                                                                                                                                                                                                                              ",
"                                                                                                                                                            ;.+.D T @.O.c c +.O.Y +.+.S S v c ;.h.Y.W.d.:.,.8.T D k k S v i 6 6 i i i i i s i d n c v v b Y Y Y @.@.@.T Y Y @.-.q.5.^ T R -.R R T -.q.q.R T D 7 6 k k k d d c G D c S K K J c D Y $.D 7 7 < @ @ < 6 7 e z T ,.d.,.;.D s 8 n b k 7 < @ . # # @ O O + O @ 4 i 7 < 4 4 k c S S c k d k i i k d 7 i k k c v D D v c c k c c S S S c f f c c c k 4 < @ @ O @ O O O O @ O O O . + O O + O O @ : < 4 4 < - - < < 4 7 < @ 4 4 d k d i 7 d i i v J b k i k S D S n c k k k k c 7 < 4 < @ O O . . # O O O @ @ O @ @ @ $ $ @ < 4 4 7 i k k i k k n n v D v b D D P E T R R P W P E 5.5.` R U U ` ` ` ` ` U U _ ' U V m V C C V x t M 5.r.l.MXHXGXGXHX:Xw.` kXkXhXjXjXG.hXnXhX:XZ.Z.V.v.v.u.' R R 5.q.i.D.MXGXSXGXAXi.r.oXjXhX<Xl.l.z.l.0.i.V.A.A.l.l.l.l.S.G.l.i.s.l.l.n.S.XX#Xl.V.>X<XfXkXCX<Xu.H.>XZ.p.t.7.' ` ' i.i.w.7.p.a.p.D.oXXXe.                                                                                                                                                                                                                                                                                                                                                                                                                                                                                                                            ",
"                                                                                                                                                          f.+.Y J -.;.D d G ;.K Y +.v S S K h.W.W.W.d.8.,.@.P v 7 7 v D v k 7 i k v b n k c v D G G J E J D G K Y T Y Y T Y Y T @.-.R Y T 5.R R T T 5.5.R E Y k i k v v i k n D S k c K Y K v D Y $.b 7 < < @ $ < 7 k z V +.,.d.d.@.b 7 7 x x 8 1 @ O # # # O @ @ O @ @ 4 7 4 < 4 i d k c c d d i i i i i 4 4 7 i k n c c c c c k d k c c v c d i k c c d i < @ O O O O @ O + + O O # O o . . . . o o @ @ < < < - < < < - < < < 4 7 d v v c k d d i f v D b c k k S v k d i d i i 7 4 @ @ @ @ @ O # # O O O O @ @ $ $ $ : < < 7 k k k v v z n v v v v v b b b b v v v b v D P P P P P R R _ 6.` R P R ' w.] Q V V U ' ' _ Q Z C C V x r b q.k.n.%XkXFXGXGXhX] Q v.1XkXmX,XZ.Z.MXkXJ.Z.N.N.V.N.v.] I R @.q.k.oXFXGXSXDXjXs.6.s.AXMXnXl.k.z.A.A.A.s.V.l.z.n.n.i.s.V.A.A.n.x.l.l.n.XXH.p.l.Z.<X<XhX,X>XC.p.:XJ.w.' 7.' 6.7.7.t.n.i.w.w.] n.G.XXG.7.                                                                                                                                                                                                                                                                                                                                                                                                                                                                                                                          ",
"                                                                                                                                                          ;.O.D T T +.G D +.Y Y O.S c v $.W./.Q.`.8.d.d.P J c i 5 7 c b v c s k D Y Y D v G O.Y @.@.T Y Y Y D G P Y G T 5.5.T Y P P P Y @.5.5.T Y Y T R Y Y E n i k v D i k v D D i c S Y Y S S Y +.v 4 @ @ < < < 7 z P T +.$.d.f.@.b 7 7 l k 8 * @ . . O o o O @ @ @ @ < 4 4 4 7 i d k k k k d i i 7 7 4 4 i i u i c c c c c k k k k k c k i i k c k d i 7 < @ O + o O O @ O . O O o O O O . . . + O @ @ - < < 4 4 < 4 < < < 7 k n v c v v k k d d d c c c c k k k d i 4 i k 4 < < @ O O O @ @ O O @ @ @ @ O @ @ * 1 8 8 4 i k n b b b v c v N J P P P P D v v P P P Y Y P M J P P P b n b U V V b M V C Z V x e x m C Z Z B t x V B r V 9.x.l.kXhXjXvXHXFXv.U ' t.2XnXkXs.v.jX1XXXZ.v.y.y.v.p.` U R @.0.l.&XGXGXGXhXoXz.k.J.kXnXC.i.l.A.A..X.XS.S.A.l.l.V.V.k.k.s.l.S.S.s.S.S.V.G.l.i.l.XX2XfX:X%XG.a.:X%Xv.7.' ' 6.w.t.t.t.p.w.w.t.w.S.G.G.D.                                                                                                                                                                                                                                                                                                                                                                                                                                                                                                                          ",
"                                                                                                                                                          ;.G G Y Y K c Y +.Y $.Y D P j.Y.f.E.h.@.d.8.Y G k i k i i d k n f c D J K Y D K +.$.;.8.$.Y Y 8.@.O.T J J Y Y T @.@.Y P D D D @.@.-.T T P P E P Y Y P 7 k n D i k v G K k k c K +.J S J K k < + : 4 4 1 k Y ;.;.T @.f.h.Y k 7 1 8 8 1 @ O # . O o o O @ @ @ @ 4 7 i i i i d k c v S c d i i i i i d i i i i n v S S S c k k c k k k c v k i 7 d i 4 < $ O o o O O @ O @ @ O O O O O O - @ @ @ - < 4 i i 7 7 7 4 6 7 k v b n d k v v v k d d d d i d k k i i 4 4 i 7 < < 4 < < @ O O O @ @ @ @ @ O O @ @ > 4 1 7 7 k v D P U P J v v b D J P P J v v v J Y T R R P b b V I I P V x x l e 7 3 3 8 e t e 8 e e x Z C x e e x x e P q.x.v.fXZXAXhXfXBXmXvX] ] ' { V.J.kXkX,XK.G.v.t.{ ' t.` R R =.q.n.nXmXGXFXS.l.A.@X:X:Xl.l.i.k.A.A..X.X.XF.F.S.A.s.l.s.x.l.A.l.l.k.i.n.l.n.n.s.l.S.<X<XXX%XhXV.C.%Xn.w.` ' 6.6.w.a.n.7.t.7.7.7.w.D.G.G.n.                                                                                                                                                                                                                                                                                                                                                                                                                                                                                                                        ",
"                                                                                                                                                          $.Y P Y K v K Y K T Y J @.W.E.d.,.,.;.;.@.b D H c D k i c S H f i S v v Y @.T K O.+.+.+.K +.8.8.$.+.G G K Y f c v n c D D P k v D P C n k v U b z n P i 7 n c b n c G K S k k D T Y D D D k : o @ 7 7 8 b -.Y.j.T @.d.f.@.k 4 1 7 7 < O O . . o O O @ < - - 4 i i k k i i i c D K Y D k i i i i k d i 7 7 k c G G K K S d i c c c D J S i 4 i k k 7 4 < @ O o O O O $ @ @ @ O O O @ @ < < @ @ @ 4 7 d c k i 4 4 i k z b v k k k k v v k d d d i d d d d d i i i 4 4 < : 4 7 4 < @ O O O @ O @ O # O O @ @ : < k s n D D P P P D v v v S D J J J D D D P E R U I M n z v N Z Z Z x k r r 8 8 3 3 9 3 3 3 3 8 8 r B x t e e r e P 9.k.v.Z.>XmXMXfX#X>XAXMX_ { { y.a.MXnX%XG.C.C.u.w.Q U R R R 5.q.n.ZXHXAXFXoXi.x.&XbXmXl.r.l.l.i.i.C.S.z.A.F.F..XS.n.l.i.k.n.S.A.n.s.l.n.n.n.l.k.l.oX:X<X:XkXa.p.XXy.w.' ` w.i.t.0.i.t.7.t.w.7.i.s.G.D.H.e.                                                                                                                                                                                                                                                                                                                                                                                                                                                                                                                      ",
"                                                                                                                                                          +.Y Y Y v v Y J Y +.v G Y.Q.h.$.:.8.;.P D c k G J v c k D Y Y D G Y Y Y T T J J S K Y Y K +.+.Y Y S S K Y Y Y D v n n G K Y R P v n z k k n U C z i V b 7 i d c c k v D c k k v J J S v n s - @ @ 7 k k P f.Q.Y.$.,.d.;.P e < 7 7 4 < @ O + . o @ $ < 4 < < 7 i k k k i i i c G Y Y v i 4 4 i i d i 7 < < i S K Y K K G k i c S G K J k < 4 i k 7 < < $ @ O o + O O @ @ @ O o O @ @ @ < < @ @ @ < 7 k c k 7 * 6 d k n n k k i d d c v k k d d c n k k d k k c 7 < < - < 4 4 < $ @ O O @ O O @ O O O @ @ - < 7 z z v v D J D S v v n n v v v v v v v J J P b b I V b k k k r m r 3 3 3 e r r r e 8 e e e e 3 7 8 x t e e e e x -.j.a.K.%X<X:Xv.Q A.,XFXSX%X{ v.G.%XkX2X%XH.v.N.v.t._ P P R 5.0.7.V.1XHXFXBXnX` 7.0.MXnX,X0.k.A..X$Xl.n.A.l.x.l.l.A.#XS.A.l.a.v.H.D.G.i.s.l.l.s.m.s.l.>X>XvXCXV.u.XXa.' 6.7.' 7.a.p.' ' ' q.t.q.0.i.V.G.D.D.                                                                                                                                                                                                                                                                                                                                                                                                                                                                                                                      ",
"                                                                                                                                                        f.T D $.Y v D J T Y K J Y.W.W.-.;.h.d.P Y Y s G $.D c c G K Y T P +.;.$.T Y K T 5.T Y G G K v c S v v G D Y Y D b n v v c v b E C b n z 8 s b U _ C x n n 7 4 i i k k k c c k k c c S v d i 4 < < < 7 z z P f.E.U.T @.;.-.P 8 < 7 7 * * * @ O O o - < 7 7 < < 4 k c k k i 7 i c S J S k < - 4 7 i k i 4 < < i H Y Y K G S c k c S J K D i 4 4 7 i 7 < @ @ @ O O O o O O @ @ O . o @ - < < < @ o @ 4 i k v k 7 7 7 k z z z k k k c c v c c c c v D n k d k c v k 4 @ @ - < < @ @ $ @ O O @ @ @ @ @ O @ < < < 7 i k n v v v v v v n n n c c c n v v v b b n n k k n e 3 3 < < < 9 e 3 1 1 3 r r e 9 3 3 e e r e e e r e t t e e P -.g.V.nXvX<X<X_ U w.vXAXDXjX_ Q u.jXMX:XG.C.v.u.v.t.` I P R -.e.m.%XkXbXNXjXl.l.e.w.N.vXoXi.r.l..X X.XA.A.A.A.l.i.l.A.D.A.A.A.S.S.V.l.k.e.e.s.s.l.S.V.S.>XhX2X:Xp.C.G.w.6.w.t.w.' p.w.` 7.7.7.i.s.p.t.F.G.H.D.                                                                                                                                                                                                                                                                                                                                                                                                                                                                                                                    ",
"                                                                                                                                                        8.Y Y $.J c K Y T J D Y.h.h.8.8.d.8.P Y K c k Y S c S c c G #.+.+.+.$.;.Y K +.8.j.8.Y D K Y G G v n c v k v v n k n D P n k k b n n D R Q z k V U V n M ! b 8 i d d c k v c c k k c c c k 4 - - 4 7 k b N +.2.T.d.Y v @.;.P 8 7 7 < * < < < O O . @ 7 s i 7 7 i c c c c d i i f c S c i < - 4 7 i k i 4 7 i i c G Y K G v c c c S D S c i 4 < 4 7 4 < @ @ @ O O O O O O O O O O O @ < < < < - @ < 4 i k d 7 7 7 7 z k k n v v v v v c c c c b J b k i 7 d k k s 4 @ @ @ @ @ @ @ @ @ O O O @ O O O @ < 4 4 7 i i z v v v v D D v c n v v v n n n n b P P C U m e 7 8 8 3 < * * * * < < < 1 1 9 3 9 1 3 3 3 r t r 3 3 e B V V e P 5.x.V.BXAXBXkX] C k.<XnXMXMXy.Q Q <XkX:XG.v.u.u.u.] _ U P R @.q.#XvXJXHXvXa.7..X>X<Xu.w.i.i.k.r.k.A..XS..X.X.XS.$Xl.l.n.n.l.l.S.J.D.l.z.A.l.l.l.s.l.D.C.%X%XD.%Xu.Z.:Xv.i.` ' a.w.' ' ` ` ` 7.' w.p.7.7.D.H.G.n.                                                                                                                                                                                                                                                                                                                                                                                                                                                                                                                  ",
"                                                                                                                                                        $.Y $.Y D S T T Y v @.W.g.R f.d.I P G Y i i k k i S G K Y +.:.Y Y Y +.Y Y K $.;.@.P G K Y Y T J c S P Y Y D n b D Y T R E M b b s v Y 6.i.` M V C M b P 6.6.b i v d S c H G H d k c c c d < @ < 4 i k P @.@.2.f.d.J z Y @.b e 7 1 < * % < @ O O O O 4 s s i i k c H H c k d f k c c d i 4 < 4 4 i 7 4 4 7 k i c S G K D S c c v c c k k 7 < < 4 < < $ @ @ @ O O O O @ O O O O @ @ @ < < - < < < < < 7 7 4 < * 7 7 k 7 0 c v v b v v d k c v D b n k 7 7 i d i 7 7 < $ @ O O O O O O O O O O O . @ < 7 7 s k k n c v b D J P P b v v v v D b n k k k k k e x 3 < < 3 8 e r 9 1 * * < < < < < * < * < 1 3 3 3 l e 3 8 8 e B V x R 9.k.XX2XVXAXMXZ.V U %XhXMXJXK._ ] u.<X:XK.C.u.y.t.] R P R R 5.7.l.2XHXJXhX6.=.x.kXMXnXw.0.l.l.z.k.i.l.k.l.z..X#X.XA.l.s.n.l.l.s.D.S.m.z.m.m.l.A.A.n.V.D.n.G.V.#Xn.p.K.v.v.t.' ' 7.' 6.7.` _ 7.p.7.' 7.` i.D.D.D.0.                                                                                                                                                                                                                                                                                                                                                                                                                                                                                                                ",
"                                                                                                                                                        ;.T +.G v Y -.Y D P Q.W.5.8.T b P v D k i c k S Y K G $.Y +.+.Y $.8.+.O.@.G D Y O.Y K Y G K D S G O.5.=.5.R Y Y Y Y P @.5.R P R P v v P 5.7.U V R ` P P ` t.R k n c c K v K S k d c S k i 4 < 4 7 z b Y d.d.f.d.d.Y k z Y n e 7 < < < @ @ @ O O O @ < 7 k k k c H H c k k d d k k i 4 4 4 < < < < < < 4 4 i d c c S D S c v v c k i i i 7 < < < @ @ @ O O O @ O O O O O O o O @ @ @ - - - @ > < - - > > < < 7 k k n k 7 d c v b b v k d c D D v n i 7 7 i 7 4 < < < @ O O O O O O O O O O O O @ 7 7 i n S D D S v v D D Y E P v c v S D P U b k 7 4 < < 1 < $ $ * * 1 1 8 1 * * * * 3 3 e 9 < * * < 1 1 1 3 8 9 3 3 7 e e x b -.8.r.K.:X<XvXjXN.C C U v.NXHX:Xi.i.%XK.G.Z.N.v.N.t._ P P P ^ 0.s.n.G.:XkXXXw.! e.v.jXbXi.0.e.x.A.S.A.z.z.x.l.z.S.A.A.A.z.n.S.l.i.i.a.l.z.A.A.z.l.l.l.Z.G.V.s.D.%XK.v.H.V.y.t.w.' ' 6.` 7.w.7.` ` 7.` ` q.q.V.D.G.D.                                                                                                                                                                                                                                                                                                                                                                                                                                                                                                                ",
"                                                                                                                                                        8.@.Y k G @.J K J h.Y.8.8.D v v b b v v c k S Y Y b K +.Y +.Y +.d.x.g.@.Y @.T O.@.Y W n D K D G Y 8.8.5.! Y Y T 0.@.@.R R R Y T R 5.T Y R _ I Y @.0.q.R _ ] _ b k v c G S G D c i c v d 7 7 k 7 7 b P @.d.Y.f.U.8.P k k P b 8 < @ @ @ @ O O O @ @ - < 7 i d k c c c k d d i i i i 4 < > < < < - - < 4 4 4 i k c c c c c S S c k d i 6 4 < < < @ @ O O o + O O O O O . o o o O @ @ @ - - - @ @ - @ - - 4 7 7 k v b b N z k c b v v v k d n v D n k k 7 4 < < @ @ @ @ @ O O O O O O O @ @ @ < 7 7 7 k n S G P P D v v D J K Y Y S c c v D P M b k 1 * @ $ $ $ $ @ * * * * * * * * * * < 1 3 * * < 1 9 9 3 e e r e r 7 3 0 e m V -.8.y.Z.J.XX:XK.] Q ] Q y.B.MX,Xk.:XhX:XH.C.C.C.t.w.` P P P R 0.A.1XmXmXK.v.7.7.{ ' ] ` r.x.k.7.e.s.m..X.XA.$X$X.XA..XA.A.l.A.D.A.k.i.s.l.a.V.C.l.s.s.n.a.s.l.V.<XG.V.v.XXa.] ' ` _ _ 7.7.6.i.i.w.' ` ` 6.w.0.D.F.#XH.                                                                                                                                                                                                                                                                                                                                                                                                                                                                                                              ",
"                                                                                                                                                      d.@.Y v S Y K J J d.Y.d.d.D c n c D v Y Y v c Y K D v G S G Y K @.d.;.$.Y Y 8.8.8.$.-.5.Y Y E Y T Y +.+.q.-.@.@.9.x.k.q.q.5.Y ;.8.0.0.q.5.6.` R 5.q.i.k.i.7.0.^ P k c c v G H J c k c v i < 4 n k v Y 5.8.d.U.f.Y.;.k k k V n 7 $ O X . @ @ o @ - < 4 4 i d k k d k k k k f d i 7 4 4 4 < < 4 < < < 6 i i i k c v D S c S D v c d i i 7 4 : @ - @ @ @ O O O + O O O O o o o o + @ @ - < < 4 < < < - - 4 d c v v b b N N v v c v k d d c k k c k 7 i d 6 @ @ @ O @ O O + O O @ * @ @ O @ $ 1 d k d 8 n D J Y P P G v S G K K J J D v c v v n 7 7 < $ @ @ @ @ @ @ @ @ @ @ @ $ * * * * * < 3 3 < * < < 1 3 3 1 1 3 e m m B m e k P ;.q.` hXjXJ.y.Q ` w.y.%X{ } _ ' i.Z.nX,XG.v.y.v.v.p.! P P T R k.#XMXGXmXkXi.x.S.C.v.k.k.i.0.i.l.k.i.i.l..X.X.X.Xz.A..X.XA.A.l.n.A.A.z.l.m.A.l.s.s.i.i.i.l.l.l.S.fXhXp.t.D.y.p.' ` ` ` 7.t.w.` ` w.` ` ' ` 7.i.w.D.F.XXn.                                                                                                                                                                                                                                                                                                                                                                                                                                                                                                            ",
"                                                                                                                                                      d.Y J k T Y S K +.W.h.f.Y H v D K D +.Y D c D D D J D K G K Y Y +.O.$.$.Y +.d.j.8.+.8.r.q.@.@.5.q.@.T @.5.5.5.-.q.0.e.6.` 5.R T 5.0.i.0.6.` ` R P R 5.l.a.q.` ` R b k c v D c D D k c S 7 @ 4 n z E 5.h.h.d.f.h.d.T b 7 z V z 4 @ + . . o @ @ - < 4 i i d c S c d k c c v c k k i 6 6 i 6 4 < < 4 7 d c c c k c D D D G G D v c c k i k k < O O @ @ @ @ O @ O O O O @ O @ @ O O O - < 4 7 6 4 4 < - > 7 k b v z b b v v v v n d i 6 6 d c k d 7 7 7 7 < @ @ : @ @ + X . O @ % * @ @ O @ < 7 z v k z v K Y Y Y Y G S S G K K J J D J n n d 4 < < * 9 1 O @ @ @ @ @ @ $ @ @ $ $ $ @ * * * * * * * * < 1 9 1 3 1 3 3 7 e l e 8 e T d.g.y.C.jX2X[ U 7.oXmXnXB._ U ' i.jX2X%XG.v.{ ' ] ] ` U E @.5.i.D.FXFXkXG.9. X>XxXC.i.q.k.z.l.l.l.z.s.n.l.A. X X.X.XA.A.A.A.A.n.l.l.m.l.k.m.A.z.k.k.l.s.l.A.A.oX1XXXZ.u.D.V.w.t.` ` 6.' _ w.w._ _ ' _ ` q.` ^ q.s.D.D.G.7.                                                                                                                                                                                                                                                                                                                                                                                                                                                                                                          ",
"                                                                                                                                                      ;.Y d K Y D S J h.Y.d.;.D v Y O.G Y Y D v v D K Y K Y +.-.Y Y T Y Y +.@.Y Y +.5.@.+.r.g.r.-.@.8.q.5.q.q.5.q.6.=.R @.5.! @.8.i.` R 5.7.! E R q.0.5.6.5.w.7.5.q.i.w.I v c v v v c D v c S 7 @ < n P 5.j.E.Y.d.f.E.Y.@.k e b V z 7 @ X X . + @ - 4 i i i c c S J v k d c S G v k 7 i i 7 i 7 < - < 4 i k v D k i c D G G Y J v n c v n k n i @ o o O @ @ @ @ O O o O O O @ @ : : O o @ 4 6 7 6 4 < - > 4 d v v k k v v z n v v v k i 6 7 i d d 7 i d 7 < @ @ @ < < @ + . . O O @ @ @ @ @ 4 7 k v v b v D Y Y Y Y J D S S S D S S D D n k 7 4 4 < < 1 1 r @ @ @ @ @ @ $ $ $ $ @ * * * * $ * * * * < < * * * < 3 7 7 7 7 e r 8 8 n P 8.r.v.,X<X2Xt.P 9.%XDXDX,Xw.U R u.jXkXH.C.B.y._ U U I I T 5.8.e.H.DXFXjXy.5.!.KXNXxXq.@.q.k.k.m.A.A.z.x.A.A..X.Xz.A..X.X.X.XA.l.l.l.l.z.k.i.k.z.z.z.l.x.z.l.n.D.hX2X:Xp.y.Z.w.t.y._ ! w.7.` ' ` _ ' ` _ ` w.7.R ` V.D.G.S.                                                                                                                                                                                                                                                                                                                                                                                                                                                                                                          ",
"                                                                                                                                                      ;.v n +.D J G d.Y.d.9.J D K +.Y Y K c v D D J Y Y K +.;.9.@.Y Y ;.-.8.R @.@.@.T Y K ;.8.5.@.5.r.9.k.7.@.@.q.q.0.R 5.7.q.9.k.l.i.7.6.7.6.^ q.k.l.s.i.0.7.7.q.k.z.s.i.P d D b v v v v c c 7 - 7 n T 9.Y.E.Y.h.Y.Y.d.E n z V b 7 7 @ O + . . - 7 i k d i k G J K S c d c G G n 7 < < i i i i - @ < 7 d k v c k i c G G G K G c k d c v c i < @ O O O O @ @ @ @ O . o @ @ O @ @ : @ o @ 4 i 7 4 4 < > 6 i n b v d 7 k z z v v b v v c k i i d i i k d < @ @ @ @ @ @ O + . o + O @ @ @ * 6 d c v v v v v D J Y Y J D S v n c c c c n k k 8 k e e 3 3 $ $ $ 3 1 $ O @ @ $ $ @ @ @ $ * < < < * * < 1 e e 3 < 4 < 2 1 1 3 3 3 7 e e v Y 8.9.t.:XhX2Xu.V R n.jXSXkX' I I t.,X,XK.v.v.y.] _ U V P T 8.8.r.V.vXSX2Xi.@.9.fXMXAXn.5.5.q.k.k.i.l..Xz..XA..X.XA.z.l.F..X_..X.X.Xm.n.l.x.k.k.l.l.x.l.l.n.l.z.V.oX:X<Xs.y.K.t.] i.t._ ! 7.] _ 7.' ` 7.6.` _ ] ' ` 6.Z.F.D.Z.                                                                                                                                                                                                                                                                                                                                                                                                                                                                                                        ",
"                                                                                                                                                      $.S K Y Y J Y h.Y.;.P Y D Y D Y K J J Y D Y +.+.Y Y +.@.+.T Y @.8.8.$.@.$.q.-.5.R Y Y @.5.5.5.5.5.-.T @.8.q.q.6.` R T q.5.5.q.` 7.R ` q.6.5.k.i.i.w.7.7.i.7.q.i.n.n.w.P S J v D v c c d 7 4 d b R q.Y.Y.U.d.h.8.d.P V n b n 3 % @ @ + . o @ d c k k k d S K J S c f k S G c 7 - > 6 i i 7 < @ < 7 k c c c k k c S G G G D c k i k c k 7 < @ O O O O @ @ @ O O . . o @ @ @ @ @ @ @ < 7 i s 7 4 7 i i k n n k 7 i n v b v v b v D v k i 7 7 7 i k 4 @ O O @ @ O O O O + O @ @ @ @ * 4 0 d k c c c k c v D G G D S v v v n k k n k s 7 7 7 7 3 < * @ @ @ * e 3 @ @ @ $ $ $ @ @ @ * * < * * * < 3 x B B x 3 < 3 3 3 3 3 7 3 7 7 v @.8.e.w.V.:XhX] C R ` <XNXmXV.` ' y.:XK.H.H.v.u.u.` C M P T 9.x.z.A.fXAXkX` R @.u.nXnXi.9.g.9.k.k.k.k.z.x..X.X.X.XA..XF.n.V.l.x.x.z.A.S.A.A.A.x.l.V.l.l.i.l.l.k.l.G.%XXXl.i.G.V.7.] p.t.6.` ` _ ! q.7._ w.w.t.' ` _ ` 0.G.D.G.a.                                                                                                                                                                                                                                                                                                                                                                                                                                                                                                      ",
"                                                                                                                                                    d.+.c Y Y Y Y j.Y.8.T J T K D K Y b Y T D v Y T O.T @.-.Y Y P Y @.$.@.E T 5.8.9.T Y q.5.5.@.@.5.Y T Y Y D D P T P M W Y q.6.P T R E E @.7.i.6.q.i.w.` R q.k.i.q.7.l.w.5.5.J D b D G c v i 4 4 k b T d.Y.d.U.+.@.d.d.T b b n 0 < + @ - @ O @ - i G c c c k c J J S v k k c S k 4 - < 6 i 7 < < < < 7 k c k n c k c S G G G S c k i k k 7 4 < @ @ O O O O @ O O o + + o @ @ @ @ @ @ - < 4 7 7 1 1 7 d s d k d 7 i c b b v n n v v D v d 7 4 4 7 i 7 < @ @ O @ @ O O O O @ O @ @ O @ < 6 d d d k d d k c v v S D D v v c c n c c k k 7 < > - < < * * $ O @ $ 3 3 @ @ @ @ @ @ @ @ @ * * 9 * < < < 3 7 e r e 1 < 3 r x r l l e 7 8 v T 5.q.n.V.:XjXJ.x E R { K.jXH.l.i.2X1X:XC.v.v.u.u.t.U b J E 8.x..Xn.H.nXvXp.I V _ V 7.r.x.x.x.x.k.k.k.z.z.k.k.l.l.x.z.A.A.A.A.A.$Xl.z.i.l.A.A.A.z.l.l.V.l.i.n.l.z.A.oX:X<Xa.v.XXt.] ' ' q.` _ _ R ` 6.q.6.6.w.` R R ^ 6.s.D.D.D.7.                                                                                                                                                                                                                                                                                                                                                                                                                                                                                                    ",
"                                                                                                                                                    d.Y G T K Y d.Q.f.;.J +.J D O.Y v J Y J v J v K +.+.@.5.@.E P E Y Y T T T $.+.T Y 8.q.9.T Y O.9.-.P v v k i k n k k b P @.=.I W P Y T 8.0.k.s.i.s.w.` 6.k.m..Xi.i.w.6.q.q.R v D v Y v D k 4 4 k P T f.U.d.Y.Y v d.f.@.b k 7 2 % + + > < @ @ < i S S H S c c S D S c k d k c i < @ 4 4 i 4 < < < < 7 i d k k S c c v S D S c k i 7 7 7 < < < @ @ @ @ @ @ O O O O O O O $ @ : : @ @ @ < 4 4 < < < 7 7 7 7 6 4 i c D J b k k c v D v c 7 6 4 4 6 7 4 - @ O O O O + + + + + + @ O @ < 6 7 d d d d d d c v v S D Y Y G D n n c v v n 7 $ @ @ $ < * * * $ @ @ @ @ $ $ @ @ @ @ @ @ @ @ @ @ * < < < < < < 4 t e 3 7 7 7 7 7 3 7 7 e z D Y -.' w.N.,XfX<Xm k V y.v.v.] ` K.<XhX%XC.v.w.] ' ] Q P P P T l.D.fXZ.Z.>Xi.0.5.U V I R 9.k.k.z.A.x.x.z.S.z.x.k.x.A.l.k.x.A..X#X#X.X.XA.x.l.z.z.z.m.l.l.n.l.l.n.m.A.oXfXgXp.t.H.p.a.u.t.` _ R R ` ` R ` i.q.` ` ^ R R ` 6.C.G.F.Z.                                                                                                                                                                                                                                                                                                                                                                                                                                                                                                    ",
"                                                                                                                                                    8.J Y T Y d.E./.h.P v +.K +.@.J S D v K J J T $.@.Y 8.9.9.T Y 5.5.R @.@.T +.@.@.@.Y T T P K $.T Y n d k z i k 7 7 i i k c v b b n P n P R q.i.t.w.i.w.` _ q.s.p.i.6.i.7.w.6.b v v D Y c n 7 7 v E -.Y.d.f.Y.Y k @.f.8.v 7 @ @ + O + @ - - < 4 i S S S S v c S S v c d i i i 4 : - < < < < : : : - 4 i i i d c c c c c c c d i i 4 < < < : < @ @ @ @ @ @ O O O O O O O @ @ @ @ @ @ @ < < < < 4 4 7 i i 7 4 < d v D D n i 7 d v D n k 6 4 < < 6 4 @ @ @ O + + . . + O o + O @ < 4 7 d d d k c c c c v S D D Y Y Y G v n n v v z 8 8 < $ @ @ $ @ @ @ @ @ O O O @ @ $ @ @ @ @ @ 7 3 3 3 1 < < < < * * < 3 l 7 7 7 7 8 x e e k z b Y Y T { y.v.K.hX2X{ V e m _ Q U R v.K.1X%XZ.u.t.{ _ C M b P @.8.k.oXbXAXK.' @..X#XXX' ` q.q.8.5.q.r.k.z.$XA..Xz.k.x.z.A.A.z.k.m.l.A.S..X.X#X.XA.$Xz.m.S.m.S.A.z.z.n.m.S.XXkXK.p.D.v.t.w.u.7.! R R R ' q.` ` 7.` ^ ` ^ ^ 6.7.7.D.G.F.Z.                                                                                                                                                                                                                                                                                                                                                                                                                                                                                                  ",
"                                                                                                                                                    $.K P D ;.h.Q.Y.T D K ;.Y ;.T Y D v K J J T 8.;.Y @.;.8.@.J @.5.q.$.T +.;.-.@.@.G D D D v k c D b k c D n k i 7 i k s i i i s c c P V k k V ` ` R 5.x.l.6.R ' ] ! 5.i.a.6.5.R v v v D S v 7 i b R 9.f.d.Y.d.P k b d.d.b 7 @ + X + O @ - 4 6 i u f c c v D S v c k k i 4 4 7 < < : : < < @ $ : < 4 4 i i i d c c c c c c k k i i 4 < @ @ @ @ @ O O @ @ O O O o o O O O O @ @ - - : < 4 7 4 7 i 7 i i i d i i d c c c k k i i c k 7 4 < < - - < @ @ @ @ O X . . o + O O O @ 4 i d k k k c c v v v S v S D G Y Y Y D v n n k 7 3 : : < * @ @ @ O # # @ @ @ @ @ @ $ 9 @ @ @ $ * e x x e e k x l k 7 k 7 7 7 7 7 7 k 7 x V M n n D T @.5.7.{ t.Z.:X>X:X' m M Z C M ! t.<XXXH.N.u.{ ' Q U P P Y -.j.x.S.JXJXfX` 5.k.dXkXXXR ! q.i.0.q.q.0.0.i.i.n.V.z.k.0.l.z..XA.x.x.l.V.A.A.A.#X#XA..X#X#XS.m.m.z.A..XG.D.S.oXZ.p.V.:Xv.t.] w.` R ` ` R _ ' ` ` 6.` ` 5.5.5.7.t.w.G.G.S.l.                                                                                                                                                                                                                                                                                                                                                                                                                                                                                                ",
"                                                                                                                                                    $.J P +.x.Q.d.d.T v +.;.Y Y Y G K K O.K Y @.+.T Y Y Y Y R Y @.5.$.Y K +.$.+.Y Y +.@.Y c v i 7 k n i k k i 4 7 i n k k i i i 7 k v v V b i b M x V Y 7.n.l.7.` ] ` ` 7.l.i.e.q.G c c v v k k 7 D 5.d.f.;.Y.d.v d Y ;.-.b k < O + . + - 4 i i i f f c c v S D v d k d 7 4 4 4 4 4 < < < 4 < 1 4 7 7 7 i d d k c c c S c c v c i 4 4 : @ O @ O O o O O @ O O @ O o O @ @ @ @ < < : < 4 i n n n z i 7 i k k i i i d d i i i i i 6 4 4 > < < @ @ @ @ @ @ @ O O + + @ @ @ @ @ < 7 k c v c c c v D D D D D S D G J J D n z k i 4 $ @ @ @ @ $ * $ * $ @ O @ $ * $ $ @ @ $ $ * * * 4 7 k r e 7 k n V V V V n z M b C V V b b V V V V D T -.5.v.B.t.p.H.:X%Xw.7.7.Q 7.C V U :X,XG.v.u.t.U M x v P R 5.9.k.C.fXBXmX` @.x.fXjX<X5.T 5.0.k.k.0.r.x.k.i.0.s.n.m.z.k.i.x.m..X.X$Xx.A.A.m.V.A.A.A.A.%X#XA.A.m.z.A.J.#XD.XX%Xi.t.%XZ.p.w.t.w.` ! 6.t.` _ ` R 6.6.` R 6.7.7.6.` p.G.G.C.7.                                                                                                                                                                                                                                                                                                                                                                                                                                                                                              ",
"                                                                                                                                                  d.+.D Y h.W.d.h.Y b K $.K Y Y Y Y O.$.+.K @.+.Y Y T 5.T T @.Y K K Y G Y D D v n Y Y J n k k k i k k 7 i 4 i 4 4 i n k i i 7 7 s i i k k k 7 7 k x z n W U t.w.R U Q P R a.V.0.` R D S v v k i 4 n -.h.f.;.h.@.n z Y -.b k k < % @ + + 4 d k c d c S c S c c v S c c k 7 4 7 4 7 7 4 < : 7 4 7 i k 7 7 k c c S S c c S v D J v i - - - @ @ : @ O O O @ O O O @ O O o O < < < < : @ @ < i c v z z 7 7 k k k i i i i 6 7 7 i 7 7 < < < 4 4 > < - < < < O O @ O O @ @ @ @ @ 6 i d c v v v c c D D D D D D D D v v n k i i 4 @ @ @ @ @ $ $ @ $ * $ $ @ @ # @ $ 1 1 @ @ < 7 e e 3 7 7 n x l 8 k k M P I V z n b P U U R U P I U Q ` J T -.U V ] v.u.v.v.] U 0..X,XH.! I U _ XXK.v.u.y.] x k z b P @.q.6.e.XXjX:Xw.@.5.XXjXjX5.R =.7.i.k.k.r.k.l.l.l.k.x.z.A.A.x.0.k.i.x.l.A.m.z.!.A.m.l.z.A.D.S.A.m.A.m.l.G.oXS.G.:XC.V.%XJ.v.7.6.t.w.` R ' t.' ` R ` ` 7.0.6.` ' ` ` ` Z.G.G.V.                                                                                                                                                                                                                                                                                                                                                                                                                                                                                              ",
"                                                                                                                                                  d.+.P g.h.Q.Y.@.v T Y +.K J +.$.+.$.+.O.Y K Y T Y +.8.-.@.Y Y Y Y D v c i k k i v v n i i c k k k i k k i 7 4 4 4 7 i i 7 k k z k i k k k k k z M n 7 z M U U P U ` I P ` t.` r.k.-.D J v v 7 4 k Y h.f.8.j.;.z b T R v 7 < < < < @ @ i c G c c c G K G v c c S v S n 7 * < 7 7 4 7 < @ < 7 7 k i 7 i c D D D S c c S S S J v 7 - @ @ < < < @ @ O O @ @ @ @ @ @ O O O : 4 < < < @ O - 7 n k 7 1 < 4 d i d k d d d 7 7 d k 7 6 < < 4 6 > @ - : < 7 @ O + O @ @ @ < < @ < i c v D S v v v v D S v c c v v v c i i 7 7 1 $ $ $ $ $ $ $ @ @ $ $ $ $ $ @ @ $ * 9 r * $ 1 8 V x 8 s n b V V M v v v V P P D J P Y R R R I U U R _ ` Y Y T P m V C v.Z.K.B n U $X,XmXy.Q V { Z.C.C.u.a.y._ x n v P R q.e.w.p.v.XX7.@.^ u.XXp.=.Y Y R q.s.l.z.k.0.i.$Xx.x.k.z.A.m.z.k.0.k.k.k.l.z.z.z.z..X.XA.l.m.A.#XA.m.m.n.oX%XA.l.&Xa.J.<XV.u.7.t.a.i.7.` _ ` R 5.6.` ' 0.t.` ^ ` ` ` q.H.G.S.s.                                                                                                                                                                                                                                                                                                                                                                                                                                                                                            ",
"                                                                                                                                                  8.O.-.h.E.f.d.J J ;.Y +.Y G +.Y O.O.Y Y Y Y @.T Y +.+.K G +.@.O.D i k k i k i 7 7 i k i i k k 7 7 k n z k i 7 s i k i k k n n v b z k k k n b b b V n k x n z V V ' ` R R ` U 6.l.6.P J D b c < k Y 8.Y.;.d.8.V b R P z < @ < < < < < 7 c G D c S S K K S c k S v v v 7 @ @ 7 i 6 4 : @ < 7 d c i 4 i k J Y P v c c c D S v c 7 @ @ @ - < - @ @ O . O : $ @ @ O @ O O - < 7 4 < : @ < 7 v z 1 < < < 7 i d k k k k k k z 7 7 < < 4 6 < @ @ - < - - @ O + O @ @ < 4 7 7 i d v S J D S D D D v c c c v v c c c k s k 7 1 $ $ * $ * 1 $ @ O @ @ $ * 1 * @ * * 1 8 r 8 1 e m x k k n n b V P V M v V U V D P P R ` ` ! R R U R R R E Y Y ` t.V x Q | v.' n P ` CXNXjXQ Z b.%XH.N.v.u.t._ V n v b P 5.e.n.C.v.] I 6.7.C.H.w.q.q.5.R ! q.k.z..XA.x.i.7.k.k.k.i.z..X.Xz.k.k.k.s.s.x.x.l.s.l.m.A.z.l.A.D.#Xz.z.D.:XoXS.<XH.v.>XoXn.a.u.t.' w.7.! _ _ R 5.0.7.` ' ' U _ ` ` ` i.D.G.C.7.                                                                                                                                                                                                                                                                                                                                                                                                                                                                                          ",
"                                                                                                                                                  $.@.h.Y.Q.Y.@.v T +.+.,.Y Y Y Y G Y Y Y Y 8.$.J Y +.K v S K D S k k n z k 7 i i 7 7 7 7 i 4 7 7 i k k k s i n c b n k v v k k n z n k i k i i k n n x z k V l z n V Q R V Q ` ! P ! U D D v v 7 k b 8.;.d.;.8.P b b b k 4 < 4 < < 7 7 4 k G K S c S G K D c d k c c n 7 @ @ 7 i 7 < @ @ < 7 d k d 7 k k D Y Y c c k k S v n c 7 @ @ O @ < : @ O O o o @ @ @ @ @ O O @ @ < 4 1 < < < 4 7 c n 7 < 4 7 i d k i i d k n v d < < < < 4 < @ + @ < 4 < @ @ O O @ < 4 4 7 i i d c c c v S S S D v v c c v D v k k k k k 7 1 $ $ @ $ * 1 * $ $ @ @ $ $ @ * * $ $ * $ 3 x x 3 8 n n v b M b b V P U I P P P P b n b P P R R R E U _ q.6.Y Y E ` C.] C C _ v.Z e v R n.BXmX*XQ Q %X%XZ.N.a.y.[ V n v b J R i.A.D.:X%XQ P 6.e.n.V.i.q.g.q.5.q.k.k.i.A.S.m.k.0.e.e.e.k.k.x..XA.l.k.e.l.n.l.l.l.l.l.l.A.m.l.l.S.l.k.l.oXoXD.oX<XJ.K.1XD.t.V.v.u.` Q ! ` 6.6.R ` w.s.6.` _ U ` ` ` ] a.D.D.V.                                                                                                                                                                                                                                                                                                                                                                                                                                                                                          ",
"                                                                                                                                                  $.j.Q.Q.Y.+.K J +.$.$.;.Y Y K Y +.g.Y K $.+.Y D K G S c i i i 7 7 k n k k 4 i k s k 7 7 k i i d k i i s s k D b b k c Y R P v n z i n c b b n k k n s k n R U b n C V b M _ ' ' U C C b b c k d 7 J 8.;.f.8.9.E b k i i 4 4 4 - < i d d i S D S S S S G G c d d k k k 7 < < 4 7 7 7 - - < 4 i k k i k n D D P D c k k k n k k i < @ @ @ < @ @ O O O o O @ @ O O O O @ @ < < : < < < 4 4 7 7 7 < 7 i k k 7 7 i d k n n 7 < @ < 4 < @ @ + O > < < @ O @ @ < 4 4 4 i i d k c v S G K J D v v v v v W b k i i i i 7 1 * $ @ @ $ 3 * * $ $ @ @ $ @ $ * 1 8 1 < 3 e x x M v b b M V V P V P P R ` ^ R U U R P P P P E U R _ R _ _ P Y Y P ' H.t.' ' | u.} B 7 k V ] ,X1XU U B.%XG.C.v.u.{ U b v b J R k.S.<X<XXXw.I R x.oXjXZ.0.g.x.r.0.g.k.s.l.s.x.z.k.k.s.s.k.x.z.A.l.x.x.k.e.s.A..XA.m.S.#XA.z.A.S.S.S.l.k.n.>XoX#X<Xn.V.,XoXZ.t.p.u.' R ` ! ! ` e.7._ ' ` ` ' _ R ` q.7.' V.Z.S.s.                                                                                                                                                                                                                                                                                                                                                                                                                                                                                        ",
"                                                                                                                                                2.8.Q.Y.Q.T D K Y @.$.+.+.Y +.+.K $.;.K G Y Y Y Y Y Y n s d i 4 4 7 7 i 7 7 7 k n k i 4 i k n n k c n i k k n v v b n S Y ^ R P n n k n c b b M M b x k i k b I Q x x b M b V _ ' _ U _ b v c i d 7 D ;.;.f.+.d.R N 7 @ - < 7 7 4 4 i k k d c c c S S S S S c k k i i 7 7 < < < 6 7 7 < < < < 6 i i i d n n n n S c c c k k i 7 7 < @ @ @ @ @ O O O O o @ O O @ @ @ @ @ @ : < : < 4 4 < < < : < 7 i k z i < 4 i c n k k 7 > < 7 4 < @ @ @ @ @ @ @ @ O @ < 4 6 7 7 d d k c c D K Y T Y J S c c v v v v k 7 7 i 7 1 * $ $ @ @ $ $ $ @ $ @ @ $ @ 1 9 9 e x M V M k M I I P P V b M P U P P P ! 6.` U P P E R R U P P U _ ` ` q.6.R Y T R Q u.v.p.' ] C.H.K.V v v R ] [ x I _ %XK.V.C.v.w._ V v v v P R n.#X,X<Xw.! P 0.XXMXvX7.R 0.k.k.j.0.s.l.l.A..Xz.x.k.k.A.z.l.m.z.z.z.l.l.k.k.x.A.#X#XoXS.z.x.D.oX>XoXn.n.%X,X>X>XoXC.,X:XG.Z.i.t.q.R ! 6.` R ' w.7.` R R 5.6.` _ ! 7.w.' Z.S.D.i.                                                                                                                                                                                                                                                                                                                                                                                                                                                                                      ",
"                                                                                                                                                2.h.`.E.;.K K K K ,.Y Y O.+.:.$.K ;.@.J J G Y D Y D n s i k i 7 4 4 7 i 7 7 7 d i i i i c v v n c S W D n v P Y Y b D b v v P U b n n V z s n b k k n P P v k V M k i v U Q C V U C x M U b k d < 7 b @.;.d.,.;.-.b 7 @ - @ i i d d k k c c c c c c S c c c k d i 7 7 4 4 < < < < 4 4 < - < 4 4 7 i i i k k k n c c v c d i 5 4 < $ @ @ O o o o o o o o O o O O @ @ @ < < < < < < 7 i 7 4 < - 4 i i k k 7 < < i c n k 7 < < 4 4 < - @ @ O O O O + O @ - 4 7 d d c c c c k c S K Y +.Y J v k c v n z k 7 7 7 6 < @ @ @ @ @ @ @ O @ O @ @ 3 3 e t r 8 x Z U I C b b P P I I P b P R ! U P D R ` R U P P P U U N D J P E R _ q.7.R $.-.R R w.y.v.u.] ' y.C.w.R -.] <XvXQ x V v.XXG.V.N.y.w.I k z v b V I ' a.%XZ.U Y 8.n.mXmXp.q.R ` ` r.q.7.7.i.l.A.A.z.k.k.x.z.m.n.l.x.z.m.z.z..XA.A.S.S.G.S.m.l.l.G.D.A.S.n.A.<XhX,XhXA.D.>XH.u.t.i.i.0.U R 7.0._ ` 6._ R ` _ R 6.i.7._ _ _ 6.D.D.S.q.                                                                                                                                                                                                                                                                                                                                                                                                                                                                                    ",
"                                                                                                                                                2.Y./.Y.Y K J Y +.O.K +.+.O.;.+.Y @.Y G @.O.c S D k i 7 k k i 7 4 i k k i 6 i i i v k i k v v n S D Y D n Y Y T P n v P P v J P P b v V V v v P I n n v ! U P V V b z k V U V b I _ U M M P v d 6 6 D $.8.8.h.@.;.b k 4 d 7 7 d c S S c H S S S G S H c c k d i i < < < < < - @ - < > @ @ - 6 i u i i i d k c c c S S n i 7 4 4 < @ O O o . o . . . o o O O O @ @ @ @ 1 4 7 k k 7 i d i 4 7 4 7 k c d 7 6 < < u d k i 7 4 4 < > > @ @ @ @ @ O @ - 6 7 7 i d c c v v v c d c v S K Y Y D n k c k k i 7 7 7 < @ @ O @ @ @ @ $ $ $ $ $ @ @ < e x B m x x V C U U M b W P P U P P P R q.R P P R R U P P P P P U P J P R U U _ _ U P ;.d.5._ ] ] N.v.w.] { B.{ V 5..XMXmX<XC x U G.K.V.v.v.v.t.b z k n V =.5.e.n.s.R v Y k.kXjXw.6.7.0.5.` 5.0.0.i.k.l.S.A.x.g.0.k.l.m.m.z.x.z.x.x.z.z.D.S.D.m.m.A.A.n.s.l.A.S.XX#XG.<X%X%XjX#X:XXXn.t.t.a.w.0.6.U ` 7._ ` 6.R R 7.5.R ` t.` R _ ` p.D.G.C.                                                                                                                                                                                                                                                                                                                                                                                                                                                                                    ",
"                                                                                                                                                ,.E.Q.$.K Y K $.K +.K ;.O.K O.K Y $.Y K +.v k n i 6 4 7 i i i 4 4 k n k i 4 d v v v c c i v v n v n S b K Y v v P b d b b Y @.5.6.R n b P P Y E ` R V J I P P R ` U U V v V P R ` 7.t.' V V v k 7 < v Y $.;.d.;.;.P n i k i 7 d v K K G S S G K K S c c c c k u 7 4 - @ @ - @ @ < < 4 < - - 4 i i i c k i c S S D G v c c i i 7 < O O @ O O O O o . o @ O O @ $ @ @ < 7 7 7 z k 7 7 i 7 < 4 < 7 c d 7 4 < < 4 6 7 7 4 4 4 < < > @ - < @ @ @ @ < 6 i d i i d c v S S v c c c v D K Y G v v k i i 7 4 4 7 3 < $ $ @ @ @ @ @ @ * 8 < $ @ $ 1 r A Q C V b P C I U V b P P Y I I P Y 5.6.` P P U U P b V P J N N N v n v b n B Z C b T 8.q.U I Q 6.t.C.V.C.y.y.Z b q.XXAXnXu.Z m _ v.C.N.B.C.v.[ e 7 e V @.k.l.A.l.7.P v I C.,X! R q.0.k.k.0.q.0.i.i.l.m.z.z.x.r.0.k.x.m.m.m.m.z.l.k.e.l.i.l.n.n.z.m..XS.A.S.oXoXoXA.V.oX<XnX>XJ.oXs.a.n.n.w.' q.6.R R R R 6.7.` E 7.t.` R _ R ^ 6.q.V.D.D.i.                                                                                                                                                                                                                                                                                                                                                                                                                                                                                  ",
"                                                                                                                                                2.Y.8.Y Y K O.+.Y $.Y +.K K K K T ;.K K v i i 7 4 4 4 u 7 i 6 4 6 i k k i d S S D v S G Y K D J T Y D J P P Y @.R R M b D D Y R q.R V z b v v b P R P v P R b b I I V U I P V M P ` 7.' U U I k i i c Y @.d.;.8.$.T 7 k k i i k c K +.K S S D G K G c k c D c 7 < 4 < @ @ @ @ @ < i d 6 4 < 4 d d c G c i k J K K G c k c n k s < O O @ @ O O @ O o o @ : $ : $ @ @ < n k 7 7 7 < < 7 7 4 4 4 4 7 6 < < < 4 4 6 6 < 6 7 < @ < < < 6 < @ O @ < 4 d c v k d c S J J J v c k c H S J D v v v z k i 7 s 8 4 < < < < 1 3 1 @ @ @ $ 1 8 r 3 < 7 e B A V V V V V b V P P P P Y E R R E R ^ R P J M P b b b b v n k v z d 7 7 4 e e e e P -.q.' V b V t.H.H.G.N.b.| e b 5.fXmX1Xw.Q V I y.C.b.b.y.[ B 7 e z P R 7.i.l.7.q.P U { u.` P R q.k.s.l.k.k.k.7.7.i.A..X!.z.x.z.z.z.l.z.x.k.z..Xm.l.k.i.i.l.l.l.n.S.A.#XXXF.S.n.D.XXvXNXnXZ.v.oXy.p.Z.D.6.R _ R R ` R U ` 0.0.` ` ` R R ` R ` 0.0.S.D.S.7.                                                                                                                                                                                                                                                                                                                                                                                                                                                                                ",
"                                                                                                                                                2.;.Y D Y K +.O.$.+.Y K G Y @.K $.+.v k i 7 i i i 4 4 k n n 7 4 i i k k i d c S S c K K T J K ;.@.R c D J P D D P P v v R P D P V b b P I P v n V V P Y Y ` I M b U U P Y 5.7.` P P _ _ Y ^ 6.V i i n +.@.d.d.$.@.T z < n v n c c D T Y K S S G G G c d c K n 7 < < 7 4 < < @ @ 4 k n d 6 < < k c S J S d k D Y Y D n i i c S 7 : O O @ @ @ @ @ @ o o O - < < < @ @ 4 k v s i 7 < @ 4 4 4 7 i 4 4 < < < 6 4 4 6 i s k 7 < @ < 4 6 6 < @ @ @ 4 i c D D D v v S J K D c c c c c v S v S b v v z k k v 8 < @ @ < < 1 3 * @ @ * < < 1 8 e 3 7 3 e k M M M b v v b V P P D J P P P P J P P P N b P P P b b b v v b k 7 7 3 4 4 3 1 1 e N E ` [ V x V Q Z.J.H.b.~ x z M V.mXCX7.Q C V Q b.v.y.| { Z 8 7 e k V I U ` 0.q.R I ` t.i.5.R R @.q.i.l.k.k.r.r.0.0.r.h.h.x.l.l.A.A.z.k.k.k.k.l.m.m.A.z.l.l.s.k.k.s.n.A.m.A.F.G.&X<XmXBX,XZ.D.#Xu.t.V.t.R ! R U R q.6.R R q.` R ` R R 6.7.` ` 7.t.Z.D.C.5.                                                                                                                                                                                                                                                                                                                                                                                                                                                                              ",
"                                                                                                                                                ,.K D D +.K +.O.+.K K +.K +.-.Y +.K v d i i k k i 7 d D D v i i v G S c k f i c c c G K Y G Y D G R @.J D J J c P N D K -.R R P P J D E 5.` I P P P v J 5.` _ R V P C V R Y i.l.0.R 7.6.` 5.i.` i 4 n Y @.d.;.d.d.R z < k v v c c S K K K G S S K D c i d c k 7 < - < 7 7 4 @ O < c v k 7 < 4 d v D G S k d v K Y b c i 7 i n 7 : O o O @ @ @ @ O o o O @ < 4 < @ @ < k k 7 i s < @ < < 4 i 7 4 4 6 6 7 < @ - < 7 k k 7 < @ < 7 7 7 4 @ < < 4 i c D K D D D S S S v c c H H c v D J P b v v z z k 7 < @ @ @ < 1 3 1 * 1 $ < < $ @ @ < 3 7 i z b b V V b b v v b P P Y Y W W P I P P P V M P P U V b M P P b 0 7 7 e 7 3 * < < 1 1 n M P ' { U V U t.J.%X%XZ.m k z V 2XjXB.' ' ' ' { y.| y.| [ 8 7 7 7 e n V I ! 0.` U R 6.a.i.5.R R R ` i.l.l.0.0.0.i.l.z.x.g.q.0.i.l.z.l.k.k.r.i.i.r.x.z..XA.m.l.k.k.i.l.z.A.,XkXkX<XAXGXBXK.G.J.G.p.t.w.` R ` 6.U U 7.0.6.! R R 5.6.6._ ` 6.' ` ` i.Z.F.l.                                                                                                                                                                                                                                                                                                                                                                                                                                                                              ",
"                                                                                                                                                #.S D J Y K ,.Y K Y @.;.Y +.@.Y K G v c i k n k i i k c v c k G K Y D v G J G c k G G Y K T T Y Y P b D Y Y Y Y J b v v Y P P P J P v c Y P M b W ` P P W R ! V M P U P P P ^ ' ` R ` 7.w.` ` 7.b 7 k Y $.8.Y.d.j.R n 7 i c v n c v D D D G S S D D c d i d i 7 < @ - 7 7 7 < @ - d v k 7 4 7 i c S D S S k c G D n k i i 7 i i < O O O O @ @ @ O O O @ @ < < < @ < 6 7 7 7 7 7 < < 4 i d 7 4 4 4 7 i 4 @ @ @ < 7 i k 7 @ @ 6 7 < < < < < 4 7 d c S D c c v v S S c S S c c c v G Y P v k k z z 7 3 < $ @ @ $ 4 < * $ $ $ * : < < 4 7 7 n b P P V P P P P b z v P R 5.R W v P P U P P v v P P I M c v v k 7 < 4 4 4 < < * $ * * @ 3 k n V _ ' U I Q y.J.%XXXw.C m M x Q [ Q 6.w.v.*XZ.b.| { [ m 7 7 7 8 s n I P U Q P T k.A.:Xa.5.R R R ` 0.k.x.j.g.0.l.z._.$Xk.q.5.0.l.l.k.r.k.s.k.k.k.x.l.S.A.S.A.k.k.l.S.#X<XjX%X:XhXDXHXAXXXG.G.Z.t.q.] R U ` 6.` ! 7.7.! ! ` ! ` 7.e.6.` ` _ R 6.V.Z.S.0.                                                                                                                                                                                                                                                                                                                                                                                                                                                                            ",
"                                                                                                                                                G Y K G Y Y +.Y +.Y @.+.J Y Y Y K c v v i d k d i i k d c c c K Y v c G O.$.Y v Y +.@.J K Y R Y S J D c c D J v v k P v v b v Y 5.5.E P V V b D T 5.q.R D P R R @.@.6.6.5.` ` R E 6.i.7.s.w.q.7.U 7 k K @.8.g.8.j.8.P 7 i k c n c c c c v S S c c v k d 6 i 7 4 7 < @ 4 7 7 4 < < 6 k k 7 i i d c c c c S v c c c c i i i 7 7 7 4 - @ @ @ @ @ @ O @ @ O @ @ - < - > < 4 4 4 4 4 < 6 i c i < < 4 6 i 7 < - O @ 6 6 7 7 < < < < < < - < 4 6 d k c S G D c c c c G J J S c d f c c v J b k 7 i n k 7 1 < $ @ @ @ $ $ $ $ $ * 1 8 e k n z v P P P P b D J P P P n c G E R I b c v D P U M z v b I V 8 i k s 3 < < * % @ @ @ % $ * * * @ 3 7 k x Z Q U C _ { v.H.J.b.} [ Z V l M V I w.K.*XK.C.u.{ C 7 7 7 k v P U P U I P P -. X@X%X7.T E R 5.q.e.i.x.x.x.l.l.z..X.Xk.0.r.k.l.x.k.r.k.m.m.m.z.z.n.A.S.A.$Xz.l.oXoXXX<X%XD.1XvXbXBXjXH.C.oXZ.7.' ! ! ! ! ] Q U Q ! ` ` 7.6.` ` ' _ ` ` ` ` 7.V.Z.A.7.                                                                                                                                                                                                                                                                                                                                                                                                                                                                          ",
"                                                                                                                                                Y Y D Y +.K Y +.@.Y J Y Y Y Y D v i v c i i d k k D S S S c c S S v v G K Y J +.+.Y @.-.Y +.@.5.Y P P n d c N c K Y R P b v v v Y R R U V b P v D P R P M n b I n G T 5.6.0.q.` R P R ` ` ' 7.7.` z k Y +.d.-.-.8.$.P v k k S v c c c c c c H d k k i 6 4 4 < < 4 7 @ < 7 7 7 4 < 4 i i i i i d k k k k c S c k d i 7 i i 4 < 4 < : @ @ @ @ O @ O @ @ @ @ @ @ @ @ < < < < - < < 4 i k i < > - 4 i 6 4 6 < - < < < < < 4 < < - < > < 7 7 i k c c D K K S v v S G K K D v d d k c v z k 7 1 7 7 7 4 * $ @ @ * $ @ < * @ $ 3 e b M b n z b J P Y P J G D P P M v c D Y P I b v D D P I C k n v b x 7 3 3 < < @ @ @ @ @ @ @ @ @ $ * * $ @ 3 e k x P _ Z C Q v.J.*X[ [ ~ [ ' Z V M M Q | H.K.H.v.y._ r 7 7 k b E 5.5.` q.E P P q.oX,X1X` Y R T 5.0.s.k.h.d.k.s.x.z.!.!.!._.l.x.x.x.x.k.k.s.l.z.l.l.l.S.A.A.A.A.#XS.V.A.#XoX,XvXvXvXMXkXV.XXC.N.t.Q Q ! ! ! ` R U 5.` ! ` w.w.! ! ! R ` q.6.! 7.Z.S.V.                                                                                                                                                                                                                                                                                                                                                                                                                                                                          ",
"                                                                                                                                                Y K J $.Y Y Y T K v Y T K ;.D D d i k i u k S c K Y Y Y S S G K K v S Y Y Y -.q.@.@.$.R Y T Y Y P Y @.Y P v k v D D P b z v R P P D P V P G P P P D R I J D Y 6.R P P ` R -.5.q.i.7.R U ` R T 6.p.V c Y $.Y.;.@.8.@.Y c k c S J v c S S S c v k i d i > < < - - < < : @ - < 4 < < < 4 7 i i i d i k d i k v c k i 7 i i i 4 - - - @ O O @ O + o o O @ - @ @ - < - < 4 4 < < - > 4 i d 7 4 < < 7 6 < < < < > @ > @ O @ < 4 7 4 4 7 i d d k k c c S G K S c k c D K K J b k k k i d 7 < < : < 4 < @ @ $ @ @ * < 3 7 3 $ < 7 z v M M b v D G P D J P D v b v v z n S D v P P b v D v n k k k e 7 4 1 @ @ @ @ @ @ @ @ @ @ @ @ @ @ * $ @ $ $ 3 k k b V Z _ B Q b.H.N.{ Q w.l.{ C e V Q ' K.%XK.H.N.u.Q e 7 z b P R q.q.0.q.R P R 0.>XfXH.5.@.@.-.r.k.l.x.x.0.0.e.x.x.x.x.x.l.k.z.z.x.k.k.k.s.l.l.l.l.l.l.l.l.z.S.l.l.G.,X,X,XvXDXDXkX1XJ.V.XXG.V.w.U U U U ! ' Q U ` 0.7.' Q R U R ` ^ ` 6.7.` i.Z.S.s.                                                                                                                                                                                                                                                                                                                                                                                                                                                                        ",
"                                                                                                                                                G G Y $.K $.Y Y K J @.+.T O.k k i i d i i K D c G Y K Y D K +.+.b Y @.@.Y T @.5.-.Y P J b D S b b Y @.R N k k D n k n v v Y @.q.@.P J D J Y T R 6.I I R T T 5.q.7.5.R R R R 5.7.i.s.t._ Q R 7.p.C.t.D P $.f.f.$.8.@.J v i S S Y D v D D G S c v k k i > - < < - < @ @ - @ - - < 6 4 < 6 7 7 i i k k d d k c c c i i k c 6 4 < @ @ @ O O O O O O O O @ < < < d 7 < < 4 7 4 < @ : 6 i 7 4 < 4 6 4 4 < - - < - - - @ < 6 4 < 4 7 i k n c c f c c S S S D c k d c v v S S v k d 7 4 4 @ @ @ @ @ @ @ * 1 < $ @ @ < 3 7 3 * 7 k v b U V b b S b v c v P n k k i i s s k k k k x i k 7 7 7 3 4 4 $ @ @ @ @ O O O @ @ @ @ O @ O @ @ @ @ @ @ @ $ @ 1 8 b V m B m m Z _ [ C x 5..X&XjX_ l m I 7.%X%XK.J.Z.N.U k z b N P R ` R ` R P R -.n.MXMX5.T @.-.5.9.k.x.l.k.9.d.k.l.z.z.j.k.k.z.z.z.!.x.k.l.z._..XA.F.m.k.k.l.$XS.k.l.,XfXhXNXDXSXHXNXoXD.Z.XXy.w.U V U U U U ` ` R ! ` R R ! R I R 6.q.` ` ` ` V.C.V.7.                                                                                                                                                                                                                                                                                                                                                                                                                                                                      ",
"                                                                                                                                                Y +.K O.$.+.J Y K J ;.K +.v i i i i k i c K G D S c G G D +.+.K Y @.T @.5.T +.9.T P v v v v v v v v b J V c J T P v v b D D Y R R J P P J D T R I I Y T R Y T 6.6.R P P R P P E R w.] R _ U U ^ u.w.U K @.8.j.f.d.@.P k u c D G Y S G G G S k c D v d < - 7 4 4 < : @ < < @ - < 7 k i i i i i 7 k S c c c c c c k k D n 4 < 7 4 < @ @ O @ @ @ @ @ @ @ < 6 7 d k < @ < 7 4 < - < < 4 < - < 6 4 < - > 6 7 < @ < 7 7 i i 4 < < i k c v D c c c S D G G S n d f k f d k k k i 7 < 4 < 4 4 < < @ < * < 3 < @ O @ @ 4 3 x 7 0 k n n n n b v c n k n v n k s i i s i 7 7 7 7 i 7 < < * < @ $ @ @ @ @ O O O O O O O O @ @ @ @ O O @ @ @ @ @ @ * @ $ 1 8 x Q _ U C M C y.{ e M R <XmXmXQ V V U N.K.XXK.J.Z.y.x k n b N P R 5.R 5.R P Y R vXnXs.5.;.9.8.5.5.7.i.l.x.h.r.k.z.k.k.k.x.l.z.z._.!.z.x.z.z.l.n.D.F.m.k.0.l.S.A.s.n.#X>XfXnXNXjXMXxX%XG.G.G.w.U P P ! 6.U P ' ] U P U R ` ` ! I R 6.` ` _ _ ` V.V.V.5.                                                                                                                                                                                                                                                                                                                                                                                                                                                                    ",
"                                                                                                                                                +.K Y +.+.Y Y Y G G Y G S d i d d d v k c c G G G S S G K O.Y Y T Y Y @.Y D Y Y D v k k k c S K P Y K J J D J Y Y P v P R Y Y ! P E 5.7.5.P R R P Y 5.5.q.q.T ! R Y T -.0.6.R P P U U ` q.7.U V _ ] U Y @.@.8.d.d.-.Y n i i c D Y D D G D c i d c b k 4 @ 4 k 7 4 < - < i 4 < 4 4 k c k k k i 4 d J K J D c c D v v G n 4 - < 7 4 < @ @ @ < < < @ @ @ @ 6 d k 7 @ O < 4 < < < < 4 < > < 7 4 4 < > 4 i 7 - @ < 4 7 7 7 4 < 7 k c S D D S S v D D S S c k d k k f i i k k i i 4 7 7 7 3 < @ @ @ @ $ < * @ @ : 4 < 4 4 3 7 0 7 k d k z k k b v v z z z b z n 7 7 k k k 7 4 7 4 < < @ @ O @ @ $ @ @ O O O O O O O O @ @ @ @ O @ % % @ @ @ @ * @ @ 3 7 k Q w.y.` ' w.Q x l P 6.jXAX<XC C Q _ b.K.J.J.Z.N.] z k z v J T 5.8.q.q.R P P _ 1Xi.r.8.9.r.r.9.-.5.0.k.z.z.r.0.0.r.0.k.k.z.z._..XA..Xz.A.n.n.l.z.z.z.l.n.G.#XA.l.V.>XfX<XfX<XhXfXjXH.D.XXa.w.Q V M ` ` ` U U U P U ! R Q ` ` ! R ` R U ^ ` 7.C.Z.s.                                                                                                                                                                                                                                                                                                                                                                                                                                                                    ",
"                                                                                                                                                @.G $.O.+.Y Y Y S D G c v d i c i i k c D G S @.$.K Y ;.+.@.J J E E Y T Y Y v c v v v k s k c D Y J v c D P v D Y R @.@.q.R R R P ^ q.0.k.5.R R ` R 5.8.r.l.0.6.5.-.J @.q.7.7.` _ R P R q.t.q.P U ` E q.9.;.@.,.8.8.Y v n c c v S D S G D c 7 7 k n k 4 @ - i k i 7 : < i k i 7 4 i v D c c i 7 k K Y Y J v c c J G D n 7 - - 4 7 < < @ O @ < 4 * @ O @ 4 i k k < - < < 4 7 4 7 i 6 6 i 4 @ - 7 i i i < @ O @ 6 7 7 7 7 7 k c c D D D S v S S c k c c k k k k f k c v d 4 4 4 4 7 7 < @ + O > 4 < < * @ 2 < 4 < < < 4 7 7 k z n n z k v v v v k k z z z 3 < 4 3 7 7 < @ @ < < * @ O # O @ @ @ @ O @ O O O O O O @ @ @ O @ @ @ @ @ @ @ @ $ * @ * 3 7 k ] y.u.] t.{ { l n E p.AXAX| Q I R t.K.J.H.Z.B.v._ n v v b J E 5.8.q.5.5.5.U U 6.8.d.j.q.q.g.9.9.k.l.z.$Xx.k.9.9.r.k.k.k.z.z.z.z..XA.l.m.l.l.m.A.A.z.m.S.XXD.F.n.%X<X:XhXCXNXNXjXkXH.J.K.y.w.` ` U U Q U P U I P R ` ` U U ! U R ` R R ` q.i.Z.V.7.                                                                                                                                                                                                                                                                                                                                                                                                                                                                  ",
"                                                                                                                                                Y +.;.+.;.Y D K K Y S k v i c d i d G G K Y K @.Y O.:.Y K +.Y J T 8.@.Y Y J c v D v n k i k k c v v v J T -.T Y T T 5.q.i.7.` T 5.6.-.7.0.6.^ @.q.5.T +.8.0.0.6.5.7.R P Y ` _ P P ` ' C P ] | ` R ] C _ q.8.@.+.;.5.P D c v c v v S S S S n i 4 7 k k 7 : - 4 k k 7 < < i n k 7 4 d D D J v i i k K Y Y D D v n D Y Y n i @ @ - < < < @ O . @ 4 < $ @ @ - 4 i i 4 < 4 i k 7 < 4 i c k 7 4 @ @ < i 7 4 < - @ < < 4 7 7 i i k c c S S S v c c c c c c c c c c k k c v k < - @ < 4 < < $ @ O @ @ < * @ * * * < 4 4 4 6 7 k k v v v k z v v v v s 7 i i 7 3 @ O O @ > > @ O O @ @ @ O O O @ @ @ @ O + + O @ O O O O @ @ O @ @ @ @ @ @ @ @ @ @ $ @ $ < 3 7 e { y.t.w.] Q A l b I %XBXkXM M R t.XX:XK.H.Z.N.y.V n n v v D P R 8.8.5.q.7.7.q.-.@.-.q.8.8.8.9.0.k.l.z.z.x.x.x.j.z.x.z.z.z.x.k.k.n.l.l.k.k.s.V.S..XA.D.#XS.n.A.G.,X%X>X<XDXFXBXhX,XH.J.C.] 7.] ' Q U P P U R ` R U 6._ R U P I ^ 6.6.R R q.n.V.V.q.                                                                                                                                                                                                                                                                                                                                                                                                                                                                ",
"                                                                                                                                                Y +.O.@.@.J @.+.K Y c c c i d i k G +.G Y Y +.O.K T K G +.T P Y @.Y D v v c k d d c k k v D D S v J J Y $.5.5.-.R 5.$.@.0.i.-.T 0.0.5.R ` ` 7.q.0.=.T T R ` R -.0.i.7.^ R ` ` R T 5.i.` b R ] ^ ^ w.' M U g.d.@.$.@.J n v v v c G S D c k n 7 6 7 i k i 7 < 4 k k s i 4 7 n c i 7 i v G K D k k k G Y J b D v v v Y Y v 7 - @ @ < < < @ @ O @ 4 < < < < < < < 7 4 4 7 c k 7 < < d v k 6 < @ > 6 4 < < < < < < < < 7 k c c c S S S S S S v c v v S D D c c c c v v k 4 - @ @ : - @ @ O @ $ @ @ @ @ @ @ < 4 7 k z k 7 0 k k k n d 7 i n v s s 7 3 7 7 < % $ O @ O @ @ @ O O @ @ @ O O O O @ @ O O X O @ @ @ O O @ @ @ O @ @ @ O O @ O O @ @ @ @ < $ 1 3 3 e Q v.v.p.' M r x v U CXkX] I V U a.:X%XJ.G.Z.N.' n z v S D P Y R E V U 5.x.A.s.7.! @.$.;.8.5.8.e.k.k.x.!._._.!.x.k.l.$XA..Xx.k.k.n.l.z.x.l.l.V.S.S.F.G.S.A.A.Z.,X,X,XhXjXDXDXNX<XK.C.Z.C._ Q U U U _ P P U ` _ _ R R P P U R U R 0.r.^ ^ q.n.V.V.5.                                                                                                                                                                                                                                                                                                                                                                                                                                                              ",
"                                                                                                                                                +.O.+.$.Y Y d.Y K G i d c d c v S Y O.K K Y +.K K J D K K Y T Y D v c k i 7 k c c c v v Y @.5.T Y T E Y Y @.5.-.T 0.-.+.5.5.R R q.x.7._ q.q.7.e.k.i.7.R R ` ^ -.5.k.i.7._ R R I E r.t.y.Q _ _ ^ ` p.y._ I q.d.$.;.T K i k c D c G S G c i d 7 4 7 7 i i 7 7 7 i i k k k 7 k n i i i k D D D v c c D G S v D b D D D J b i 4 < @ @ : : < @ @ @ < < < : - : - $ < 6 i c n d 6 < 4 k k i 7 4 < < > @ > < < - < 7 6 7 k b b c v G K J K K J S v v D J K J D c k c n 7 < < < @ - @ @ O O O O @ @ @ @ * < 4 4 3 e z v k 7 7 d k k d 7 i d k 7 $ < < 1 $ @ O O O @ O O O @ @ O O O @ @ O O O O @ @ O O O @ @ @ O O O @ O O O O @ O O O O O O @ @ @ @ < 4 7 e 8 7 x ' V.S.n.` m k k C Q K.w.` R V U t.XX%XH.H.C.y.P n k c S K @.@.@.Y M W -.!.A.V.w.R +.$.g.r.8.8.r.x.x.x.z.z.z.j.0.q.0.l.F..XA.k.k.z.m.z.x.l.n.S.S.S.A.A.A.F.F.D.%XvXnXMXvXjXBXBX1XG.C.D.Z._ V C C P R _ U V U U P R R P P R ` ` U ` ` ^ R 6.V.V.i.                                                                                                                                                                                                                                                                                                                                                                                                                                                              ",
"                                                                                                                                                Y $.+.T Y @.;.S v d d c D k S J G Y K K K Y Y T Y Y @.@.K Y +.D k c k i i c v v D D Y K K +.d.8.$.@.T R T R T R 5.9.i.q.6.` 6.R -.r.i.^ 6.0.q.R 0.0.7.` -.r.e.6.5.` 7.0.^ R q.q.P P ` _ C U ' R U w.t.{ C C $.$.;.+.G f f k c c c D c G i s 7 7 7 7 4 7 4 i 7 4 7 7 k k k i i k i k k c c D v n c D v c k n v v c v n z k 4 4 : @ @ - : < @ @ @ - - @ @ - < - < 4 i c c i 7 4 7 7 7 7 4 < < < > > < 4 6 < 7 d i k b J P D S S J K K Y K D v v J K J D D c k k 7 < @ @ @ @ O + o # O O O @ @ @ < 4 4 < @ < 7 k k 0 4 7 d k d 7 7 7 7 4 < @ O @ @ O . . X # # O O O O O O O O @ O O O O @ @ O O O O O @ O O O O O O + O O O O O O O @ @ : $ @ @ 7 v b D v 8 e Z y.V.C.C.y.A n e B ~ ' q.7._ U _ N.%XG.H.C.B._ v v n v D Y @.@.8.$.P W @.z.#XV.6.Y @.@.q.r.j.j.x.h.x.k.k.x.k.r.9.9.k.l.l.z.z.x.x.l.l.l.l.l.n.A.S.V.A.S.#X#XS.G.%XvXJXmXjXnXBXMX,XG.G.G.w.U C C V V ` 7.` U U I P R 6.` U U _ ' ` R U U ^ w.V.n.q.                                                                                                                                                                                                                                                                                                                                                                                                                                                            ",
"                                                                                                                                                +.;.T @.Y +.K v k d k D b c K K G G O.K K Y @.Y Y +.O.D v S D k i i i i c d K Y K K T T T T @.@.@.q.@.@.5.R R R -.q.0.5.@.7.r.^ ^ 6.5.5.r.l.k.r.0.0.7.q.0.i.V.k.0.` R ` R 6.q.t.` U _ ' R _ w.t.U U _ _ V U R @.$.+.K H i k k n c n c n n n k 7 i 7 7 7 < < i 7 4 6 i k c k 7 i i d c k k c c c c S n k i k c n n n k k i 4 < < @ O @ @ : $ @ O @ < - @ 4 < - > < 7 d k 7 4 6 6 4 4 6 4 < > < i i i k 7 < 7 k v v J P J S S S G Y Y Y K D b D J J D v k d 7 4 < @ + O @ O O O O O @ @ @ @ @ @ < 7 4 * < 7 k k 7 0 7 6 7 7 < @ < < @ @ % @ @ @ O # # X X # O # X X X # # + O O O O O O O + + + O O O O + O O O O O + O O + O O O O @ $ < $ @ < i b P P D v e e x y.p.Z.C.w.Q x M R Q ` ` q._ R ] *X%XC.C.C.a.U v v n v G T @.$.d.8.P P 8.z.#XV.6.@.$.9.k.j.g.g.g.g.0.k.l.l.z.x.r.k.l.n.z.x.k.z.l.m.x.z.A.A.n.l.A.z.A.%X%XG.S.oX2XfXkXmXAXvXjXjXK.V.J.p._ P R _ Z b R ] U U U I P R 6.7.` U U R R ` ! U R s.V.n.5.                                                                                                                                                                                                                                                                                                                                                                                                                                                          ",
"                                                                                                                                                +.Y Y $.G G G k v k c Y n S S G Y Y T Y G Y Y Y Y Y S c c d 7 i d d k D Y J K Y J Y ^ -.5.-.T Y Y T T @.T Y T ^ R -.` R 5.k.l.r.7.7.i.7.r.k.l.$Xi.` 7.` _ ` t.7.7.7.` q.P P ^ ] ] ] R ^ R t.a.p.] C U U R 6.7.` +.T D S d c v c n d k i n n D i k k k i 4 < 7 n k i d c c c k i d d d c k c v c v v c c k k k k k v k i s < @ @ @ @ @ : : $ @ @ : < < @ - < < < - - 4 6 < 4 6 4 4 7 k v 7 @ < d c k k 7 7 i k c D P Y P J S S K Y J J D v v v v v v k d 7 4 < < @ @ - @ @ @ @ < < < < @ O @ @ < 4 4 4 7 7 7 < < < 4 4 < < @ O O O O @ @ @ @ O @ O # O O O O O O O # . + + + + O O O O O o o + O O O O @ O O @ @ O O + + + O O O @ @ - @ @ < 7 k b P P D D v e 7 m y.b.v.u.C b Y q.i.p.w.' U _ w.Z.1XK.B.B.N.{ M k 0 k v Y +.@.;.9.@.P T g.#XoXt.5.@.-.r.x.k.r.q.8.8.8.i.l..X.X!.z.l.k.x.x.x.x.k.x.z.z.S.J.S.A.x.x.S.>X:XD.n.V.<XhX<XfXNXJXBXfX%XG.Z.D.] U V ' _ U U C P P R 5.` U U ` ' ! R I I R ` ` R ! v.V.s.                                                                                                                                                                                                                                                                                                                                                                                                                                                          ",
"                                                                                                                                              #.Y W T +.Y G S S D c v D c S S K Y Y Y K Y Y Y +.Y n D b k i k c c D Y T ^ R Y P P J Y T 5.R T R R W P Y Y Y @.q.q.5.` ^ ^ q.z.i.i.5.i.0.` 6.7.7.` 5.7.t.` U ` w.' _ R _ U V I _ U _ ' ] P I y.a.t.C C U U ` q.] -.Y c c c c K D c c i k i k z v 7 k n n 7 4 7 n Y c n k c v n n c c i d D v D D c D D S S S k i c Y D 7 7 < @ @ - : < 1 < @ @ < 4 < < @ - 4 < 4 4 @ > < 4 i 4 4 4 i c k 4 < < k c k 7 7 i d k k v J Y K J G D G S S v v v v n k k k k 7 < < < < 7 7 < % @ @ @ @ < < $ @ O < < < @ * < 4 4 @ @ @ > < < < < < @ X . O O O O O O @ O O O O O O O O @ O X X o + O O O O O O O + o O O O @ @ O O @ @ O O + + O O O O % < < - < 7 k v v b b D G D 8 7 8 V y.J.J.' A P 8..XoX<Xv.` U _ v.:X:XG.B.v.u._ z k z v J T -.;.;.5.Y D T 5.D.V.5.@.@.q.k.x.z.x.k.r.j.k.x.z..X_..XA.A.z.x.j.x.k.k.l.A.m.A.l.A.A.A.A.%X:X#XS.S.J.kX2XhXhXjXDXBXjXG.V.G.G.p.I V _ C C U U V P ! 7.w.` U Q R R R ` R U ! ' U ! n.v.7.                                                                                                                                                                                                                                                                                                                                                                                                                                                        ",
"                                                                                                                                              +.Y +.P K Y G v K K v c K G K S D Y K K T +.S S S s i d i i d c D D J Y Y T -.T R T P J D P Y T -.5.E P P Y Y @.5.0.5.R R U J R 7.^ E ^ _ ` U U ` ` ` R ] U U C U I ` ] 7.` I V U C V U 7.` P U ] _ V V R C P _ _ R Y c i k c G Y v v i k i i i n k i n b n 4 4 c J Y n k 7 v D D K v i i G Y Y K c n J Y Y K n i k J Y n 7 4 @ @ < < < < 4 @ @ < < < < @ @ < < 6 6 < < 4 d i < > 6 k c k 6 @ < i n k 7 k d k k k c v G S S S v v S D b b v z k k d z k < @ @ $ < 7 1 < @ + + @ @ @ @ @ @ @ @ @ @ @ @ 4 < < $ < % @ @ @ @ @ @ O . . . O O O O X O O O O O # O O O O @ # X # O O O O O O O O O + + O @ @ O # O @ @ @ @ O O @ @ @ : 4 4 < 6 7 i c n c v N b D G v 7 7 e Z C.%XH.C b @.8.<XMXhX5.@.R 0.J.:X%XG.B.v.w.! b n z v P T -.-.-.5.@.Y ` _ w.R T -.-.q.0.k.x.x.x.k.x.z.z.!.x.z..XA.A..Xx.k.k.k.k.n.S.A.z.l.k.l.V.D.oXoX#X%X>X<X<X1XCXmXVXMXnXhXZ.Z.G.D.{ C C I I P I U R C U ' Q U U U R ` ` ` ` _ R ` U ' v.v.`                                                                                                                                                                                                                                                                                                                                                                                                                                                       ",
"                                                                                                                                              +.+.Y Y Y Y D k D D n Y Y K D D K K T Y +.G c d i i i d i c K Y J J Y P Y T T $.9.8.@.T Y Y Y Y @.8.T J D Y @.+.@.^ E R U R R U Q R P P V C x x C V P M V V V V U U P U ` w._ V C m M U ` ] _ C C C P P ` _ V R ` I Y c i i c S P J n k k n i i i n i k v b s 4 i D Y D k 7 i D Y K D i d D Y Y J n n D Y +.K k i d D Y D k 7 : O @ 4 1 < < : @ : 4 < 4 < @ < 6 4 < < 4 i n i < @ 4 k d 7 6 4 7 7 7 7 4 7 i i k c c c c c S D v S K Y P D k 7 0 7 7 e 7 $ O O @ 4 1 < @ @ @ O @ @ @ @ @ @ @ @ O @ @ @ < $ @ < < @ # X @ @ @ O O . . . # O O # # X O O O # X # O @ O @ O X . O O O O + O @ @ O O O @ @ @ O # # O @ @ @ O O @ @ @ 4 7 7 8 k k k n c c b V J P E K v k n M y.G.H.Q P @.8.l.AXmXw.E @.5.a.XX:XXXC.N.y.[ N z k k b Y -.8.8.r.0.0.7.q.5.T @.-.q.0.r.0.j.r.x.x.z.x.x.z.x.k.k.z..X.XA.z.k.0.x.n.V.m.m.z.l.k.l.V.S.D.#XG.#XXX,X,X2XjXBXBXMXfXfXC.V.H.w.U M V R U C C _ Q U I U U P I ` _ U U _ _ U R R R p.N.i.5.                                                                                                                                                                                                                                                                                                                                                                                                                                                    ",
"                                                                                                                                              Y Y K +.D c c c S K S @.K G K K D K Y K S c d 4 i i i i G +.Y D J P T R T T T @.-.;.8.-.Y Y Y G Y T Y J Y T -.P P V v V V b b l B Z x d n x k n C U l e x C x V I ` U M x _ U V V M e n M V Z _ Z M k M U U C V I I T S i i d v v D k n k n z k i k k k z c n s 7 c J J n 7 7 c Y Y D k i c K Y P c n S K O.Y k i 7 c Y J k 7 < @ @ < 4 < : @ @ : < : < < 6 7 i 4 < < 4 k k 7 7 < 6 7 7 6 4 7 6 < 4 i i i i k v D G v v c c c D K T T Y b 7 7 d k 7 < * @ O O @ < < < @ @ @ @ @ @ O O @ @ @ @ @ < @ @ O O @ @ @ @ # . O @ @ O O O . . O O O O X . # # # . X # O O O O O # X O O O O + O O @ O O O @ @ @ @ O O @ @ @ @ @ @ - @ 4 7 7 k v v v v b P J J J E R R Y J D n x C b.V.` P @.R 6.nXMXw.R @.5.7.XX<X:XG.v.u.] U n v b b Y $.9.9.8.k.i.i.k.k.q.5.T 5.0.0.0.0.0.r.k.k.l.k.k.j.x.k.r.k.z.z.z.z.x.k.k.k.k.l.A.V.z.l.V.J.D.D.G.S.D.oX>X<XnXMXkXhXCXvX%XH.S.V.] C V V _ ` U C U C P U U U P U ' ] U P U U U R ` 6.p.v.i.                                                                                                                                                                                                                                                                                                                                                                                                                                                    ",
"                                                                                                                                            T Y Y Y Y v c v S Y K Y Y Y J K D J Y K D k i 4 6 7 i k D J Y J J J K @.T P J Y P Y Y Y Y T +.T Y D G S Y T K D n v v k k k x e e z P Z n 7 M x V V C V l 7 m n n P Q U I x V b U Q U V x x Z n N R ` M k b C V V V P v Y k k d c n n k s k k v z n k k k i k k k i k v v v i 7 k S D D c i c G P Y D n c D Y Y c 7 i i v Y v 7 < < < : < < : < < < : @ - 4 i i 7 < @ - 4 i 7 7 4 4 < 4 6 6 4 4 4 4 i k v v v v D K K J G S c k v J Y T T J k 7 k k 1 * * < @ O O @ @ @ @ @ @ @ @ O @ @ @ @ @ @ @ @ @ X . O O @ @ @ X X O O O O O O . . . # # # X X . . . . X # O O O O O # # # X O # + + O O O O O @ @ @ @ @ @ @ @ @ @ @ 4 7 4 7 k c P N b v N P Y P J P P R ! E P J k k n ` t.e.q.@.P V XXhXi.5.R -.5.p.1X1X%XH.u.t.] P v b b P @.8.8.0.0.R q.j..X.Xi.6.P ^ q.q.8.5.5.q.0.k.k.k.k.k.z.z.k.r.9.r.k.x.s.k.k.k.k.s.s.l.l.S.XXoXoXoXS.oXoX:X2XBXBXCXkXjXkXfX%XC.Z.t._ R R C V U U C I V P R ` ` ! I R U V P P U U ^ q.] a.a.q.                                                                                                                                                                                                                                                                                                                                                                                                                                                  ",
"                                                                                                                                          O.K Y Y K D v v S Y @.G G T K K J Y Y D K d i i i i k S Y $.@.T P Y Y Y Y Y P Y E Y P P Y Y $.;.$.Y v c D c c v z i i v b k s k n v b N M x 7 k 7 7 l 8 e e 7 8 r 7 7 n M l e B z k V C C V k C b P ^ ` _ V v V M Y R ` M P D k c c c k k i k k n n n z n c k i k i k k k n k k i i k c v c c c S D D J D c v D J n 7 d k k b D k 4 4 < < < < $ : : < : @ @ 4 k k i 4 < - 4 7 4 < < 4 < < 4 7 i 6 6 7 k J J D v v D K Y Y Y D S c c G K Y Y b d 7 k 3 * $ $ * < @ O O + O @ @ @ @ @ @ < @ O O @ @ @ O X X . O O O O O + O O O O O O . . . . . # . . X . . . X X # # O O O O O # # X X # X . o + + O O @ @ : < : < < 7 < < 4 k k k k n D J J c S P Y T Y J J T R ! R E n i i z x U 5.0.5.P P V ` w.0.0.5.5.w.K.:X%XJ.B.u.] U k n v b P @.@.q.8.-.P @.h. XXXV.5.@.5.r.k.q.8.8.q.0.k.k.j.k.k.m.z.x.j.r.k.m.A.m.l.k.k.k.i.s.C.l.A.G.C.D.V.V.<XnXBXNXNXMXBXmXkX<X:XD.V.Z.' Q Q ] I V V V P R R U P ! ` U I R I P I U ` _ U U _ a.a.5.                                                                                                                                                                                                                                                                                                                                                                                                                                                ",
"                                                                                                                                          D G Y Y G G v K D Y J Y K G T Y Y T D c d i i k c c D Y T R T Y Y T @.R Y P Y Y Y Y D D Y Y T Y K n k S S v k k k i c D b b i 7 k k k z 0 7 4 7 e e 7 7 < 7 k e x e 1 4 7 3 4 l B 7 7 x n x z b M k v P U U b M b R R ` I P P n k k c k k k k k k n k n k b n c k k i n n k i i i i k k n n v c c c D v S S k n c k i k i i k n k 7 4 < < < < @ O @ < < > @ : i k 7 7 4 4 4 4 < < < 4 7 4 4 i i 6 4 i c J J D D v S G K Y Y J v c v D D D b z k 7 1 < $ @ $ < < @ O O O O @ @ @ @ < < @ @ O O O @ @ O X X # O O O + + + O + + O + # # O O # # # . # O # X X X O # # O O O O O O O # # # X O O @ O @ @ < 3 < < 4 e z x 8 7 k v v V c v D P P J D K Y Y J J J P P U U ` k 7 i n b C C R 5.` R U R ` 5.5.5.5.0.u.XXK.J.Z.N.y.U b k v b P +.-.8.8.0.T J ;.g.#X#X7.8.-.@.9.d.g.r.r.k.x.z.z.z.k.k.x.x.j.g.0.k.z.A.A.S.z.l.l.l.D.G.V.V.n.S.n.V.1XMXmXBXNXvXBXDXDXjX1XG.V.C.Z.w.Q C V P U R C M P _ ! U U I P P R R U I I Q Q U U ] u.i.                                                                                                                                                                                                                                                                                                                                                                                                                                                ",
"                                                                                                                                        G K Y Y K K v D Y G J Y D S Y Y D D D c i u d d S S D P Y Y P P T @.$.-.Y K J D J G D v D K T Y D c k c D D c k i 7 k k v n k 4 6 0 7 7 7 7 4 7 k e x 7 < < 1 7 e e x 1 1 7 4 i l Z x 6 e x z v N b z k n V M z b v b P P P U P D k i k k i n k k k i k n n n b D c n k n v n k d i k k k d S G D v n c c c c n k k i i k 7 < 6 i i 4 < < < @ - @ @ @ 4 7 < - < 4 7 7 7 4 4 7 7 4 7 7 < 4 4 7 d i 7 < 6 c b J J D v c v D J J S S v S c c k 7 d k 7 1 < @ * < < @ < @ @ @ @ @ @ O O < @ @ O O O O @ O O + + . + + . . + O O O O @ O X O @ @ O O O # O O O O . . . O # O O O O O O O # # O @ @ @ O O @ < 7 7 < < 7 z b e 7 k c S D P v D J P P P J J D S v v D P U U U ] ' 7 7 k b _ ! U I R 5.q.q.i.e.q.5.5.5.0.Z.%XXXJ.C.u.] C v v b J Y @.9.k.0.q.Y D ;.k..Xl.7.9.9.8.g.j.!.z.j.k.!.z.z.z.z.z.x.x.x.l.k.e.0.i.z.m.z.A.V.S.Z.V.D.D.S.V.D.>X,XfXkXjXhXhXvXDXDXmXjXC.p.V.Z.7.V M M M P R ` U V I U P P P I I U ` _ U P I U U U t.p.q.                                                                                                                                                                                                                                                                                                                                                                                                                                              ",
"                                                                                                                                      K Y P D Y Y Y S D G O.K D K D J D S S S i 4 i k Y Y P Y @.T Y J W Y Y T Y G D K K D S D v Y K Y T K c k v d k d 7 4 i c k d k k k k k 7 7 4 < 4 1 3 7 3 < < < < < 3 1 7 1 1 4 1 7 k V B e e k N P U U b z x x b v M b z b V b n P U v i i k i k n n z k k k k n D D Y v k n v v D v 7 k c k c D K D D v v G c k n v k i i i i 4 < 4 6 < - < 4 4 4 < @ @ < i 7 < 4 < < 6 7 4 < 7 d i z 7 < < 7 i i s k i i p v b D v n c c k c v c S D S v k i i 7 4 4 7 4 < 3 < @ @ % < > % * @ @ @ @ * @ @ O O O + + + + . . . X . . X . O O O @ @ @ + O O @ O O O # O O O O . . . . O O # # X O O O # # @ $ @ @ O O : 7 7 7 : 4 k k k z k n v G P P D S S D G S S S S D v b P U Q C U _ _ x < 7 k b ! 6.Q V E @._..XS.i.q.R -.q.i.%X,X%XJ.N.t.Q v k v b P T $.8.g.q.` D Y 8.S.&Xi.q.g.9.d.g.x.m.z.k.8.0.e.k.x.l.x.x.z.A.l.l.l.k.i.k.k.k.l.l.i.l.XX#XJ.J.XXXXhXjX<XhXhXhXNXnXMXDXAX<XZ.n.G.u.U P U I I V U U V V P U P P U R I V I I P P U U U R p.i.^                                                                                                                                                                                                                                                                                                                                                                                                                                             ",
"                                                                                                                                    ..Y Y D J Y Y G S K Y J G D D D D D K k i 4 d c J Y P P T +.T D D P Y G G G S K K D v k n c k k v v c d c c i i i 7 u c D v k k k d k k 7 4 4 4 7 < < < < < < < < @ < < < 4 7 7 7 4 7 e x e k 7 d z N C M z x z n b V V b z b V v V ' P k i i i i n k n 7 k n k n c D D J i c v D D D 7 7 v D S Y D v G J J +.D k k D G k i i 7 6 < 4 6 4 < - < 7 i 4 < - 4 i i i 7 4 < 4 i 7 < 4 i k k 7 < < i c k s 7 k k d c c b v v v b c v S S D S c v k d d 6 < < 7 7 7 4 * @ @ O @ @ @ @ @ @ @ @ @ @ @ O O + + . . X X . O O X O X . o O O @ @ O X X + O O O O # # O O O . . . . # # X X . O O O O O @ 4 @ O @ @ 7 7 7 7 7 i k k k z n c D G D v v c c S D b b J P b b P P R C x x V Z Z e > 7 v P 6.7.` V P 8..X#XS.7.5.@.@.0.D.:X%XK.H.v.] V k k v D Y @.;.d.g.q.5.T R U %X%Xq.;.;.8.8.9.k.m.z.k.8.q.0.k.x.i.k.x.x.l.l.n.m.l.l.k.k.i.0.s.l.Z.S.n.A.G.Z.S.jXnXNXBXjXAXDXvXnXBXMXhXZ.n.v.Q x V R ` U V V I P P R ! U P I U V V I P V I U Q Q _ p.i.                                                                                                                                                                                                                                                                                                                                                                                                                                            ",
"                                                                                                                                    Y G J P @.Y K G Y D D K S D b P P J s 7 4 d c D D v J J P Y K J G Y T G k s z k n k s i d n k i i d k v v c v d i k k c v n k k k 7 7 k 7 < 4 7 e 1 < < < 4 7 7 3 < $ < 4 7 7 e k 7 7 7 4 k z e < 7 k x b n b n d n b V V b n V b M R U b k i i i i k n D i b v v n n v J n k v D J v 4 i c D Y Y b v D D G Y K n k c J G k d 4 < 7 i 6 4 < : < 4 7 7 7 < < 7 4 4 i k 6 7 c 7 - < i c k i 4 < 7 k k 7 7 i i k k c D b v D b D J J K v c c c d i 7 < @ @ < 7 7 7 < @ @ O O @ @ @ @ % @ O O O + + + O + . X O + + O @ O O + . . . O O O + . X + . # O O # # . # . O . . . O O X # O O O O O @ @ @ O O @ < 4 4 < 7 i i i i i f n c D D S v v v b P D v P R P b S v V V V V m x x C V < 4 k J ! 7.w.6.P J 5.A.D.l.q.;.;.9.i.#X:XJ.H.N.y.] b n n v D Y @.8.k.k.0.q.q.' V.t.q.$.;.8.9.9.g.x.A.z.x.8.q.0.l.x.k.k.k.k.x.x.z.z.z.l.k.l.n.i.e.e.n.A.A.V.l.a.:XjXSXAXvXkXVXAXNXCXnXjX:Xa.V.N.C k x U U M V I U V V Q Q I P P V P P P U U V I Q Q _ w.q.                                                                                                                                                                                                                                                                                                                                                                                                                                          ",
"                                                                                                                                  D J Y Y Y Y Y K K D D G D Y J P Y S i u 7 i S v P b b Y Y K D S S c G b k s k k s i 7 7 i c c D k d d i c c c v k i k i i k d i k k 7 0 7 3 < i 7 e 7 < < < < 7 e 7 e $ * 4 7 7 k k 8 7 r i n V V 8 7 k l k v M M k k z M x b b b z n C _ C v k 7 i i i k n v c b v b n n v D c n D Y c i i n D J J D v v S G K D n i k S J v k 4 > 4 k i < < - @ < i 7 7 < < i i < 4 i d k k 7 < - i k 7 7 i 7 7 7 7 6 7 i k c f D J D b D D S Y Y D k d d k d 7 4 < @ @ > 4 7 4 < % @ @ O @ O + + O O + O O O + + O O O @ O + + + @ O O O . . . . + o . . . . . . . . . . . . . . . . . o O O O @ @ @ O @ 4 @ @ @ : 7 1 4 4 7 d i d i i i f d c S D v v D D P P D D Y P P v v 0 e 7 e e 3 3 e r m B 1 i v W ! w.6.5.Y Y 5.Z.%X7.8.8.g.k.l.J.%XZ.C.u.] C k k k v P T @.8.r.9.q.7.0.7.q.q.5.$.$.8.0.k.l.x.z.z.x.g.q.0.x.z.z.z.l.x.k.k.l.n.n.l.k.l.l.s.i.i.D.G.A.D.D.jXmXVXMXkXkXMXmXNXBXjX<X1XV.a.G.V.U b M V M M V I U P P V P V P R U U I R 7.` ! U U U _ y.6.                                                                                                                                                                                                                                                                                                                                                                                                                                        ",
"                                                                                                                                O.D Y Y Y K G G K K G S D Y Y J J v i 7 i i v v J J b G Y D c S S k 7 d k s s i k k 7 7 7 i n c b k k k i 7 d c d k c k d i k k n v n k 0 4 4 4 4 7 7 3 $ < < < < < * @ @ < : * 7 k k k 1 7 7 k n V v k k x k J P U b k z k z v V U b n M U C x b i i k i k k z i n n b v n c c c c c D c k k k n v D D D c v D P S c d k S G D n 6 < < i z 7 < < < < < < < < 4 i k 4 < 4 7 k i i 7 4 4 4 4 6 7 i i i i k k k c c S D Y P D c c J T J b k 7 7 7 4 < < < > - @ < < < @ @ @ @ O O O O + O @ O O @ @ O O O @ @ @ O O + + + O O O o . . . . . . . . . . . + O O . . . . . . . O @ @ @ @ @ * < < 1 < $ 4 7 7 7 7 i k n z v v k f v n k v D P D S D J R P v S D n k k 7 * @ @ < e r x m t V Z r 7 k v D ` 6.5.T Y R XX%X7.@.;.g.g.k.S.oXXXB.v.w.Q v k k n D Y @.5.0.k.0.5.8.r.0.0.7.5.@.@.@.8.q.k.x.x.z.x.r.q.q.9.0.k.x.k.x.k.l.S.A.z.z.l.l.i.k.i.p.%XXXXX,XjXmXVXNXkXjXBXDXNXBXBXCX,XH.a.V.H.v.V b V V M b V U U V V P P V R A.oXhX<X#Xm.l.a.i.7.w.w.p.`                                                                                                                                                                                                                                                                                                                                                                                                                                       ",
"                                                                                                                              O.D Y Y D D G K G Y D S G P J v D k d 4 7 i S c D J D S c c k k G c k i u i i k z z k 7 7 7 7 i k k i c k i i d d k c c k c k c k k n k e 7 * 4 < < 4 < * @ : < @ @ $ $ @ : < $ : 4 7 7 e 4 7 < 7 7 k z k k z k n P R V k k n v P V I b n M C V M V z i k k k k k k i n v D n D v S c k c S c v k k n n c v c n c D D v n c n v D v i 6 4 4 i 7 4 7 < < @ @ - < 4 i k 4 < < 7 i 7 i 7 4 < - < 4 u i i i i z n k k k k c G G S v c K K D n i 7 6 < - - - - < < < @ O O O O @ @ @ @ @ @ @ O @ @ @ @ O O O O O @ @ @ O + + . . o + . o . . . X X . + O O O O O O O . o O . . o O - : @ O $ 3 7 3 @ : @ 3 k 7 7 7 k v v v v v v v D v c D P P S v G J P v n k i i 7 4 < < @ @ 3 e r x 3 9 t V B 3 7 k D R 0.q.$.@.@.w.%Xi.q.@.;.9.9.k.:X:XZ.N.y.' C v n c b P T -.8.k.e.q.Y ;.x.z.i.] ` T @.$.8.r.k.0.g.j.k.k.q.=.5.q.0.q.0.k.k.i.n.z.z.z.A.l.s.k.l.D.XX:X,XhXmXNXCXvXNXDXSXAXNXBXBXNXhXZ.V.J.K._ M b I I I I V P P V V ! i.k.#XfXfX#XA.n.D.H.B.v.V.a.p.t.                                                                                                                                                                                                                                                                                                                                                                                                                                      ",
"                                                                                                                              G D J D S K K G Y G Y J D D b G k i i u i c v v D J K i i 7 i k c d k 7 7 i 7 i k k 7 7 i i 7 i i i c v c d d d c c v J v n c c k i i 7 4 * < < < @ < * @ @ : : @ @ @ : @ < * * < 4 < < 7 7 e 4 4 7 7 < 4 7 b i k b U M e k z z M V U V z x M M I U V s i k k n z n k z b D n v b D D n n c n n n k k k k n n c k c c n c D k c v c c i 4 4 7 7 < < < < < @ @ - 7 d 7 7 < - 4 7 4 4 i 7 < > 4 i i i k d k n v k d f f H D D S D c D J b k k i 4 : - @ - < < < < < $ $ @ O @ @ < 4 < % @ O O @ @ @ @ @ O O O @ O O o + . . . . . . + + + + + + + + O O O O . O O O O O . . O O @ O O O $ 7 8 1 O @ < 7 s 7 i d n b b v D G G D G v D Y Y P D S J D v k i 7 7 7 4 < 7 < @ @ @ < < 1 @ * 8 m V r k n S Y q.r.r.8.8.q.6.R @.-.q.r.r.0.S.>X%XC.a.t.Q n k n n D Y $.8.9.e.e.! P 8.W.m.l.v.` Y @.$.g.k.k.8.8.9.k.i.5.@.@.q.q.e.e.k.0.e.0.k.l.l.l.l.k.k.V.kXhX<X>XkXjXvXvXvXMXDXFXSXVXNXCXkX,XV.n.K.w.V b b P U Q I V U R s.S..XA.oX:XS.V.u.V.N.v.t.v.C.J.y.p.6.                                                                                                                                                                                                                                                                                                                                                                                                                                    ",
"                                                                                                                            Y D D D D G Y D D G K D J D K G c 7 u 7 c c n v J Y K d 4 > 6 i u d k i 7 7 7 4 7 i 7 7 i k i d d i d c S v v c d v c c J v k d i k 7 7 7 < < < : < @ @ @ @ @ < 1 < @ @ < : 1 1 7 1 < < < 7 8 e k 7 7 e 4 7 d m 7 7 i x e 4 7 b i k b x m e e n k M V U b i i i n n v b k n n c z D v J v c k c k n k i d i k c k k c k c c c k i i k i i 7 4 < < < < < 7 < @ @ - 7 7 < 7 4 4 < 4 4 4 i 7 7 7 7 s i 7 7 k v S v n d i i c k n k c c k c n i k i 4 < 4 < 4 < < < 4 1 3 4 * @ @ @ < 4 4 < @ O O @ O @ @ @ @ O O + + . . + . . . . . . O @ O O + + . o + + + . . . O O o o . . O @ @ O O @ 1 7 7 1 @ < 7 7 i k z c c D D D D D G D D D D D D v c c v i k s 7 7 < < : < < $ O @ O @ @ 3 < $ * e C x k c S P T e.k.k.9.8.q.5.-.@.8.q.0.0.i.:X>XXXN.u.{ Z k k k c J T ;.8.q.e.w.E Y 8..XoX%XJ.R Y @.$.r.k.9.@.$.8.i.k.5.R R q.0.i.k.k.s.l.l.z.S.S.z.k.k.oXfX2XXX%X1XCXMXhXhXhXmXAXBXmXNXBXNX<XG.v.Z.K.7.I M n V U U ^ n.oX1X<XoXoX%XG.D.G.H.v.V.V.V.Z.G.G.v.t.t.^                                                                                                                                                                                                                                                                                                                                                                                                                                   ",
"                                                                                                                          O.G v D Y D G D D G D D Y Y T S i 4 i 7 c v c D J Y G k 4 < < u 7 4 i i 4 7 7 7 4 7 i 7 4 i k k n i i i i c c c v v v c n v k i k k k 7 7 4 < < 4 < < @ O @ @ @ < < 1 $ @ @ @ < < < < < < 4 7 s n k 7 4 7 7 i k b M 7 4 7 k 7 7 k k 7 k e e 3 7 8 7 7 n V V k 7 i i D c G b c n k k k S D Y c c G v k d k i d k k d k k k c k k i i d k i 7 7 7 4 4 4 < 4 i 7 < - - 6 4 < 6 7 6 4 4 i k 7 < 7 k k z k k 7 k c Y D n d i p i d d d c k k d d d i 7 4 4 6 7 7 < $ < 7 7 7 1 < @ O O @ < < < @ O O O O + O O O O O + + . . . + O + + . . O @ @ O + + X + + . . . . . O + . . O O O O O O O @ 4 4 < $ 4 6 7 7 i z k k c c D D D J D S S v c f c c k n z z i 7 7 7 < @ @ @ @ @ @ O O O @ @ $ * e m U P D S S D P 5.k.l.k.0.q.-.8.-.@.8.0.i.i.a.,X1XJ.N.u.' V k z n v P @.8.8.e.e.6.P Y g. X>X%X! P Y Y @.q.0.8.@.@.q.i.k.8.5.5.9.k.l.k.x.z.m.A.C.s.e.q.q.i.G.V.XX#XkXNXNXhX2XvXVXBXNXBXvXjXjXjXjXV.V.K.J.Q Q C P ! i..XoXoXD.#XC.Z.Z.V.B.G.C.V.V.a.C.H.C.S.Z.t.w.i.                                                                                                                                                                                                                                                                                                                                                                                                                                  ",
"                                                                                                                        O.D v D J D S G D G v D Y Y K v i 7 i i i v v J D G D i 6 : < 4 7 7 4 4 7 4 7 7 7 7 7 4 4 4 i c k k d k c d c c c S K D v D c k i k k k i 7 4 < < < < @ @ O O + O $ < < @ < < @ : < < < < < 4 4 8 8 e 7 < 4 7 7 k z b e 4 7 k k k 8 k 7 e l 7 7 e e 7 < 7 y t e k i 7 n b c D v D n c k z v Y v D Y n i i k c c k i k c c c c k d d k c G c 4 6 i i i 7 4 4 7 7 7 < - 4 4 < 7 7 < < 7 i c 7 < 4 i k c n k k k k v S c k d i i f k n c k c c k k 7 < < 4 i 7 7 4 * $ < 4 7 4 < @ @ @ @ @ @ O O + + o o o O O O @ @ O + . . o O @ O . . . + @ O O + X . . . . . . . . . + . . O O O O O @ @ @ - < @ < 7 7 i 7 d f k c c S S D D D D v D v S D v c v D D z 4 4 4 < @ O O O O O O # O O @ < e C Q Q P P P J K J J P q.k.l.k.0.8.8.8.$.R 5.0.i.i.D.1X1XH.u.t._ n k k z v Y @.8.9.e.7.! P T g.#XoXa.R P Y T 5.9.8.;.@.R 6.l.k.9.q.q.7.0.i.k.x.n.G.G.n.l.k.q.q.e.n.%XjXvXNXmXkXhXvXBXSXVXBXBXMXhXhX1XXXv.a.K.v.] U 7.8.7.w.v.7.] 7.v.N.u.t.v.N.B.y.] w.C.V.p.6.V.v.w.i.6.                                                                                                                                                                                                                                                                                                                                                                                                                                ",
"                                                                                                                        v D D D S D D K D v J D Y K c i 7 6 7 i J v D D c c d i < : < < 7 7 < < 4 < 4 7 7 7 7 7 7 7 i c i i S S S D c k k K +.K Y D n n k k i 7 6 < < - @ < $ @ O @ @ @ @ @ @ @ < < $ @ @ @ : < 4 4 7 4 7 4 7 4 < < 4 4 i 7 8 7 4 7 7 7 n B n 7 7 e 7 7 k m e < 8 r 8 7 z i k d n c v n D D n D k k D G c G c 4 d k S S c d k c S S c c k k c G Y G i < 7 k k 7 4 4 7 4 4 4 > 4 7 7 i 7 - < 7 k k 4 < 4 i k k k i i k k n c k i i d c c S S k i i k k i 4 < @ : 7 7 7 < * * * * < < < < < @ O O O + + + + + + + O O @ @ @ O + . . . O O + . . . . + . . o . . . . O O O + . O O o o O o O - @ < @ - 4 6 7 7 7 7 i i p p k c c v c v D J J J v c S S i i v S k 1 - < @ @ O O + + + O O $ $ 3 1 e V R ` U P P P P P K G D P 9.k.i.0.9.;.9.g.@.R 5.0.i.i.oX1X:XB.u.[ Z k k k z D Y ;.8.0.w.! P P T k.#X#Xw.I P P R q.8.8.8.q.7.s.s.x.z.i.e.6.q.k.x.n.S.A.S.#XS.k.k.e.XX<XfXfXkX,XfXvXkXBXSXFXFXFXSXDXnXhX<XH.C.H.oXoX#Xl.7.l.C.V.t.a.Z.a.C.a.V.H.Z.C.7.w.v.N.] _ ' w.C.y.' w.`                                                                                                                                                                                                                                                                                                                                                                                                                               ",
"                                                                                                                      K G J v v D G Y G D D v v S v 7 u 6 7 k D J c D S S i i 7 - 4 4 4 4 4 < < 4 < < 7 7 7 7 i i i d d 7 c G Y Y J v v c K T P J v k k 7 4 7 4 - @ @ @ @ - @ O O @ @ @ @ @ @ : 4 : @ @ @ @ < < 7 7 e 4 < < 1 4 7 4 7 4 7 4 7 < 4 8 l < 7 l x 7 7 e 7 < 8 B m 7 7 8 7 3 t z n k k n c k c D c P D c c c c c k i i c G D c i k k S G v n k i c G K v k < 4 i i 7 4 4 < < 4 4 < 7 k k i 6 < < d k k d 4 7 i i k i i i k d k k k k k i c G J v k 7 7 i 7 6 < < @ - < 7 7 1 * < $ @ @ @ @ @ @ @ @ O O O o o O @ O O O O @ @ @ O O + . . . . . . . . . . . . . . . o + O @ O + O @ @ O o o O @ 4 4 < - < i d k d 7 7 k k f c k c D S c v D P P D S S D n k i i 7 < @ < @ O O O O O O @ @ $ * 1 e 8 b P R ! P J P P R E Y G S D Y 0.i.0.5.;.;.x.k.6.U R q.0.l.1X1XK.v.| Q b k k k n D Y $.8.7.w.R P P @.z.oX%Xw.P W W P $.8.9.0.e.s.k.x.z.s.k.0.q.q.6.e.k.i.S.D.m.k.0.e.%X,X:X%XXX%XkXjXhXhXMXDXSXDXSXHXDXBXkXfXoXoXoXoXD.l.A.J.Z.V.C.J.Z.n.V.C.F.H.C.V.l.D.Z.l.0.6.a.V.G.a.6.' w.T                                                                                                                                                                                                                                                                                                                                                                                                                             ",
"                                                                                                                    O.D J v v G S G G v D D c J v i 6 7 d S v b v D D S d u 7 < : < 4 : < 4 4 4 7 4 4 7 4 7 i d c S c i k S G +.+.J S D S v D J z k k i 4 < < @ @ @ @ @ @ @ @ @ @ @ * $ @ @ @ @ : < @ @ @ O @ < 7 7 8 e < < 4 7 7 7 k 7 7 7 7 4 7 7 m 7 4 e e 7 8 e e < 5 r t 8 e e 7 7 x C k n k c v c k v n v Y c G k c k n n k k J J S i i i k D J v k i k S G c i < 4 7 7 4 4 6 < 4 i 4 < i c c d 4 4 6 d k i 7 i i 7 6 6 6 7 i k k c c c c i i c D J n k 7 7 7 4 < < < < @ < < < < - @ @ @ @ @ @ O @ @ @ @ @ O . o O @ @ @ O O @ @ O O + . . . . . . . . . . . + . . . . O O @ O O O @ @ O + . + - 4 7 4 @ < 4 d k d i i k c c k k c v S S c v D J Y D D D v k 7 6 4 @ O O @ @ @ @ O O @ O O @ @ < e x b P Y Y E P P P P Y R E Y S v b @.0.i.5.Y +.d.z.k.t.R U q.e.oX1X1XJ.u._ V 0 k k k n D Y $.6.w.6.P P P R oX<X:XT Y Y +.$.5.5.5.5.q.i.s.l.x.k.r.0.0.0.0.i.n.n.n.i.i.0.7.w.p.G.%X>X:XjXvX%X:XmXSXVXBXBXmXMXMXfXl.7.6.p.n.7.0.Z.C.y.] t.C.Z.V.i.C.J.G.v.v.Z.J.C.i.0.s.C.V.a.V.#Xt.7.7.T                                                                                                                                                                                                                                                                                                                                                                                                                           ",
"                                                                                                                  O.D G v b D D v D G D J D K d 7 6 i f S v D b D Y S v 6 4 4 < < 4 < - < 4 4 7 i i 7 7 i i c v D J c f c S K +.Y S S J D c v v d k c 7 4 < - @ - < < * @ @ @ @ @ @ @ @ @ @ @ @ @ < @ @ - @ @ < < 4 < 1 4 4 < 4 7 7 7 7 7 7 4 4 i s M l < e 7 7 7 l x 7 < r e 1 e x 3 4 e V V k n k D c c k c c P D D J k c k k c k n D v k i k k c J J c k c c Y n s 4 4 7 < < < 4 7 i i < < u n D k i i i d k i 7 i i 7 4 i i i 7 7 k c S D c 4 i k D v k k 7 4 < < < < < 4 < @ @ < < @ @ @ @ @ < @ O @ - < < @ O + + @ @ @ @ O O O O . . . . . . . . . . . o + O o X . . O O @ O @ O O - @ O + + @ 4 i i 7 4 4 i d k i i i c S c k k c c S v c v D K D v c d 7 7 4 @ @ O O O 1 < < @ O @ $ < > < 4 7 n b S W D P P P P P P P R R T K v c D 5.0.7.@.Y ;.h.A.n.p.I R q.s.,X<X:XZ.{ Z k 0 d k n v J Y 8.0.0.q.T P b ! :X%X5.@.@.@.8.9.q.7.5.R ` k.k.z.z.k.k.k.0.k.a.n.V.D.A.k.e.6.6.7.n.XX1X<X>X%X%X:XvXDXDXSXDXBXkXD.q.5.R y.t.6.` V.C.v.w.t.t.v.y.t.t.y.V.u.] t.v.H.v.` ` V.C.V.R e.#XJ.w.p.0.E                                                                                                                                                                                                                                                                                                                                                                                                                         ",
"                                                                                                                  K D D D P v c D K Y D Y D d 6 7 k c S v D P v J H f 7 4 < < 4 4 6 4 4 4 u i i i k i i k d k c D D v c S D K Y G J J J J v c c d k k 7 7 < @ @ @ < * $ @ @ @ @ @ @ @ @ @ - @ $ @ - : < < < < 4 < 1 $ < 7 7 7 4 4 4 < 4 7 k 7 4 s k b m < e k k x C C e 7 r l 7 e V r 7 8 t m z k k c v c v k k k D c Y S v n k k k i k c k k i k k v b v c k k c n s 1 7 4 - - < 7 i k d 4 < 7 c v k i 7 7 d d i k i 7 7 7 d c k 7 < i c v S n d 7 k c s i k i 4 < < < < < < 4 < < < < $ @ @ < < 1 < O O @ < < $ @ O O O @ O O + + + . . . . . . . . o . . . o + O + . . . o O O O O + @ > @ O O @ < u i 7 7 7 i d k d i i i c c c k i f c k k d c S v c i i 7 7 4 < - < @ O O @ * $ O O @ 4 l 7 7 d k v v D D b D P P P P P P R R R O.G v v J R 6.` Y O.8.z..Xl.` P R 7.%X<X2X:XC.] V e 0 z z v D P @.d.k.r.q.8.R V ~ U @.$.$.T I P R q.0.k.i.i.e.k.k.k.0.` 5.6.7.p.l.n.m.A.A.n.k.k.s.K.:X,X>X:XvXMXjXNXmXBXAXjXS.a.q.e.v.v.s.a.S.Z.Z.Z.a.V.C.V.i.0.V.C.C.i.] y.N.v.` U _ t._ V P U n.V.w.i.p.0.                                                                                                                                                                                                                                                                                                                                                                                                                        ",
"                                                                                                                O.v S D D v v D Y Y D D S i u 7 i c D J b Y J v D i 4 4 4 4 < 6 6 f c f i k c k k c c S S S c S S S S G K G J J G K K K Y S c d 7 6 k 7 < @ @ @ @ @ @ @ @ @ @ @ @ @ @ @ - @ @ < < @ < < 6 7 4 4 < < < 4 i k x 8 7 e 4 7 k b x 7 7 i e x 1 7 7 < k m Q m e e l m V _ Z x x m x x z k k c k b c v d n n S J v D c S k i d k k k k k k k c n k k k k i 7 < 4 4 < - - 7 d k k 7 4 6 i k k 7 7 7 i i k v k 4 4 7 k c k i 6 7 d c c c d 7 i k i i i 4 4 4 < < 4 < @ < 4 4 4 7 < @ O @ < < < @ O @ < < < @ O + O . . . + O O o o . . . . @ O o . . . + O O o . . . . o + O + O @ O O O O : 4 7 4 7 6 i i c k d k f i k f k c i i i i i k c c v i k 7 s 4 @ @ @ @ @ . O @ $ $ $ : 4 < 7 z v v D D D W P W W P P P P P P P E R E G S n S E ' ' I G Y 8.z.S.i.5.E 5.p.<XhX<XK.N.] V 0 0 k k n D Y 8.8.5.q.5.5.! ! ! 5.R 5.-.R R U ! 5.0.k.x.l.l.x._._.k.5.E I ` 7.0.k.l.S.F.l.x.l.XX1X:X%X<XmXmXMXjX<X>Xe.u.7.R ! p.v._ I y.N.v.V.s.a.Z.V.i.i.n.D.D.A.i.s.D.C.n.7.u.V.u.w.P R i.v.` 7.` 7.v.7.                                                                                                                                                                                                                                                                                                                                                                                                                      ",
"                                                                                                              +.n D v v S S D G J D c c S i i i S D J D J P c S f 4 6 4 4 < 4 6 i k c S S H c c S S S S G K J S S S K Y Y Y G D D K K J D v k d 7 6 7 < @ @ @ @ @ @ @ @ @ < @ $ @ @ @ @ - : : < < < < 4 4 4 4 < < < 7 7 k b C z 7 7 7 d v I U b 7 x 8 7 8 e 7 4 4 k V V e e 8 m U [ ] B B C x x U z k k c v v n D k k c D c D n D G k k k k k k k k k n c k i i 7 i 7 4 4 i 4 < < 4 i i i 7 7 i i i i 7 7 7 d k c v 7 < : 7 k k k i 7 7 d d k c k 7 7 i 7 7 7 4 < 4 4 7 7 4 < < < 7 7 4 < @ O @ < < @ @ O @ @ @ @ + . o o . o o + + @ @ O + . . . + O + . . . o + o . . . o . . o + @ @ O + @ @ - 4 4 4 7 7 6 i k c c c d d k i d i i i i i i k k S J k 7 7 7 7 @ O @ O O @ @ @ $ @ * < 7 7 d n b W D P D J P P P P P P P D b P P D P U v c k n P ! 6.` b D Y 8.l.D.7.5.R q.V.hXhX:XH.y._ V k e k k c J @.8.5.! I M J 5.k.l.V.! P P @.q.q.=.R 5.q.i.i.r.z.z.z.k.q.q.0.i.i.0.k.S.S.l.k.l.%X:X:X:X:XhXvXjXD.Y ` U V V M C ' m n V C ] _ Q U p.v.v.` q.C.Z.F.r.7.V.G.V.s.n.G.S.n.i.7.l.S.l.0.i.D.w.t.p.7.                                                                                                                                                                                                                                                                                                                                                                                                                    ",
"                                                                                                              b b v v D S D S D S S S c i u i D J b D D D c v S 4 7 4 4 < < 4 4 k v c S S S c c D G G S D D D S S D K +.T Y D S G S S S c d c k 6 < < * @ @ @ @ @ @ @ O @ @ @ @ @ @ @ @ @ > < < < 4 4 7 7 4 4 < < < 7 4 7 7 l 7 7 7 7 k n U _ I 7 7 l 7 k V m 8 7 V x m m B 8 1 x _ ] C V Q Z U ' _ k i k n b n D v k n k v c S c Y v c c c c k k k k c S k k k i d i 4 4 i 7 4 < < 4 7 7 i i d d i k n 7 7 k S J n 7 < - 7 i k i d d i i 7 i i d i i i 7 i i 4 < 4 4 7 7 4 < < < 4 7 7 < @ O @ @ @ @ @ O O o o o + + O O + + . . + @ @ : O o . . + + o . . . + o + O O O + @ O @ @ @ O + @ < 4 4 6 7 i k p i c c v S c f k k k n d i f v c i i d v z 6 6 7 4 < @ @ O O O @ @ @ @ < 7 k n b D v D J P P D J P E R P P P P P P P P M x C V 7 7 k c R ' ' P b S T 8.J.%X6.5.` w.:X<X1X%XC.t._ x 0 k d n D Y Y 5.0.6.V P @.j.#XoXw.P D Y @.q.k.q.` 5.` 6.6.9.i.l.i.7.5.q.i.l.l.e.a.s.l.l.l.C.D.oX>X,X,X,Xe.7.` p.t.6.V ] t.t.C n Q y.{ V V C t.' C V _ y.u._ ^ ' N.v.Q V t.v.V.7.R i.u.C.0.q.D.S.n.7.a.n.`                                                                                                                                                                                                                                                                                                                                                                                                                   ",
"                                                                                                              b v n D G v S S D G J i 4 i s S J n v D J Y v G 7 4 7 < < < 6 i i v S v v S S k c S G Y D D v c v D K K Y Y K S G K S S c i d c d 7 < < < @ @ @ @ @ O O O @ @ @ @ @ @ - < < > < < < 7 7 7 7 4 8 > < 4 7 7 4 7 e 7 7 7 7 i i k m x e 7 x 7 i C ' C e V V k V _ C e l C _ Q C _ Z U ' w.P k i k n n v Y k n k c k n c S Y S S v S c k c v D D k i c v c k 7 < 7 7 4 4 < 4 7 6 i d d d d k n 7 7 d v D n i < 4 7 k i 7 i i 7 7 6 i i i 7 i i 7 i k 4 : 4 7 i 7 7 < @ $ < 4 4 < @ O O O O O O @ O o O O o + @ @ O O + . . + @ @ @ o . . . . . . . + + O @ : @ + . @ @ : @ + + @ 4 4 7 4 7 i k c k k k v S G S c c c S c d f H S k 7 i k d 7 4 4 > @ O O O O O O O @ 3 k k n J P Y D D D Y P P G G J Y R R P P P P P U R I M r m 4 < 7 v D _ 7.` P D J 8.i.&Xi.R R 6.p.:X<X:XG.v.' V k 7 i c v J J Y -.7.R v Y 8.#X,Xi.R v P P @.9.x.k.q.q.q.5.7.i.l.l.x.g.9.7.q.l.V.S.k.0.0.7.i.V.G.C.D.v.t.! ` w.v.a.Q w.{ t.t.` 6.u.N.y.R ] u.v.t.U ` p.a.7.` 0.y.y.Z b V Q [ I k C U ' x n b t.C.s.` p.v.v.`                                               @.q.s.A.#XA.l.k.7.5.R                                                                                                                                                                                                                                                                                                                                             ",
"                                                                                                              v n D G v v D G Y J d 6 6 c c S v v J J @.K v f - < - - < 4 d 7 v D D D S v v D D S D Y Y G v c v J K K K K S G K Y G S c i i i 7 4 < < @ @ @ @ @ O O O O O O @ O @ - < < < < < < 7 7 7 7 7 < 7 4 u i z n 7 7 l 7 i i n k i 7 e k 8 k m 7 < 7 A C x x V n U ] ' C m V C U U 7._ C Q y.t.M i n k k k D D c c n v k k k G c D D D n k c G J K v i k c D v 7 4 7 < 4 7 4 7 i d c 7 i c c k k 7 < 7 c n z k 4 < 7 i 7 7 i i 7 7 i i d i 4 7 7 7 i k 4 - < 7 k 7 7 < @ @ @ < < < $ @ O o o o o @ @ @ O o . . O @ O O + . . . o + + + + . + + @ O + + O @ @ @ O . + @ O @ O o @ < 4 7 7 7 i d k c k f c S G G v c c S S c d d H c c k i 4 > < < O @ O O O @ @ % @ @ 3 n b v S D P P D S G E P D D D G Y E R P V D P P R ' [ V e 7 < @ < k G G ! ` 5.Y Y @.i.<XK.b v Y w.G.<X<XXXV.t.Q V k k k n S P Y Y q.q.b n P R i.S.i.R T E T 5.e.l.k.k.r.q.6.` 6.0.r.h.k.k.0.i.s.l.l.k.e.q.6.6.R ! Q M V v M Q x k k m [ Q C P w.u.t._ Q ] y.y.' ` t.V.s.r.i.Z.V.V.7.q.V.v.a.P W Q { V v k V _ V b I ' t.v.a.`                                     6.e.k.S.#X#X#XoXoXoXoX#X#X#X.XA.l.k.q.5.R T R R R R R R                                                                                                                                                                                                                                                                                                                   ",
"                                                                                                              v P P v n G G Y G d d i d c c v n P Y Y Y c d - : - @ 4 < c d i S b D D J D v P T Y Y J J G D v c D D D D D G Y Y Y D c 7 < < 4 4 < < @ < @ @ @ @ O @ @ @ O @ @ @ - < 4 < < < : < 4 4 4 7 < @ 4 4 u d z x s 4 x s n b V V z 8 8 k i n U x 7 e m V V x Z x x Q ' [ Q C V I ` i.] ' 7.t.u.q.z n v k k k v c n k J c d k k c c D D c k c D J D c 4 i k c c k 7 4 4 7 4 4 k c c c 7 7 k b k i i 7 4 i k k 7 7 4 4 7 4 7 i 7 7 i d d k k 4 < 7 7 i d 7 < : < 7 7 4 < @ @ @ < < @ @ O O O O O o O O @ O O o o O O @ @ + . . . + + + + + + O @ @ + . o @ @ @ O + . + @ @ O + + - 7 i k i i d k k c c k c S S S c c c S c d i i d i d 7 - - @ - @ @ : @ O @ @ * @ @ 3 d v D D D J P D D v D D v S S S D D J P P P b b b V Z Q B r 3 * < < k D Y Y 5.q.8.5.P ! Q U Y K Y 6.G.<XfX%XZ.y._ V e k k c S P @.Y 5.q.R J K P U G.w.P P Y T T R 6.0.k.x.l.k.k.r.7.q.8.q.r.k.l.A.A.l.l.n.p.U R ! w.{ M l n C r 7 7 7 e e e k b U C I M Q Q V b b U t.u.7.` v.N.C.i.t.V.G.Z.l.e.V.v.u.w.P 7.n.t.6.T ` 7.w.v.V.a.                            R q.0.k.A.A.#XoXoXoX@X#XoXoXoX#X X X X X X.X X#X.XA.i.q.q.R R ^ ^ ! w.7.R P V ` R R                                                                                                                                                                                                                                                                                               ",
"                                                                                                              b D S v D J D J c i i d S S J v J Y D J S f 4 - < @ 4 < 6 f u k v v D D E T D D Y T Y G v Y +.+.J c c v S D D S Y n c d 7 < < < < @ @ < - @ O @ O O @ @ @ @ @ O O @ < < < @ - < < - 4 < < < < 4 4 4 7 7 7 8 4 k 7 k n V C M z i n P P _ U k n V b b U ] M z m V C Q R C U r.l.0.7.t.] ` 7.R v b v n k k c k k c P k c d k k c c n k k H G D n i 7 s k k k i i i i < 4 k D D n i 7 d c i 7 7 7 6 7 i 7 7 7 4 i 7 7 i i 7 4 i d k k i < < 6 7 i i 7 < < < 4 4 4 < - @ @ @ @ @ O O @ @ @ O o . o o @ @ o X o + O O o o . o O @ + + + O @ @ O o . O @ < O + o o + @ + O @ @ 4 u i d k k k k k k k k c S S c c k c c f i i i d i d 4 4 7 < @ O @ < @ O - @ @ < 7 f S D D D D D S c v c c c c f v v v c c v b V b x k l x x r e 1 @ $ $ 7 c D G M P P R U R 5.5.R V b V 7.,X<X>XG.v.w.Q n k k k n D Y R R R =.Y P M U { Q P P E R R R 5.q.i.i.i.k.x.$Xl.i.q.q.R q.7.i.l.l.S.V.a.q.0.a.t.y.C C ] _ I e C Q V n k z Q w.' p.p.y.' V b l m B e z v B ' U P U y.y.7.Y 7.u.V.p.! 6.i.a.k.7.l.Z.Z.i.a.V.C.a.                  T R 0.k..XA.#X#X X#X X X#X#X.X X@X@X@X@X@X@XoXoXoXoXS. X#X.XV.v.l.p._ { u.v.v.i.t.7.Q Z ] 7.` U R                                                                                                                                                                                                                                                                                         ",
"                                                                                                              D v G S P S D G 6 i d G S D P b J D v H f i : < < - < - 6 i k S D v D D J Y Y P J Y Y J D D Y Y Y S c c D Y v c c i d d 7 < > < @ @ < 4 @ @ O O O O @ @ @ @ O @ @ @ < : < < 4 < < < < < < < 7 7 k 4 7 4 7 e s 8 s 7 i k k x M x 7 n P ] ` b x U V Q ] t.` U Z C M U ` U U ` s.i.w.7.] 7.i.s.U v v k D k k c i k D n c S k k i k k k k c c c n k i i 4 7 i d k k i 4 4 d D D c k 7 d k d 7 6 6 6 7 7 7 i 7 4 i k d i k 7 < 4 k k k 7 < < < 4 7 i i 4 < : : < - @ @ @ @ @ @ @ @ @ @ @ : O o . . o O O o O . + O + + o + O @ + + + O @ @ + + o + + @ O + . . + O O O @ - 4 4 i i i d k d d i d k i c c c k k d d k i i i k k 4 < 7 6 < O O @ @ @ @ - 4 < 7 n v v S S S S v v c c c v D D v c v b v k d d 7 e e 3 4 1 1 3 e e $ @ $ @ O 3 c v P U R R b P ;.k.V.v.C M P ` %X,X%XC.v.] m 7 7 k k n D Y E E 5.! I I R ! =.R R R 5.0.7.7.q.e.i.i.r.i.l.n.l.k.k.k.r.q.5.8.` i.' J b ' t.] l l Q w.' ` w.w.t.` P V I ! 5.s.S.V.a.i.w.7.t.{ _ k v V U x b k x Z x e z V Q m k c x ] x v k ] ] n.k.w.t.n.Z.p.          5.e.s..X#XA.#X#XoX#X#X#X.XA.z..X.X.X X X@X#XoX@X#X.XA.p.a.t.i.p.a.u.u.u.u.v.v.C.D.J.Z.C.N.t.w.R 7.p.V.{ 7.7.`                                                                                                                                                                                                                                                                                   ",
"                                                                                                              n v D v D v K c i i D J D D v v b v D c c 7 < 4 - < 4 > i f H Y D v D J v v J D S D D K Y J G K c H S k i k k s 7 7 i d 7 - @ @ O @ < < @ @ O O @ @ @ @ @ O @ - - @ - : < : 7 4 7 4 < < 7 i n z b i i 7 7 k b k n i z x x x M C e i n C Z V n U M ` t.v.{ _ R C M V ` ' M _ y.v.w.' ` 7.l.D.l.b k k v v k v k k n D k G c c k i k k i s k k k i i i 4 < 4 i k k k 7 < i v v c c d d d d 7 7 7 6 6 i i k d 4 7 k n c v i < < i k k 7 4 < < < 4 7 7 7 < : : @ @ @ @ @ @ @ @ @ @ O @ : @ @ o . . . . . O @ o @ @ X . o @ @ O O + . + @ O + + + o . o O o . + @ @ - < : 4 4 4 7 u i d i i p i f f k k c c f d d v v i u i k 7 @ < 4 @ @ O @ O @ O @ 4 6 7 i v c c S v c S D D D S D Y T P c v D v z k k 0 < % @ @ @ $ @ * 9 9 @ $ @ $ @ < k G J R 6.` P J Y @.V.#XXXw.M I ' %X%XH.y.{ _ n k k k c v D P I I U I Y 8.k.a.C.Q M I I 5.q.q.5.0.0.e.0.0.e.7.q.q.0.q.R P P V x k e z x l e 7 n V Q ' 7.w.t.t.U b 8 k b P 5.v.C.S.V.V.V.H.v.t.! ! i.7.6.J I ] w.I D V ' Q v k 7 e 8 3 4 8 e e z Y ! ` ] v.v.7.R 5.0.k.A.S.#XoX#X#X.X#X X X X X#X#X.X.X.XA.A.l.i.t.v.N.N.C.C.C.Z.N.N.p.a.C.J.%X%X:X:X:X:XH.| V C ` w.U U ' H.J.Z.Z.v.y.] Z                                                                                                                                                                                                                                                                             ",
"                                                                                                            @.v D n J D D S i i k S v v c n G S S K d d 4 - < 4 4 7 i i c D J v c D K D c S D v v c J +.Y S v c S v i 4 7 1 @ < < < < > < @ O @ @ @ @ @ O O @ @ O + @ O O - < - - < < : 4 7 6 6 < < < 4 6 i k v k 7 7 i d b C b k z b b b P R C k k V C V b Z k x ' t.] Q R I P R q.7.I _ 7.7._ _ ` ` t.Z.V.7.v k k D c b D k n v n c D c S d i k s i i k c i u d 7 < < 4 d k k i 7 7 k n k k d d d d 7 k d 6 6 i k n k 7 4 i c v D i < < 7 k k 7 7 7 < - < 7 4 4 4 < < @ O @ @ @ < < > < O o @ : @ @ O . . . o . o @ @ @ O X . o @ O O O O + + @ + . o O + + + @ @ @ @ @ - 4 7 7 7 4 7 i i i i i i i k k k c c S v f c v v k 4 i v k 4 4 4 @ O O @ @ @ @ < 4 7 i c k v b b D b v Y K Y S G +.+.T P c d c n i i k 4 % @ O O @ O O @ $ @ @ * 1 @ $ @ s G Y P R P b n n P R S.XXG.6.! w.D.%XJ.V.t.' M s i k c n v D P M x k W ;..XfXfXJ.U P P I R =.=.7.5.6.5.q.0.r.k.0.s.w.U U ] t._ n x _ _ C D D Q t.' 6.` _ _ x k 7 7 7 8 n v e e b ! a.v.u.N.p.t.y.p.y.! w.w.u.p.w.x.s.n.p.I I ] ] Q s n C [ n k v M Q 7.i.n.n.m.m.m.m.m.m..X#X#X#X#X#X#X.X#X#XG.H.v.v.H.H.Z.N.] Z Q V I ] b.N.C.Z.D.k.S.G.K.G.H.C.v.b.v.v.a.t.^ U U p.v.Z ] C.V.H.H.G.v.v.] { ] Q Q                                                                                                                                                                                                                                                                   ",
"                                                                                                            +.D D D Y D D k d i d c k v n b Y v G i u 7 - < < 4 u 4 i k v G D b S S S H c H D K Y S S D c i d i 7 i i 7 < : < < < < @ @ @ @ @ @ @ O @ O O @ @ - @ + @ @ @ < < < < < - < 4 4 6 4 < < 4 4 < 7 i k 7 4 4 7 7 7 M x k s z b b R ' Q M l x V V M U V e C Q Q m Z Q V R 0.w.I ` 7._ U _ 7.7.7.a.C.] V k i n v c J v c n n k S c b D k c k k i c S k i k i 4 < < 7 i i i i 7 7 i i i d d d k k v 0 < 6 i k k d 3 < 7 k n v i 4 4 6 k i 7 4 4 < - < < < < < < < @ O @ O O @ < < < O O O @ @ @ o . . . O o o O @ @ o . . o + O + O o o + + o + + @ O @ @ < < @ + @ 4 7 i i 6 6 i d i i i i k c c k k c H D c f c v k 7 6 d 7 @ @ @ + + O @ @ < 4 i i k v D D v c v D K D G Y K Y D G Y O.Y J k u i i i 6 4 < @ @ O O O O O @ @ * * 1 @ @ @ - 4 i c G R R E E b n v I ] ` ! q.q.a.XX%XH.v.{ Q k 7 i s k v D W P I b v Y $.fXhXK.` ! 5.q.5.=.=.5.6.6.q.q.q.8.0.t.t.` ^ ] t.y.' _ ' { ' ! R 7.V.V.V.p.y.| [ x z V C k i s 3 < 3 7 8 7 r l U x C x 8 7 7 k ' Q I Y q.Z.V.6.R ] t.y.` I w.p.{ 6.P w.C.v.A..X#X#X#X#X#XS..XA.A.A.l.n.u.V.Z.v.N.v.C.B.B.v.v.V.K.K.B.C.N.' U C B C [ ] t.v.u.u.v.C.C.y.u.u.B.C.u.a.v.y.] { N.u.y._ _ u.v.v.H.Z.N.y.{ y.y.[ ' _ U b                                                                                                                                                                                                                                                         ",
"                                                                                                            @.v v Y D D v i k d c n v J n D v H i 4 4 < < 4 4 i 4 u f c D J D T S v c c G D S D Y J c i 7 i s 7 < < 4 : < < @ - < @ @ @ @ @ @ @ % @ @ O @ @ @ : @ @ @ @ - < : < < - < < < < 6 < - 4 7 e < 4 7 4 7 4 4 8 1 4 k k 8 1 7 k i n V C A x l b P ` ' U n m Z U M V ` V P ` ] U U ' U ^ 0.i.w.7.t.v.w.] z 7 i k k v b D D n c k c c D c K n c c c S c i k n i < < 4 7 7 i i i 7 7 i k k 7 k c v J k < < i n c i 7 < < 7 k k i 7 4 4 7 7 7 < < < - < < < < < @ < 4 : @ @ O O > < < @ O @ @ O O . . . o O o o O @ @ o o o o o . . O O + o + O @ O O @ @ @ < @ + @ - 4 i i i u i i d f f i p v S S c c H H v k k v d i 6 4 @ O O @ @ @ : : @ < d k c k c S S S k c D J J D K Y K D S c S S c n 7 < 4 7 1 < < @ @ O O O O @ @ @ @ $ @ O @ O @ @ < 6 k G E ! q.! P W P V I U I I ! ` H.%XXXV.u.[ M 7 7 7 k v D P T 5.R P P P Q J.' I R R 7.k.k.k.0.8.5.q.5.R P V k V N k V V n k x _ ' P P 6.V.H.V.] | | t.] P R ' _ R n k 7 * < < 7 3 1 8 7 7 3 3 < 7 7 7 3 7 k v x x 7 z 7 C Q b v n U ' ! W ` w.t.S.l.A.A.l.s.m.l.i.i.p.Q U Z ' y.a.p.p.C.Z.J.XX%X:X%X%X%XH.K.C.N.u.u.| _ U Z _ [ { u.N.N.C.C.C.v.C.C.C.B.C.Z.B.B.u.] w.v.v.] t.N.C.p.{ v.u.] { y.t.V V I ' m m _ _ C P                                                                                                                                                                                                                                             ",
"                                                                                                            +.v v Y S J n S K D P G P P n v k i 4 4 < 4 u 4 i 6 4 i k v D J P J c c v v K D c d k i i 7 < < 4 7 < < @ @ @ @ @ @ @ @ O O O @ @ @ @ @ O O @ @ < @ @ O @ @ @ @ < @ @ < 4 4 7 < 4 < 4 6 7 M k 6 7 < 7 i 7 r 7 7 4 e l s s x 7 k M l m m e k z R ' U b m V V V V ` U V ` _ U M Q U U r.V.y.7.y.y.' 7.7.k i i i d b n P S D c k k c D S Y v D v S v 7 i c k 4 < < 4 4 i i i k i d v k 4 i n D b k 6 * 4 d c k k 6 < 4 7 7 7 7 6 4 6 7 4 < < - @ > < 4 7 * @ < < 6 < O O @ @ < < @ O O O o O o . . O O o O o o @ + O O o @ O O O o o o O O + . o @ < < @ O @ < 4 u i i i i i d k c d d f c v v v c c k k i i i i 6 4 @ < - < @ @ < 4 @ - u k c c c S S S v c S G D G D K G S c d d i i 6 4 < - - - @ @ @ @ @ O X O O @ @ @ O O O @ @ * @ - 4 f S c k M I I V b P @.` w.' Q I ! w.G.K.H.u.] U x e 7 d k n v P T 5.5.R P V I I U R R R =.! q.r.j.8.E Y D m V k d k e e 8 7 7 x _ I J T q.Z k U x m m C P b I ] ] P P I C e 7 z V C C l C _ { m n b m C 7 k k l B e i 7 1 3 7 7 7 7 3 7 e 0 e B x E R P R R Z { u.t.t.u.a.] ' U ` ^ q.a.%XoX%X:X:XH.b.| { Q _ m Q u.v.u.p.t.y.v.u.a.i.u.C.C.J.K.C.Z.H.Z.u.u.] [ t.v.u.' { C.u.y.p.p.t.u.y.b.b.t.' Z U n k y.w.v.C U Q V M ` ` R R                                                                                                                                                                                                                                   ",
"                                                                                                            #.v b G D S Y $.$.9.8.5.5.T Y Y K v S c c v c c f i d c v D J J J i i d d i i i 7 4 4 < 4 7 < @ @ < < @ @ @ @ - @ @ @ O O O @ O @ @ @ O O O @ @ @ @ @ O < @ - < - @ < 7 i 7 k 4 < < 4 4 4 i z 6 4 4 7 d k n n 7 7 4 k b b b 7 k V e 7 k l k 4 k U R V m V M P R ' C V _ _ M b R U C U t.v.y.y.t.q.p.u.U z i i d k n v n S J k k c c c J G S v c v i i k k i < < 4 4 k k 7 i i c G n 7 4 k b b k 7 < > 6 k k d 7 4 6 4 < 6 i 7 7 7 7 4 4 4 @ @ - < 7 7 * @ O < 4 4 @ O @ @ < @ @ o O o o @ o . o O o @ @ o o o o O O @ @ @ O o + + O @ O + . + - 4 4 @ @ - 4 u u i i i i d f c f k k k c c v c k i i i i i c i < > < 4 4 @ @ < : < 4 4 d v v c S S S S c c S S c v D D S S k d u 4 - @ @ @ - @ @ @ @ @ @ @ @ O O O O O O O O O @ $ $ - 4 u H S f n M I U P v v Y T n.C.{ I P R w.G.K.D.N.w.Q x 0 7 0 k v D P Y ! q.! R I P P R R R 5.q.q.6.7.6.R R 6.' U V n U U m k x _ Q ` T T R x 7 3 3 1 3 4 i c k k 7 7 k 7 Z V z v M Z C n n ' w.u.t.7.6.' U I n Q ] Q I b R ` V n S z Q e k z e 7 b n W b B | | w.p.V.V.N.N.N.p.p.w.w._ U V Z Z _ [ { | v.v.t.7._ C C C U ` y.v.B.C.C.u.p.n.v.v.u.C.V.C.C.Z.N.V.p.t.' ] u.v._ Q v.u.p.a.v.v.N.v.N.v.p._ C Q B V m ] ] I ` t.y._ w.7.t.U U 7.R                                                                                                                                                                                                                           ",
"                                                                                                            @.v b D G K U.Y.Y.Q.Y.j.Y.j.f.;.f.d.;.d.d.;.,.$.@.J @.Y P P J K c 6 4 d i 7 4 < @ @ @ @ < < < @ @ @ @ @ @ O O - @ @ @ + O O O @ @ O O O O @ @ @ - : @ - < < 4 < - : < 7 i 4 4 < < < 4 4 4 4 7 6 6 6 7 7 7 4 7 < 7 < i v M V i s x m 7 i b V 8 7 x B V l x k z U _ V M I U V V Q ' C V ' w.t.y.y.] u.C.p.U k i v d c n b k P v c k k c v J v v n n i 7 i i 4 4 7 4 7 k n 7 k k D Y n 7 < i c n k 7 6 < < i 7 0 7 7 7 4 4 7 i 7 7 d 7 7 7 4 @ @ - < 7 4 @ O @ @ 4 4 < > @ @ @ @ O + O O O O o . o o o @ @ + o O @ O o O < @ o o + O @ @ + . + O - < > @ < 4 u 6 i i i i d d f f k c d d f k c f d k k i 7 i i * O @ > < @ @ < < < 7 5 u k k k k c S S v k c S D v S D D c d d d 7 4 @ @ O O @ O O O O @ @ @ O O O # O O $ @ O @ @ $ : : 7 i G K S c n U U R P n n Y ! n.u.I P I R w.G.J.C.t._ C k d d d c S J Y @.7.e.q.! Y Y -.q.6.5.R P k k c G P ! V z k V m C C I R _ ' U P k n x e z b x C n b n k 7 7 7 7 7 e k i 7 k 3 7 7 4 k ` q.i.w.w.] V d 7 C C _ P 6.7.y.i.` 7.t.u.y.P E a.Z.w.@.P Z ~ Z.H.oXXXG.y.Z B x ` u.u.u.u.p.s.i.w.w.| y.v.a.y.y.v.v.u.w.` V C x Q ] y.v.u.V.C.u.v.v.v.u.t.y.N.K.K.Z.l.a.' [ a.w.` ] v.a.p.t.v.t.u.N.N.v.v.{ _ R Z 7 4 m U Z [ y.w._ ` t.v.C.v.p.p.P b R R                                                                                                                                                                                                                 ",
"                                                                                                            @.v v D G d./.Q.E.f.`./.d.Y.Y.Q.Q.Q.Q./.Y.h.h.h.j.g.9.9.9.5.0.@.D 4 4 < < < < - @ @ - @ @ @ - @ @ @ @ @ @ @ O @ @ @ @ @ @ O @ @ @ @ @ @ @ @ @ @ - @ @ < 4 < 4 : < < 4 4 4 < : : < < < 4 4 < - < 4 4 < < 4 < > < 7 4 7 7 k M e 4 l l 8 s b V e 4 8 8 8 e V e 4 n C x k x C V U ' ' U V _ U Q ` v.w.] u.v.y.b i v v k v n c c D c c k c k n b c k n k 7 i i < 4 i i i k k 7 i v J K k 7 < 4 i d d 7 7 4 4 7 7 0 d 7 7 7 7 d k 7 4 7 k 0 7 4 @ @ @ < 4 < % @ @ @ % < @ @ @ O O @ O o o @ @ O o o o o . o o O o @ < O . O < @ o o O O + + . o o @ < < 4 4 4 7 6 i i i d k k d d f k g d f k f f c c v i < 4 i 7 @ @ < - - @ 4 7 7 u i i i i k i p c S S v c S K J c c S v i 7 i 7 6 4 < @ O o O O . o O O O O O O O O O @ $ @ O @ < < < 4 v P D G O.c z I ! =.q.R b b P R 7._ V P P ! i.H.G.u.] P n d d k k c G Y +.q.0.0.5.Y @.$.q.e.P k k 7 4 i u s 4 4 7 7 1 3 7 i k s 7 k d 7 8 B Q U U ` _ _ P U _ Z C z v U _ V k d x x 7 6 4 < k Y T ` w.{ _ e 4 : < 7 v b k Q M P n Q Q ] R Y 7.y.a.0.R ' y.w.w._ ~ _ ' { ] U U Z C [ y.N.v.v.a.v.n.V.v.v.u.b.b.N.v.N.v.v.p.{ C C P M U ' { u.l.v.C.Z.a.u.p.u.C.Z.Z.Z.B.B.p.] ^ i.v.y.y.v.v.V.V.v.V.u.y.v.y.V v b b 7 e V U V b U p.] _ K.%XoXs.q.i.U M C U V P E                                                                                                                                                                                                         ",
"                                                                                                            @.v D S @.Y.T./.T.f.~.Y.f.T.Y.d.f.f.E.f.d.,.d.U.,.f.;.;.$.j.k.5.k 7 4 - @ @ @ @ @ @ @ @ @ + @ @ @ @ @ @ @ @ @ O @ @ @ @ O O @ O @ @ @ @ < @ @ @ @ @ - : < < : < < < < : 4 : @ < 4 4 4 4 4 < 4 7 7 7 < < < 7 @ < 4 7 4 4 7 8 e < 7 4 4 7 k I x 7 3 8 8 k V V 8 7 x 8 4 7 k k b Z [ Q U Q U U _ u.u.' { y.] U z k J c b v k k n n c c c G c v k i i d d d k 7 < 7 c S H c k 7 k G D n i < < 4 6 7 7 i 6 6 6 7 7 7 7 7 7 d k n 0 < 7 d k k 7 : @ @ < < < < > @ O @ @ O O o @ O @ @ o . @ @ o O o o o . o o o O @ @ O . @ - @ o o + o o . + @ @ - < 4 4 i i i i d k v c c c k c c c d f c c k d c S c 4 4 7 < @ @ - @ O @ < 7 k z v k k k c v k c v S v c c G K D c c c i 7 4 4 < : @ @ @ O O . . X X X X O O O O O O @ @ @ @ @ @ : - i v M P D P K K c n M R R 5.5.P M P P ! ! I P E ` s.Z.Z.t.Q b k d d d c v G Y @.8.q.5.T K R R P J b m 7 i 7 4 1 < 4 4 4 < 1 k k i 7 < 3 4 7 x U I D I Q U P b M Q V v b U _ ` U b V U V P V V i z P T R u.N.y.t.7 e 7 c v k 7 3 e 7 i 4 3 k P n n 3 e n 7 m A v T I m ~ { u.t.p.t.y.] | | y.t.v.B.B.B.n.n.Z.n.{ _ ' ` ] y.u.p.u.i.i.t.` ] ] ] t.s.v.N.Z.Z.Z.Z.C.B.u.] { { i.v.v.' } V.V.v.C.V.a.C.t.v.v.p.] ` ' b x C V V x V U R Q u.v.y.C t.J.S.a.C.N.v.x k V b x V R ' R                                                                                                                                                                                                 ",
"                                                                                                            @.b D J g.E.Y.E.f.Y.Y.,.,.Y.Y.d.2.,.f.$.,.2.d.d.,.d.@.f.d.;.j.U 7 7 4 @ @ O @ @ @ O O @ @ O O O O @ @ @ @ @ @ @ @ @ @ % @ @ O @ @ < < < : @ @ @ - - - @ - @ @ 4 4 4 4 4 < - : 4 4 4 4 4 < < 4 7 7 k 7 4 < e 7 7 k z 7 4 4 < 8 4 4 4 < 4 7 7 x 1 3 4 s k V C 8 4 8 3 - 4 7 4 8 l V V m C C U | u.y._ _ { ' U V k n D n D n v i k k v k G G v n i i i d c n i < 4 k D D n n i i c c n i 7 4 < < 6 6 6 i 7 7 d d i 7 7 k k v v 0 < 6 d k k 7 < @ @ < < < % @ @ O @ O @ o o O @ @ O o . O O O O o o o o @ o @ @ > @ @ + O @ @ o O + o o @ - : - < 4 4 6 d i i i k c D D k d c c v f g f c k d d v i 4 4 4 - @ o @ @ @ - 4 4 k b J b k c c v c d c v S c f c c H c k d u - < < - @ @ O O @ O # . . O O # O O O O @ O O @ @ @ @ < 7 7 d v D b b b D G K G k D I R 5.8.5.T P P P E R E T R q.i.a.t.' P k k k k c v S K Y @.8.-.-.R R P J P C M v 7 e r 8 7 7 k x m W R R _ m 8 k n m ` P v v z 7 n i 7 7 7 7 k k 7 e 7 d 7 e m n k U Z C c J P C v.Z.J.Z.y.Q P J D Q U k D n e e z P D e < @ > < * * < i z e x m I ' t.b.B.N.N.N.v.t.] _ [ ] N.C.V.Z.B.v.v.y.u.' _ _ ` 6.0.a.u.v.V.v.u.t.] ] [ | Z.Z.Z.V.C.y.v.u.w.[ Q v.v.Z _ n.C.v.p.C.C.B.u.C.C.u.' _ ' Q k 7 V b z V ] u.t.t.' w.' ' b.C.v.{ v.y.k k U C x x Z _ C R 0.`                                                                                                                                                                                         ",
"                                                                                                            +.D D 8.h.E.f.f.U.E.U.$.>.Y.f.$.K ,.:.+.O.2.2.<.,.,.,.T.d.;.g.R 7 < < @ @ @ @ < - @ @ @ O @ @ @ @ @ @ < @ @ @ - < @ @ - @ @ @ @ @ < 6 6 6 - - 4 6 4 < - - @ : i i 7 7 4 < < 4 < < 4 4 : : < 4 6 7 7 7 < < 7 6 i k x k 4 4 - 4 s e 7 @ < 4 < e < 1 < 1 7 8 V x < 1 < 4 4 4 < 4 8 x r 8 x e x C } ] Z U _ _ U _ R z v k v v D D k i c c H K c v k 7 i d v n i < 4 i c v n n k d i d k i i 7 < < 6 i 6 4 i k k n k 7 4 d v b b k 4 < 7 d 7 < 4 < @ - < > @ @ @ O @ @ - @ + O @ - @ + . o @ o o O o O @ @ . O - < @ O O O + o o o O O O : 4 < @ < 6 i i d i i f S D D D c f c D c i i k d i i i 4 < < < < - - : @ - 4 u 4 i c G D v c c S c i f c c v d d d i f i i i 4 @ @ @ O @ O O O O O O . . O O O @ O O O O O O O @ @ < 7 i v S S c v b M P P D Y c c D ! @.-.8.-.T Y Y Y T T T -.8.q.q.6.` U D c v v S G G G Y Y +.J b z k k n 7 7 7 7 7 3 3 1 7 k C U ` 6.i.{ { U P P _ _ R D P P C s c d 7 1 k d d 7 < - 6 4 < * 4 4 4 8 < 8 k z k e n u.Z.B.y.w.v P U U _ E R R [ U R R U _ C 7 u k x < u i 7 m e U Z Z m m B U _ u.| u.t.y.u.y.' { ] y.C.S.C.V.Z.N.a.7.I b P B [ { v.v.v.v.] ` y.y.v.y.t.y.N.Z.Z.V.V.u.] [ v.y.R ' v.v.u.v.V.v.i.v.Z.C.N.] U ` U 7 7 V U V V u.t.Q R w.t.u.t.a.t.b z C U r x _ P b V _ v.u.] C.i.P P R                                                                                                                                                                                 ",
"                                                                                                            @.D Y j.Y.Y.d.2.,.Y.I.d.$.<.Y.f.Y $.d.d.+.K #.#.:.$.;.f.,.;.;.V 4 @ @ < < @ @ @ @ @ O O O @ @ $ @ @ @ $ @ @ @ : < < 7 < < 4 i 6 < < < < < < < 6 7 i 7 < - : 4 i i i k < : < < : < < @ - 4 4 - < 6 4 < < < 7 4 7 7 k e < 4 4 7 k B l < < < $ < - : @ < < < 3 r < < - 4 1 7 < 4 < e 1 < 3 r 3 e m C B m V V U _ ` b d k k v n P k k i f f S c v n i u d S G i 7 7 i k c k k c d i i i i i 7 7 7 d c i < 6 k n n z 7 * 7 k b b v 0 2 < 6 4 < < < - @ @ @ @ > @ O @ < > O + O @ @ @ O . o O o o O @ @ @ O o o - - @ + @ O o o O o o o @ 4 7 < - 4 6 i d d i i f S G D D c f D c d i i i 6 < 4 4 4 7 4 4 < < < O - < 6 7 u f H S v c k c c f f f f k d i k i i i i i i 4 @ O O O O O O O O O O . . O O @ O O O O O O O @ @ - 7 i v v v b v v M P P W P G S c S P R @.5.8.5.@.T T T T @.$.8.8.q.5.` R P D S v v D G G G D v k 7 4 4 7 7 4 < 4 7 < < $ 6 i d n b P P C m m v D U ` ` P P R R P P Y R _ U P v M x k i c k r z d i < * 7 7 7 < < 7 8 e x Q ~ k k 7 7 e n b k B e i n 8 Z k d c P I C V 7 x Z M U R [ [ Q C x e x e Z { u.u.v.B.N.y.u.v.C.n.v.v.N.C.a.s.a.7._ m V n V ' ] y.p.v.C.C.Z.v.u.y.v.C.Z.Z.C.C.a.0.' q.t.N.t.y.H.C.N.C.Z.C.u.y.N.u.C b P P 7 k m U x k V w.u.] u.t.] ! U ` _ m m V M z b E ` ] N.a.i.] U y.] U ' _ U P                                                                                                                                                                         ",
"                                                                                                            @.P 8.h.Y.U.U.d.+.f.Y.f.Y Y.E.d.Y +.f.8.@.Y >.K +.d.d.f.$.d.Y x 4 : @ - < : @ @ + + @ @ @ @ < < < < < < < < 4 4 < 1 1 7 7 i d d 7 4 < < < 6 6 4 4 i 4 : - < < 4 7 4 < : < 4 7 < < < < 4 i 8 4 < 6 4 < 7 4 0 4 < 4 e 8 < 4 7 7 7 x m 7 < < 1 4 7 3 < @ @ @ 1 9 < 1 : 4 < < : : : 1 < 4 1 8 < < r x e 3 e e x m _ C k k k k k b P k d i d d k c c k u i S J k k i 7 i n i i c k i i i i i 7 i d c v k 4 < 7 k v n 7 < 4 i v v z k 7 < < 4 < - < 4 - @ @ @ 4 @ + @ < @ O o o O @ @ O o o O @ O o @ - > O O O @ @ O O O O O O @ @ . o @ 4 6 4 4 4 i i i i u i k H S c D d c c d i u i i i 4 < 6 i 7 O - - - @ @ < 4 6 6 i f c c k k d k f d d c c c k c k d d 6 i 4 6 4 @ O + O X O . . . . O O O O O . O @ O O @ @ : @ - 7 d v v D P V b v D D D D P v c c c D E @.-.8.8.-.@.T T @.@.@.$.8.5.5.5.R P J D S S S P P I P D C k 7 7 7 e 7 7 i 7 1 7 d f v z e k e k 7 e i n k 7 1 d k k 4 k k v z C b z v s k b d c P Z V P b V m V M n v 7 4 7 6 4 V Z x P k 3 3 z v 7 3 1 < - * < @ > 4 < @ $ @ @ O @ * 4 k k 3 B w.p.t.' C _ U _ 7.y.v.B.C.v.V.Z.C.y.] ] { y.u.u.u.v.y.p.t.7.] ~ Q [ y.v.N.H.J.H.D.C.Z.N.u.{ t.u.i.y.i.! ] B.B.t.v.V.v.C.u.C.v.u.] w.t.Q n V M M n v U R x ] b.u._ Q w.t.U { t.w.l z P I 8 n m ] ] a.n.V.{ ] a.u.V V ` _ U ' ` '                                                                                                                                                                 ",
"                                                                                                            @.Y d.f.U.U.E.,.:.f.f.$.O.f.f.;.b >.d.Y J f.f.K +.2.U.d.;.2.P z 4 < - - - @ @ @ @ @ @ < < - < 4 4 4 4 4 4 7 7 7 7 7 5 s k k 7 4 7 4 4 < < 4 i i 7 6 < < < 4 - < 4 < @ < i i x k 4 < 4 i v M n k 6 7 4 k i n x 7 4 e e 4 8 k 4 7 b V r 7 1 8 4 8 e e - @ @ * < 4 1 < < < $ @ @ O O @ 4 1 3 @ @ 9 e 1 @ < < 4 e x x n k k k i k b c k i c k k k c k i i c v v c c d i d i 7 k c c i i k d 7 d c v b z 6 < 6 d v v 7 4 < 4 i d k 0 6 < < 4 < @ - < < @ @ > < @ o @ > @ O O o O O O o o O @ @ o . @ - @ O o O O + O o o + + O + + . O < 4 i 6 4 6 6 i i i i i f c f k c c c v d u i d k 6 > 4 i 7 @ @ < - - < < 4 4 4 6 i i p f f i d k c d c c S v k k c k 7 6 4 > - @ @ + + + + O . . . . . . O O O O O O O O O @ - 4 z b D v D P P V M b D D S v v n i i f c G T @.$.8.8.5.@.@.-.@.+.$.;.;.5.-.R Y Y D D S D b k b k l 7 7 7 4 e e k v M x x P J V V 7 7 k V m V b v v V e 7 i 7 1 4 c n d 7 7 7 7 7 3 7 i d i < < 4 i 4 < 8 e v c x e 6 4 @ * m x D ! ] _ U n n m e 8 s 7 x l < u < * $ @ - @ 1 @ - i k x r d P u.N.v.u.u.t.] [ [ _ [ y.N.B.B.N.N.N.N.a.y.{ ' ] p.v.v.N.a.N.a.t.` _ ' _ } B.D.D.J.K.C.y.u.u.t.{ _ y.u.m Q a.v.t.w.C.C.a.p.C.s.i.[ { { t.7 7 M N k k ] u.[ Q t.w.Q [ v.v.[ C ` U k k _ _ Q k m U _ _ Z.H.v.[ ] ' Z U ] ] _ ` _ ` R                                                                                                                                                             ",
"                                                                                                            @.8.h.f.U.I.2.f.:.f.U.$.:.$.U.>.#.>.<.K :.Y.f.+.,.;.d.d.d.-.P 7 4 4 < - @ @ @ @ @ @ - 7 7 7 6 7 7 i k k 7 4 4 4 4 7 i k n b k 7 4 4 u 4 < : 4 6 7 7 6 4 u 7 4 < < - - 7 k k V M n i i k b V V M b k k n v V C b k e x z k V k 7 n V x e 8 e 1 1 e r 3 @ @ < 7 8 r 1 < @ O @ @ @ O @ $ $ * $ @ 1 3 * $ 1 < $ < e e 1 k n k k k k c n k n D c c k k i i i k c k n n k d i i 6 i c c c c d 7 7 c b b v 7 > < 7 k k 7 6 < > < 4 6 6 < - > 4 < < < - > > < 4 > O . O - @ O @ o o o O o . @ < < + o o - @ @ @ O o O @ @ @ O O @ + . o o < 4 6 4 u 6 i i d d d d i f c c k c J J c u d k i < < u 7 - @ @ - @ @ < 4 4 4 6 i i i k k i d c S v f c v S v d d d i 6 < @ @ O O @ O . + + + + O . . . O O O o O O O O O @ - 7 k Y Y b D D D W P D S D S v v z k 7 7 i f S Y @.$.8.8.8.8.@.-.;.$.@.$.$.5.-.-.-.E P P J k 7 7 i 3 < 4 4 < - - 4 i 6 4 4 i k 0 < 7 7 k k M U P D I C C V P P U U U P P C n b v v V V k c i 7 < < 6 < < < 4 7 7 3 < < - @ @ @ 7 J P U [ m 7 < < $ 4 k s x U b u x x x k i M M V x i n C V v c U [ x Q ] y.u.v.u.y.y.{ { [ ] [ u.C.C.C.J.C.v.v.t.' U Q / { t.s.a.N.u.] _ [ t.u.u.N.B.C.C.Z.Z.Z.u.[ [ u.t.U _ u.u.y.u.B.Z.a.v.Z.Z.v.[ Q w.! 7 7 x V r l ] t.P _ u.v.v.{ v.w.I n x V m n V R b x ` t.y.] N.v.U U Z ] [ U C U ' w.p.t.R                                                                                                                                                           ",
"                                                                                                            @.d.d.d.Y.2.f.U.2.d.E.f.:.f.Y.f.<.f.,.+.,.Y.$.O.$.;.f.d.9.@.M 7 4 4 < < < - - - - < 4 4 7 7 7 i k k n v n i i i i i 7 7 i n n i 6 7 d k n s 7 4 4 4 4 < 4 4 4 4 < < 4 i k i n M n z z i k P C b V V b z b V U U C V M V b _ C x V Z V V x x e 7 e r r 3 : 4 7 r x 3 1 $ @ @ : @ O O @ @ O @ @ O @ @ $ 9 3 @ * 1 * @ 4 z n k c k k n n d J v v v d i i i d k c v n c c c S i 4 d S G c k 7 4 d v v k k 7 < < 7 7 6 6 < > - - < < < @ > 6 6 6 < @ @ @ < 7 > O o O @ o o o o . o o o . @ < < O o O o @ @ O @ o + @ @ + . @ @ + o O @ 4 < 4 6 u i k c S c d d f v D v k v S v d u d i < < < < @ @ @ @ @ - 4 4 i i d i d i k c i i k S D c c S S v c i < < 6 @ @ + o + + + O X . + + X O + . O O o O O O O O @ < 7 u c P Y P b b v v b D n c c c k z n z 7 4 5 i c S Y @.$.8.8.8.-.-.;.$.-.-.-.@.T T 5.R P v k x e i 7 x 7 7 7 1 4 c c 7 < < 7 i 7 4 7 7 d i 7 1 4 i 7 7 3 d c k 7 e d v k V n b v P R _ U v P M C b k v U C V k k x e e k k 9 r 1 k D R ] { ] t 3 @ O : < < @ @ - @ < @ < 6 7 8 9 < 6 < < 4 6 i 7 7 e i 0 k V A { v.N.B.N.v.v.t.y.v.N.N.B.B.H.J.H.C.v.' V e m k I ] b.N.N.C.C.C.C.a.v.C.J.oXJ.J.J.D.Z.t.' ` t.v.] t.v.C.v.V.Z.C.y.u.N.N.U P R U e e l M n k C p.v.| b.v.u.' U w.t.m x V M k z Q ' Q { t.` Q ! ' u.y.t.V M V R V _ u.a.t.`                                                                                                                                                         ",
"                                                                                                          $.d.d.d.f.U.:.f.:.f.d.d.f.$.U.f.:.$.,.,.$.$.f.;.d.Y ,.Y.d.;.$.m s i 4 4 i i 4 4 < 4 < 4 4 7 k b D n k k S n i d k c J n d i k 7 k i 7 i c D P z k i i d 7 7 4 4 < 4 4 4 4 4 6 7 z n v V k k C V V V C V v b V P V V C V I C _ ` C C Q C I C ' V l r r r e 7 8 7 8 A x 1 $ @ : 1 < 1 O @ O O O O O O @ @ 1 1 @ @ @ @ @ $ 7 n k n D i k c i n D c b c i i i d d c n n n S D D k 4 i c D v k 7 6 i k k k d d 4 < > 4 4 4 4 < > @ - < > @ < i d i < O @ @ < 4 > @ O @ O o o o o o o o o o @ < : : @ o o @ @ @ O @ O @ O o . o @ + o O > < 4 i i 6 i c S G S k i S G S d k c k i 6 4 6 < < < - @ - - @ - 4 7 4 i k c k d f f k k i i S G S c c c c i 6 < < 4 6 O . . o . . + + + . . + + + X + + . O O O O @ - 4 i z c G D D v b b v v v k k i i i i i n z s 7 4 7 i c D @.$.;.8.8.@.T @.T T Y T R Y ^ R U I b b m k 7 e l 7 v b V P D b n m b v b V V b c c x l 7 k k 8 7 i c k k 8 : 7 7 7 7 7 c k 7 4 4 7 i e 1 k k k 7 V k k k k x V b P V C m 7 k b P u.D.C.H.b.Z 4 < @ 1 O : < < < < 4 6 < $ < 4 7 7 x i d k U P b P ^ U x x V U w.y.C.Z.Z.Z.C.C.v.t._ [ ] N.C.C.B.v.u.w.' C x B Z | a.Z.J.K.%XXXoXoXoXC.u.u.N.K.Z.Z.a._ [ N.N.7.t.V.Z.v.v.B.C.N.y.y.u.{ V Z V V 7 i I Q e [ y.v.' Q y.u.Q _ u.{ k k b b 8 e _ _ V U C u.u.y.[ _ 7._ ! U U U Q C C Q p._ R                                                                                                                                                     ",
"                                                                                                          $.d.d.f.f.,.+.:.+.:.$.+.$.+.$.$.+.+.+.O.O.+.$.f.h.T f.j.;.;.+.m n c u 4 4 i k d i 4 4 i i i k b Y P P S c v c v c n v D v b z v D D b n k c b c n n k c D z k i i u k b 7 u i i v b b I V v V V P P I I b P I U V V Q U V C R ' ` U U U _ 7.p._ C Z A B m x Z e 3 x m e $ < < < < 9 @ @ O O O @ @ @ O @ * * @ @ @ @ @ $ * 8 k k P n k k k d n v v n k i k d k c k i n v J Y k 4 4 d n n k i 6 7 i d i i d 6 - - < 6 4 4 4 4 < - < - o < k k d < @ @ @ - < @ @ @ @ o o o o o o o o o . o @ @ @ @ O O < < O o O @ @ + o . . O o o @ < 4 i f k 7 p c S S H d d S S k c d i 6 4 > 4 7 7 4 < - : 4 @ @ < 4 4 4 d c v k i i i i i i f c v c f k d i 6 4 4 4 < @ O . . . . . . + . . . . . + + . + O + O @ @ < i k k b v D D D b P M b v i i i i i 7 i i k n z s 7 4 u k S Y Y Y ^ R E T @.@.T T T T T T J z k i 7 4 6 < < 7 k k k n D k k e i c c k m b i k b m M n D V U V J P V U V k D b M v v n k r 7 d 7 4 < 7 i i 4 < % < < < $ < 7 i e $ $ @ @ 4 k b U 6.B.B.b.' l 8 3 3 7 s k x n v d x V V C v V U V k v C U c c v ' V ' ' I V U m C ] u.Z.H.B.N.u.a.u.u.[ [ } | v.C.C.V.V.N.u.y.' ' ] | N.%X:X1X,X1XC.v.y.u.v.y.u.N.u.B V p.a.q.] H.H.v.v.Z.C.N.t.b.y.y.x 7 V b 7 7 ] y._ Z 7.t.' _ N.b.] V U I n n C V V l k V ] w.y.{ ] ] ' ' Q Z _ Q V M V ` w.u.y.q.R                                                                                                                                                   ",
"                                                                                                          ,.8.d.d.f.G D Y G Y J S J D J J D K K Y $.+.>.Y.:.Y ;.d.$.,.O.Z +.Y b n i i k k k n c c P G D v G P D b D P J Y Y J D P v b n b v G P P P b b W J J b v D D M b n v D P b n n n N P P U I V P P Y 5.` ` P P U U U P U U V C U ] _ U ! _ ' t.p.w._ _ Q Z Q U { A m t e e 8 3 < : $ 1 @ @ O @ @ @ @ * O O @ $ @ @ @ @ @ @ @ * 7 i n S k k k k k k v v k k f d c v k i c v J Y v i 4 7 c n k d 6 4 7 6 7 i d 4 < < 6 i i 6 < 4 4 < 4 - o @ 7 c d < @ @ @ @ - @ @ @ @ o O o . . o O o o o O O O @ @ @ O < < O o O - + o o . o o o o @ < 6 i c c i i k S S c k k k i d k i 4 4 4 6 i z 4 @ : < 4 - @ - 4 4 4 6 i i i i u i i i i i i c c c c k k k 4 4 4 4 O + + o . o . . . . . . . . . o . O + + O @ < 5 i i k v b D P Y P P P b b u u i i d k i i i i z n z i i S J P Y Y Y T E Y +.@.+.T T +.T Y c 7 4 7 7 < @ < 4 k v D M x b k e 4 6 i i 6 < * 4 4 - 7 7 i k 7 3 7 d d 7 m M v J V _ U J P V _ N P P U Q U P n x x e 7 i e 1 4 7 d 4 $ 3 @ @ @ @ 7 z z k B [ ~ e 3 @ o - 4 @ @ @ : 6 @ * 1 7 c i m 1 4 7 7 7 i i i k n K T ` v.| ] _ ~ _ _ _  .} B.B.C.N.C.N.| { ] w.] y.N.Z.C.Z.Z.Z.N.] _ t.u.G.K.%XK.%XXX#XD.G.N.t.| V.Z.U ' a.v.b.v.Z.H.G.G.J.G.C.t.] t.w.z n x b 3 e _ [ P U a.u.u.{ u.t.R x m U Z l l e x V Z Z _ ] 7.7.' ] t.| ] V b b U U U V Q 7.w.` ^                                                                                                                                                 ",
"                                                                                                        $.,.8.d.f.:.v c c v n n v v v n v v v D O.+.+.d.f.:.+.;.+.>.,.Y ! T K P P b v b b b P P S G R Y D P W c v P P J E E P J b b b J P b D P Y P P P W Y Y P P J P V b V D S J P P b b P P R R I M U P P R ` 7.R P I U R R U U C C Q U U ! ' ' R ' p.t.] ' _ _ ] t.v.{ _ _ B x m l r $ : $ * @ @ @ $ $ @ 1 @ O @ @ @ @ @ @ @ @ @ O < i i n n k k v i k n c i d i k k c k k d c D D b n i 4 i k k i 6 4 4 < 4 7 i 6 4 7 i k d 4 < 4 7 7 4 - O @ 4 d i < < @ @ @ @ @ @ @ @ @ @ O o . o O . o @ O o o @ @ o @ < < o . @ @ o O o . . . @ > < 4 6 d c k i i f k c c k k k k c i i i 4 6 i i k 1 - < < @ @ @ > > < 4 4 4 4 4 4 4 i i i u i c v c c c c k < 6 7 - O O . . . . + . . . . . . . . . . O @ + O @ - 4 7 n b b v b Y R Y D J J J k u u i i i k n k i i s k v P T T Y Y Y K Y Y Y Y Y T Y K T Y D d i 8 7 7 8 r 8 v U _ _ q.{ _ U V V V D v k e < 7 i 4 < 4 d c 0 < 7 7 7 4 4 7 d k 7 4 < 6 d 7 < x k v d V B k k 7 e x k k b V x V z x m x B x C < < k 7 4 $ 1 C ] U e @ - 7 3 * O @ 4 < 1 1 4 i i e 7 u i M U P c P R U R @.e.s.i.| y.y.u.v.| [ | { u.v.N.B.B.C.v.V.v.N.{ Z Z V V 7.Z.J.K.:XXX:XZ.B.B.N.Z.XX#XXXXXXXJ.K.Z.p.A.n.a.] | Z.XXZ.XXXXK.N.v.Z.v.' ` ` ` m x k Z n z n 7.u.] y.v.u.' ' t.v.] Q C M V b e l x U R Z Q _ t.y.t.Z U C _ Q B M V U Q U ' _ ' _                                                                                                                                               ",
"                                                                                                        ;.,.d.d.d.D n c c v v c v v v c v c c S G $.+.d.f.@.$.K #.,.,.Y q.Y b b b b v b b P P U P D P R P b v v P P R P R P P W b W b P Y b D P P Y Y R P P Y P P V P P b P P b D R W W P D D P R P P R U P P R 5._ I I U R ` Q U U I U I U ` 7.' ! ` p.p.7.' ` _ t.u.v.y.| { _ C C _ ] 8 < $ 3 @ @ @ $ $ $ $ @ O @ @ @ $ @ * @ @ @ O + 4 k i c k k k c k n c i 7 d i d k n v c c n v v z k i i 7 i 6 4 6 6 < 4 i d 7 4 i c k k 4 < 4 6 7 4 - @ O < 6 4 < < @ @ @ @ > @ o @ < @ O . . + + o + + O O @ < O @ - < < O o @ o o o @ o . o @ < < 4 i k c d u 7 i d d k k n S c i d i 7 > u k s 1 @ @ - @ + @ @ - < 4 4 4 4 4 4 u d k i 4 i f S c i k n i 4 < < @ + + + . . . . . . X + . . + . . o o + O O @ 4 7 i v P P P b D Y E P v v D d i i u i i s k n n k n v R I R T +.+.O.K G K Y Y Y Y Y Y K I b 7 d z k 4 7 7 x b I Q R ^ ` x x k A n c v z x x k v n M x v z b V n z S P C b n c k x 7 d k 7 < 4 6 i 4 1 < 4 4 < < < < 6 < 4 3 - i 3 8 l e k V Z Z k 7 @ O @ 1 1 Q ] Q M 7 e e x l i n C V V k b V V V n P I V f f v V D c G v n P R C ] y.N.B.B.C.C.B.| { ] | N.Z.D.G.Z.G.C.Z.y.b Z Z | Z.XX:XK.:XXXJ.J.G.G.C.C.N.J.%XXXJ.J.' | C.N.[ t.XX%XK.G.Z.C.V.a.Z.V.v.Q } ' ' v b U R n V p.i.U _ [ v.N.v.] _ _ R U m x V V C n V Q ] ] w.' R ` ] ] U m U I I B B Q { | ] y.7.R                                                                                                                                           ",
"                                                                                                        ;.8.d.d.T H c D D S D S D v v c v v c v D $.@.2.+.,.8.K #.f.,.E q.P b v v D P P P b P P P b V P P J b b P R R R R P D P P P b W P b b P P Y @.R P P P V b b M b P U P P P P P R R I M M V b Y ` ` I M V R U P U R U U _ ' Q U U R ` 7.7.` Q 7.i.t.] ' ' ' ' t.C.v.y.y.] Q ] u.v.` 8 r e 3 : $ @ @ $ 1 $ O O @ @ @ @ * 1 @ * O O O 7 k d k k k n d k k k u d d d d k k c c k c k k k i i 7 i i 4 4 7 7 i i k 7 4 d n c i 7 < < 4 4 4 < - @ - < < < - @ @ > < 4 @ o @ < @ O o o + + + o o O @ : < . O < < - @ o o o . o o o O O - 6 6 4 i c n d u i d i c k k v S k 7 i i 4 4 4 4 @ @ @ @ @ @ - > > 4 i 7 4 6 i 7 : u c d 6 < 6 f k 7 i k 7 < $ @ O . o . . . . . . . . . . . . . . . . o O @ 4 i s k v D Y R b v J T T P v c i i i 7 u u i k f k n b Y T T ^ R T +.+.Y K Y G U ! P K Y P z 4 7 i 7 < > < - > 6 i 7 k b z 3 7 7 7 7 6 7 4 < 4 7 k 7 < e 7 i 7 4 e i c n x U b c V C V C D Y R U I v V V x k k 7 x x 7 i < $ @ O - < < < < < < 3 * * 4 @ O X O @ @ @ @ $ - O @ @ < i d 7 m 4 i i 7 x i s k 7 4 4 u 7 i k c c x x P 9..XC.R Z C Z u.Z.u.B.N.| u.v.N.y.t.| C.XX:X:XJ.:XC.u.y.y.t.t.B.H.J.XXoX%XK.N.u.u.u.Z.Z.Z.H.B.Z U v.a._ 7.%XK.XXC.#XF.D.C.B.H.v.V k R U v V U _ U P U ] u.v.v.u.u.t.6.' Z _ _ Q M n n m C C m V R ] ] ' ' _ _ ! C V B Q Q _ C Q t._ { q.`                                                                                                                                         ",
"                                                                                                      8.,.,.,.$.v G P Y Y +.T Y K D S v c v v v D $.$.;.$.d.d.Y >.f.@.C 5.P b b b P R R E P P P b b V P I R R P P I P U P P b P P P b M b b P P P P Y R R P V V P P R P P P P P V U P 5.5.6.! I P P 5.7.6.R V P V V M R ' U P Q 7.R U ! ! ` i.7.` _ ' w.7.` _ ' ] 7.t.C.C.t.y.t.] u.C.Z.y.Z Z m l l r r $ $ e * O @ @ @ @ @ $ 9 @ $ @ @ @ O i d k i i k z i k k i k d k k i i k k i k d k d 7 i i d k 6 < 4 d c k k 6 < 7 c n i 7 4 < < < < < > - - - - @ - @ @ : 4 4 @ . O - @ O O o o + @ @ o @ - < @ O O @ @ @ @ o o o . @ + o O > 4 6 6 6 i d k i 4 i i c G k k S c d u 6 < 4 < < - @ @ - - < 4 < 6 6 d f 4 4 i i < 4 i i 7 7 4 4 7 4 4 4 < @ O O + + . . . . . . . . . . . . . . . . . O @ - 6 d v b v J K D b D b Y Y Y b v i i i i 7 7 i i f c D T 5.5.R T T @.@.@.O.O.K I k e k v M k i 6 > < 6 > @ 6 6 4 7 n n k z v e 8 v d m 7 n i e 3 i d 7 3 3 6 7 4 < < 7 d 7 < * 7 7 < < 8 7 k d k x i k 7 e V x z V C Z V k x k x e 4 7 x m e 7 4 r r e 7 7 e A < 4 4 3 r < 7 7 * e 7 4 7 < @ @ < 4 4 4 7 i d V V i f P R U S P U R ! -.D.XXG.r.w.y.' Q ] _ | N.Z.D.H.H.C.u.u.C.XX:X:X:X:X:X:XoXC.| ] Z { { C.Z.C.H.J.J.G.Z.C.N.u.N.Z.G.U / u.u.{ | H.XXD.D.#XoXG.C.v.u.t.v m Z Z x k k V R _ _ ] y.N.v.y.| y.N.u.y.R U U _ U V M n P U _ _ [ y.w.' U C Z [ Q B x m U _ ' _ _ ] a.t.                                                                                                                                      ",
"                                                                                                      d.,.8.$.D J $.;.,.;.;.d.8.@.Y Y D v v D b D Y ;.+.$.f.+.Y ,.d.@.I 5.P b b P P E R P P P P P P P P b Y ` U P P U R R R P W M b b n b b Y R E P P P P P P I W R _ I P U P P P U P R 6.6.6.R I P 5.7.q._ U R V I U ` q.U P ! _ I U ` ` _ 6.7.' _ ` ' ' _ ' ] 7.7.t.a.a.t.t.u.p.u.C.H.v.t.] U C Q ~ Z 3 8 m e 3 1 9 * @ * * 9 * @ $ @ @ * 4 k k k k k k k k k k k c k v d k c c i d d k i 4 i k n k 7 4 4 i n k k 4 < 4 k k 7 7 7 4 - - < - - - > - @ @ - @ @ 4 7 7 < . o @ @ O O O O @ < @ o @ < 4 @ @ @ @ O @ o o O o O @ + . O < 6 6 i i i i p i i i d c S d k c d i i 6 6 4 < 4 < 4 @ @ < i 6 - i c k d < 6 i 4 < 4 4 4 < < < 4 < - 4 : - @ + + . O X . . . . . . . . . . . . + + o + < 4 i k c v b b D D v D P D D D v v k i i i i u 6 i k P T -.T T @.@.R T +.@.@.O.+.R V l 8 8 k k i i < @ > < - - i b C V P C b z V V M P C V V N V M x k n l x n k v b l k c d 8 < < i 7 < < 6 f i 1 < < 4 < < * 3 7 7 7 * * 4 4 < 9 3 7 7 < m e < < 9 t t e b V _ Z m l r V x P ! y.Q _ V i e e e u i n C b b P I R P c V Q x k k k x v D v e 7 b E ' u.J.J.H.B.B.C.Z.H.H.H.H.XX:X:X:XC.| y.] y.Z.N.H.H.H.N.C.u.t._ y.N.Z.C.Z.J.J.G.Z.Z.a.F.a.{ [ { v.Z.N.V.J.J.N.C.J.J.a.t.y.p.y.Z V b P N b x t _ 7.[ ' t.N.N.C.v.] _ ] t.] Z C V V C x V C ] ] ` Q _ t.u.t._ U C U Z B V C ' w.t.u.a.y.R                                                                                                                                   ",
"                                                                                                      d.,.;.J b +.I.Y.E.Q.h.Y.h.8.g.$.Y D b D v D +.@.O.d.$.Y $.d.d.Y U -.P P Y P b W P D b b P P R R R D P R W D P R R ` ` U b V b n D P b J E R U U M P T R U M P _ P P P P E E 6.^ N _ ! P P U I T 6.6._ U R P I R ` ` _ U U U P I _ ` R ` 7.7.` ` ' ] ` ` w.7.w.w.w.t.t.t.y.p.u.V.C.C.v.p.} Q [ { ] ~ m Q x x m A x < 9 t 2 3 8 8 3 < * 3 7 k k k c k n i d i k n k c k k c c k k k c d 7 d n v k 7 < < i c k k 7 < < i d 4 4 4 < < - : < : < > < - - < @ o < 7 7 < O o O o o o o @ < 4 @ o @ 4 < @ < > @ o @ @ o o @ @ @ o . @ 4 6 4 i i i i i i k f f c c i i i i p d k i 4 4 < 4 @ o - < 4 4 4 i d 7 7 < < < > < < < < 4 < 4 4 4 < - - @ O . . X . X . . . . . . . . . . . + + + @ < 4 i i d c v b J P b b J b v v v v k d i i i u k v Y @.T T T R T T =.5.@.Y Y +.Y O.T b l l k k 6 6 7 < > 6 > @ i c 7 k c v 3 k k e x d d 1 7 n d < 4 7 < 7 < 7 k k e x k c k x x e k D v C V D P V Z x d k n m 6 d 7 3 3 O - - * @ O @ @ @ O O * @ @ @ * @ < 4 @ @ @ < : @ 7 z W M y.v.{ C m 7 7 i d i x k u i 7 7 u p i 3 3 7 i 7 8 z v n m m k v i.oX#Xa.B.K.K.K.K.J.b.b.u.u.H.:X*X:X*XH.H.y.V _ ~ u.C.J.G.D.C.N.u.u.u.p.u.t.| C.C.D.Z.C.] { u.u.C _ Z.C.u.u.N.C.Z.Z.K.G.K.N.} ] _ _ P n n x C C V P Z u.v.N.p.y.t.u.v.u.{ _ 7._ P n x B C U V C C t.v.u.] _ ] 7.] C C _ U _ U _ { { ] v.u.5.                                                                                                                                ",
"                                                                                                    ,.8.;.Y v Y d.Y./.Y./.E./.Y.Q.h.,.Y S v n n Y $.$.O.,.Y Y ;.f.$.Y ` 5.D v J P b v b J ^ R P P Y -.^ P P P D E Y T Y -.q.R b M v Y T R b b P D P b P b Y R R P P R P P P P b P ^ q._ U U ^ 5.q.R I R ! I R ` _ I R ` ` U U ^ U ^ _ ` _ Q Q ' ` ` R ] ] _ ' w.7.{ ] u.t.y.u.y.p.y.y.w.t.p.v.y.w.] p.u.{ _ } _ V A _ Q C r C m B t m Z V 9 r 1 s k k n k n n 7 i i k k d c k c k k k n c k 7 i n D n 7 4 < 4 d k i 7 < < 4 7 4 4 4 4 < - < 4 4 4 - - > < < @ O - < 4 < O o o . o o o - 7 7 @ O @ 4 - : < - O o : 4 o o @ - @ + . @ 4 6 6 i i i i k c c f d c d i i i i i c k 4 > 4 4 < @ @ > < < < 4 7 7 @ - @ 4 u 4 < 4 u 4 < 4 4 7 - + @ @ O . . . . . . X X . . . . . . . . + O @ @ 4 7 k k n n n v J T T P P P P P P b k k f d k c b Y @.@.-.T T Y T T T @.$.+.Y K Y Y Y U z l k i < 4 6 4 - 4 6 - ; p i 4 < 7 - 4 7 u 4 3 4 < < 4 i < < 4 > : @ < 7 7 6 * @ 6 4 - @ 7 i d i 3 7 d d 7 V n n b V U C b b x Z n 6 i V ~ x 7 4 @ 1 * O 6 3 e 1 4 7 < 1 1 - < 1 3 7 7 i n k m B.v.t._ 7 i d i 4 3 7 u i n u p i V V I Y R R U P v M Q b v P w._ @.-.V U U u.B.K.K.K.K.Z.N.v.y.b.J.J.C.B.B.u.] ] R R ] N.B.a.N.a.v.u.' U ' _ y.v.N.v.t.Z Z y.{ V U b.N.C.v.Z.Z.D.Z.B.B.Z.C.a.U C x U V n n z x Z ' ~ Z U 7.a.n.u.v.v.a.7.U I C R Z C n V R U ] ' ] w.7.] ] [ [ ] ] U U C _ ' ] _ ' p.Z.D.t.                                                                                                                              ",
"                                                                                                    ;.;.Y v G d.E.E.f.f.Y.f.E.Q.Y.Q.8.J k k n v K ;.;.;.,.8.Y ,.2.,.Y ` +.D v v v c b b D T -.R P D Y P P P P v Y R ^ R E Y J P P P c Y R P D V b Y R R P D I I P N R P P R R V V P P P R R R 6.r.7.! ! ! ! 6.q.` U R _ R I U _ R ^ ` ` q.` ` ` ` ] ] t.w.` ] 7.` ' 7.t.t.w.w.t.t.t.] { t.u.p.w.w.y.u.u.y.p.v.u.] Q { w._ _ ' y.' Q Z ~ ~ A r t < k k k v k c n i k k k i k n c v d k c n c i 4 d v c d 7 4 < 7 i 7 4 4 4 4 4 4 4 4 4 < < 4 4 i 4 - @ - < < @ O @ @ @ - O o o . o o o < 7 7 < @ @ - - : < - @ @ < - o o @ : - @ o @ 4 4 u i d i d c H c k k d 6 i i k i 6 c i < > < @ @ o - ; - > < > < 4 > < < d i < < 4 4 @ O < 4 - + o + @ O . . . . . . X # . . . . . + . o O @ 4 k n b v n v J b v G T @.Y D D J Y D k d k c D Y T R T T @.@.T Y Y T @.T @.+.+.K K Y R I n n 7 u > - , 4 : : 6 4 > u c k i v k e k n l 8 k k V C k n m x k b V k n d 4 3 @ 6 7 < @ 7 i i 4 @ O - < < < % < 6 6 % @ @ 6 < @ 3 0 d 3 V r * @ @ 1 9 @ 7 7 e x k 7 l x x x k n Z C V i v k k b 7.v.v.w.U v v V b b i b I b v k x C P T Y V C i i 7 < 8 i c e x n P P V U ] ] [ | Z.XXZ.Z.C.B.B.v.u.} [ [ y.y.| y.| Q B r x M ` t.y.y.y.y.p.t.] { } t.v.y.U Z { ] [ ~ [ v.V.v.u.u.a.D.V.a.t.t.u.a.w.V P b P V e e x ` _ ` _ { N.Z.C.t.` ' y.y.] x x V U C V x C 7.0.0.] t.a.a.a.' ' _ ' [ ` U U _ ] u.v.C.C.t.R                                                                                                                           ",
"                                                                                                    $.T v b @.f.d.d.f.$.I.>.U.Y.E.Y.@.b k i v v Y ;.;.d.h.x.@.,.2.;.Y I S v c k v D J Y D S P P b n D D D K Y v S Y J P J D Y 5.R b v Y P J D b b D T R ` M I V P P R E J P R P V V N ^ 7.` U R R U I ! ! R ` ` ' _ R _ _ ` w.' ` / _ ' _ U I ' ' ' 7.t.t.w.7.7.7.7.w.w.7.] ' ] ] ] 7.t.w.w.t.y.p.t.v.N.C.C.Z.C.v.w.} ' w.t.v.H.N.u.] { | ] A e 1 7 s i k k n v k k n n k i d d k i k n n k i i i n c k i i 4 4 < < < < 6 i 7 4 4 u 4 < 4 6 7 i 6 > @ - < < @ O O o o @ O @ O o O o o - 7 4 < @ @ - - < 4 @ - - < @ o . O @ - @ @ > 4 7 i k k i i d c c k d i d i k c 7 6 c 4 - - @ @ @ - - > < < < > 7 6 @ 4 7 7 @ @ 4 4 - O @ < @ O o o o + . . . . . . . . X . . . . o + @ - < 6 c v D v c b D Y b c G K Y J c v G D v v n D Y R -.R R R T T @.O.Y T T @.@.@.O.+.Y E U n k z s 6 6 < > < 1 1 7 v v b D V Z V k v x V z x x b C Z x k m V n z x V k i e e x 7 k z x e z i k e 8 4 i 7 x 3 6 i 1 1 @ + - @ O O + - @ * @ O O O O @ @ > @ < O @ < @ @ * < 7 7 8 A 7 6 7 > @ 7 v k x _ _ b k n m s i i 3 7 < 4 3 < 4 c v e 7 e 7 7 r 7 k v U w.7.@.i.V.n.m.x.u.u.p.t._ Q | u.y.N.v.B.{ ~ x C t A _ | | | } ` C B t ~ t.y.a.a.v.v.u.u.y.w.i.y.{ _ ~ ] { { ] t.| u.u.u.y.a.V.V.V.u.] U U ! Q x r k n P M b C y.v.v.] w.a.V.C.N.' U R U C b k V U U P _ [ a.v.y.q.] ] y.y.U C P R Q U Q ] t.v.v.C.N.`                                                                                                                         ",
"                                                                                                  +.Y v n Y d.8.f.Y.,.d.Y.d.,.U.T.f.$.n k c v b +.;.,.f.Y.!.8.@.U.:.J P c c k i c G S c v n k n c k k v K Y K c k k k c v c c J v b c P J D Y P P k c N V P b W Y $.-.R P C b b b P b R 5.` R ^ R P R ` ` I I ` U I P U ` _ ] ` y.` R _ _ _ ' ] ` Q ` 7.w.` ! 7.w.w.t.v.u.t.] ' ] 7.t.p.t.w.t.p.t.t.v.u.p.p.u.v.u.t.t.w.t.t.p.v.Z.V.u.u.v.v.y.m 1 @ i k i k k n n i k z c i i i i d d c k k k d i k n c 7 4 4 < - - < - 4 i d i i i 4 - 4 i i i 6 < @ - < - @ @ @ . o O o @ - @ @ o o @ < < - @ @ - < 6 < O @ 4 < @ o o o O o @ - < 4 7 6 d k i i i d d k d k c i k d 4 4 i < 4 4 4 4 < > < 4 4 - > 4 6 @ @ 4 < < - : : @ o O @ + + + . . . . . . . . . . . . . . . + + @ - 4 4 4 c D J v v v S J J c c S K D v v S D v v P Y @.5.@.@.T @.@.@.@.@.+.+.+.+.+.+.@.O.Y I v k k s 7 4 4 4 4 4 4 $ 4 k n k D Y k 3 4 6 4 8 i 4 < 7 i < < < < < < i 4 @ < > O @ * 6 i 7 $ @ < 6 - < 1 7 d k x V e 7 e m x e 7 n V x e 7 3 x 3 @ - < e t % 7 < * < @ 4 4 $ @ 4 7 7 7 r 8 7 6 4 < @ 4 < 4 * @ < i 4 4 7 i 7 < < u i z V x k k U U U v P U C P D _ 7.` +.J V x b @.V m U 7.y.y.[ [ [ [ [ [ | v.v.y.y.| ~ A Z Z _ { t.{ u.t.{ _ ' w.u.v.v.t.y.y.u.y.u.u.| ] U ' ] { u.t.' ] t.v.N.v.u.y.a.i.w._ Z Z Z I z k k e C Q x x V t.y.B.| { t.7.] U V x I V P b b U ] ] _ _ q.s.a.v.t.] _ R I V m V Q ` ] v.Z.Z.Z.N.t.                                                                                                                      ",
"                                                                                                  Y b v J ;.f.I.,.:.f.Y.d.U.;.f.T.,.T U b v v J ;.;.:.<.Q.h.r.;.f.+.Y V k c c f k d d 6 u 7 i i i d i i i k d i i i k c c k d d i 7 7 d c i b Y V n k n S Y b b n S P b C b z b Y R V P I P P P R R 5.7.w.` I U V R _ ` ' ^ _ R ` / R _ _ U ' t.t.` ` ' 7.] w.w.7.7.w.t.t.` ` { 7.w.t.u.i.w.w.w.w.u.v.u.p.t.w.] ] w.y.y.v.p.w.t.u.u.v.V.Z.Z.u.{ 3 : 4 k k k d k k k k z z v i d i i i k k k k k 7 7 k c i 4 4 < < 4 6 4 < 7 k k k i 4 - < 6 i 7 4 < @ @ > @ @ @ @ O o @ o o - < < @ @ @ @ @ @ @ @ < 4 i - O O - < @ o O o o o - 4 4 4 7 i d k d i d d k c k c n i k i 4 > < < 4 4 7 < @ < 6 4 @ O < > @ O @ < @ @ @ @ @ + o @ + + + . o . . . . . . . . . . . . + @ @ @ 4 7 i d k v G J v v v S v c n c v c v b c c v P R -.T T @.@.T T +.;.5.@.+.+.+.$.@.+.+.@.Y R v k k k < < 4 4 < < 4 < - 4 k i d v k < @ 6 < @ < 4 : - 7 4 3 4 7 < * 7 i 7 @ 4 < $ @ < 7 < @ . o - @ O . O > - < O O @ O @ * < i 7 e r 7 < * 9 x 3 4 s x B l 6 4 3 e 7 i d n x k d k M U M V V V U V d i k 4 7 6 4 7 k M k v V Z v G Y U V v k b V e v c e < 6 c n z n b v 8 8 z b b V R @.U ~ | t.y.y.t.] { } y.y.t.y.u.y.{ [ M x U C ~ w.{ ] w.y.p.t.{ ] ] t.v.b.u.u.] _ ' y.u.t._ _ Q w.u.v.y.t.y.t.] ] w.p.t.y.] V b b U U Z x n P R Q _ Q } y.| ' _ _ ] ] U b n n C V x n l U ] { | { y.t.t.[ U U Q C U V I ' u.v.Z.N.a.u.q.                                                                                                                    ",
"                                                                                                O.b v v @.d.Y.f.U.d.d.f.d.f.$.f.d.;.q.R v v v Y ;.;.2.f.Y.d.8.f.2.+.R M d d i i u 4 4 4 6 7 4 4 u i i i 4 < > > u 4 6 d k k d d i 6 k k k i k n k i i d d b V n k k z k z z z d b b P b b M b P U P P 5.` R P I M R q.7.6.^ U _ C ! ] w.{ _ ' t.w.' _ 7.w.w.t.t.t.t.{ { ] 7.y.y.w.] 7.w.w.` ' t.w.6.] w.y.t.] ` { ] w.t.p.p.w.w.p.y.v.V.v.v.| | _ 1 4 7 k k n 8 k k i k k v k k d d d i d k k k i 7 i n k i 4 4 6 u i 7 < 4 i k k k 7 4 - 4 u 6 < < @ @ - @ - @ - @ O > o o @ < < @ @ O @ O @ @ o < i 7 @ @ O @ @ @ O o o o @ > 6 4 < 6 i i n d i k k v k c S k i d 4 4 < 4 i - 4 < : : 4 4 - - - @ o o O + @ O @ @ @ @ @ @ O + O + . . . . . . . . . . . . . + @ @ @ 7 d d d k c c S c k c c v c c c k i c c k n P R Y T R T Y T T T Y T @.-.@.+.$.@.$.@.T +.+.Y I k k d 4 - 4 , < < 7 i 7 4 v v v n n 4 @ d k < < 7 7 k k u e x l z x V n x V x n N V x i k k 7 - 4 7 7 8 @ < @ @ O # @ O O O o @ @ * * O o O @ $ @ @ O $ @ O @ O . O * 6 7 6 @ 3 6 i 7 x e i d n Z x d i b x V v f b ! R ` V ' { ] @.Y k < % 4 < < 4 6 i 3 < 7 b N U R D b Q Q U P 5.7.t.q.@.` [ ~ ~ ] y.b.y.y.u.t.{ Q Q Q Q Q ' w.' t.] V V M C { y.y.t.w.w.t.u.u.t.] ] t.y.y.y.] ' ' ' ] _ t.u.y.t.' ] ' u.y.t._ Q U ] ] ] C b b V C M V V ' ] _ _ ] y.u.y.] U V U U U x b V P V V C Z { t.` Q ' u.t.{ V M b U U Z Z u.v.C.u.t.y.t.`                                                                                                                 ",
"                                                                                                K v D Y ;.Y.U.Y.f.2.d.d.f.$.$.$.d.8.` P b v v +.d.,.:.f.Y.@.$.d.:.d.R x d d 6 4 6 6 4 4 6 6 4 4 < 4 4 4 4 > > 7 7 4 4 i 7 6 4 < 4 4 i d i d 7 4 < 6 i 7 4 i k z k k k k D M M u i k x b b v v b E I P E U P P ! _ V P _ R U R ! U R ` t.t.' ] t._ R ! 7.w.` ' 7.w.] ] 7.{ t.t.u.v.t.w.{ w.7.y.v.a.t.w.' ' ] { t.y.w.' ] { t.y.t.y.N.w.{ | y.y.{ { x 7 e 7 k n c k k k i d d v d c d c i i i i i i k k c c d 4 4 i k k i < 4 i k k k 7 4 < 4 4 4 < < - @ - < < O @ @ @ @ o o @ < - @ @ O @ @ 4 @ o < i 4 : @ @ o @ @ o o o @ < 4 6 7 4 6 i i d i d k c G c c c d u i 6 4 4 7 6 @ 4 @ < : < @ o @ o o o O @ @ < @ O @ - @ - . o + o . . . . . . . . . . . O O O @ @ : 4 i k d k c v v v v d k n c v c k c v D D J Y ! R Y Y T T Y T T @.T O.+.-.$.@.+.+.+.$.+.+.Y U z 7 4 7 4 4 6 4 4 k n n V M P v k k 6 < 7 k i < 7 k l e 7 7 8 7 k k x 7 7 e e i k x 7 i < 4 3 4 7 i z r 7 - @ 1 e 1 @ 4 e x 3 < > e e 3 - 7 8 m 3 - O 1 r @ - 4 1 O @ 4 7 < O o - 6 4 4 7 6 i 7 3 4 4 6 4 7 7 k s 7 k b J E 7.Z.C.p.M k 7 4 i 7 x x i k M _ _ R 7.' Q R S v M n v n 7 8 4 c n z x V ' ~ Z  .~ ] t.u.u.y.y.{ U Q [ { y.t.] ' ] w.t.w.Q U R ` t.u.y.w.] t.t.p.u.y.t.7.' _ ] u.y.w.' ! ` 7.w.t.] _ U R ' w.t.` U _ P V b M Z U U M b x t.y.y.[ U U ' ] _ V V V C V x x V U _ C U Q { y.t.[ Q Q Q U l x x Q _ u.v.C.N.u.v.p.7.                                                                                                              ",
"                                                                                                b D Y ;.Y.Y.E.Y.I.Y.f.2.d.d.;.>.d.9.R P D v b Y d.,.>.f.f.+.+.,.$.2.R k i 7 6 6 i 7 4 < 4 4 < - < < < 4 6 4 > 4 4 6 4 < 4 4 7 4 4 < 4 7 4 4 4 4 i k d i 4 4 6 4 7 7 k i c M b k i k k P M P k n M P C I P P R ` _ P P U P b P U ` R R 7.y.w.w.7.' ` w.a.p.] ` ] ` ] w.w.w.' ` ] ] ' ` ] w.w.w.w.p.p.w.7.] w.7.t.p.p.t.t.{ 7.t.i.u.V.t.{ } y.{ b.{ ' b m 8 k s v k k k k k k k k k k n k 7 k k i 7 k c v v c 4 < i c S d 4 4 6 i k 7 7 4 < < 4 4 @ < - - < < < @ @ @ - - O o o @ @ O @ @ - < 4 @ O < 7 : < < @ o o O @ o o O 4 i i 7 u i i u p d f k S c k k i i 6 i i 4 4 7 @ - < : < @ @ o @ o o @ @ @ @ @ < O . < @ O . . . . . . . . . . . . . . . O O @ - 4 7 i d c b c c v b D P v c J J J D c S J Y Y T T Y T T T Y +.+.T Y T @.+.O.+.$.@.+.+.+.$.$.$.R V n 8 4 7 7 3 4 7 4 4 7 S 7 7 S v 7 4 6 < @ 4 i @ @ 7 7 @ @ 4 @ @ < 6 < @ - @ @ + 6 < @ + @ O + + - @ - O o O @ . # @ @ - @ r < @ @ @ e 1 < 7 k m l 1 O e m C 8 u s l 8 7 7 7 - < 7 i k n l v d v C B x d k v P V v v i d D T T V.F.C.i.] Q C c k V V 7 d 7 e k J T n 1 < 7 7 1 3 k i 7 < < i d n I b Y 5.{ ] { ] ] ] w.t.w.] ] w.y.w.y.Q U I U y.u.y.] ` ` 7.{ ' Z U U Q t.t.t.t.w.{ ] w.t.| ] _ R U 7.t.t.w.` _ ' ] ` ] t.7.` P V V R U R V N b U ` ` Q U _ _ R ` [ { ] Q V M b M U C m n M C _ { _ U _ ' { ] C C Z I C M C _ u.y.v.v.y.t.y.'                                                                                                             ",
"                                                                                              Y J T $.f.h.Y.Y.h.Y.f.f.,.d.Y.8.d.d.5.R P D n D Y d.d.:.d.,.O.d.+.2.,.! k i d 7 6 6 4 < < 4 - - - < : 4 i i 7 4 4 < > < < < < 7 i 4 4 4 4 < 4 4 4 4 i i i i 7 4 4 i i k 4 7 i i 7 7 z i M M I b v b b b P V v D U U _ U V b v ! ' 7.R _ ] ] ` ` 7.' _ w.u.a.w.' ' ` ] t.w.u.t.{ ] ' ` ` ] t.y.] t.t.w.w.p.y.y.w.w.t.t.] t.w.7.] ' w.w.w.w.t.v.v.u.v.{ R _ m 7 k k n k k k i k i k i d d c 7 k c 7 7 i k c D v 7 < 6 c D k 7 7 7 i i 7 4 4 4 < < < @ < @ < 4 < < O O @ @ - - O . o O o o @ 4 7 4 @ O - < @ @ - @ O o @ < @ O @ < i i i i i d i i f f c S d d d 4 4 i d 7 @ 4 4 @ @ @ 4 < : < @ o o o o . o : : @ o O @ @ . . . . . . . . . . . . o . + O : 4 4 7 k k c v J P c c v S J S c v P Y D c H G T T T Y T Y Y T @.T Y +.+.T T @.@.+.Y O.O.O.Y +.@.q.` M k i 4 7 7 6 < < 4 - @ i i - < k 4 4 6 i - @ 4 < O < 7 @ * < 4 3 - i 4 1 3 i 7 l 6 7 3 * < < k @ - @ @ @ . o + O . . + @ O O . . o . # + X + o @ @ O < O 4 U P c i 7 m k i 7 8 7 7 u i i s u d i n C k d f v ! b z V M k D Y D b Q ' ' { ' k d i < 3 < 4 < < 4 i b b x 7 i k x V b k V V b v b P Q U c b C Q I ' [ ] { w.' _ Q [ w.y.w.' ' w.t.w.] Z M P I ] w.t.t.7.t.p.t.w.` U ` 7.a.v.a.i.0.p.v.C.a.t.w.] ` U U U ] w.] Q R P C _ [ Z U M V U _ ] Q Z R P C V _ t.7.` I V V U R _ M b V I U U C C ` Q _ Q ' y.] [ V x x B Z C Z y.w.w.w.w.u.y.w.`                                                                                                         ",
"                                                                                              +.Y ;.d.Y.E.E.Y.Y.h.h.d.d.d.h.,.U.8.T P D v v J T d.d.d.h.:.,.d.+.d.d.! x k i 7 4 4 < - - - - < < 4 4 < 4 7 7 7 4 < 4 7 6 4 4 4 7 4 4 4 4 7 i i 7 6 6 7 7 4 4 4 4 7 7 7 i 4 7 7 u u x 4 z n n M z z n J R _ V k V V b b R ! M C U _ _ C U _ R 6.t.p.] ] y.w.` ] ] ] ' ` t.y.7.' ' w.w.{ 7.t.u.7.] ] ] ] y.t.y.t.' ' ' ' w.t.t.t.{ { { t.{ s.S.Z.a.b.b.' w.| x 7 i k k k k d k i c d i i d k i v 7 4 7 d c D v 7 4 4 k c c k i 7 i 7 4 4 4 7 4 > < < - @ < 7 4 < @ O O @ @ @ @ o o @ O . + 4 i 7 < @ - < @ o @ o o O < < < - - < 7 i i i d f c c c c d c d d i 4 4 k k 7 @ < @ o @ 4 4 @ : < . . o o . . @ : @ o o O o . . . . . . . . . . . . . o O < 7 i d k c c k v D J v k c S J J v k D Y J k S Y T T T T Y T Y Y +.+.@.@.@.@.+.T Y +.Y Y Y Y O.O.-.R C V k i < > 6 7 < : 7 i 7 k k 4 1 d k e k c i < 4 i 7 4 7 7 @ 3 i 0 x e i e x l M C b i k x 0 7 k e 7 @ < 7 < O @ < 8 < @ @ O * * # @ @ 3 * O o O 1 9 k n M U ] ` ! U 6.t.] ` P V U n k 7 4 4 > 6 6 6 7 7 i i 6 4 < 4 6 3 7 z Y D 7 7 4 e r Z x i d 8 3 < i v C C U v I ' P E J I m v d 7 3 e u i 7 3 < 7 7 7 3 8 n B Z C Q C _ ] { t.{ U U Q _ t.t.w.] ' ' t.v.p.v.a.p.V.v.C.p.` ' w.w.w.] ' ' w.v.C.Z.H.Z.Z.n.p.` _ w.] ` R R 5.e.s.s.i.q.q.q.] [ _ _ ' _ V b V U _ ] U U V V U U C V V P U Q C M U ! P M U ] { w.7.U U Q ] ' U n V R ] y.u.u.u.v.t.u.p.7.                                                                                                      ",
"                                                                                              @.$.d.Y.Y.Q.Q.Y.h.Y.f.:.d.Y.;.d.$.8.R V b v v J +.d.d.d.,.d.d.-.+.8.+.Q b i i 7 4 4 < - < 4 4 4 4 i 6 4 4 7 4 < 4 4 6 6 7 u i 7 6 7 u i i 7 7 i i i k i 7 7 i 7 4 4 u 7 7 4 7 i d i s i 7 7 7 7 k z i c P R U k n v b P U ` R M V Z P V P U M ! 7.w.t.] ' w.` w.t.y.b.t.t.t.7.7.y.b.p.w.' w.t.] ' y.t.t.w.{ ] ] ` ] t.7.^ ` ] 7.' ' ' w.w.{ s.V.t.7.y.{ ] y.| k k d i k k i d k k D i k i d i k i < 4 i n D v i 6 4 i k k k i 7 7 7 4 < 4 4 4 < 4 < - @ - 7 < < @ @ + @ o o o O @ > @ . o < i 4 : @ @ @ O O O o o O @ > < < 4 < 6 i f k c d f c c f i d 6 i i d 6 d i 4 @ - o @ < i O O < O . . o o . O @ O @ o o . . . . . . . . . . . . . o @ - i k i k c G G c c D J D c k v G J D D k K K K Y O.+.+.T +.+.+.@.@.+.+.+.+.$.@.+.+.T Y Y Y Y @.T 7.P b M m 8 7 6 < < 7 e < 8 v V I I V e l k x x k k 4 @ d i 4 4 7 > O 4 k 4 7 4 < @ 3 i k 7 - > @ < > > @ O O . # O + - O @ O X O . # # X @ @ 1 3 O . O B B R ` q.' ] ] P b Q Q ' ` t.w._ ` ! V n l 7 u i d k z k d k V x i i V { C Y @.k 7 4 n k Q ` R v P ~ m k v I V b n 4 1 e k n 7 * * 4 < % - < i 4 1 3 7 c z C V n R _ ] V M V Q ] w.w.' ' ] w.w.Q U P U ` V.Z.Z.Z.N.C.V.C.u.R _ U _ 7.' ` ' w.w.w.w.w.t.t.` ` ` 7.w.' _ U C U ] 7.w.w.t.0.0.7._ t.[ ] Q C V V C ' ' ` ` q.t.t.] ' U V V V V U ! ` U P P V U ' ' C I V ` w.t.{ C R U I C Z [ u.y.v.p.7.7.p.a.0.                                                                                                    ",
"                                                                                            #.;.;.Y.Y.E.Y.Y.Y.Q.Y.,.,.,.,.f.$.,.8.E P W b v J +.d.f.;.d.d.j.@.d.d.O.U b i i 7 4 4 4 4 6 7 7 7 u d i i i i i f c d 7 4 c i i i d c v S D n i k k c D b z f v z i i i 7 7 5 7 4 7 i k 7 4 4 4 u i k i i k z M e k z i n P b U I V z b P _ ' V M ' ' R U ` p.t.' ` w.t.w.] w.y.w.w.w.y.y.] ] t.y.] t.y.t.y.t.] w.7.7.t.t.7.] { t.] w.w.t.t.} y.i.] ` ' ' } y.y.Q z c i i k i 7 i k c c k k i d i i < < 7 k v c k i 6 7 i i i 7 6 7 i 4 4 4 4 < < 7 7 @ @ @ < < : - @ + o o @ o o @ 4 @ o + > 4 < < - @ @ - @ O o . . o @ - < 4 6 i d c S S c f c c d d d i i k i i i 7 @ o o @ - 4 < . @ O o . . . . o o . o . . o . . . . . . . . . o o o @ @ < i k n v S K K S H D D J v S v S S S v c c c S +.T O.+.+.+.@.+.+.+.O.Y Y O.+.@.@.+.+.T Y Y +.Y U P C V n k 7 4 7 4 @ 4 7 < < k v n x P 3 : 7 i @ < 6 4 @ < 7 - O - < O O 4 4 O @ - o O > 4 @ @ @ O O . @ O O . o + + o @ O O . . . . . . . o o o O O O > < b P R V x t 1 x s 7 0 e z k 7 < 7 7 k 4 4 6 i i d k v c n b V C b k U R { 7.Y U U k v c e m k Y W Z C M k i 4 * 4 < $ $ 6 i 7 x e 7 k x b b k V m m V c V B x k k 7 A n _ t.y.u.B.v.u.w.w.{ w.{ ' ` ` ] t.[ U P ` w.y.t.' Q ' w.w.t.] ' Q ` t.u.y.w.' Q ` ` 7.] ' U U U U U R ' ] ] _ R P R _ ' R V U M U Q _ ` V V I ` ' 7.y.p.t.' U V C U V D M P ` 7.w.t.w.7.[ ] ' [ ] t.{ _ U V Z _ _ U _ a.t.' ] y.i.v.v.y.7.                                                                                                ",
"                                                                                            $.:.Y.Y.Y.Y.E.Y.Y.Y.f.d.f.f.d.$.,.d.q.R P b v v P @.d.d.d.d.d.j.$.;.f.+.U b d i i f c i 7 6 i i i c k d f c c v D D J P c b b b c D D D J Y P n v v J Y Y P v n b k k s i d k k 7 4 4 4 < 4 7 4 i z z k 7 i k i k k v 7 i k 7 7 s x n i v I I C C Q _ C b U w.p.t.[ ] _ _ w.i.N.y.] ' { ] 7.t.v.a.{ ] t.p.t.t.y.i.i.` ] ' ` Q ` t.7.` ' 7.t.' ' w.7.' ` Q Q } t.y.V k c i k k i 7 i k D d v i k i i 7 4 7 d k k k i 7 7 7 u i i 6 6 i 7 6 7 7 > < 7 7 < $ @ : @ @ @ @ O o @ @ o O - 4 @ @ @ @ @ < 4 > O - 4 4 @ O o o o O @ < 6 7 i k c G S c i f d d d c d d c i 7 i - @ @ @ @ 4 6 O o . o o . . . o o . . o . . o o . . . . . . + O @ @ @ - > i i f c D G K G H c D S c c S S S c c c d d c +.+.O.O.O.O.+.O.+.+.+.+.O.Y Y +.+.@.@.+.+.+.Y R b M V V V k 6 < 4 7 < - i 4 @ 3 v v e 7 < $ 4 k 4 + - i @ @ i 4 o @ 6 > . < i @ O < 6 7 1 7 7 3 * < 3 r > @ e 3 O @ e 3 O @ < * # + O O 1 . . . O 3 - 4 d v 7.U P b B B e 7 i 7 7 7 7 6 < 1 < < < : < 4 4 7 7 6 < 4 i 4 7 7 i i i 7 7 7 k M x V k d 4 3 3 k W V.H.v.6.A m 3 z k x M l k V V V b k b x k i 6 3 * < i 4 < @ < < < * 7 k b Z C.a.t.a.p.w.] Q I C U _ 7.7.' ' _ _ ' w.` U U ' ` u.t.' ' t.y.p.t.w.` ' ' y.t.t.7._ ` _ _ Q ` ] 7.] _ U I R ' ` _ V V V U U U U U ` U V V U _ ` Q V V V I U C M b M C Q U Q Q w.y.u.u.u.y.y.] Q U Q ] ] [ ` ` R ' t.v.v.v.v.B.Z.u.C.v.`                                                                                               ",
"                                                                                            ;.d.Y.Y.Y.Q.E.h.Y.Y.Y.Y.Y.d.h.;.h.h.6.I P v b b P @.d.d.;.,.h.j.-.,.d.,._ Y c f f v D S c k c v c v v b D P P P P D P P J b b P P Y P D D Y P b P b P T R P P b b n c D b i d z k 7 4 7 6 i 7 7 4 7 7 7 7 i k k v n V k 4 4 4 4 k k b 7 7 i x 8 8 n C Q x b U w._ U C U _ Q _ | u.t.' _ ] t.u.N.C.v.y.y.y.t.t.y.p.i.w.7.] ' ` t.l.s.i.7.] w.t.w.u.n.y.' ' _ ] { t.y.b k d i n i k i i c k k c d c i 7 7 7 7 i d k i i d i i i d 7 4 i i 7 7 7 < < 6 4 4 < @ @ O o o @ @ @ > @ o O < < < - < - - 4 7 < o @ < 4 @ @ @ @ O @ < 7 i i i f c H H k i i d d c v d d f 7 7 4 O @ - < @ 4 @ o o . o o . . o . . o o . . o O o . . . o . o @ - - < < 4 i i i c c S S S c c c S c v S S S S D v f k v v +.O.+.+.Y O.O.+.T +.+.O.Y O.T T Y T T T T T ! P M M m x k 6 < < 7 4 < i v 7 8 P ` U 3 4 4 7 b i < @ 6 k 7 e i 4 @ 4 i 6 4 6 6 - 1 i k e 8 5 e r e v x e > 7 7 < @ 3 e O O # 1 O O O @ @ # . . 1 e M k n b R U P V I _ U b V R U C b k V b M k v P { Q b i 7 7 < 4 u i k P v v k k 8 7 7 z Z U v z U B k D @.g.XXoXXXB.| [ P n k r 7 4 > < @ < 7 4 < @ < < % @ < i 7 7 e 4 i k Z C P b Z [ ' C I Q ] ] ! Q U Q ' ' _ U C Q ' u.t.] ' ] y.u.p.y.] ` ' w.t.' ] t.y.v.v.u.t.7.6.' ' t.t.t.t.w.` R _ t.y.w.] U R R _ U _ ] ' Q V P P Q ] _ I C V I Q Q C b M V C U _ _ Q _ U U Q ' { ] _ Q U U ' ] { U _ 7.w.v.u.v.v.v.b.u.t.v.Z.t.N.p.]                                                                                             ",
"                                                                                          ,.d.Y.Y.Y.Y.Q.Y.Y.Y.Y.f.U.d.Y.g.d.h.r.5.E P b b b D @.d.d.;.d.Y.d.d.d.d.-.` P v c k v Y P D b v b b v b b b P P P P J P P D b P P P P P P P b b b P P D Y E U P M b b J Y P b k n e 7 7 k u J k z 4 4 4 4 i k s 4 7 i 7 8 < 4 7 6 k n M n 7 4 7 7 7 n x U U x x m B B C U Q U U ' ' ` U Q t.w.[ w.u.v.w.w.y.t.' ] 7.t.w.] ' w.7.7.0.0.7.] ' ] v.7.y.V.a.w.' ] ' y.w.b.y.n d i k n d k d i k i c k v d d i 7 7 7 i i i i k c i d d 7 6 i k i 7 7 < < < 4 4 < @ o o o o O - < 4 @ @ + - < - > 4 4 4 6 i < O o @ - - @ @ @ @ - 7 d k i i i d d c f i i d d v v d i i 4 4 - < @ < < < @ O o o o - . . o o . . . . . . O @ O O . . o @ - < < < 6 i i f f f c c c S S c H S S J J S J J E S d d c D Y O.O.+.O.Y K O.Y Y Y +.Y O.+.@.` ` @.T -.6.5.P V V m e 4 4 4 < 6 6 4 6 n v C U R C 7 * - 7 e i 7 @ < i 7 7 7 6 @ - u i @ > 6 @ O < i - @ < @ O @ 6 7 1 O @ O # o O O o o . . . . O . . . . . . . 6 i d < 4 8 > k k k k z i z R R n s M I V d i b ' 7.q.R ` Q C 7 i d b 6.R T T U Q v b P I ' V v ! Z B D @.R N M 7.J.N.y.{ n 7 1 @ - > @ @ 4 i 7 l e 4 i k x x n k x C z k v x x b i 4 * e k z Q ] ' R C U ` ] w.] ' U U ] y.| [ U _ w.v.a.p.t.p.y.y.y.y.0.u.N.a.t.a.V.a.s.0.y.a.a.s.0.` ` t.u.u.p.t.i.t.` R R ] ] 7.` U P U ` 7.] I M V U ` ' ` Q Q I V C U ' ' ` V C I _ ' ` U U U Q ' ' _ Q _ _ ` ' ' ] 7.] w.w.u.w.' t.v.v.y.{ y.t.                                                                                          ",
"                                                                                          ;.Y.Q.h.Y.W.Y.Y.E.h.h.f.,.8.h.8.d.j.j.q.R E v b v J ;.d.d.d.,.f.d.,.d.2.q.` Y b v v S P P P b b b b V P P P P Y P E P P P M P P b b P P U V b b P P E P P P P b b P D D Y P b n n z c d b 7 d k k i < 4 i d k n 7 6 4 - < 4 4 k 4 4 4 7 < < < 4 7 4 7 7 l r r e x V 8 r V C C C C Q U C _ { y.y.t.t.t.] 7.u.v.y.t.] 7.] 7.0.y.t.t.r.7.' ' w.7.n.a.] t.t.] ' ] ' ] y.| v.{ k i 7 k i c k d i i i k k c k c i i d i d k i k n n c k 7 7 i k d 7 7 4 @ < < < < @ O O O o o @ < 4 @ < @ @ : > 6 < @ < 7 7 < @ o o O O O o O @ < d c c f f f i i f d d c d d v v k 7 7 < < < 4 @ $ @ o @ - . o o o . . O . . . . . . . o O o o o < 4 7 7 7 4 f c d c c f c c c S K G c S D K K k S Y +.J c d f S K Y O.O.O.O.Y Y Y =.6.! Y +.Y T ! P C P ! ! R U U A V k < 4 4 < < i 6 < i c i k P D 4 @ @ - @ > 6 @ + 4 7 - @ 4 - @ > 6 < + @ - o o < > . o @ . . O @ . . . . . . . o # . O * * . . . $ . . O o o < 7 7 > @ < > 6 u u i d k k k n z u v n x i i k v b b P U ] _ n u 7 d 7 7 c v z 4 k i d k 7 3 7 8 r e x b D k 3 b P b.N.C.t.Q A x 7 i z M e i s x m k k s r 8 < 4 < @ < u 7 < * * < - @ @ 4 i 7 l { ] ` ` ] { ' Q Z U w.y.y.u.y.y.v.N.C.p.i.` w.w.] ] ] w.a.C.C.C.V.N.p.a.Z.N.V.u.w.` v.C.D.C.a.v.p.t.7.q.0.y.p.t.Q R U ' w.t.w.R _ _ _ R Q ' ' ' _ P P _ { w.` I I R ' ' w.R U U ' 7.w.w.w.' _ _ _ ] w.] ` U U R ' t.y.u.u.y.y.y.y.t.y.t.q.                                                                                      ",
"                                                                                        >.d.Y.Y.Y.Y.Q.h.Y.Y.f.h.d.,.Y.j.;.d.x.!.0.R P v v v P @.d.f.d.,.f.2.<.d.d.5.6.P b b b b D W b b b b P P I P M b P P P V P P P P P P b P P P P P b J P R P V P P P P P P D D V b n k c J J E b i k i i 6 i 6 i i k k 4 4 4 5 i i n n 7 4 7 4 4 4 4 e 7 4 7 x e 8 k z B V e e m x x x V ' C m C ] ] _ _ | t._ [ u.v.t._ 7.w.' _ 7.y.t.q.] w.7.t.p.V.a.y.y.t.] ` ' q.' { w.w.y.I s 7 7 i i c c 7 k i i i c i v c d k c n n d d c n n k i i i d i < 4 < @ - < < @ @ @ @ @ O o @ - 4 < < > @ < 7 k 4 @ < 4 4 < @ O o o o O @ O @ < i n c c c d i p c d k S k k v c d 6 i 4 < 4 @ @ @ @ O @ . . o o . . . o . . . . . . . o O o o - i k d i f c H f f c H v c f c G K k k S J J c f S T J S d f c D K Y O.Y Y Y Y Y ! P I Q _ 5.q._ C C C C V M M C Q V s < 4 7 i < 7 i 6 6 d d 7 7 k 7 @ - 4 @ + - - + @ 6 4 O - 4 @ @ 4 4 . . 4 - . @ 4 + # + @ O O @ O 3 O O @ e O O 3 1 > 3 3 3 # @ 3 $ 3 1 7 4 4 7 7 7 4 7 s i d v v b k b P V b i v R I V i i k v b E E y.{ C i i 6 4 > 6 i d 7 7 7 7 4 8 7 k v V Z I v k 7 7 b P P C v.Z V x x 4 i 4 @ 3 < < @ O $ 4 4 * * < - - O < 4 u 7 x l d k P V b k U _ _ ' U t.y.u.u.{ [ U ' y.t.] ' ] u.v.N.v.a.p.s.N.u.v.a.u.y.u.y.y.t.y.N.H.G.J.a.i.u.N.v.v.a.N.V.D.s.` t.a.a.N.t.' R ] y.u.t.] t.t.0.q._ t.t.p.] U R U r.i.] ] U R ' ] ] ] ` ' ` _ Q ' t.w.] Q R Q 7.t.{ ' Q U 6.w.{ { ' y.v.v.u.t.w.w.t.w.u.y.]                                                                                     ",
"                                                                                        8.W.Y.Y.h.Y.Y.Y.Y.h.Y.d.d.8.f.;.8.f.W.!.7.R V b v b J ;.d.f.d.:.2.<.f.d.f.5.q.P b P b b W V b b b P P P R U P D P V P P P P E E P P V P P P P P V b P P P V V b P R I P b v x k n z d d S V V i k k n k k 7 u i 7 4 7 4 7 7 4 7 i 4 4 < 4 4 4 < 4 4 3 : 4 4 4 4 7 7 r x r 3 7 4 7 e e Z V x e C V Q ] [ t.t.' ] t._ ] y.y.w.Q ' ] ' R ` t.i.7.` t.t.q.7.s.p.' ` ' q.' { ] y.t.n 7 i i i i k v i k i i i k d D d c n v c k k c c c k i i i i 7 < < - @ - < < @ O @ : $ O o O @ 4 - < < < 7 d k 7 : @ < < - @ o o o O @ @ @ @ < 7 d k k c d i f c d k v c c c d i i i - < < O O O O @ @ . . o o . . . . . . . o . . o @ @ o < i d d i k D S c f d k v v c d H G H c c S c d i d c c c f d d d K Y O.O.Y O.Y T ! P M V V C I I C V V C C V V x m x 7 4 @ 4 7 < < c c 6 i v 7 < 7 7 $ < i 7 % @ 7 4 4 7 7 : @ 4 i 4 4 i 4 O > 7 6 1 6 4 @ * < 7 3 2 @ < 8 1 : 8 7 O @ 3 O + O O O @ @ ~ ] b 7 4 4 6 7 7 7 7 i i i d n d d d n C k i g C Q M z 7 6 7 k v P ] y.] I k k e e 7 k v I P P c M m V P q.7.] U P M e e k v d @ * O 1 < 4 4 < - @ # @ < @ O < u u r x x i s b x b i x V x d c x e k 7 i 7 C C x U ] { ' ] t.p.u.N.a.p.t.u.y.] [ ' Z [ Q [ t.t.p.a.H.Z.Z.G.Z.H.N.u.u.y.t.D.C.Z.y.u.N.V.a.r.s.V.V.D.Z.7.q.` i.y.{ y.N.v.a.R C ' t.p.y.' R V ' t.t.t.[ _ q.7.t.[ ] t.7.' _ _ t.y.u.y._ _ Q 7.t.y.[ R Q ` ] t.w.{ 7.' ] u.v.y.w.u.u.t.v.v.u.y.i.                                                                                  ",
"                                                                                      8.Y.Y.Y.Y.j.Y.Y.Y.Y.h.f.f.j.,.:.,.d.h.h.k.7.^ P b v b D @.h.f.d.,.d.2.f.j.,.5.5.P P P b b b b b b P E P W P R P b W M P P R I P P I I V V P R E P V b V V V b M M V I P V b z z c b b b i c z x 7 k k k n b z 7 i k s k i i z i i 7 7 4 7 i 7 7 4 < < < 4 7 7 < < @ : 1 e 3 4 1 3 4 < 4 3 e e 7 x t l l B Q _ Q U ' U C _ t.t.' Q _ ] ' 7.i.v.a.t.t.p.s.t.v.Z.y.' ] 7.i.t.' { y.] k i i i i i n i k k d u k k c c c c v b c c k k d d d i i 7 4 < < @ @ > < < @ O @ : : @ O O @ - @ @ - 1 d n k 7 < - - : @ O O o o O @ @ @ - < 4 i i d i f k S c i f c c c d d i i i - - O o @ o . @ O . . . . . . . . . . . o . o @ : - - 7 i d f f v S c f d d c v v c k c c p c S f p u i d d d i i u i D Y Y O.O.Y Y R R P C V M V V C I C C C V V V V m e 4 4 4 4 7 7 4 0 c n 7 n i 4 < 7 7 7 8 d 7 < 7 e e e 7 4 : < i i 7 7 i < @ 6 i @ < 6 @ O @ 4 @ * + . + @ + O < . . . . + X O % 4 n V.v.w.C x e 7 7 7 7 7 7 i i 7 6 6 i i i i 6 i d d e 7 7 7 4 4 6 d 7 d * * < 7 6 < < 6 i 7 7 4 d n i : e i D b e 1 1 7 7 e k d 7 4 * 4 4 n k I C ' Z C k 7 i 4 3 k 7 k t l i i < 3 < 7 < @ < 4 i < : O o - @ O @ * 7 7 [ ] ] ` [ [ Z Q U ] | y.v.p.a.n.v.V.v.y.` 7.[ Z ' _ ` t.u.N.C.F.C.C.C.u.| C.V.V.t.] t.Z.V.C.[ w.t.p.y.] ] u.v.N.y.] q.y.a.C.V.t.] q.t.y.[ ] ] t.t.] U _ { y.t.R V _ y.p.u.[ ] / t.t.y.] ] 7.7.t.t.t.y.y.t.' ` ] u.u.u.v.v.u.y.w.t.v.i.w.y.y.'                                                                               ",
"                                                                                    8.W.Y.Y.Y.Y.Y.Y.Y.Y.Y.f.h.f.j.8.;.8.h.d.d.8.9.` I v v b D ;.f.f.,.d.d.2.f.Y.+.R ^ Y P P b b b b v b E R P P P U U V b P P 5.^ R P R P P P P U N R P P V M b P P P P V V P V V v z i b C v i i 4 n 6 7 i 4 6 k n s i k k v n n n i i 4 7 4 i s i i 7 < < 4 7 7 8 8 8 < @ @ < 4 7 e l e 8 < < 7 4 e B x V x e e M C U _ _ C V ' ] _ C C ' ] ' _ t.w.' ' ` t.y.t.V.v.u.] w.] a.7.] w.t.U k d d d i i k 6 k k k d c i v c c v v D v d i i i i i i 6 < < 4 O @ < 4 < @ o O $ : - @ @ @ - < < @ < 7 i 7 4 < < @ @ @ @ @ O . o O @ @ : 4 7 u i d f f c b c i f p f d n k 4 i 7 @ o o @ : . o o o . . . . . . . . . o o . . O - - 6 i i p f c d c f f d d d f f c c k f f p c f i u i i i i i 6 u i c Y Y Y O.O.Y ! P b V C V V V V V C Z Z C C V V M 7 < 4 6 4 4 k 4 < k v i 4 i 4 @ 4 i 4 : 7 6 @ @ 7 4 @ @ 4 @ @ 4 i 4 O 4 > + @ 6 > . @ - . . @ @ . . o . . . o . . . X * O @ e C P s.D.C.V.t.' U N d d v b v s d z z d i d k b v p d z C C 7 i M Q x 7 7 6 3 @ @ < 7 7 7 0 6 < < . % 4 < % < 4 k k e 9 7 7 V V U U U ` _ I M M ! _ R P ] y.y.' V @ . @ > O @ @ < 4 * @ * < < * * 6 d 7 e l @ 4 4 7 3 3 4 7 k l Q y.u.u.| u.{ ] [ ' [ ] R q.] | y.p.v.y.N.N.y.C.F.Z.u.u.u.y.r.y.y.N.C.Z.w.q.7.V.v.N.N.p.s.a.n.s.t.t.p.p.y.U ^ ] p.a.N.] t.u.a.l.7.{ y.a.p.7._ [ { | u.7.' U ` w.p.y.] ' t.p.t.[ ] ] t.t.] ' ] N.C.v.` _ y.y.N.v.| t.u.v.B.C.v.t.] u.u.t.y.| _                                                                             ",
"                                                                                  :.Y.h.Y.h.h.h.h.h.Y.h.Y.Y.f.d.d.d.d.h.8.d.d.h.5.R P v b b T ;.d.d.<.d.d.f.f.f.O.R R Y P D b b b b b P R R P P P b M M M P P @.^ 5.R P V V P ^ P b P U V V M b I R R I M M V M M V b 7 u b b 7 7 7 k d i z < 4 7 s 8 7 k k b v v v k 7 4 7 4 i i 7 7 4 < < 4 4 7 4 4 4 * O @ < $ * 4 7 3 r 8 1 8 @ @ < e e 3 e e e e e M Z Z V x C Z C Z _ U ] Q U Q Q ] y.p.v.p.v.y.v.y.t.y.w.t.` w.t.t.V d d c i d i d i k k d v d i c k c c v n d 6 6 7 i i i 7 < < < O @ < 4 4 @ O . O @ @ @ @ @ 4 4 < @ < 4 4 < < - - - < < @ O o . . o @ @ : 4 6 u i f c d c v c p i i d d c k 4 i @ o o o @ o . . o . . . . . . o o . . o O o o O @ < 6 i i i i i d f f f d c k f c v c c c c k c d d k i i i d i 7 i d D Y O.O.O.O.Y ` V M M V C V V V V V C C C C V x k < 4 4 7 < 6 7 < 4 c c 6 4 4 - @ 4 7 - @ 4 @ + @ 4 @ + @ - O - i 7 + @ 4 O . < 6 . . @ O . . - . . . o . . . # < @ 4 e 3 @ x U ^ 0.t.| t._ V U b k d k v k i f i v i i d d v b k c v M V v n P I _ n z b C V x 7 b V U I b V Z 8 4 7 c k V b d V C C V n I V m n s x Z m b 8 < 7 7 z n r u.v.C x $ @ < 7 3 1 4 i 7 e x 7 d z m k i k x C V V i n R Q C k b U C V m B Z ' { y.B.C.N.C.a.p.| | ] ' Z [ Z ] ] w.a.C.Z.Z.Z.C.a.B.b.y._ U ] s.s.N.] _ _ s.n.V.a.a.V.Z.A.q.` ` y.p.a.v.y.p.p.a.p.y.v.Z.N.N.] ^ _ y.p.| Z U ^ y.t.t._ [ y.r.` ' | u.v.p.7.` ] p.u.v.a.t.q.p.a.C.N.a.v.u.a.v.v.v.C.Z.N.a.y.u.b.y.] y.i.                                                                          ",
"                                                                                >.d.h.h.j.Y.Y.Y.h.Y.Y.Y.h.h.h.d.d.d.j._.$.2.h.h.5.R P v v v Y ,.d.<.2.d.d.d.f.f.Y R R Y P D b v v b b Y R R P P V b b P T R P T R 5.^ P P P ^ ` U b V C M V P C P R ! ! I V V b P E I z u z l k 4 7 4 k z n 7 4 < < 4 4 i k v v b n k 4 4 4 4 7 7 4 4 : - < < 4 4 4 4 * * O O < @ @ < < 1 < < 1 r < @ @ < 2 < 4 7 x r < 7 r t e e l V x z k x V V V C C U U _ y.v.y.{ p.a.t.y.' ] ` _ w.y.` z d d d k k k i d i k k D i c d k k n c i 4 4 6 i i 7 6 4 6 * O o < 4 4 < @ O @ o O < @ @ < 4 < < < 4 > @ < 4 @ O : 4 < O O o o o O < 4 7 6 i d k c d k c c i i d d c k i 7 : @ o o @ O . . . O . . o . . . o + . . O @ O @ o < 7 i p f f p d c c c c c v c D S f c c S i i c c c d i i i d d 7 d v K O.O.O.O.K O.! C V V M V V C V V V C C C C k 4 < - 4 7 < 4 c 7 4 i c k < 6 4 @ < i 4 O - 7 @ @ 4 4 O @ 4 7 1 k k < @ 4 d 4 < 7 < X + 4 < O - + . 1 . @ 3 * O * 3 < @ 9 @ 4 k @.T k e t k b z v k c k k i i p p i p p p i i i 7 i u 7 7 u i d n 8 7 6 4 e V k i 7 k C C J R ] ~ x i v N V n k 7 : * 4 i 7 < $ - 4 < < 8 k 4 * * < k k 7 Q w.u.] [ V n i x e e 7 6 e e 7 i 4 < @ > 6 < @ 3 6 i d k x Q k k V U I b U Z C B Z t A V M ~ [ | v.N.V.v.u.C.u.a.7.[ _ m Z x U ] [ ] ` 7.t.7.y.y.[ ' t.7.7.' t.a.C.V.s.0.` w.a.v.u.[ w.u.s.s.y.y.G.J.G.p.t.7.p.s.u.[ [ ] ] 7.] ' _ u.t.y.^ U Z y.a.N.] ` y.a.N.u.] ] 7.p.p.y.t.t.u.v.i.t.u.N.N.v.Z.H.b.y.u.u.' w.] ] y.                                                                          ",
"                                                                              ,.,.f.Y.h.h.Y.Y.h.Y.Y.f.h.Y.Y.j.j.:.,.h.!.@.8.h.g.! I b v v v T ,.d.d.:.d.d.d.f.d.+.R T P D b v v v b b Y Y R P P D v D R 0.q.I P I P P P I b R ` Q C M b b P U I P E ` ` I V M M b P _ V s e 8 n u z 4 7 7 k 7 4 4 < 4 7 7 7 k z n z 7 < < 7 < < 4 4 @ @ @ < - : < 4 < @ O O @ < @ @ * $ @ < 1 1 r 1 O @ * < < < 7 V m 3 < r e e z x C V e e 7 e n V U ' ' C C [ _ ' ] { w.t.y.] ' _ R ' ] t._ k i d i c d c 4 i i k c v d c d d d i 6 4 6 7 i i 4 4 6 7 * O O - 4 7 < @ @ @ @ < 4 @ @ < 4 - - < 4 4 4 4 7 @ O O < < @ @ O O O @ 4 i k 6 i c c k k c c c c c c i n k i > @ @ @ . @ o . . o O . . . . . . . o . . o @ @ - 4 i i i f c c f f v D S c c S D D i k k k i 4 u c c i i 4 4 u i i 6 k Y K O.O.Y O.K Y ` V V V M M V C C V V C V V k 7 4 4 4 6 7 4 k v z n J P 8 @ u i 4 7 7 @ @ 4 k 3 3 4 8 @ 7 k x x n i < 7 k k 8 4 4 @ + - 7 @ @ @ . . . @ O $ . . . O O O @ < d E @.J x C V N U U I b I U V v k c b b f f k b b i f d s s i d i 7 t < 6 7 7 e 8 7 4 @ 4 7 n V [ | _ B k b 7 4 7 7 < @ < 7 7 3 t 4 7 n x I U U U Z x 7 d i e k 7 1 x e 7 6 > < O @ < . O @ 4 - @ . . - @ . # O > 6 < < O O 4 - < 3 7 k z x ~ } [ [ w.t.t._ _ U U Z C A Z Q [ y.y.y.] 7.i.' p.t.{ / P U / Z _ 7.t.7._ [ y.u.p.t.7.` ` i.i.p.w.] w.7.! R t.N.C.v.u.' ! t.a.v.| ] { t.t.Q Q Q y.a.t.t.] ] N.N.N.t.t.r.l.l.C.y.y.u.i.i.y.| | v.p.p.' w.y.B.N.v.t.] v.Z.H.C.p.t.w.w.y.{ { ]                                                                         ",
"                                                                              2.j.Y.Y.Y.Y.Y.Y.h.Y.j.h.Y.h.h.h.d.O.;.h.!.@.,.Y.r.R V b v v v +.,.d.d.+.j.f.,.f.>.Y R T G b n c k v n v P P P b v b b D T 9.q.I P P P b R U P R ` U V V b P ^ R R P P R _ I V V V n n M C k k i b n b k 4 < 4 < > - - 4 i 7 < 4 d k k < < 4 4 < < : : @ @ : < @ @ : : @ O O @ < < $ @ @ # @ < 1 4 t 3 @ @ < < < 4 7 Z C r 3 r l l b V Z C r e 3 8 k M C ' ] Z m Z Z C V ~ m { y.t.t.] ` Q R _ ' M i i i k z k k 6 i k k v k c k d d d 4 4 u i d 7 4 4 4 7 4 @ @ @ < - O O @ < 4 7 4 < - < < - - < < 4 4 i 7 < O o O @ @ O O O $ 4 7 k c d c c k d f f c c c G D i k i 6 - O @ o o . . . . O O . . . . . . . . . o @ < @ < i g p g c c k f c S G c c c G v c d f d i 7 4 6 d d i 7 4 4 4 4 4 u v Y Y O.K O.+.Y Y ! V V V V V M M C V V C M 7 4 7 4 4 7 c 4 4 k v v b J z 4 4 k 4 < 4 < o - k 7 $ < 4 O @ k k 4 4 i - @ 7 v < @ 4 @ . . < O . . + . . o + . . . . . - O 3 e k U E b U U U b R R _ b P U U b v v P I v c c N b v f v N b v k k b V n k n b V M b n l : 4 k P P t.p.p.R U x 3 k v k M k k v x C n k b Z U v b t C e 4 i 4 O @ < @ @ @ * > @ O O 4 < @ O 4 6 4 1 3 3 4 7 4 4 3 6 u 7 - @ O @ < @ @ < < 7 7 3 1 r l V Q ] | { w.] ' { _ [ Q U V C t M I R _ _ | ] y.y.' y.] ' C M Q ' { [ ] C b C t.t.y.' ] t.w.` U _ 7.t.a.a.' ' ` y.p.p.y.a.p.y.' U ' ] t.w._ R P w.p.V.| { _ t.s.a.t.] y.N.n.t.] ] N.C.V.t.r.w.V.C.B.b.u.p.V.v.u.v.H.J.V.N.v.y.t.{ y.y.                                                                        ",
"                                                                            ,.f.h.h.f.Y.h.Y.j.h.h.Y.E.Y.h.h.h.d.,.$.Y.r.:.d.h.q.` P b v v S +.,.d.:.d.h.j.:.2.+.Y R Y D c k f k c n n b N b v d P D b Y 8.5.P V V P P R U P P U V b V U P E R ^ ^ I U R P U U C n v x M e n i k b x s 4 < < : < - - < 4 n < : i 7 4 < < < < @ @ - @ O @ < < @ O @ @ O X O - < 1 * @ @ O @ < 1 < e 7 < @ < < < 7 7 M _ x 3 r e e v M C m e 8 e 7 7 e x Z Q ~ m C V r e B x _ t.] u.t.` 7.' ` ' _ k d i i i i c i d i k k n d k d k k 7 4 6 d n 7 6 4 < 6 < < @ O O O o O o @ 4 d 7 < < < < < < i < < 4 4 4 < @ O o O o O O O $ 7 z n n c c k f k k c D k c D v i i 4 4 < o @ o o . O . . O o . . . . . . . . . @ < 4 @ 4 d d g p c c f d S S S k f c f f d i i 4 4 4 4 6 i u u 7 4 < 4 4 4 d Y K Y K K K Y ! ` M A V m A M M M A C V b u < 4 i 4 < i i < < c v k b v < - i i - - 4 @ @ 4 6 @ + < @ + < d 7 @ - < + < i k @ O @ o . + @ . . o o . . + . . . @ 1 < * 3 e i k k 7 k M V n k v P n k k v c c n n z k d d k d i i d d 7 7 i i 4 4 7 i d 7 V e 4 s 8 r * 7 k b b x p.7.] ] Q i i 7 e < 4 < < @ < 4 4 7 * < 4 3 e x e 7 7 3 7 7 7 e e e 7 n V C V b l m l 7 7 4 e x k i n b C b b i V m Z B 7 d U V C d i V Z x U C C m e m e x B B Z U ] t.[ { _ ` Q P Z B m U x C x m C U I ] ' t.' Q _ P ` ] ] ' _ t.w.] C U _ w.w.y.Q Q ! w.y.p.{ t.v.a.i.` q.] y.a.p.` ' 7.t.t.] { { p.u.t.Q ] | u.t.{ _ ] y.p.y.] ] ' p.V.C.y.u.u.Z.Z.C.b.u.v.V.N.C.N.p.p.v.y.t.t.a.p.                                                                      ",
"                                                                          ,.f.h.f.h.Y.h.Y.Y.h.h.W.Q.W.h.Y.f.j.d.,.d.h.8.;.Y.8.q.R P b v v D @.,.d.+.,.W.d.$.>.O.I P G H k k c c v k c v b b v f P b c G T P b b N P b P U P P I N b b U P Y R ^ R U U P Y ` U C z z x l i x 7 4 k e k 4 < < < < - @ @ < 1 7 < < < < 4 7 < : @ @ @ @ @ < < < @ @ @ @ O O - < < 1 < @ @ @ @ < < < e e < @ < - < 4 4 m C e 3 r 3 4 e x x t e 8 e 7 < 4 7 t C Z m C B r 3 Z m B t.] t.t.` w.7.` w.' U k d i 7 i i k 4 i k k k i i i c c 7 < 4 k k 7 7 < < 4 < @ O O @ @ @ @ O @ > 4 4 < - < 4 6 u i < @ < < @ @ O o o O @ $ < * $ 4 k n v D c c c c c v S d k v n i i 4 < @ o o . o + + . + . . . . . . . . o . o < 6 < - i i c f g c k i d c c f i i 6 7 i u 6 4 4 4 4 4 6 4 4 6 4 4 < < 4 6 D Y Y Y K G Y U C C M A A m V A V M A C l 4 < - 4 u - 4 k 7 7 i v v 7 7 < + 4 k < + 4 4 O - 7 < + @ 4 @ @ 7 i @ $ u 4 < 4 u - O @ > + . @ o . . + . . . . . $ - < $ @ . O < 7 4 7 4 7 b k k c V b d c V V n v V U v c v b I d d d i 4 < 6 u 4 < 6 7 i 6 < < < - @ $ * : 4 < $ 1 3 3 3 t Z m 6 < @ # + - @ O - 4 4 3 x 7 u M B Z U C U Q C I v M B V k k U ' t.` C C t < > @ . % < 6 i 6 7 e 7 i i k e x k d V Z U n i V Z Q U V Q [ Q Q ' ] { ] _ V l m m e m x M Z _ [ _ ' w.] y.{ ~ M V x x e n C ] _ ' Q Z ] w.w.Q U Q t.w.w.{ _ _ [ ] ] ] { u.u.y.' _ ` p.p.p.] ' ' 0.7.[ ] { N.a.p.` ] w.t.N.u.] _ ' p.p.u.] _ t.l.a.t.u.a.C.Z.a.u.C.H.H.C.p.y.t.v.N.V.s.p.w.u.y.' { t.                                                                    ",
"                                                                        :.d.Y.Y.h.Y.h.h.Y.Y.h.W.E.W.Y.f.f.d.j.,.2.8.$.d.d.f.9.q.E V v n v J $.d.,.O.d.W.g.#.#.+.I b c f i c v v c d d d k b v f D n p c k k s z b b k c b P V V b P P U P J P P V P U R b I ! C x e n z n z l 7 7 4 7 < < < < < @ @ - > < < < < < < 4 7 < < @ @ @ @ - 4 4 < < @ - @ O @ < < 3 1 1 @ O O @ < < < 3 e < @ < @ < < 4 3 r 9 < e : < < e e e 3 3 e 7 < < 7 r m V m Z V e 1 _ [ m { ' t.7.! 7.7.' w.` ] b k d i 7 7 i i 6 i k i d i i i c 7 < < d i 7 7 < > @ @ @ O @ @ < < - @ @ @ - < < < < 4 i i i 7 4 < - O o o . . O $ 1 3 1 < 7 k k n S c n v n c S S d k d d k 4 < < @ o o . @ O X X . . . . . . . . o O . @ 6 < 4 4 i i f f p k i i p f u u i 6 u 6 6 4 4 4 4 4 4 4 4 4 4 6 4 4 4 4 4 c Y Y O.O.Y G E W C Z M m C V m C C M A e < < - > u 6 4 v P z b P b 7 @ < @ 4 k u @ - 4 5 < 4 4 @ @ 4 u 4 7 i 7 < e n e l 7 4 $ @ > 4 @ @ + X . . + . . o . . + + . . @ O < 6 7 x k n I R v b P U I b R U I b U R P b b E U U N v x V n k k v V x v d n x k n u v x Z l i 7 $ . @ 7 4 @ 9 e 6 6 < < > 6 7 e 8 k 7 e m l i v M x x k 7 m x 7 k 7 9 @ $ 6 < e ] _ Z C B r 3 @ o . + @ 4 < O @ # O - - < O > 7 7 * @ @ < < 4 3 7 i k n x l b Z _ ] { { w.` { ] [ ` _ C B m Z m C B _ { { ' ] ' { ' ` I R Z A Q [ _ C M P ' 7.t.t.Q V _ ` ` _ [ | y.t._ ` ! t.p.u.u.] ] ] ] ] ` [ y.y.t.Q _ 7.a.u.{ Z Q ' ] [ t.[ { t.i.] ' i.N.a.C.Z.r.p.C.C.G.Z.v.p.C.Z.B.N.v.N.V.Z.v.b.| | w.|                                                                     ",
"                                                                      ;.f.h.h.h.d.Y.h.Y.Y.Y.Y.Q.Y.h.f.d.d.h.d.f.d.d.d.d.d.h.9.5.I M c v c Y $.d.+.:.f.W.;.O.$.$.C v i u u c S c k g i 4 i v d d k u 4 i < < 4 i k z u i 8 k v V n k b P V v z b v D P R V k C C m k s i k z x k 4 1 < < < < : @ @ : @ - - @ @ < < < 7 7 7 < < - @ @ < 7 4 < < - @ O @ - < < 1 1 * O O O @ @ < < < 9 @ O @ @ @ < < $ 9 3 < 8 < @ < 3 e 8 3 2 e e 1 < e e t x V Q C e e ] ' M Q ] 7.w.! 7.7.` w.` t.7.k k d i i i i i 7 k c k d i i i i < < 7 < 4 < < * @ @ % < @ @ < 4 < - < - @ < 6 6 < < 4 d 7 4 7 < @ o . o . . O O < 1 1 4 7 k i c c c c v c c c c k i i d d < < - O @ o . O @ O . . . . . o . . . O o + < 4 < 4 u i i i i i k d 6 i i i u u i d 6 4 4 4 i u 4 4 4 4 4 4 4 7 4 4 4 u J Y Y O.O.Y K Y x m ~ C M A V M V C M e < 4 < > u f 4 i v v 6 k D 7 @ > < < 4 i < @ 4 i 4 - 4 < O - i 7 4 4 4 @ $ i s < @ 4 O X + < + . + + . . @ + . . o . . @ . # 4 k x V v b b k M V v k n U b v v U V n n z b v b v l k k k 7 8 e i d d 7 e 7 6 u 7 x 7 u i I Q C i z e x 7 6 7 6 7 e 7 7 V / x k 7 1 < - 4 @ O $ 4 4 1 < < 4 < * < 3 i 7 x r : 7 7 7 b P t.u.[ _ ~ U n 8 7 4 6 4 > * * @ 4 4 O O @ < 6 < @ < O > < < < 4 6 < < m C Z m e x e m r m Z U ' w.{ t.' ] [ ` _ A V V k B r B V V P [ ] ] _ U V b P U ' _ U U ` ' ` C U ] t.t.[ U U _ i.w.u.' ' w.w.' ` ' v.u.a.w.] ! w.t.y.| ' [ _ ] _ U Z { w.t.U U ' t.p.u._ _ ` u.v.a.{ y.u.V.v.v.y.y.a.Z.N.u.| u.C.H.v.u.y.t.                                                                  ",
"                                                                    #.f.f.d.h.h.f.Y.h.Y.Y.h.Y.h.Y.h.f.f.Y.Y.h.d.d.d.,.;.h.d.0.` I b v v v Y :.d.+.>.h.k.Y O.#.+.P k u 4 4 d k d i 4 > > 4 i i d i 4 4 4 - < 5 i i 6 4 4 : u c b b k k n 7 7 k z M I I ! I z x x n k n 4 4 k k k 1 1 < 4 7 4 : @ - - O @ @ @ @ > < < i e e 1 < @ @ @ < 4 4 < @ @ O O O @ < < < * @ O O O O @ @ $ * 1 @ @ O @ @ @ < $ 1 < < 8 3 @ @ < 9 9 1 < k e 3 1 e e e m C ' Q m e Q ' Q Z { ] 7.! 7.' ! 7.' ] t.U k k d i i 7 i 7 i z k c d d 6 i 4 < < < - @ @ @ < 4 < < % @ - < - @ - < 4 i i d 6 4 4 < < < 4 < @ O o O O . . o $ < < < 7 k c c v c c S c k n c d i k k 7 @ @ O @ @ . . O O O @ o . . . o . . . O @ @ > 6 6 u i f c f d c v d f f d 6 u u i d 4 < 6 i u 4 4 4 4 4 4 4 4 6 4 4 i b Y K Y L K K ..P x m C C M m V m B x 7 : 4 i 4 < d i 4 d c 6 > d 7 @ @ 4 6 @ 4 4 @ @ 4 4 + @ 4 @ + 4 d < @ < - O + 6 : . o @ . . + @ . . o . . . O . . + . . @ . O z I Z V i i k i i i 7 u i s s k c n k i k z n z v v e 8 7 i 7 < 4 7 i 7 < < < 4 > < @ > 4 u < @ @ - < 1 < 4 4 6 4 @ @ @ i k C _ b 7 * @ o > - @ @ 4 4 7 k x i k V V x k V V ~ x 7 7 < 7 v b V u.} } { _ C M l n 7 k k m e s 7 z x C x i 7 k e e 6 u l V k i i e m x _ ' _ ' ' ] ' _ [ V l V r e x 7 V C  .] ' ] ] ] t._ ' b k l r e 7 7 z U R Z e l V U U I U t.t.w.' U U I 7.w.w.] ' t.w.' Q ' t.t.y.y.' ! ] p.p.] ' Q { w.' R ' y.t.w.] _ R t.w.y.t.] ` 0.i.i.w.] p.i.i.t.t.] u.a.p.] p.a.N.v.v.a.V.J.Z.u.}                                                                   ",
"                                                                  >.d.f.d.f.h.j.Y.h.Y.h.Y.Y.Y.Y.h.Y.h.f.Y.h.h.d.f.;.j.$.f.8.0.! C b v c v T ;.,.Y $.Y.z.Y O.,.Y P 7 4 4 4 7 i 7 4 > > > > 4 u u 4 4 < < - < 7 7 4 4 4 < < u k k k d d z 0 4 7 k 7 k V U U M n 7 k k M 8 - < < 4 1 < : 4 i 4 7 - - O + @ @ @ < < - @ < 4 7 < - @ @ @ < 4 < < @ @ + + O @ @ $ < $ O + O O O @ @ @ @ $ @ @ O @ @ @ @ $ * @ - 9 e $ @ @ e q 3 0 x e 8 3 e e l V U { ' Z m [ ` Q Q | ] w.` 7.' Q 7.' ' p.t.z d d i k i d i 4 i z k k d i 4 4 < 4 : - < @ $ < 4 < 4 4 < - @ @ @ < < 4 d c k i 6 6 < > > 4 < O O O O O O O O $ < < < 4 d n c c c v v c k c c i c i d 4 @ @ o @ o . . . . O @ O . . . . . . o @ - < 4 d f i c c S H k n S f d d 6 < 4 6 6 4 < < 4 7 4 < < 4 4 4 4 4 4 u 6 d V Y Y K K L K O.K I x n m C V M m m k 6 < : i 6 - i c 6 7 c c 4 > 6 < @ 4 d @ @ 4 < + < 4 - . < 4 @ - u 7 O @ 4 @ O - 4 . . + + . . @ . . . o . . o . . . < O @ . @ i P k * < u 7 i d i k u i b V k k v I C k v U U P b U _ Q n b U C b k k z x 7 i d i k 4 i i e t < 4 4 7 m e 6 6 4 @ O o 4 k D R U _ ' _ m 4 u 7 e k i l m m k k 8 e e 4 < < e 3 4 @ . . O 6 6 1 3 B [ Q M 3 3 7 4 6 > 1 7 7 7 i 8 x x k 7 x V V n i V C U V k V Q C Q P V M b x Z [ ] ' _ Q ] ' ] _ ' Q V m C n M m C _ ` R C U ' Q ` I U U Z V Q V P k e n U _ U C b b ` ' ] Q _ ' w.' U ` ] { u.w.` q.' y.y.y.t.{ t.t.7.U _ ' y.y.] U V _ w.6.' ~ U ` q.` ' ' t.u.p.] ' ' u.u.y.y.t.] a.v.v.C.V.v.C.N.B.H.N.v.u.                                                                ",
"                                                                >.,.f.f.d.h.h.h.h.h.f.h.Y.W.h.Y.Y.Y.Y.Y.f.f.d.;.;.j.j.$.f.;.9.! V v c c S T ,.$.O.$.Y.0.T O.,.Y P 7 4 < < 6 4 < < - @ > - < 7 4 < < > @ @ > 6 4 < < < - < 6 d 6 6 6 4 d 0 4 6 k 7 i k 8 n k k i k k m e < - @ - < 1 @ < 7 7 7 < @ O @ @ - - < < @ @ @ < 4 < @ O @ @ < < < @ @ O O O O O @ @ $ @ # # O O O O @ @ @ O @ @ O < @ @ @ 1 < < < 9 e : @ < 3 0 e k x e e 3 e e x I Q { ' Z V ' _ C U ] [ 7.' 7.' ! ` ' ' y.y._ d i i i k i k i i s k c k c 7 4 < < < < < : @ @ < < 7 < < - < - - < < 6 i c c i 7 i < < < 4 @ o . o o o O O @ @ @ : 7 i d c c c k c n k k c c c k i 4 - @ O o O @ . . o . o O o . . . . . . @ < < 6 d c f f c H S S k c D k d i 4 < < 4 < < < < 4 6 < - : < 4 4 < 4 6 u d M E Y K L K G G P R P x x m V V M x 3 < 4 < - u 4 4 c b k b v k < 7 z 7 e i 4 @ < u 4 : 6 4 O @ 6 4 < 4 u - @ 4 p 4 1 4 < @ O - 3 * @ . . . . + . + o . . - o . . @ d D b @ o 7 u b k b P b c W U P v b P U M v b P C v z U M v n x C k d d 6 x 7 i k d x x i i n x x n i v V V x d V V V x 4 u k v P b ' [ [ Q b 4 1 7 4 - O @ < 4 < * @ O @ @ < 3 k 4 1 * * @ < @ O # * * @ < O . o @ @ . . O - 4 - O O O < - O $ < 6 7 < t < 7 7 < e e v J R U Z B C b 8 x e x Z V _ U { { ' ' ' _  .A C b 7 l e e x n b V ] ] Q Q V b z Q R _ C P b U R _ Z C ' ] [ V C U ] w.{ _ Q R 7.i.t.| | v.u.p.` ' ] t.v.y.] ` ` q.` U Q Z { ' ` V R [ y.y.t.` Q ] t.y.] ' _ 7.u.y.{ w.y.v.Z.C.t.t.u.H.Z.Z.N.                                                                ",
"                                                                $.f.d.h.h.h.h.h.Y.d.Y.Y.Y.f.Y.Y.Y.Y.d.h.Y.h.$.d.8.W.8.:.f.d.q.Q V v c c J +.d.@.:.,.d.5.Y #.>.R P k u < < 4 4 - @ > - @ - < 4 4 < - @ @ @ < 4 < < - @ > - < 7 < < < - 4 i i d k k i 8 < < 4 s 4 < 7 k e 4 - @ < 4 7 < - < 4 < @ @ @ < < @ @ - < - @ @ < 4 < @ @ @ @ @ < : @ O O @ O O O O @ @ O + O @ O O O @ @ @ @ - @ @ 1 @ @ @ 9 $ < 8 e e 1 < < 1 7 e k t e e 3 e e l M V Q Q Z Z [ Q V V ` [ [ ' q.` _ ` ' _ 7.y.y.x i 7 7 k k k i k i i i k k k 4 4 < 7 i 7 : @ @ < < < @ @ @ > < 4 4 4 i i i d 6 4 < < 6 6 4 @ O . . . . . o o @ < 7 k k k c n d d k c k c S c c i < - < * . O o . . + O . . . . . . . . . o > 6 < d c H c k k S S c k S S k i 4 - - > < < - < < 4 4 < < : 4 4 4 4 4 4 k m V Y J K S G T I M n x x x l B m x 7 < i 4 < u i < i n b V P b 7 < k 7 < 4 6 @ @ 4 i < 4 7 < @ 4 d 4 < i 4 < < k 7 $ < < O O @ : @ X + . . . O . . + . . + @ . . 4 v P b 7 $ 4 i b b c v b k v c M k c k i i k c i 4 k 7 3 4 7 k 7 1 * < 4 < < < 6 7 4 @ @ - 4 > @ @ < 4 4 7 3 @ 4 4 < m e 4 4 4 : 4 k 7 e m Z e 1 $ . - < @ O < 4 7 x l 7 u l B x V V U C m x 4 6 4 O O @ @ @ 9 e O < 4 @ O O @ 4 < O # . @ < + # . @ 4 - O O o - + + @ 4 d i e t U R ' ' ' ] ' _ M k m e l e 7 x m Q ' _ ' ' ' { U C b k e 7 e 7 7 x C Q ~ e 0 i U R _ V m Q ' ' V V U [ ] t.t._ _ ' ] w.' _ y.a.a.[ ` ] t.u.y.[ _ ' q.q.' _ Q ] ' ] U U Q ' t.t._ _ ' t.y.| ] _ y.7.t.] w.] u.y.t.w.y.C.C.N.a.a.C.N.u.|                                                               ",
"                                                              :.f.d.d.h.f.Y.h.Q.h.h.h.h.h.Y.Y.h.h.8.Y.Y.Y.:.+.d.d.x.` d.d.,.8.I M n c c J @.,.+.:.2.9.-.K :.O.@.b 7 6 4 < - - - @ - > @ @ < 4 4 - @ @ @ @ - > - @ @ @ @ - > < > @ @ @ < < 4 7 i 7 4 1 @ - u 4 < @ < 4 < - < < 4 6 7 k < - @ @ O @ @ @ < : @ @ @ - @ @ : @ @ @ @ @ @ @ : @ O O O @ @ O O O O O O O @ @ O @ @ @ O O @ - < * 1 @ @ @ e $ < e e e 1 * < 1 < 3 e e e 3 3 e 3 8 e r V A B Z ' U m x ! 7._ _ ` Q _ _ ' _ ' t.t.[ k 7 7 i k i k d k i i i k d 7 6 < < < 4 4 < < < @ @ < < @ - 4 i i 7 i i 7 4 6 i > < 4 7 < < @ O . . . . . o @ 7 k D c c k k d d d c c n S c k 6 < @ < @ . . . . o O O . . . . . . . . . > 6 4 i k c H c d c c c c k S H d 6 > > @ - > - - < < 4 4 < > 4 7 4 4 6 6 n V M Y Y G K D R C n e e x x x t m n i 4 u d 4 4 d u < i k n n n 6 > 4 i > + > - o @ 6 < + < 6 O @ d 6 + @ u - @ i i @ . @ O . . + o . . o . . o O . . o . . < . $ 6 k v z i < < i i 7 i i i i k k i 7 i i 7 k i d k k 6 k n m i n z C e i k i x 7 i k 7 3 3 4 i 4 : : 4 4 4 < O . - - @ @ < 7 < + . @ 7 7 < < B C A m e 4 6 k x 7 7 7 8 e k i i e r 7 7 7 r B Q M n i l 3 < - # 1 e r 4 4 7 8 e e 4 4 < 3 3 < 4 7 e x 4 6 4 e r @ 4 4 < 3 < 7 d 7 7 7 i s n t B m U _ _ _ ' Q ' _ _ B m x x n M r t m b V V Q _ C Q I _ Q B x k x M k e n V _ R V V v C _ { _ Z V ` ' ` _ _ y.t.t.[ ' ' i.p.a.u.t.' 7.7.7.Q U ] { ' U C V w.] ] C Z _ ] ] 7.] ] y.y.t.' w.p.y.u.t.] 7.t.t.v.v.C.C.B.Z.a.u.u.u.t.                                                            ",
"                                                            +.8.d.g.h.h.j.h.E.h.f.Y.h.f.h.Y.Y.Y.j.d.Y.Y.d.8.O.d.d.z.R 2.2.;.5.C M k d c P @.;.+.#.d.,.$.+.,.Y Y x 7 4 < - - - - < < - @ @ < 4 - @ @ @ @ @ - - @ @ @ @ @ @ > < @ @ @ @ - - < 4 < < < < @ < 7 < 1 @ - @ @ @ > - 4 6 < 7 : @ O O @ @ @ O - * @ @ O @ @ @ @ @ @ @ @ @ O @ @ @ O O @ @ @ O O O O O O @ @ @ @ O @ @ O + @ < 2 < < @ @ @ 3 @ < 7 e 8 < * 1 1 @ > 3 e e 3 < 8 1 < 1 e m B B ~ [ I k x U 7.' _ ` U ` Q ' _ / { y.| B d 7 i i i i k k d k i i i i < < < < < < : < < < 4 6 6 > @ < d k i i i i i d k < - < 4 < < < @ . o o O O O O < k v n c d k d d n S k v v k i < < @ @ o . . . . o + o . . . . . o o . o 4 6 i i d c k d d d c c k k c k d i 4 @ @ - - - - > 4 6 < 4 4 i i 6 4 4 k M V V Y J J D Y I k n k e k l k r e 7 < 4 i 6 < d c 4 4 d v n i 4 < > d 6 + + > O o - 4 @ + < < @ 4 i < + > 4 @ < i < . . @ . . . + . . . . . . + . . o < @ 4 + @ 4 v 7 4 4 @ - u i 4 6 d i z f k V b k c n M M k V V b n v C C b z C V n k z V V k d k k l z i k n x k i i e x e 4 i x e x n l m < < 7 u 4 < 3 @ 3 m e 4 4 < < O - - . O @ 4 < @ O $ + @ # * 1 1 7 7 < 7 @ O < # # $ < 4 4 < 3 1 < 4 < < 8 k k u b M V b i x C B M i v U V V v V _ Z U b V Z m x e 7 x 8 x V V U ' ] ] _ [ Q [ _ Z B i 7 e 3 e 7 s z Q [ U R V k e l V Z C M n v U R ` _ V Z _ ` R U Q w.{ w.] Q I Q u.y.N.] ] a.s.q._ ' y.t.{ w._ I ' ] w._ Q U Q ' _ Z Z { y.w._ ` ' a.u.t._ [ ` y.y.y.] t.u.u.C.Z.u.| i.N.H.C.                                                            ",
"                                                          O.;.8.j.j.f.h.h.Y.Y.j.Y.Y.h.j.h.Y.h.h.8.f.h.U.d.;.O.d.f.z.@.$.>.;.! C M d k v P $.:.+.#.,.$.O.:.K S V n 4 > < 4 4 : - - : - @ @ @ - @ @ @ @ @ @ - @ @ @ @ @ @ @ > - @ O @ @ @ @ < < @ @ < - @ @ < < < @ @ @ @ > < - @ - @ @ @ @ @ @ @ @ @ O @ @ @ @ @ O + O @ @ - : : @ @ @ @ @ @ @ @ * @ O O O O O O @ @ @ O @ O O O O @ @ @ < @ @ O O * O @ 1 e 9 * @ * 1 @ @ < 1 1 * < 7 3 < < e m m B ~ _ m 7 m x ] 7.' ' Q _ U _ Q Z ' t.{ Z k i k i i i k d c d k d i 6 4 < < @ @ O O @ < 7 d d 7 7 7 7 i k i d i i d c k 4 - - - @ @ @ o . o @ @ @ O O - i c v i d k k k v c k c c n 6 4 - @ O . . @ . . o . . . . . . . o O o - 4 4 i d i k d i i d k d k i k k d d 4 @ - - < > < 4 i u 4 u p i i 4 4 d M V V P J G J E I n k k l k k k e 7 4 < < < 7 4 6 k k i n P M 4 : i < 6 d - O - 4 : : 4 < O < i 7 1 k i O @ 4 4 @ 4 4 @ + @ > @ O + + @ . . . O . . . + < O . @ . @ d d @ @ < 4 u u i 7 d k V b c b V b k k x e i i 7 e s z 0 t < 7 < @ < i i < < @ 4 4 - @ < u 6 4 @ > 4 4 @ @ < i d 7 e r k 7 r r 8 4 4 < . . . . O < 7 i 4 $ e < 7 < O - 4 4 4 3 * < 4 7 e x 3 4 7 < $ @ < @ O # < 4 i 6 : O O . + @ + . O - 4 4 7 3 - 4 1 $ 9 7 i i k V V 7 i x C V V P ` [ _ ' Q ' ] _ _ M V t 9 x e l x t C ' ` ' _ Q ' U Q b e 3 7 e 7 7 r t C V x k 7 k C V m x x Q Q U V U ` w.t.w.` ' ` t.y.t.[ } p.u.t.' 7.] y.w.w.U V U w.] [ _ _ 7.7.R I Q w.{ { ' _ R t.i.a.t.t.w.t.w.t.{ ' t.y.u.w.t.t.C.C.v.v.V.C.b.]                                                           ",
"                                                        K +.8.j.j.d.Y.Y.f.Y.h.h.Y.h.h.Y.Y.Y.Y.h.d.U.2.f.2.@.Y 8.Y.r.T :.&.-.Q V M 7 c v Y :.,.K O.K K +.K K G I z 4 4 - < < < < - @ @ @ @ @ @ @ @ - - @ @ @ @ @ @ @ - @ + - @ O O @ @ O O - @ @ @ < < @ @ - 1 $ @ @ @ - < < - @ @ @ O O @ O + @ @ @ @ @ O O @ O O o + @ @ - < < $ @ @ $ @ @ @ < * @ O O O O O O @ @ O # O + O O O @ @ @ * O $ O O @ O @ $ e 1 $ @ @ 1 @ @ @ * * @ < e e * @ 8 t m A Q _ x 7 x e _ t.7.] _ _ U _ U Z _ ] y._ t 7 7 i i d 7 d k i k k i 7 i 4 < < @ < < < < < 7 d 7 d i i i k n n i i k c k 6 4 < @ O o O o . o O @ < @ @ @ 7 n c i k c k k D d k k c k < < @ o O O @ @ . . . . . . . o . . O @ - < 4 6 i c k c k d d k c d d k c d i 7 < - > < < - < u i 7 4 u i i i 7 i V V V P J D K J ` I x k k l l k e < 4 7 < < d d 6 k c c b Y P s < i i 4 i 6 - @ 4 5 - 4 4 < @ 4 k 7 k k < @ < i 6 < 4 < @ O - 4 @ O + O . . + * . O . . @ @ . . + O i k < @ 4 i i i d i i k k i d i 7 7 i d 7 < < 4 @ < 4 d 7 * @ - > @ @ 4 i 1 * < 4 4 < @ < 6 6 3 O @ - < @ O @ 4 6 < @ @ @ - * < 1 < 4 < @ < < < 3 r z b I v.{ _ C M x e i i n m B x k k U Q Z C z M V V B k k e l r 7 v z 8 x @ O @ O . . O > 4 - O # o - O + O - 4 < < O @ < O @ $ 4 k n 3 7 k l t m V V _ Z [ [ _ ] ' [ A B m n e n e e e e x B Q U C U U _ ~ C l 7 b V x k 8 8 Z V V x x m ' ] [ b n _ y.t.y.] { t.t.t.` ] ] { y.t.` ' ` q.7.w.Q Q w.] 7.U U V ' ' ' C Z U ] [ ] [ [ y.y.7.' [ u.u.y.t.w.w.v.u.y.u.Z.C.N.v.| | {                                                           ",
"                                                      Y P @.d.j.d.f.f.d.Y.Y.Y.Y.Y.Y.f.f.f.Y.Y.,.Y.d.>.f.:.Y K ,.Q.q.T $.:.-.U C b k v J Y :.$.G K O.O.K K +.K P M 4 - - - - @ - > - @ @ @ - - @ < 4 < @ @ @ @ @ @ - @ @ + - @ O @ @ @ O @ - @ @ @ < - @ O @ @ @ @ @ @ @ - - @ @ + + X @ @ O O o @ O @ @ O + O O O O @ @ @ @ $ < * @ @ @ @ @ @ @ @ @ O + O O O O O O O # O . O O O O @ @ @ O O O O $ O @ @ 9 * @ @ @ 3 @ O @ @ @ @ < e e 1 : e t x Z _ U x 7 8 e Q p.t.t.] ' Q _ U Z U ' y.] B e 7 i i k k i i i i k k k 7 i : 4 7 4 7 4 - : < 7 7 i i i d c S D d i i s d 4 4 < @ @ O @ O O o O @ : - @ < i c n k c c k c k i c k v 7 < @ o @ o @ @ @ . . . . . . o o . o O @ < 4 u i f c c S c d k c k k i k G i 6 4 < - - < - - 4 6 6 4 6 i i i i d M V V P P D D G x C b l k k l l k 4 < 6 k 4 6 c k d c c c D S k < 6 d 4 < 6 - + @ 4 - + - @ + - i 4 @ 4 i O + 6 6 + + 4 o . @ 4 o . o . . . . . . . . . o > . . < < 7 k 7 e 8 i d i d i u i k 4 6 i 6 7 i k i 3 4 u u 4 k i k e k 4 i i e x i b x x n k n x k k i e e e i d k e x i i 4 e 7 < 4 4 l l l 7 n M x x k e m x P E y.v.v.w.Q l 1 < 4 4 @ e 3 7 k d x m U z z A V B I V I C Z x k v ! ' ] Z ] Q x 1 O < 4 4 < e @ 4 4 $ < : 4 4 $ @ 1 < 4 < 4 7 4 u 1 < 3 l C B t q 1 r 9 m x V Z [ } ] ' [ U [ Q V V 7 4 3 3 e 7 i 8 Z _ V Q C C e e 3 Z C U b n b ' ] ' ' Q I U R C Q ~ t.u.w._ U Q p.y.{ _ ' ' 0.7.t.' _ ] t.y.Q R ' ] { ] U Q U ` ` ' Q Z { 7.] Q ] { t.y.| _ _ 7.y.p.| { _ t.u.C.C.b.y.u.v.p.                                                        ",
"                                                    O.k Y ;.d.d.d.f.d.j.Y.f.f.Y.Y.d.h.Y.Y.Y.;.$.f.,.>.<.+.Y K d.h.` K ,.,.-.I V z c v D T $.+.Y K ,.-.J +.:.Y U x 4 - - - - - - 4 < @ @ - < - @ - < > @ @ @ @ @ - - @ @ + @ @ @ @ @ @ @ @ - @ @ @ : @ O O @ @ O @ @ @ @ @ @ @ O + + O @ - O < @ O o . O O + O @ @ @ @ @ @ O @ @ @ @ @ @ @ @ @ @ @ @ O + O O O O O O O # O . + O O + O @ O + O @ @ * O @ @ 3 @ @ @ @ 9 O O O @ @ * 3 8 x 3 < e r r C [ U x 3 3 e Z u.p.y.' ] ! ` / Z U _ w.| Z r 7 7 7 i n i k i i d k i 7 4 7 < 1 4 4 7 4 < < 4 4 7 i 7 d k v v c d d i 7 < 4 < @ @ @ @ @ O o # O @ @ @ - i n c k c c k f i k H d d 4 - O @ O . o O o o @ o . . . . . o o @ @ 4 i f i k c S c f i d c c k i c c 6 4 < > - - - < - 4 4 4 6 u i u 6 i M C V P P D S K M k x x n k e e 7 < - > 4 < 4 f k i k k c k k i - - d i @ - 4 @ + > 4 + . @ + + < i @ + < > + @ 4 > . O - o . - - . . . . . . o . . + O @ - O + 4 i e i i i k i d i u i 4 u i u u k k M x k k x x k d n x z d k l k d k x m 7 d < e 6 k i < 3 < 6 < $ < 4 i k z x i i 7 e e k i i e e 8 u 4 e e < 4 < @ < 7 z k e [ { x e * . @ > + . # + < 4 @ @ O @ 4 < @ 9 1 4 5 8 m r < i k z V [ t.y.] Q U x 5 4 7 l e x i v V x b 7 z V B x i z U U b i s m C x b _ ` ' Z [ [ Z Q b m t 9 x 8 7 k e C Q _ _ Z U Q U U M r 3 7 < < 6 7 Z C ~ 7 3 6 c _ ` _ e 8 l _ ` ` U Z [ ] { ' ` ` t.] y.{ { 7.7.t.y.] ' ] t.7.Q R Q t.w.] ' U _ _ ` ' U Q ] ] w.Q R ' ] y.{ ] ] ] ] t.y.w.[ y.y.t.t.t.t.C.C.N.a.N.b.                                                        ",
"                                                  $.G D @.;.d.d.d.d.h.Y.h.f.Y.Y.d.Y.Y.h.Y.,.$.d.f.$.,.:.O.Y $.d.g.R +.,.$.R V M k c v G +.,.K G +.f.R J K K J M k 4 4 4 4 : - > 4 < - @ @ - - @ - @ @ - < - @ @ @ - @ O + @ + @ - @ @ @ O @ @ + @ @ @ O O O O O @ @ @ O @ @ O + + + + @ @ @ @ @ O o + + O O O @ @ O O O @ O O @ @ @ @ @ @ @ @ @ @ @ O + O O O O O O + O X + + O + . + O + . O @ @ 3 @ @ @ 1 O < < @ 9 * O O @ @ 1 7 8 B 8 3 e e e C [ Z e 3 1 e r ' t.v.] t.Q ` _ U U _ ' y.[ y 9 7 7 7 i k d i d 6 i i 4 < < < @ 4 7 4 4 < < 4 5 i k 7 i i k k d i i i 7 4 7 < @ @ @ @ @ O O O o O @ - < i k c d c c k d i S k d 6 > @ o @ O . . . . O @ O . . . . . o @ 4 - i c f k d k H c d d k S S d d c i 4 < > - - - - > < < 4 4 6 7 7 7 k V V V V R D D S S l k l x n l k < - - - - < - 4 c v k n k d < 4 u - i k < @ 4 4 @ - 6 @ X @ 4 @ @ i 7 O @ i > + < 4 o . - @ . + > . . . . . . . O * O 4 * @ @ @ 4 k k 7 6 d i i k k i i k b i k z k k k x i c 7 1 7 k i < < 4 4 @ @ 4 i 4 @ O - @ @ @ 4 7 @ o + - @ O < < 6 7 < 4 $ < < + @ @ 4 4 4 O O - @ @ @ < < @ O # - i d 7 z ` 7.{ Z r < 6 4 < * @ < 4 > @ # . - - O O @ @ < @ * O # + < < 4 3 3 b ` Q A V 7 4 < < < : u i 1 3 7 4 4 r m l i k V Q U b k V Q Q U P ' V x r r x x Z C Q ~ Z _ _ _ m B x z e e 1 * 8 n U _ _ _ U n 7 < < * 9 C U b 7 7 4 Z ] _ 7 7 7 V y.y.{ t e V ' ] y._ Z _ ] { ] ' ' t.p.] p.` R 7.0.t.{ [ U 7.' ` V Z _ u.7.' U U ] 7.y.[ [ _ t.w.w._ { u.y.y.] ] 7.t.u.v.u.C.Z.v.y.{ ]                                                       ",
"                                                ,.K S P @.d.d.d.f.f.f.Y.j.Y.Y.d.Y.Y.f.f.,.$.#.U.,.$.,.$.O.G ,.8.Y Y 2.,.8.! V x i k v G +.:.J K 2.;.Y v K O.D C b 7 4 < 4 4 4 < - - - - - - - - : : @ @ - - - @ @ - @ + + @ @ @ - @ @ O @ @ + @ @ < @ O O O O O @ @ @ @ O O + + @ O + + @ @ @ O O + O @ O O O @ O O + O O O O @ O @ @ @ @ @ O @ @ O + + O @ O + + O + + X O + O + . + O + + @ @ $ 3 @ @ @ 1 @ 3 3 1 e 1 @ O @ @ < 7 7 x 7 * 3 r e B _ Z e 7 1 1 e U { u.] w._ ` _ U R _ ' y.] B e 8 i 7 7 k k k d k 4 i 7 4 - @ @ < 4 < < < < 4 i d c i 7 i d i i d i i k i 7 < @ O O @ O o o O O O - 4 < i d k d d k k k k n i 7 4 - O @ @ O . . . . o O o . . . . . @ 4 4 4 k k k d i k c k d d k S S k k k i < - - - - - - > 4 6 u 6 i c b n M I U C U W D G G V r r l l x k - > < - - 4 4 < c H c i k i - < k 4 < k i @ - u 4 - 4 4 @ @ 4 k < 8 k 7 * 4 i < 3 4 4 O @ 4 4 @ - O O # o @ O @ + # # - . . o < k b v 4 4 d k P k P C z k z s d u 7 d k 4 @ 4 < < - 6 i < @ O 4 > @ < i 6 1 @ - 4 e 8 4 d 7 e 4 u 5 7 x k k i 4 8 < u u 4 < 1 4 u 4 $ $ < 6 7 e e i n C C x 6 u 4 7 v n { { [ Z B 6 0 l r e 7 i x 8 3 4 7 7 8 m e 4 7 < 1 1 @ @ - < @ < 7 k 4 e t r 1 - + . o - < - o . + - @ @ < - 4 4 @ @ - 6 4 $ 3 1 k z n B A m e 3 1 e 3 x e n C [ ] [ ] ] t.| B 1 < < < 4 1 Z _ _ Q U C B 3 7 4 b U C V 4 3 e ` R b 3 e 1 { t.w.V 7 m  .| y.| V x C y.v.y.~ C x ] t.v.{ U Q ] w.` C Q ' t.] ] Q P _ 7.] _ Q ' ] p.7.Q ' t.t.t.7.' Q p.y.t.] { t.y.v.C.Z.y.y.u.7.                                                    ",
"                                                K c c Y ;.d.d.d.f.f.Y.Y.j.f.f.f.Y.Y.d.,.2.+.$.f.$.$.,.#.G K $.+.G $.>.$.$.R V n k c c G +.K G O.d.@.D G O.+.Y Q P k 7 < < 4 4 4 4 < < < < < - < < < < - - @ @ @ @ @ @ @ - @ @ @ @ @ O O O O + @ - : O O O O O O @ @ @ O O @ O O @ @ O o O O O O O + @ @ @ O + @ O O O O + + + O O O O @ @ @ O O O O . + O O @ O + + O O O O O O O + + + + O @ @ 1 r < @ @ * @ 1 3 1 9 1 @ O $ @ - < * e 3 * < e 9 t _ V e 7 3 1 8 x ' v.{ ] ' ' ` Q _ _ ' t.| Z r 3 7 i i i k k k c k 4 d 4 4 < 4 < 7 7 7 7 4 4 i k c k i i i i d d 6 i k k 7 < @ @ O O o o O O : < 4 7 4 i k k d f k c k k i 4 4 4 - o @ O . . O . . . . . . O o . . > 6 4 4 i d i i i p f d p i f c c i f f i 4 ; - - - < < 4 p b b k b b W V b I ! I ! b S L P e e t x l k < > 4 6 - - 6 4 4 c H d 7 p - - p i - - i > @ 4 u @ @ 6 4 O - i @ O 7 7 * < i < + @ 4 + . - < o . - . X . @ . . . . . . + . @ u P U b V k d k n n n b k k k i i i u i k k < 4 k k e u d 7 r r i k k x v k e x e i z x l i k l l u k k e n v d 4 8 k i i k l e k u s r 8 k i k x l 7 7 7 C 7 4 < X + - 7 7 7 B m e 7 6 < 1 < 4 4 < 8 r l 4 d V V U M n V V ~ m 7 4 6 6 < 7 k 7 < t Z Z V i 3 3 @ < < O # . < < @ O @ < 4 @ O . @ < @ @ O < 7 4 1 < e U ' Q _ [ Z Z x e 9 9 e x k x t._ ] ' Q v 7 @ $ < < 7 v _ [ ' _ b 7 7 e Z _ _ k 4 i V _ Q t < 7 C { w.y._ m C _ { ] ] A C u.v.u.] C C Z y.v.y.Q C V ] ] y.' Z k V ] ' ' Z Z [ ] _ Q 7.t.t.u.u.] ` q.i.w.{ | { v.y.t.] t.y.V.C.v.N.t.                                                    ",
"                                              K k i v Y 8.d.d.f.f.Y.Y.U.d.d.Y.f.Y.d.d.,.2.O.:.f.O.$.:.K Y +.:.Y +.O.Y +.R U V v d c v K #.G K :.;.Y S Y +.K c U R P c s 6 4 4 i 7 4 < 4 7 4 < < : - - - - - @ - < - @ @ - @ O O @ @ O @ + @ O O @ @ O + O + O O O @ @ + + + + O @ @ + O O + + O O O O @ @ O O + O + O O o . o + O O @ @ O O O O O + . + O O $ + + O O O @ @ O O @ + + . + O @ @ $ 8 1 O O O O < * * 3 1 O @ * O @ @ @ 1 1 @ < e 9 r Z M 8 7 3 3 3 r Z { y.{ ] ' ] R _ _ ] { t.[ m 9 7 7 i i k k i i k i < 4 < 4 < 4 - 7 7 4 i 6 i k k d i d d d c c 7 4 7 7 7 4 < @ o o o O O O $ < 7 i i i k c k S k D d d i 7 < < @ O O . . o o O . . . . . O O . O < 4 4 i i i p i i p c f i d i f d i f c d 7 < > - - < > 4 k n 7 7 s n M M P ' ` ` J S G G l r r r e 7 4 - > 4 - @ 6 7 > d f G 7 i i - 4 f 4 @ > 4 - - i 4 + - i < @ < 4 o O 4 < @ < 4 @ . - - . + - @ . + @ . . + + . . . . . @ O 3 k U _ U d 7 i k d i i i i i k z 7 d b b k n M n k n x n d k e r 7 k d e x d 4 1 7 4 i 4 < @ 4 - O : i i < * 4 4 < + * 4 6 < < @ @ 4 @ O @ < 4 < > O @ @ @ $ @ - - @ X . < 6 < O O O @ > @ X . . @ O . O @ < 7 4 @ r 4 4 4 9 e B C n i 4 < 7 4 < @ @ * e e n n x e k 4 7 3 < : 4 s e x i u 7 m e < 4 i e x 4 i 7 3 t < k 7 e e t B V _ U [ ~ y e : @ 3 * r V Q Q _ w._ ~ m 7 6 7 4 r e Q U V 8 4 * r m I v i k e ] [ ] b e x ] u.b.y.V V C t.a.y.{ [ R ] t.t.u.[ ] t.p.t.t.U Z Z y.7.t.I 8 x Q t.{ _ x x C [ y.{ Z V ` i.w.y.{ { y.p.y.7.] u.y.y.v.t.V.Z.u.] _                                                   ",
"                                            K k d f J @.d.f.d.d.h.Y.Y.d.f.f.Y.Y.f.;.8.d.,.$.8.:.:.:.+.$.+.#.O.;.K K $.Y P P M n d c n K O.K +.+.K G G K K S D U U v b b b b z i u 7 4 < 4 < : - - - < < < < - - < < - @ O + @ @ @ @ O @ @ @ @ @ O O + + O @ + O O @ O O + O O + @ @ O O O O O @ - @ O O @ @ < O + + O + o . . + + O @ @ O O O O + . . O O O $ O O O O O O @ O O O + . . + O @ @ @ 1 9 O O @ O $ $ * 1 * O O 1 O @ @ O $ * @ @ e 9 9 B x < 1 3 3 3 e m Q t.{ ' ' t.R ` _ ] { y.{ C e 3 7 7 i i v i i i i 7 @ < < 4 < 4 < 7 7 7 d i i d k k d i d c c i < < < < : @ O O @ O @ < $ @ @ 7 i k k v k v c k c k k i 7 @ @ O O O . . . o O o o . . . o @ o @ < 6 i i i c k f c c c k d n f f f c H c i 6 4 4 - - 6 ; 4 n i 7 i k M C U ` ! R P D D G n x t r e 4 4 > @ - - @ < k k 7 c D z < k i < i i @ @ 4 4 @ 4 p @ o 4 d @ > 6 @ + - 7 @ < 7 < . o 4 @ . @ - . . + + . . @ . . + < * < O 8 z b e 1 6 6 i i d i i i n V k V U b P M k c 7 7 i k 6 < $ 7 4 * @ 6 i < @ @ - @ @ @ 4 > O @ - < O < 4 i < * < v 7 @ @ < 6 < < @ + - < @ * @ 4 < < @ > 6 4 8 e k 7 k x e 4 d i 1 * # + @ % @ O O @ @ + X + @ < < @ + X o @ O * @ @ : 4 < @ + o + O O # # O @ > < e - < < @ O - 4 i 8 e M 7 7 l V V x k x Z C P k b Z C U P P Z r 1 1 < e m Z _ ~ [ _ _ C e 3 4 7 s C [ ] t.[ U C e $ < @ 4 k V C Z < 1 < 7 Z I Z 3 1 4 I Q _ t x m y.y.w._ V Z [ u.t.y.R ' t.B.C.v.u._ R ] y.y.t.Q C U ` 7.] A x m ' ] ] U m x ] w.w.U V C ' y.u.p.Q _ ' { y.| ] ] { v.v.N.C.t.y.                                                  ",
"                                          K v c c v @.d.d.f.8.d.d.f.h.f.d.d.Y.Y.,.d.f.d.$.,.f.f.>.;.:.+.+.+.;.9.T K $.Y T I b k i c c K +.+.+.K G Y G G K K b Q U b n v b M b v v v k d d i 6 7 u 4 4 4 4 4 4 - - - - - @ @ @ > > - @ @ - @ @ @ @ @ O @ - @ O + O - O + O @ O @ - - O O + + O @ < 3 1 @ @ @ $ O . X X X . o + + . + O @ O O O + o . o O O O @ O X + O O O @ O O + X . . + O O @ @ @ 9 O O O O @ @ @ $ @ O @ 1 O @ # O O @ @ * e e 3 x e < < 1 < 7 7 r V ] { _ ' t.R _ _ ' 7.] y._ r 3 1 7 7 i n v d i i i 4 - @ < < < < : 4 7 7 i i c v v i d d c k d 7 4 - @ O O o o O @ < < < : : 7 k c n v k D c k k v c d 6 + + O O O . . . o . O O . . o o O O - 4 i p f c G c k n v v c k k f H H f c c 7 6 6 6 - < 6 < 4 k i 7 k M V ` _ _ P P v S K S x m t e > 4 6 - - 4 - - i b V V D M < 4 d 7 4 i < @ - i 4 - 4 4 @ - i i < < 4 @ @ 4 k < 1 4 < O @ 4 : @ - @ . . @ O X O + . O < @ # o : z T b < @ 7 i d f n M k b b b k M n k k 4 i 4 4 4 i 7 @ . < < < < 6 d 4 3 @ i 4 e 7 i 7 8 r s 7 k l k i k e r k n n e 8 7 u 7 8 7 7 i s e 7 u i 7 e 7 i d x m k i k B Q Z b i z x m e < 4 k m Z V x e x r 7 7 u 7 < 3 * < 4 @ @ $ @ i 4 @ O % - - + o X . o @ @ o . + O . . . @ 4 < O O @ < < @ * < i 7 < x < i 7 e m x b P q.] ] ] U e 3 9 e V U ` t.{ y.] ' b 7 < 3 * * 4 7 C Q _ Z r 7 < O * * U C x 4 < < t Q ~ r 4 4 e _ _ _ e x v _ { a._ t x C ] t.p.t.a.N.N.v.p.' Q Z { y.w.! b C { u.y.{ x b C t.] t.Q C M ! w.y.] Z Q t.t.t.t._ ~ ] t.y.t._ _ _ u.N.C.v.7.                                                ",
"                                        K v v c k Y 9.d.,.d.8.f.d.f.f.f.d.Y.Y.d.f.f.d.:.;.j.d.$.+.,.O.Y +.O.8.9.Y K :.T ^ V b k c k c K +.+.+.K $.$.D G L K V ` R M b x b v v v v z v P D b k f c k i i 7 4 4 4 4 4 < 4 < - - - - - @ @ - - - < 4 : @ @ < < @ @ - @ + + @ @ @ @ - < @ - 7 : @ @ : 7 8 @ @ @ O O + + + + . + O @ o . + O O O + + . . + O O O O X . . + O O O O O + X . . + + O O O O * O O O O O O # # # O O 1 # O # + . @ @ < r 9 * e e * * 1 @ 3 7 8 B Q { _ _ w._ ` _ ` ] ' y.' x 8 3 7 7 i i D c k i i i 7 7 @ < 4 4 7 7 7 7 k k c D v i i d d 7 i 7 4 > O O O o O O @ @ : < 4 < 6 c n v k n c k d v D i 7 < @ o @ @ O . . . . . o . . . . o o - 4 i f c c S S k k c v S c c k c G c i S i 6 d d < - < 6 4 u 7 7 i I C _ P R P D S S G S n m x z 4 6 i i < 6 7 - < f n v Y D : @ i k < 4 i - O i i O - u - o 4 p @ @ 4 - o - i < O > < + o 4 < O o - . . . @ X . @ . . @ @ . . @ k Y P e e 6 v V k k M i d k i d i s k d 7 4 k k l k d x r 7 i k x n k k e e 7 d x m k i l x b v k e e 4 6 < 1 4 d 7 < @ < < O $ < u i 4 3 @ < 4 O @ < 4 > @ # < 4 6 @ 1 3 4 7 6 4 t e @ > 4 m C _ ' ' _ _ Z V u 4 7 e e l u k x M C x b n x x x k i k e e @ - - < @ @ - @ O . + > < O . . @ - o O + > 4 @ X X + - O < : 7 n v s 8 C w.{ t.Q Z m v k n B _ { { ' ' ] ] C e 3 4 < < 3 C C U V M e 7 1 4 z P V m * 3 4 C U C k 3 3 C R ' V 0 x V B.N.v.Z z M ' u.a.| y.{ w.u.w.{ Z V x q.w.] ' m ~ ' ] ' I x x Z t.` ` b C ' y.t.w.Q U _ y.y.y.{ Q U 7.u.y.y.] ] v.v.N.{ U                                               ",
"                                      O.S v c f J ;.d.;.d.d.d.d.d.Y.f.f.d.f.Y.Y.f.d.:.;.d.d.d.+.$.+.T O.K ,.f.-.Y +.O.+.R M b k d d v K +.+.Y O.$.Y c L ..K V ` I P b b b n M P P W n D Y U V v v b n k i k k i d k u 7 7 4 < < < < < 4 4 4 < 4 4 < < < < < < < < - - - : - - < < < 7 i n x x 3 7 8 1 1 @ @ < O + + O O + . + O + o . + O O + . . . + O + O O X . . + O + O O + X X . . + + O @ O O O O O O + + O O # # O O = O O O O O @ * 2 r e 1 7 9 O @ 1 O * 3 7 m Z _ _ U ' / _ ' Q ' ' t.y.B r 3 1 7 7 i k b k k i d 7 7 7 : : 4 i s i d i n c S v k k i 7 4 4 4 - @ O @ - @ @ O O O O @ < 4 i v n c i n c c d v v i 6 - @ . O @ O o . . . . . . . . o O o < f f f f k c f f c c D D H f n D G f f H i 6 i i < ; < 4 4 i s 7 M ! ! P J P D S S G K D x x k 6 - 4 i > - p 6 - 7 k D D c 4 O < k 7 @ 4 4 @ - i < o - < @ @ 6 6 @ @ < @ o - 4 o . @ o . o - @ . o @ . . @ @ . o o . . - . # 7 z v P v x 7 d V d k i i i d 7 u i n n k b M n b x v d z x 7 i d e 7 i 4 4 < 4 i 4 @ @ 4 < @ 3 d s 4 @ @ - + o @ 4 4 + . O - @ O + - 4 @ . . o - @ @ @ 4 > @ # . O < > @ @ + > 4 > @ # X + + + < k b U _ Q A B 4 < @ O O $ 4 i k e n V s b C Z U C V I Q ` V v i b Z U ] V M x r 4 7 4 @ $ - 6 4 3 9 < 6 4 < * < 4 < @ @ 4 n b k 7 7 v b _ [ [ [ ' C V m t 3 1 e e l ~ y.| ] ' V k e * 3 7 n U U ] _ x 7 6 7 x Q Q x 7 7 k _ ' t.V x 7 M ` t.y.[ [ p.v.p.y.Z B x { a.N.u._ _ [ | { w.C V V { t.{ x e k U [ ] Z l 8 V ] ] { C Z _ w.t.] Q Z _ y.] 7.U _ { y.u.y.y.t.u.v.a.{                                               ",
"                                    :.S c k n v Y $.8.8.d.d.d.f.f.h.f.d.,.Y.f.h.h.8.;.;.8.f.;.;.$.@.$.J G +.,.-.Y O.Y T P M v i k k S K O.O.K +.$.Y H O...S C ` P P M b b b b P P P M b P P P b b b v b n M v n v N b k n z k c d k 4 7 i i i 6 4 < < 4 4 4 7 i i 7 k 8 7 7 7 7 7 8 k k C U Q V x m e 1 @ < 4 7 @ O O @ @ + . + + + + . . . . . . . o + + + X . . X X O + O O X X X + + X X + O O . . + O O X O # # O O O @ * $ O O O $ * < 3 e e 9 < 1 O @ 1 O @ 8 3 m C _ ] Z _ / _ _ _ Q _ w.y.Z e 8 1 3 7 7 i k k i i 7 7 < 4 4 < @ 4 s s d k d k d n n k 7 7 < < 6 < @ @ : < < < @ O o o O - i v v c k i n k v d c d 7 < - O . O O . . O o o . . . . o @ @ O 7 k c f i d i i p k c S S c d v G G H f p 6 < u 4 < - < < < i k i U I I D D D S S D K S l 8 4 6 > @ < > @ 4 k d 7 v P v d i < - k i @ @ 6 4 @ 4 u O o 4 4 o - i - . - 4 o @ 6 - . o - . . O - . . @ o . . @ . . - O @ - 3 @ < k s i c 7 7 d d i i d i i k b V d b b b n V n k 7 * 4 < < * 7 i 4 O % > @ O @ 4 4 O . @ - @ @ 7 c 7 3 @ 4 4 7 < 4 7 > * - < 7 7 8 5 7 4 * $ - 6 i 7 e i 6 6 8 3 < 4 7 7 m x 4 6 4 < e @ * @ O + 4 k J b M Z Z B 3 @ . . o @ > - > O O @ < 7 @ 3 1 i k r V x e - 4 4 e _ ] ] ' ] Q x 4 < @ e 4 i n V x v i n C x x d v m U P G R U _ ] @.@.l 3 3 8 V _ Q [ ~ V k < @ < @ r U ` ] w.t.{ C e 7 i k B _ ' U V e < * 3 x C x 7 1 1 A ] ' C 7 e x t.u.y.] _ U t.u.u.t.e k b p.a.N.' Q Q w.w.t.' B x _ ] ] I 7 e e [ _ ] n 7 l ] t.{ _ V k _ w.t._ r m U t.t.p._ [ ] p.a.a.v.y.v.v.`                                             ",
"                                    K H S c c G Y ,.;.8.d.f.h.f.U.f.d.d.,.8.h.Y.f.;.$.8.d.;.,.;.$.$.O.D K :.Y P K O.Y R P M n i i k H K Y K G +.@.b L ..K b I R P V V V M b b P P P V b P P P V M b b P P P M b b V b z v b b b J V k i k k z z i z z k v b b z b V C M b x x b n n V z x Q Q I C U B e < 4 4 r 8 < O O @ # + + + + X . . . . . . . . . o . . . . + X X + + O X X + + X + + + O O # . O O * O O O O + O @ @ * < O O @ @ * 1 3 t e 8 $ $ * @ 1 # @ 3 1 m m ' { _ U _ _ R Q U _ ' t.[ m e 1 3 e 7 s s i i i i 7 4 < < @ < O < 7 7 i i i i i k i 7 i 7 4 < < @ O O @ < @ O o O O @ : i v k k i n v n c k k i 7 @ - o . o o . o o O O . . . . o - - < i d f i i i i p i d k k c d f c S S c u 4 4 < 4 4 - - 7 > 4 k k z U P P D D v S S K D k s < 7 7 - > 7 > - d c 7 i v n 4 < 7 4 7 i 5 @ - 7 5 < 7 4 O @ 6 i - 4 4 + @ 4 7 - i 4 @ O @ 4 @ $ @ @ . . @ @ . @ o . O < O o @ . O 7 i @ > i k d d z k i v V i v V i k x 7 i 4 < 7 7 < < 4 > < 7 d 7 1 @ 4 4 1 8 7 i 4 8 4 u i e M b v n x z 0 k x k 7 7 8 3 7 d 7 e 4 7 6 3 3 < i 7 7 e 4 i 7 < 8 7 4 7 k x V x k 7 x V x x l l 8 < 6 v P b m _ [ [ _ e 3 < 4 4 4 @ O + o - @ O O + @ 4 - < @ # # + + @ 4 v N n Z [ C 4 @ + o - i 4 @ 1 < i 4 8 r 8 k v I Q ` D v Q ' _ q.q.i.' 1 $ @ < @ e B U U ` ` V r @ 4 6 0 x B ~ _ ` P b x e 1 < < i B C Z 1 < @ 7 V B C * 1 < V ` _ B e 1 C ] t.q.R R _ | { t.b 0 x _ u.y.y.Q C R y.t.y.Q C n ^ ] Q ' x m C ' ' U V m B _ ' ' C x t [ ] t._ x R w.t.7.w.` U 7.y.u.t.v.v.u.                                            ",
"                                  K S S c k S D +.,.8.;.d.h.f.f.Y.d.f.>.$.f.Y.d.;.$.,.,.d.d.8.+.$.$.Y K K K J K Y +.Y P P b k 7 d k S Y K J G Y Y G O.K K M U I D b V P V b v V V V V M P P b P P M b P U R P V V V b n b V N P P P b n v v b b z n z M V V V N C I P V V b V V C C U C V Q _ U U U I z k e 3 e V r e O O @ @ o . X . . . . . . . . . . . . . . . + X X + O O X X + + . + O O O # . + @ @ 1 $ O O + + @ @ @ $ * + X O O * 1 3 t e 3 $ O 3 @ * # O * * e r [ ] ] R _ ` R U U U _ ] _ m r 3 3 8 8 7 k k k k k k 7 7 7 < 4 7 : < 7 7 i i g d d i < 7 k k 7 < @ O O @ O O O O @ @ : : k k i k k S c v c k i i < @ o o . o o . o o O o o o . . @ @ 4 7 i i i 7 p d i i i d k f f d f c v c f i 4 4 < 4 4 > > 7 > u v z C Q P S S S v S G G m z 7 7 i d < 7 i < 7 p f 6 k c 4 @ < 7 - < u @ O 4 i @ < i - o 4 i - @ 6 > o - p - + - - o o < < O o @ . . + - O . - . . - o . O @ O - u 7 < 7 n x d V V i d z i p i i i k 3 4 4 < 4 i x x k k C b v k e x l i n x z i i e e u p k x i 7 7 r 7 i 7 @ < > 4 O < < 6 < < @ @ @ . O @ 4 < @ @ O @ < @ O O - i 7 4 @ @ > 7 < % 1 3 8 7 l r 8 6 k n 7 7 Z { y.{ [ Z M k 7 k x e 3 4 u z e x 7 u 4 7 9 * < @ O . O 7 k n x Z ~ Z e < * + > 4 @ . . @ > @ O < 4 i i : * 4 i 4 7 l k Y Y z Q V m 7 @ * @ @ 4 z / ] [ { ' m d < * $ @ @ 7 k U ~ C m < < @ * * V V x 4 < < 1 Z C x 7 7 8 _ ~ _ 9 e 7 P t.] ' m m x ] ] _ B m Z ] y.t.] V x Q t.] ] n x x y.| t.U x k _ ] t.[ m x I 7.] y.Q Z _ w.i.7.[ _ _ t.p.p.t.' Q { t.v.v.a.u.                                          ",
"                                K G H c k S k J +.;.8.;.d.f.d.U.Y.Y.2.$.d.E.f.;.;.;.$.d.f.;.@.$.,.$.Y K D K Y Y Y D W P P x k 7 d v J Y K S Y Y D K O.K G M U V v b W P P b M V V M M V V P P P P V b P R R U V V M b n v V N N P U V v b b b M b V b V U U I P U U P v b C C V P U _ U C Q R C C Z U b V V x 1 m ~ A @ O O @ O . . . . . . . . . . . . . . . . + . . + O + O X + + + . + + + + . # + @ O * * + + + + @ O O @ @ O X O O @ < 3 t e 1 < @ 3 @ * + # @ 1 1 r U | t.' ` t._ R Q I U ' [ B r 3 9 9 3 8 k k k k i k i 7 7 7 4 i 7 - < 7 i d d n d k 6 < 7 7 < < < @ O O O o O O @ < < 4 k i d k c c k v k c 7 i @ + o . o o O . . . . o @ o o o @ > 4 i p f d i f c f i i k c c c k c v S c f p d 4 4 6 6 < < 6 < p n x V U D S S S S S K k n d 4 7 i < > i i < p k 7 > d 7 @ - u 4 o > < O @ 7 7 - 7 7 @ - i i @ @ < @ o < 4 + o ; O . o - o . o o . . O O . o o . o - . O 4 8 e u n x e k v i k d i i i i i i 6 i d n 7 i z l k x x z c 8 e k i < * < i i < < 4 4 + < < 4 4 @ O < @ @ @ > 6 @ < + < @ O + 4 4 @ # O 4 - O < 4 4 - * < < 6 6 @ @ @ 4 4 - . . . @ @ + . # @ > - O $ O > 7 4 * $ 1 C { [ ~ B 8 7 u k m m n 7 v M C P b i n V B x V m x : - i c 8 m _ { { _ C e 4 i 4 < # @ 4 4 - @ 7 i d < @ O < 4 : @ < k v d 7 1 k V _ U U r 6 > 4 : * m Z V V V V m * @ @ - @ @ r x C V n 7 < < 4 k V V l * * < V C C k e e B Q Q C 7 7 < Q ] ] ' k V Z t.{ [ m x k ] ] { A e 7 b ] 7.{ x m x Q ' _ x x r ] _ 7.V V C | u.t.| U R 7.u.u.t.] _ ` p.v.u.] ' y.t.p.u.v.u.                                        ",
"                              K v H c c H p S Y ;.;.8.d.d.f.Y.h.Y.d.,.;.,.;.d.d.;.T ;.f.:.+.@.;.;.Y Y Y Y Y +.$.Y v G P P x 7 d c S K Y G D K J D Y ..K S M U v c v b b b n b P V M b P P P ^ R R P M P U P U I V M V b b V N N P U C M b b b b V Z M V I U R U U U V b b U V V P U _ Q U _ U V V C U V C _ _ x e m Z x < * # + o . . . . . . o . . . . . . . . + . . + + + # . + + + . + + + . . # O @ O * * + + + + @ O O O O X + O O @ @ 1 e e * 1 $ < $ 1 O # @ * * e x { { t._ t._ _ _ C U U ' Z t 9 9 9 3 r 8 i d i k i i 7 6 < 4 4 7 k 4 - 7 i k d n k k 4 < < < @ @ O O O @ @ @ o O < 4 7 k i c k c d c c c d 6 4 o o o o o O o . . . . o @ @ o o < 7 6 p f c c f c c c d i k c S c d c v S v f p d 4 4 i 4 < 4 6 < p k n V I v S S S K S D m k 6 - 4 4 - - g d 7 k c < 4 d 7 - 4 i @ @ 4 < O 4 i - @ i 6 o < i 4 . - 4 o o u > . o < o . @ - . . o . . . @ . . - o o - . @ i b x k i i i d k 7 i i 7 i d k u p k b d n x i k e k i 4 < i 7 $ @ - - @ @ < 7 < @ < 4 - * < 4 4 < < @ 6 3 e 4 i 7 3 7 7 i 7 e i i 7 7 8 7 d e 7 8 7 7 7 7 7 i d k k k 7 i 6 < 3 @ @ 4 > O O @ > 4 @ O # . - - O @ * < $ $ * @ # : - @ O @ < 4 6 < 7 3 < 6 4 3 e x m b Z B x 4 7 7 < < _ U ' _ Q C i 7 8 r 8 7 i v l U P v s e e 7 d k M C k c k 8 e l b D Z { ' _ Q V k 3 @ * @ > 7 e m C m m 5 : @ O @ $ u b R ' _ V z i k m Z B B 4 4 d U Z [ B e s n _ ` Q e e e 7.t.7.[ B m ] ] w.` l V B ] ] y.V n V [ ] { Q k 7 k ' _ _ 9 e 4 U ] y.[ m V _ t.t.] _ Q t.y.i.` U ` y.v.p.p.t.i.u.t.t.v.u.                                      ",
"                            K S H S k k p d P T ;.8.8.,.d.h.U.f.d.d.d.$.:.d.f.d.Y +.,.;.;.-.;.;.+.T +.O.Y >.d.q.M D Y P V z 7 k v G +.K D K K J K O.Y K v V I c k n v D n n n b M V b P U P R ` ` P V M P P U R E V V E V V V N V I C V V M V P I U V V V U ! ! / P V b N U C V V Z U _ U U C V V C Z C C _ ] Z x m r C e e * * O + + + . . . . . . . . . . . + + . . + . + X . . + . . X . + . . + O O # * * X . . + O O O + . + + + O # @ * 9 3 $ 1 $ * * < @ O # O * 3 e ] ] t.' 7.` ' ` Q U U ' Q t 9 9 9 3 e e 7 i i i 7 4 4 4 < @ < < 4 7 7 - 6 7 i d k i 6 < @ @ O + + O @ < < @ o o 4 4 k k k c d d k v d c 7 4 - o O o o o o . o o o . o @ O o > i 6 6 p f c f k c S H d i d c S d i k c S d f f 7 4 7 p 4 < 4 4 < p k V V P v S S G S V m e 7 - @ 4 < - 7 k c n S i < 7 k 4 < 7 4 @ - 6 6 < u 7 @ < i i - 4 k < + 4 i @ 4 4 o o @ 4 @ o - O . . O O o O O . O 4 O O O - k D 7 @ 7 i i i d 7 7 i d d d b b i k k k i 4 6 d 4 @ - < @ 6 i 7 7 > u z m 7 i e l x k n b M z u 7 e e 7 n M x z 7 e x e k 7 e e i 6 @ * 6 d 6 * @ 4 4 - 4 < < i d k e x i 7 7 e e e 6 i n x m k 7 7 e r 3 < 4 < O X @ < @ @ 3 # . @ @ O . o @ < - + O o + @ + X O @ 4 6 : * @ @ - @ @ @ 6 b 7 m e k 7 4 7 < 7 7 d x V V v k M C M b b P Q _ U v M Z V C P e.a.B e e V _ U Q C e 8 < @ * @ 3 l V I I B r - - 4 4 k ' ] ] ` U 3 1 9 Z Z C i < < m C _ _ v 7 7 _ { w.U k k _ w.t.t._ Z U 7.w.] ] B C [ p.p.t.U C Z ] ' ` M x 3 B _ ' C 7 x B y.u.| x x V | { { Z C k ' w.t.] Z [ t.a.a.C.u.] v.u.u.t.                                    ",
"                          G S S c n d d i c Y T ;.8.8.8.f.U.d.d.f.d.$.+.,.U.,.T O.+.,.,.-.;.;.+.+.@.@.Y K ,.Y.5.P Y T P V k d k S Y +.G G K J J K O.K K b M M k k k v n k k k k i b b P U V D R ` I P P V V P R R P V U E U V N V P P V C V V U R R I V V I ! R U C P P V U C b V C U U U C C C C U U V C R ' _ B C B Z x x e 3 3 O + X . . . . . . . . . . . . . . . . . . . + + + . . . . . . . + O O # # O . . + + . + + . . . . + . # @ * 1 * O 1 @ @ < * @ O O O @ < e _ [ y._ ] ] ` ] _ U Q _ ' A e 9 3 3 e e k i k i i 7 i 7 6 4 - < < 7 7 i 7 4 i d d d 6 < - @ O O O O $ < < < @ @ 4 u c i n k i k c n d k 6 < @ @ O o o o . . o o o . . o O @ i i 6 u i c f f d c v c i i d k c k d c c H d p i 4 6 u u 4 > < < > 7 V V V P v H S G S m e < 4 - < i 4 4 d k c S c 4 < i d - > 6 @ o 4 7 O @ i - o 4 i @ @ 7 7 o @ d < o < < o o 4 < o o @ . . o - O o O . . > o . O < c Y n 4 @ u 7 7 i z n i v M i d z i d i < 7 < > 7 i < - u k k i z m k d v C C D n x x k v b l k 7 6 3 @ 6 i < 3 @ 6 @ O * 7 7 % O @ > + + + 4 4 + . . @ @ . o + > < - O O @ 6 < O < 3 6 i 7 e m x 7 7 x x m M k k l : * 4 @ # 9 t e : 4 4 8 r - 4 4 4 * $ @ 4 < @ O O @ 4 > @ @ @ @ @ + o o - 6 @ # . O - + + @ 6 4 - @ O - i 4 : e i d i 7 t 7 c k 7 x e b v ' y.] < * < * x ~ Q Q U _ C t @ @ < 7 x C ' C V 7 4 @ @ @ 7 P 7.' ] t * $ 4 k V A * 1 * 8 I I U 8 1 e ' ] [ V x e _ y.] ] b P Q t.{ { _ C P p.u.a.w.Q C I 7.' w.B l k U _ [ Z m m { ] t.' x B V ] [ t.R C Z | t.t.{ ` _ u.u.y.u.v.t.u.v.t.                                  ",
"                        O.S S c c c k i k S Y @.;.;.,.d.f.f.f.d.d.,.+.$.f.,.@.:.+.;.,.;.$.,.$.;.;.@.Y D O.:.,.Y J Y P V x d d c K +.O.K G G G G K O.K G b M n d i d k i d k k k i k b P I V b R ` R P P P N P R R P b E U U U M N C M P P I V V U R U I V C U I V U C U U U C b V C U V V C V Z U U U V C Q ' _ Z Z V Q V A t l x 3 * . . . . . . . . . . . . . . . . X . . . . . . . . . . . . . . + O # # . . . . . . . X . . . + O O X O $ * * O $ O @ $ $ O O O # # * e C ] y.' ` ] _ q.Q _ Q _ _ _ t 9 3 3 9 e t x k k i i 7 i i i 6 4 7 7 c i k k i d i c i i < @ @ @ @ @ @ : 4 4 > < i k k d k i k c c i d i 4 - @ < O o o . . o o . . o o o O < d i i i i d d d i d k k p i i i d f d c c k i p i 4 4 4 4 < - < > < k Z V I D v H S S m e - u 4 < i i < 7 d S c c i < 4 i 6 @ < < o + 4 4 o @ < @ @ 4 7 o O 4 @ o < 6 @ o - @ . o < o . o o . . o o . . o . o - . . 7 D P D 7 < 7 i z i i z i k i i i i i i i 4 4 7 7 d d k l i d e 7 6 @ 4 6 i 7 < < d 6 < < i c 7 @ - > o X O 4 4 @ . @ @ O O < 6 > O @ < < @ O 6 i - * @ @ > @ o + - > - o . . @ - O . + O < < @ O + @ - @ 3 1 < 4 i 4 l e : 4 < O 1 8 e 7 k x V r l 4 4 7 l e k i k C m x i i x r r e 7 7 7 @ < 4 > $ # + < - O @ > 4 > + . . - < O @ 4 i u < @ @ < 7 < O < < 6 7 1 8 7 v < O @ * < 4 n U ' } [ Q 8 4 $ @ @ < l x V m < O - 4 7 3 Z [ Z C 4 < 4 $ B A r 4 4 4 m ~ _ m 7 4 n t.[ [ y x 7 Q t.y.[ m m Z w.{ t.C x C y.a.p.` M U ' y._ ' k z x _ ] { U C V ] ] y._ B V _ y.s.v.[ _ { y.u.p.{ [ _ | V.p.p.v.] u.t.                                ",
"                      $.S c S c S k k v k G Y $.;.8.d.d.d.f.f.d.d.:.:.,.f.;.,.;.$.;.;.;.d.;.;.;.$.+.Y G +.$.Y D K K P M x d d v K $.Y K K G J K K O.K D b M k i i i k i d k z k d k k z V M b E R R P P P V R ` ! P b P U U U V b V V P C I V b P _ Q Q C C C C P U C V U Z Z C V C C M b Z C C U U U V C Q _ Q Z Z V C C Z C k Z B V O . . . . . . . . . . . . . . . . . . . . . . . . . . . o . . + + . # . . . . . . . + . . + O @ * # O @ * @ $ $ # O @ @ @ O . O # * 9 m _ t.] _ 7./ ] Q ' Q ` Q [ B 9 3 3 3 9 r B k k k i i 7 i 7 7 4 6 7 i c i n k k d i k i s : O @ @ @ @ @ @ @ < i i k i k k k c k k i 6 < 4 O - @ o o o o . . . . . o @ @ @ 4 6 d i 6 i d d i d d k d i i u u i i i i d p d u 4 4 4 4 4 - > 4 < 4 b C V R D v c S M x 4 4 i i 4 i i @ i c D i i 6 - i p @ o < 4 o > 6 + o < 4 o < k - . - 4 o o 4 < . o < o . - < . . o o . . o . . - o o < O $ 7 J z v 7 O 4 d i 7 i i 7 i d 7 u i 7 i k x e i z e i i @ < p > O - < O - u 4 @ @ < 4 < $ 7 k 7 1 @ 4 < @ @ 6 6 7 l 4 i 7 r x i s e k i p 0 l e 7 7 3 9 7 7 u 4 7 4 u 6 > @ O < 7 4 @ O @ < 6 < O . . - > O O O @ < < O O # . @ O . O < u d 7 r t 8 - - O O < < 6 p k x U V i V V C C C U C Q V k 7 m V e 4 i n e V 7 4 - O @ 4 u 7 4 r i i 7 1 1 k i i 7 1 4 6 7 7 8 e d b V _ r 3 7 4 > 4 9 B V R C V t $ O O - 4 < t 7 7 i i 7 < 1 e V C M r * @ * r V C n < 7 e ' Q _ k 1 7 _ t.[ _ n C _ u.y.] U x x Z } { Z l 8 b t.t.u.[ r r V _ _ C e 1 m ' / U v C Z | ] | / V C { v.y.t.' _ 7.y.a.| ] [ p.i.v.{ { y.u.]                               ",
"                      G v S c k c c H k S P T ;.d.f.8.8.f.,.d.d.d.;.;.,.d.;.8.+.:.$.;.d.;.-.;.$.+.Y Y Y K K J K Y K P M x k k D Y +.Y Y K Y K K O.K K D b x 7 u i i k i d k z s i i k z k b b P R I V P P P R ` _ I M V I I C V V V U R U I V b V _ U U U C C I U U C M C U U U C V V b V U C V C U _ C C Q U Z V C C C ` ' ' V B ~ ~ e O . . . . . . . . . . . . . . . . . . . . . . . . . . . . . . + . . . . . . . . . . . . + O * < + O @ @ @ * * . O O # . O . O O @ 3 x _ ] ] ' ] ` ] _ ' _ _ R ' _ r 9 3 3 3 r m B e s 7 7 7 < 4 < 4 < i 4 k k i i i i i i 7 7 4 @ + @ @ @ @ O @ s d i k i n d c k k i i 4 > < o O o . o @ o o . . . . @ @ O - 4 6 i 6 i d k f i k k f d i 6 u u i i i i p u d 4 4 4 4 u 4 - < 4 4 4 C C V R b v H S V e < i d 4 4 d 4 < k Y d 4 6 4 4 i 4 o o 4 4 - < 4 @ @ 4 d < 5 7 @ O 4 i @ > 4 @ . - 4 @ @ < o . . + o . o o . O < O @ @ . < k 7 > 4 o < i i 4 4 u 7 u i k k i n b k k e 7 d < @ 6 @ + 4 4 < @ u 7 8 k d x x z d k V b k n e k u i k x k i e l k i k l r 7 i < e 7 d u < 1 < 7 < * < s n k e e i u 7 3 3 7 i i z e l k i u 7 e e 4 u d 4 e < 4 7 : @ 1 4 < @ * * - 7 d k k B B t * + . . + > < - O O @ < < 7 1 7 7 v z x C 8 u 7 x A k k b Q [ Q x < @ @ 7 k k n M b b k x V V V n v I I V k b Q U U Y $.i.t.t.' Q V e 1 @ 1 @ 4 8 C Z C V 7 < @ + O < i i c z B m 3 3 7 x Z _ m < 1 4 b C C m 3 3 n Q _ Q r e e U ] t.p.y.{ | v.y.7.C m r _ ' w.P k e ~ y.| y.l e e Z ~ _ r 7 < e ] [ { m x V ] t.u._ Z ~ y.t.y.' [ [ ] y.u.t.t.a.u.t.t.y.t.u.t.                            ",
"                    G S c k k k f c k k G Y $.;.8.8.d.d.d.,.f.d.;.d.:.;.;.,.;.:.+.-.;.,.+.$.+.+.+.+.+.J G D J +.Y Y P b n n c D O.+.O.Y Y J K K O.K K S b l 4 u i s i i k k z k i k z k k n M V I P b P P I R ! _ P M M V V V V C C P _ / U V V P U P I I I C I ^ R C V C _ / C C C V V C _ R C V I ' Z C Q C C C U Q I ` t.w._ V _ _ Z 8 $ # . . . . . . . . . . . . . . . . . . . . . . . . . . . . . . . . o . . . . . . . . O O @ * O O @ @ # < * X . O . . O . O O O 3 e Z _ ] ' _ ` ' _ _ _ R _ Q ] m e 9 3 3 e t C V k 7 4 4 4 < < - < 4 7 4 i i i i 7 7 6 i 4 4 @ o . o + @ < < c i k d d c d i d d i d < < - o . o . o @ @ . . . . . o o @ 4 4 i i i i k c c k c c c d i i i d i i k k k d k 4 u 4 u i 4 - 4 4 4 d C C M I v v S b n < < i 4 - 4 k 6 k J S 7 6 7 < 4 i > o < 4 @ @ 4 - o < i - @ i 4 o - i < o < 4 o . 4 < o @ - . . o - o . o . . - o . o . O i d @ @ - 4 i d 7 7 u k z i k k i k i 7 i < > i 4 . - < @ 4 u e 8 u n M b c z l x c c x e i 7 7 < 7 p 4 1 < < < O @ < i - O O - @ . O > 4 + + . @ @ . + @ d i 4 @ O < < + < O 4 d i 4 e 7 i i 7 e k z i c b V x n 7 k x V r l k x V x 7 i v z Q [ [ Z m < * O - < < @ O . o @ + O + @ 4 4 < O O < < O @ 1 7 k n C _ m 3 @ . O 4 k u 7 1 7 d u 7 x k k k M C C n k C Q Q R R k.V.n.C x C Q _ Z r 4 - @ @ @ t M C U Q V * 3 4 7 i 7 7 B _ _ e < 4 * Z U U 7 < < y ] Q ` k 7 7 _ { | _ n e n p.v.Z.v.w.] ` p.{ { A C Q w.] ' 8 r r { y.u.U m e 9 _ Z _ e < 7  .{ ] U x z _ y.u._ y x V y.] | Z Z Z y.u.a.v.] { a.w.y.{ u.`                           ",
"                  K c c c S c k c k i c P @.;.:.$.8.d.,.2.f.f.:.f.,.:.$.;.;.d.$.;.;.;.$.$.$.+.+.+.+.Y K J D Y +.O.Y V M b v v J O.O.@.Y Y Y Y K O.K K b n k 6 u 7 i i i k k z k i k k k n b b n M b V P P P P R _ I M M C M b M C C b E _ R I P U V V P P I C I _ _ U V V U U V V U C P R _ ` U C Z _ Q C Q V U R Q ` Q _ w.{ _ Z ' Q Q C t 3 O . . . . . . . . . . . . . . . X . . . . . . . . O . . . . . . . . . . . . . . . O O O @ O O $ # O 1 1 @ O . . + O . + + @ 2 e V [ w._ _ _ _ ' _ _ U _ U w._ r e 3 3 e r B _ C 7 i 4 7 < < < < 6 i d 7 k i k k i i i < 7 1 O o . + < < i k k v k c d d i d d i i - < @ o o o . @ @ o . o O o . . o @ 4 i f i i d c S f k c c c d i d f k i i c S S d c i 4 4 u 6 > - 4 4 4 S U M U P v v S k 4 @ - 4 - - i k 4 c G i 4 i u - 4 6 - ; i 7 @ - < O o < 4 o O 4 @ o < 6 O . < @ . @ 4 @ . o @ . . @ o . . o . O - . . - o < d < < 4 i n d i s i d k u s 4 6 i i - 4 4 > 6 i < 7 u s 7 i 7 1 < i < @ 4 u < < 4 d 6 @ @ < @ + + > 4 @ @ o - @ O @ < < @ O @ < @ $ 4 u < 1 O + < @ O + < 7 - . . o @ + . . + < 4 @ + # + < < + < < < u 6 < < $ < 4 : r r l k n C m B 4 i n z B w.y.7._ C e 7 4 4 4 8 8 < 4 4 : 3 3 4 7 < * O @ 4 : * O O 4 k k e m { Q e @ O 4 4 @ + O 4 4 + + @ 4 u 6 < < : u 6 1 8 7 k v n ' U P 4 < 8 m ~ C C C r < O @ < k b C [ _ C k 7 < @ @ @ * e A Z 3 * @ 4 k n x @ % < m _ ` V 3 3 3 Q w.] C 0 8 Z C.C.v._ Z B { w.{ ] m M Q { y._ 9 e x ] ] { Z 3 e V / Q Q Z t B [ [ ' V B x | ] t._ e V _ { { t.' _ ] u.| | a.p.w.t.[ { u.`                         ",
"                K c c c J S c v c c d S Y @.;.;.;.d.;.d.d.d.2.d.2.:.+.$.;.,.:.$.:.$.+.:.:.O.O.$.+.Y K K J K O.O.Y I C C V b v K O.+.@.O.Y Y Y Y O.Y K v n 7 6 i 7 i i d k n z k s k k k n b b v v b I I P C N P R U V V P V V P I V M E R R E U U C V P I I I M P ` _ C C C C V V _ _ I ^ _ ' R C C U C C U C R _ ` ` Q U ' { ` U ' _ Q Z C x 3 * O . . . . . . . . . . . . X @ X . . . . . . . X . . . . . . . . X . . . . . . O O O O X X O . O 1 9 $ . # . + O . . + @ < e x _ ] Q ' R / _ _ _ U / U ] _ t r 3 9 e r B _ ] x 7 7 4 7 < 4 < 7 i d c 6 d i n d d c i 4 1 4 @ @ @ 4 < d c c D k c i d k c 6 i 4 @ @ o O @ O o o . . o @ @ o . o > - i d f i i d c c f f c c c f i f c k i d c S G p f k 4 4 u 4 > - < < u b Z M Q P v v i < < @ - 4 - 4 k d i v c < 4 d < + < 4 o > u < @ 4 4 o @ 7 - . @ 4 o + 7 < . o < o . < 4 . . @ o . . @ . . @ . . < . . < 4 < 4 4 e 4 7 i i d 7 6 i i 4 5 4 4 i i 4 4 p i 0 i s 1 6 i < - 6 + + 4 4 * - 7 4 < 7 u 4 1 @ < u < 3 < u 4 7 7 4 u 7 k i 4 7 r e 4 s x k k i 8 l 3 4 6 4 e 7 7 6 @ + < - 4 @ @ O < 4 < + . . @ < @ O + + ; < + + . o @ + . O @ 4 6 4 @ 8 O > 4 4 < 1 V w.w.] Z B 7 7 4 e l x x i z V V n k z x V x k z x C e 4 4 7 < 7 ' t.u._ m 4 4 4 O @ - 6 < < O - 7 6 $ @ O - 4 < < @ < 7 7 7 < 7 z 7 @ @ * * 7 V _ _ _ m 4 < > < @ r C x V b * # + O O @ @ r x x 4 < @ - 7 e 4 4 7 7 _ ~ [ B 3 < 7 ` Q ] t e 3 Z v.t.{ V B B _ w.{ Z V r [ { ' e 7 e x [ [ [ z e k [ { | [ V x Z { [ { Z Z U ] t.] ] Z Z t.y.u.p._ ~ [ y.v.u.u.| ] y.t.u.`                       ",
"              $.c k k S S c G S S k c Y Y $.;.;.d.d.,.,.d.f.d.d.:.+.+.,.,.:.$.:.$.+.$.:.+.O.$.$.Y Y K Y R Y O.Y R U U I C b D Y +.+.$.+.T Y Y Y Y Y J n x 7 6 7 i i i k c n z k k z k z v M b b b b b P I V b V P V V V V V P P R V V E R U U C U U E R I U I M b _ U I C Z Z C M U _ C U R [ _ C C C C V U C _ ' ' ' U U Q ] ' Q ' Q Q Z Q B e r 3 @ . . . . . . . . . . . + @ X . . . . . . X . # . . . . . . . . . . . . . . + + + X . . . . # 1 8 $ . . # O # # . . @ @ e e [ ' ' ' / / U U U U U R _ _ B r 3 e 9 r B _ { ` b 7 4 4 4 < 4 < i i k k 7 s k n d k k i < @ < < < 7 7 v k b c k i k k k c 4 > > @ @ o o @ @ o . . o o O @ . o > @ < i d d i i k k k k f c k f i d c c f i d c S S i i i 4 4 6 4 > - - : i P A b ! D v k 4 < > - 6 4 < i f i d d 4 @ i i - + 4 4 @ > 4 @ @ 7 7 - 4 4 @ o < i < 4 7 - . - 4 @ O < @ . . - . . o . . o < o @ o @ < 4 < - 4 4 4 6 d 4 4 6 4 i d 7 4 i i z i k 7 u d 7 4 7 - @ 6 < . - < @ < u 1 8 i c n b v i e l k i k x k i k e l i i 0 x 8 7 < 3 3 5 i 4 r < 4 4 < 1 4 i d e e z u 4 4 3 7 4 i 7 e 7 7 6 7 1 3 < 6 i 4 e 4 u 4 > 1 O < - < @ O O - 4 < @ O # . + + O @ < 7 z C x m r 7 < @ @ < < i i 6 8 l 4 i 4 e x k s M Z V l 4 7 4 7 n P y.y.p.w.P i s 3 3 4 u 7 m l s i i x e 4 u u k m 7 i i 7 r l n J v V Z 3 4 < 4 8 t Z Q V x 3 @ O @ @ 4 7 8 e e 7 < @ O X @ < x n e @ @ @ 4 d v b 7 x m _ Z _ k 4 8 t _ _ [ k 8 8 _ } { ] x k x { [ _ t t 1 M Q C m 1 7 t Z U Z 3 3 9 ~ { [ V x m _ y.[ [ V U [ y.y.t.] _ ' u.t.y.| [ ] p.C.u.[ y.t.w.y.u.`                     ",
"            ,.G c k k k c S c c k c v Y @.;.;.d.d.d.,.,.d.f.d.:.+.O.:.,.,.:.$.+.+.+.;.:.+.+.$.O.Y K ;.8.E K +.Y R ! Q U C b J Y +.+.@.@.@.Y Y O.O.Y D n x 7 i i i i d c c v z z z z z v M V b b b v v V P V v P V b n M V b P E ` I N E _ P V P U U E q.` _ U M V U I C C C U _ V I U C C ^ ] _ Z V V Z C _ C ` ] ' ' Q U _ _ _ U ' ! Q Q Q _ x V Z t O . . . . . . . . . . + @ O . . . . . X X . . . . . . . . . . . . . . . . . . . . . . . . . < 8 1 # . o @ O # . . O # 1 e Z _ w.` ` ^ R U C U R R U ] _ y 9 8 9 t B C t.{ ' 7 < < 4 < < < 4 i 7 i i i i i k i i 7 7 @ o < < 7 c b c v d i d v c c g < > @ @ o . o o . O O o . o . . o - 4 < 4 i i i i i i d i i f k k i i i k f i d i k v S i i i 4 4 4 4 < - - - k K A V I b v 4 - 4 < 4 i 4 4 i f 4 6 i < < i , + < i - @ 7 < o 6 c < O 4 < o @ i < O 4 4 o . < 4 O @ < . . o < O o + . . < . . o < i k i o 4 4 4 4 i 7 4 7 i k i n 7 u k k u u - 4 p - > - @ - < 4 O - u 7 e i e e i S z e k i < 1 1 i i < < - 4 < O @ 4 4 O O < - . O - i 4 @ O + @ + . o < 6 < O O > 6 - O @ 4 u 6 < 7 < 4 4 < 1 < i k k l m z p u 8 l e k 7 i k x l 7 7 4 3 3 1 - < @ X + < 7 7 3 m B C r @ O o + > 4 < + O + @ - o O @ 4 4 7 1 $ @ $ O + : k b z Z ] 7.U x : @ 4 u i e l x u i x x M b k b C C b z b C Z U R q.l.V.t.[ z < * * @ @ 4 7 V C t e 4 - + . X * e n b k e @ < < 7 7 B x e @ @ 7 v _ _ Z t t x U ' V t 3 e Q ] w.Q e e r ] 7.w.U e e Z { ' ' 7 7 9 [ [ [ x 7 4 x Q _ m 3 < 7 R _ { x e m _ t.t.{ C Z _ t.t.w.U Z _ { t.y.t.t.u.| | v.w.y.t.[ u.`                   ",
"          ,.K c c c c k c f c f k k D Y +.@.;.d.d.;.,.$.f.d.;.:.O.O.,.,.+.$.+.O.Y +.>.+.O.+.+.Y K $.d.5.K O.+.T U I I C V b P +.+.@.$.@.$.T Y +.@.E E b x i i i i i k c n v b z n n n b V V b x n n b m x V b P P b n b P M P E ` R V C U V b N E R C ^ ] ` _ I V V V V P I C _ / / R C C _ ' _ C V V Z _ _ U U _ ' ' _ Q Q _ U I ' ' _ ` ] { _ V [ ~ e # . . . . . . . . . X O O . . . . . . . . . . . . . . . . . . . . . . . . . . . . . . . . $ * $ . . # @ @ @ . . . @ * 3 B _ { ' 7._ ^ U C U U U Z _ Q B 8 9 9 e B B { { w.P 7 4 < < @ < 4 4 7 4 i 7 i 7 i i 7 i 7 < @ o < d c n c k i d n n k i 4 > - > @ o . . o . @ @ O . . . . o < 6 < 4 i i i 6 6 i i i d f k d i i u i i 4 i i d f c i i 4 4 < 4 < < > : u H S A V P v i - 4 7 < 6 i : 4 k 4 < 4 6 > 4 g > - u 6 @ < 4 < < k i @ @ < @ o < 6 @ . < - . o < o . o - . . - o . . o . o @ . O 4 n v c - - 4 7 k 7 i i 7 i n i i 4 7 d i < 4 - - 4 4 o - 4 < 7 u 7 7 4 i 1 < 4 @ < i 7 < O + - . o - 4 > O . - - O < > 6 < O @ 4 < 7 4 k c 7 < 4 - - O . + < < + . . @ o . . + < < o . O + - . + + 4 i i < $ @ 4 u > @ 1 7 u p i x V n 7 7 e x B B n b n > < 7 4 @ * t A Z U V e < 4 4 4 < O o + > O O O - 4 < @ @ @ < O # + O 7 7 @ $ 1 7 e 3 O O < 7 4 @ @ < 4 > @ : 6 f i 4 x 4 u 7 7 r M b Y 7.7.V.q.V Z Z B e < @ @ @ @ t x C V n 3 < < - 7 i V Z [ Z x 4 < @ * Z C U 7 6 4 7 _ { [ m 8 7 Z ] { [ 8 8 k ] { { Z e 7 I p.w.y.Z l r ` 7.t.[ m t ~ ' _ U 7 3 3 Z Z ` k 4 e x ] [ ] x k n { { } Z M e Q { t.Q x C _ p.y.u.y.' y.p.t.y.[ ] t.u.                  ",
"          O.k H D H v v c c v v c v J P T ;.8.f.d.@.$.,.f.,.2.,.Y :.;.T +.+.+.Y Y $.Y K Y O.O.K +.,.q.E Y +.@.R I P C C N V Y +.@.@.@.@.-.R 5.` R Y R P x z k k k k k n v V M b b x b b M b x n n z n n k x l n V P P V P V v P ` _ V V V P N N P R V V U ` _ Q U V b V V I V V U ' _ U C _ U Z C C C I _ Q C V R _ ' _ Q Q Q C _ ' ' ' ` ] w.{ Z _ Z C 1 . # . . . . . . . . . . . . . . . . . . . . . . . . . . . . . . . . . . . . . . . X . . $ @ # . . X O @ @ . . . # $ 1 e [ ' { 7.` R _ U U U U Z U ' Z r 9 9 9 y B [ ] y.7.V 4 7 4 < < 4 7 7 i 7 i i c i i i i i 4 @ o 4 k k i k k k k n f i 6 6 < @ @ @ o . O O o @ @ o . . O . + - < < 6 i i i 6 i d i i i d c f i 6 u i 6 4 6 6 7 i i 6 4 4 < < u 4 < < < K J S V C P n < ; 4 : - 4 u : i i > - i 6 - 6 6 > > 7 < . < 6 @ - i < . @ 4 o . 6 < . . < o . - < . . @ o . . @ . . @ . . - . @ i v b k 4 < 4 6 4 4 i 4 i i d 4 6 6 4 d d @ < u 4 4 u 7 < u i 4 4 4 @ - u - O - @ O 4 4 < @ @ 4 < < < u 4 e 7 < 4 k k k u n x k i k x V b b P Q m b i 4 e t 4 i < < @ @ 4 @ @ + - < - . . . > @ O O - 4 4 - o . . - + . . + - 4 < o O O > 4 > @ 1 3 d k x x t < 7 < . . @ 3 r U C A k k 4 7 1 3 7 4 u 8 m x u u 8 r r 7 b e 3 * 4 4 - . + @ @ < 1 @ - 4 4 @ @ @ 4 - o + + 4 4 < + + + > @ < @ 4 k k 7 7 7 d k 3 B ~ B C 8 : O O @ - 6 n B U Z e 7 7 6 < t B Q k k 3 O O $ 7 x M k * X @ 9 Z ' Q 3 e e _ ' _ z 7 8 m } _ ] x e k _ t.t.7.z x k ] { { [ x 8 M ' Q _ m V V R _ U x 8 r ' ] ] U B x C t.' ] V m x _ { ' ] C Q t.w.' u.u.t.u.[ [ { w.u.u.`               ",
"        $.S c S S k c c v v v D J S J Y $.;.8.f.:.,.,.d.d.,.2.O.$.+.Y O.O.+.Y Y +.Y K Y +.+.Y K $.,.0.E O.@.$.T P P C V V P E @.@.@.@.5.5.5.6.R R P R ` M z k k k z n n b V V x x n x x b b x l l l r e e l e e x J R P P V k b U R C V C P P E R R C V V C U U R C V V V C V v I _ ` / C U C V M C U C ' _ C C U _ _ Q Q Q U Z _ ' ' ' ` ' w.] _ _ Q B t * * . . . . . . . . . . . . . . . . . . . . . . . . . . . . . . . . . . . . . . . # # # @ @ # . . . O $ @ . . . X @ < 9 C _ y.] q.U ' U _ U U U I Q _ t 9 9 3 t y ~ } u.t.' k 4 7 < < < 7 7 i i i i d v i k k n i < O < i i k c k k k d i d 6 6 @ o o o o o @ o . . . . o @ O o o @ < < i f d i 7 i d i i i k S S i 6 i i i i 6 4 6 p i i 6 i < 6 i 4 4 4 i b V S V I b 4 - < < @ @ u d 4 d i @ > i 7 - 4 4 - 4 i @ o 4 i - 4 4 @ o < 7 @ > 4 O . @ 4 @ o < o . . - o . o o . o < O - o @ i n e < 6 - 4 u i < 4 4 4 i d 4 4 u 7 i k i 4 i i < u 6 @ > i - o > o o u 4 @ + u 4 3 i 7 e 7 6 i k e k i e k k i k e x u 6 1 3 6 k 7 r 1 k c b m U v k v x x k i 8 r e 4 u 7 k 7 4 4 < * @ 4 i 7 4 z i i 4 < < O - < @ @ O - 4 4 - O + + > @ . + O @ < < < * < @ < + . . + O O < 8 e @ - - @ O @ 4 u k x V n 7 n x C V V ! Q ' C n 7 e O @ > < 1 e n u 4 < 1 < 4 4 4 - 7 4 u 6 < @ - 4 4 - @ 4 4 i 4 3 3 4 i 7 3 8 n e M U U Q e @ > > < @ m Z V 7 7 < O O @ < 4 4 < : 4 7 7 7 k x m * @ O @ e U [ B 3 1 7 b C ' m 3 r m ' _ C r e B { t.t._ x 9 m V ] I 7 8 9 ~ } Q U n x C { ] { m x b ' [ t._ B x _ t.{ y._ ~ { y.p.p.{ _ _ | v.i.u.v.{ [ u.{ u.] u.`             ",
"        G c c f k f k v c c v v k D Y T $.$.d.8.,.,.d.:.d.2.O.:.+.Y Y O.O.Y Y Y Y Y Y @.$.+.O.O.:.r.6.E +.$.$.T P V V V V P R R -.q.5.5.5.R R E E P R 6.! n z z z n b M V V M n k k k l x x l r r e e e l x e e x M R R P M z b V C V b V V P ^ ] q.U b V V V V U I P U I I C b P R U C C U V V V C U C ' ' Q C R _ Q U C Q Q Q _ ] 7.' _ ' ] { ' _ _ Q B e 8 O O . . . . . . . . . . . . . . . . . . . . . . . . . . . . . . . . . . . + + O @ + @ X # . . . O $ @ . . . . @ $ 3 m Z { ] 7._ 7.U _ _ R R C R ] Z 8 3 3 t t C ] y.t.' ` 7 4 4 < < 6 i 7 d i i i n k i d i 7 < @ < 7 k D n k c i i k f 6 < o o o . o @ O o . . . . o @ @ o . - < i k f p i 7 i i i 6 i k c S f i i i i i u i i f i i d i > i u < 6 6 c V V S P V u - @ > > @ < k i 4 i 4 - 6 i - @ 6 4 < i 4 @ - d < o 4 4 o @ i < o - < . . < 4 o @ - . . O < O o @ . . < o . o O 7 J v < - < < 4 u 4 4 i 7 k i k 7 6 i 7 i 7 @ 4 i - o < + o < 4 @ > < @ 4 d k 7 4 i 3 6 i @ @ 4 f 4 @ @ 4 - + @ < 4 @ O @ - + + @ 4 < + * + 4 4 3 1 7 k i 7 * - i < < < 4 i i e e k 6 4 3 3 7 d k k b n d u 7 e 3 7 4 i 7 k e u i 7 7 3 < 7 i < @ @ < 4 6 > @ @ : < @ O O + - @ o . # O @ @ O $ . + < 4 @ O O < 4 1 3 1 7 n M ' _ V k k 7 @ < 6 4 8 x b i 4 l r 8 7 i k n z c p z V x v p i V Z M k d k B m k S P I ] ! 7 7 e Q C C V 7 @ O . . @ 4 4 4 @ O O @ @ O + + : u k v i 3 e B x x : @ X * Z Q _ n 4 7 t [ ] ' l 7 e A Z Z m 9 1 e ] _ [ m 8 < s ' ` Q 9 3 x x Q B B t 9 Z _ ' V 7 l B { { t.I b V ] y.y.y.' _ i.w.y.t.' ' y.v.v.{ ] v.t.y.] _ { y.`           ",
"      K c S k c v S S D v S S k k G Y -.$.d.d.8.,.2.$.d.d.$.$.+.Y Y +.O.Y Y Y Y Y Y $.-.$.O.+.O.,.k.5.T @.$.R R I I C V V U 5.5.q.6.` 5.@.R E P Y P R 5.q.P x x b M b b V V x r e e k n x x l e e e e k x x k n M m x P U V n b x b v b V b b E ` r./ b m m x b V U M V U U C b M Z V x x Z B b C U U V U ' [ Z U U U U C _ _ U _ ' ] ' Q _ ' ' ' _ _ [ Q B m @ 1 @ . . . . . . . . . O . . . . @ . . . . # . . . . . . . . . . . . . . O O O @ O O . . . . . # O # # . . + O $ 1 e A { t.t._ 7.R Q ` _ _ U Q _ [ r 3 3 e r m [ | y.' q.V 7 4 < < < 7 i 7 i 7 7 i k i i 7 7 @ @ < i v K k k k c c S 7 < @ o o + . o O O . . . . . o @ o o @ < < i k k i 6 6 i i u 6 i d c v d i d d i i i i f c u p d i u i 4 < 6 p G U C S P e < - @ < > @ 7 c i - 6 < - i < . > 6 4 > i > o 4 i - @ 4 > o < 6 @ . - @ . @ < o . o @ . . - o . o . . o - . . @ 4 v v < @ < < 7 6 i 7 i i z i i 6 i i 7 @ 4 @ @ 6 4 o - 4 o > 4 < 7 i i 8 k i - - u - O > @ . o 4 < @ . o - O + - 4 - @ < < < @ @ 4 i < @ O 7 k 4 < < i u - # . o @ . . O < 6 < O + - < O * O 6 c i < 7 < u > @ * - 4 i u k e 7 6 i e x x x i k b V m b 7 n n x t k k k e 8 < 4 4 @ * < < k V V e % + > - . . . - o O + @ 4 7 4 < % < 4 @ $ @ 4 4 < $ < i k 4 t t 4 7 4 : 8 4 u 4 7 x k i f b M C v d V C Z C P Y R ] ] 5.Y 7 * * @ < 7 x r e O @ + + X + + + @ 6 8 $ O O < u k v P Z t e 3 v x k e @ * 7 U ' U e e x ] w.w.Q t A m Z _ Q l 3 e m _ Q [ e < 3 C _ _ B 4 < 3 r A C e e 4 n _ _ C 3 e M 7.7.] m x A ] y.p.] U Z [ w.t.t.] p.] ] y.u.t.y.[ _ w.w.u.`         ",
"      c c S v v S S S S J S f i c D E $.;.2.,.d.d.:.,.2.:.+.+.Y Y +.+.O.Y Y Y +.T +.-.:.@.+.O.$.j.k.-.@.@.@.5.! R U I U R q.q.5.5.5.^ @.-.E Y Y Y Y R =.6.5.V m M M x x M M l e r r e l x x r r x x e x B x n M V M m I U U b b z z b b V V v N U ' R V M x b n b R V z V C C V M C V n x V V z V _ _ V U ' ' Q U U I U U _ Q U Q ' ] ] _ Q _ _ _ _ _ _ [ Z Q 1 * 1 1 . . . . . . + X * @ . . . # . . . # # . . . . . o . . . . . . . . O + O @ O O . . . # . X X # . . . + O $ * 8 m _ t.t.q.' _ U ` R ` U R Q ' C e 3 3 e t Z } t.' r.` v 4 4 < 4 < 4 7 4 7 6 7 i i 7 7 7 @ @ 7 k b v k k n S c c < @ o @ @ + . . o . . o . . . . . o O > > < i i i i 6 i i i 6 6 i i f c k i d f i i 6 i c c 4 f i i i i 4 4 u c R Z V J d - < - < i > > d c 6 < 4 @ - 4 @ o - u @ > i - @ i 4 O - i - o 4 4 . . - o . - < . . @ . . . - . . @ . . 4 @ o < 7 k v i @ < 4 i 4 i 6 6 i i < 6 4 6 d i O < 6 < 4 i < < u i 7 u 4 @ 6 i - < i > o 4 4 @ o 4 > - 4 u < 3 - 4 u 7 7 u 4 8 t l k z x n i k V C x b b k e 7 6 4 4 $ < < < O O @ < < + . . + + + + @ 4 4 @ + . + - + . o - 4 < o @ + @ < @ < < < u i 6 e x 7 i i x V V x k V V _ C M 7 r e r k v R 7.' Q k < > @ O O 4 4 7 e < 4 u < 4 @ - < < O < - 4 4 @ @ 4 k k l C x 1 : @ + O @ - o @ < > u 6 < @ @ 4 6 7 4 7 7 c c 6 8 3 n D 7 3 O + @ @ @ t B x 8 < @ X . X @ 7 7 x V x 7 7 i 7 7 3 _ V x 7 4 3 V Q C 4 4 7 M [ t._ M V P t.y.t.| y x V ] ] | B r m Z ] ] Q l 9 e U U U 8 $ * < Q Z V 7 3 1 C _ [ m e e U ] ] Q e k M y.{ _ m m x q.t.y.] ] ] y.t.y.{ ~ t.] u.{ y.`       ",
"    K f k c k c v D v G v d k n v P T ;.2.8.d.d.2.:.d.>.+.+.Y K O.+.O.Y Y O.+.@.@.-.@.-.+.+.O.:..Xk.5.R @.6.` ! R R 5.` R 5.6.` ^ ` ^ @.R E Y Y Y Y R R 5.6.6.M x x l x m m e e r e r r x x e x x x n V V x x P C 6.6.7.e.6.V n n n b V C C n b C U C b V x b b b U x k k m M b V V x n M V C e k U _ C Q ' ] Q Q U U Q _ _ Q Q Q ' ] ] _ _ Q Q Q _ ' ' ' ' [ ~ 3 3 r 1 . . . # X + @ * @ . . . . . . $ $ @ . . . . . o + . . . . . . . + . . # O O . . . # . . X . . . . + @ @ $ 9 m Z { t.q.' ` R ' U ` U U U ' { r 3 3 e r B _ ] [ 7.] U z < 4 4 7 4 7 7 7 7 i i i d d i < @ i k z d n c D S f 4 - @ o @ @ o . . . . . o . . . . o o @ > > 6 6 i i 6 7 i i i 7 4 7 i i d d d i i i i i i c c u p i i i < 4 6 g G C C C f - 7 4 - 6 6 - 4 k 7 > > 6 - < < O @ i 4 @ 4 4 o - d > o < i > < 4 @ . @ 4 @ o < o . . - o . + o . o > O < < . @ 4 7 4 4 - < 6 i < 6 7 4 i i > 4 i i 7 d 7 < i i 7 i 7 O 4 u < + 4 o + u < . 4 i @ < u < 3 4 7 8 4 6 7 7 e 4 6 k e 4 i < 3 4 k k 3 e 6 k k r x V b C V V z u k x e e u i l 7 4 i < 4 < - 4 < : < 4 6 < < % o > > @ O - < 4 @ X . o - @ + . + > 4 < + O O < < < $ 4 $ 4 6 4 8 3 1 < < @ O @ 7 c P t.y.] U z e e e 7 k v I V V k n V V x i i V C B 7 4 1 3 < k J v ' t._ b < O . O < > o + - 4 4 > @ + + < - @ @ - 4 u < < < < k k k k n u @ O X @ < 4 k n e r @ % > < - @ e V b i 7 @ O O @ x A B < * @ e Z U 7 < e 3 _ ' ' ^ b U { u.b.t.U e n _ | { ] V x n [ ] ] ~ 8 7 n Q Q Q 9 < 4 V Q _ C 1 e x _ ` _ r x t ] ' { Q x l Z ' [ y._ C Z { t.] a.y.y.u.[ { t.t.y.] ] w.`     ",
"    K d c k k k c v c v k v v v S P T :.:.8.d.d.,.d.:.+.O.+.Y O.:.+.Y T @.;.@.@.@.$.;.;.@.+.O.d._.k.q.0.e._ R ` 5.5.5.R R 5.5.R R R T R T Y Y Y Y Y R T 5.6.` I x l n x m x e e e e e l x l l B V V V V M I ` _ U 6.e.7.0.i.R b b k v V U C v v M V b x V x b V V U x k k n k e k x k k V V V k 7 m U C Q ` _ U Z Z Z Q _ _ U U U _ [ ' Q Q Q Q _ ' ' ] ' w.y._ A r 9 3 $ . . @ $ . @ * * . . . . . # $ $ @ . . . . . . . . . . . . . . . . . . + O o . X O . . . . . . . . O O $ 9 x C ' | _ ' _ _ ` U _ U U U _ { m 9 3 9 e t C _ ' 7.' U V e 4 7 7 i 4 i 7 i i c i k d 7 : @ 7 i i k D k D c p - < O o + o . . . o . . . . . . o @ . @ - > 4 i d d i i i i i i 4 i i 7 i d i i i 6 i i i f d u p u i 4 - < 4 g J Z Z n 7 6 i 4 - 6 < - d z 7 < 6 < + 4 < @ 4 7 - O 7 < o < 6 @ + 6 4 o > 4 o . < 4 o @ - . . o < O o + . . > o . - . . < 7 - @ 4 4 4 7 < < i 7 s i k 7 i k 8 d d @ 4 i @ o 6 @ + 4 < . - > . < u @ @ i i k 6 4 @ < p - < - < O % - 4 - + . - @ . @ 7 d 4 O + @ 6 < * 4 d k 7 e < < 4 < 8 8 7 i b V b i 7 z l e 4 i k n x d i i 7 7 4 6 i e 8 7 u 4 3 < - < 6 4 @ * < 6 6 - . . o < > o . + - 4 < + O . . + . . . . 4 k k B [ ] _ U C x 3 i n z V V i u k m B n d V U Q b k b x 4 4 i D D U w.] Q C e - 4 u 5 4 7 4 u u 7 7 3 4 i 6 e e 7 d p 4 r l k v I ` 0.! ^ U m 1 @ 3 4 4 r A ~ x 7 4 > + + O 4 i 7 < O X X O O 3 B B t X O : 7 Z B t @ O 4 n ] ] _ Z Z [ u.y.} m 9 r _ | w.U < < t ] { ] k 7 8 V { _ U 7 7 M ' ] ] C 7 i V ' { _ m e C ' w.y.Q A C { V.V.[ B V [ u.u.u.u.t.] y.7.y.w._ | t.w.!   "
};
