/* XPM */
static char *imagrow[] = {
/* columns rows colors chars-per-pixel */
"200 75 149 2 ",
"   c None",
".  c #000000",
"X  c #0D0D0D",
"o  c #100F0F",
"O  c #101010",
"+  c gray10",
"@  c #232323",
"#  c #26272E",
"$  c #27282F",
"%  c #2D2D2D",
"&  c #262A31",
"*  c #282931",
"=  c #333333",
"-  c #313139",
";  c #35383F",
":  c #3D3D3D",
">  c #4F2D16",
",  c #502D16",
"<  c #444444",
"1  c gray29",
"2  c #45454B",
"3  c #525253",
"4  c #5B5B5B",
"5  c #745D51",
"6  c #5B5C63",
"7  c #636364",
"8  c #6E6D6D",
"9  c #6A6B70",
"0  c #727272",
"q  c #73747A",
"w  c gray48",
"e  c #95444D",
"r  c #964A51",
"t  c #85776F",
"y  c #D8636F",
"u  c #D96571",
"i  c #DA6A75",
"p  c #DB6D79",
"a  c #DC737E",
"s  c #8A807B",
"d  c #767B81",
"f  c #7C7C82",
"g  c #DF7F88",
"h  c #07BCBE",
"j  c #7D8288",
"k  c #0FBEC0",
"l  c #13BFC1",
"z  c #1CC1C3",
"x  c #32C8C9",
"c  c #848484",
"v  c #8C8C8C",
"b  c #82868D",
"n  c #8C8D94",
"m  c #8D9097",
"M  c #939393",
"N  c #92939C",
"B  c #9C9C9D",
"V  c #A09F9F",
"C  c #9799A2",
"Z  c #9B9BA2",
"A  c #A09FA5",
"S  c #9EA0A8",
"D  c #A2A3A5",
"F  c #A5A5AB",
"G  c #A8A7AC",
"H  c #A7A8AD",
"J  c #ABABAD",
"K  c #B0AFAF",
"L  c #ACADB2",
"P  c #ACAFB8",
"I  c #B0AFB3",
"U  c #AFB0B4",
"Y  c #AEB1BA",
"T  c #B2B2B3",
"R  c #B8B7B7",
"E  c #B5B5BB",
"W  c #B8B7BB",
"Q  c #B7B8BD",
"!  c #BBBBBC",
"~  c #E28B94",
"^  c #E4939B",
"/  c #E79EA5",
"(  c #C3BEBE",
")  c #C8BFBD",
"_  c #E8A1A8",
"`  c #EAACB2",
"'  c #CAC1BE",
"]  c #B6B8C2",
"[  c #BCBDC3",
"{  c #C0BFC5",
"}  c #BFC0C6",
"|  c #BEC1CA",
" . c #BDEEEE",
".. c #C3C3C4",
"X. c #C8C6C6",
"o. c #C9C8C7",
"O. c #C5C5CA",
"+. c #C8C7CB",
"@. c #C7C8CD",
"#. c #CACACC",
"$. c #D0CFCF",
"%. c #CCCDD2",
"&. c #CECFD8",
"*. c #D0CFD4",
"=. c #CFD0D5",
"-. c #CFD0D9",
";. c #D2D1D6",
":. c #D6D5D6",
">. c #D3D2D5",
",. c #D5D5DB",
"<. c #D8D7DC",
"1. c #D7D8DD",
"2. c #DFDEDA",
"3. c #DBDBDD",
"4. c #DADADD",
"5. c #DBD9D7",
"6. c #F2CDD0",
"7. c #E2E1DE",
"8. c #D7D8E0",
"9. c #D9D9E1",
"0. c #DFDFE7",
"q. c #DDDDE3",
"w. c #E0DFE4",
"e. c #C2EFEF",
"r. c #DFE0E5",
"t. c #C7F0F0",
"y. c #CBF1F1",
"u. c #D2F3F3",
"i. c #DDF6F6",
"p. c #E1E1E2",
"a. c #E4E4E1",
"s. c #E2E2E5",
"d. c #E5E4EA",
"f. c #E8E7EC",
"g. c #E7E8ED",
"h. c #E8E8EA",
"j. c #EAEAED",
"k. c #EDEDF2",
"l. c #F0EFF4",
"z. c #E7F1F2",
"x. c #EFF0F5",
"c. c #ECF8F8",
"v. c gray94",
"b. c #F2F2F5",
"n. c #F5F4F9",
"m. c #FEFEFE",
"M. c white",
"N. c #FEFEFE",
"B. c #FCF4F5",
/* pixels */
"                                                                                                                                                                                                                                                                                                                                                                                                                ",
"                                                                                                                                                                                                                                                                                                                                                                                                                ",
"                                                                                                                                                                                                                                                                                                                                                                                                                ",
"                                                                                                                                                                                                                                                                                                                                                                                                                ",
"                                    7.a.a.a.7.7.2.5.:.>.$.X.o...[ [ [ Q Q R R W R Q ..! Q T                                                                                                                                       7.p.a.p.7.7.2.<.:.>.>.X.o.....[ [ Q Q R R R R R ! ..! W                                                                                                                       ",
"                ..o.o.o.T R R R R R R R R R R R T U J J G F D D D D D S D D D D D D L L P E S                   X < < < < < < < < < < < < < < < < < < < < < < < < < < < < < < < < 7 w w w w w 8               ..o.o.o.R R R R R W R R R R R R T T L J G F D D D D D S S D D D F D G L P E F                   . : < < < < < < < < < < < < < < < < < < < < < < < < < < < < < < < 3 w w w w w 0                   ",
"                #.:.%.o.o.o.o.o.o.o.o.o.o.o.o.....[ ! Q W W E T E E T T T T P P T T E [ @.] N                   = 6.` ` ` ` ` ` m.m.m.m.m.m.m.m.m.m.m.m.m.m.m.m.m.m.m.m.m.m.m.m.m.m.m.m.m.m.m.B               [ ,.>.#.o.o.o.o.o.o.o.o.o.o.o.....[ ! Q Q W W T T E E T T I I P P T E [ ..| C                   . v.` ` ` ` ` ` m.m.m.m.m.m.m.m.m.m.m.m.m.m.m.m.m.m.m.m.m.m.m.m.m.m.m.m.m.m.m.o.7                 ",
"                ..q.p.<.;.%.#.#.#.#.#.+.o.o.o.O.....[ [ [ Q Q Q Q Q W W W W W W [ [ @.,.,.E n                   = / y p p a y y m.....o.m.m.m.m.m.m.m.m.m.m.m.m.m.m.m.m.m.m.m.m.m.m.m.m.m.m.m.B               T 4.p.4.:.>.#.#.#.#.#.+.o.o.o.O.....{ [ [ [ Q Q Q Q W W W W W W [ [ @.%.<.[ m                   . v.y y g i y y m.L %.Q m.m.m.m.m.m.m.m.m.m.m.m.m.m.m.m.m.m.m.m.m.m.m.m.m.m.m.o.7                 ",
"                [ p.h.h.p.3.<.;.*.%.%.%.%.#.#.#.#.@.o.F ......} [ [ [ [ [ [ ..O.%.,.9.q.<.P n                   = / y y y y y y m.#.m.m.m.m.m.m.m.m.m.m.m.m.m.m.m.m.m.m.m.m.m.m.m.m.m.m.m.m.m.B               L 4.h.h.s.3.<.>.;.*.%.%.%.%.#.#.#.@.o.T Q ....} [ [ [ [ [ [ [ ..@.%.9.q.9.[ m                   . v.y y y y y y m.#.m.m.m.m.m.m.m.m.m.m.m.m.m.m.m.m.m.m.m.m.m.m.m.m.m.m.m.m.m.o.4                 ",
"                Q 3.j.k.j.h.s.q.4.,.,.,.;.;.;.*.%...L 9 Q #.#.@.@.@.@.@.@.%.%.,.9.0.g.d.,.P n                   = / y ^ u y y y m.m.m.m.m.m.m.m.m.m.m.m.m.m.m.m.m.m.m.m.m.m.m.m.m.m.m.m.m.m.m.M               G ,.h.k.k.h.s.q.4.<.,.,.;.;.;.*.%.#.G q G %.#.@.@.@.@.@.@.%.%.,.8.q.g.d.8.] n                   . v.y y / y y y m.m.m.m.m.m.m.m.m.m.m.m.m.m.m.m.m.m.m.m.m.m.m.m.m.m.m.m.m.m.m.o.4                 ",
"                W 3.j.v.b.v.j.h.s.s.q.4.4.<.,.,.,.2 * * f ;.;.=.%.%.%.=.,.<.9.0.g.g.k.d.-.P n                   = / y / a ^ y y m.<.4.j.m.m.m.m.m.m.m.m.m.m.m.m.m.m.m.m.m.m.m.m.m.m.m.m.m.m.m.M               G ,.h.k.b.v.k.h.h.s.q.4.4.4.,.,.,.q * $ 3 ;.;.=.%.%.%.%.,.<.9.q.d.g.k.g.<.] N                   . v.y u _ ~ y y m...4.o.m.m.m.m.m.m.m.m.m.m.m.m.m.m.m.m.m.m.m.m.m.m.m.m.m.m.m.o.3                 ",
"                W 4.h.v.n.n.n.v.j.h.h.s.s.q.q.q.q.- # # v 1.1.<.<.<.1.4.q.d.g.j.k.k.k.d.&.P n                   = / y y y y y y m.j.h.m.m.m.m.m.m.m.m.m.m.m.m.m.m.m.m.m.m.m.m.m.m.m.m.m.m.m.m.M               G >.h.v.n.n.n.v.j.j.h.s.s.q.q.q.q.7 # # 6 4.4.<.<.<.<.9.q.q.d.g.k.k.k.d.<.] N                   . v.y y y y y y m.n.h.m.m.m.m.m.m.m.m.m.m.m.m.m.m.m.m.m.m.m.m.m.m.m.m.m.m.m.m.o.1                 ",
"                W 4.h.v.n.n.n.n.b.v.j.j.f.h.d.s.s.q * * 6 q.q.q.q.q.s.d.g.g.k.k.k.k.k.d.%.P N                   = p.>.o.4.<.o.;.m.s.:.:.o.>.m.m.m.m.m.m.m.m.m.m.m.m.m.m.m.m.m.m.m.m.m.m.m.m.m.M               F ;.s.k.n.n.n.n.n.v.k.j.f.h.d.s.s.H * * ; <.q.q.q.q.r.s.h.g.k.k.k.x.k.d.,.] N                   . v.;.h.,.o.3.;.m.n.;.>.#.:.p.m.m.m.m.m.m.m.m.m.m.m.m.m.m.m.m.m.m.m.m.m.m.m.m.o.<                 ",
"                W <.h.v.n.n.n.n.n.n.b.v.k.j.j.j.f.s.[ { 4.h.h.h.h.g.g.j.k.k.x.b.b.k.k.q.%.P                     = B.m.m.m.m.m.m.m.m.m.m.m.m.m.m.m.m.m.m.m.m.m.m.m.m.m.m.m.m.m.m.m.m.m.m.m.m.m.M               F ;.s.k.n.n.n.n.n.n.n.v.k.j.j.j.f.g.[ @.%.h.h.h.h.h.g.j.k.k.k.b.n.b.k.d.,.] N                   . v.m.m.m.m.m.m.m.m.m.m.m.m.m.m.m.m.m.m.m.m.m.m.m.m.m.m.m.m.m.m.m.m.m.m.m.m.m.o.:                 ",
"                W <.h.v.n.n.n.n.n.n.n.n.b.v.l.k.k.k.k.j.k.k.j.k.k.k.k.k.x.b.n.n.n.b.k.q.&.P                     = <.p.q.>.m.m.m.m.m.m.m.m.m.m.m.m.m.m.m.m.m.m.m.m.m.m.m.m.m.m.m.m.m.m.m.m.m.m.v               F ;.s.k.n.n.n.n.n.n.n.n.b.v.l.k.k.k.k.j.j.j.j.k.k.k.k.k.x.x.n.n.n.b.k.d.,.] N                   . v.p.<.[ m.m.m.m.m.m.m.m.m.m.m.m.m.m.m.m.m.m.m.m.m.m.m.m.m.m.m.m.m.m.m.m.m.m.o.=                 ",
"                W <.h.v.n.n.n.n.m.m.m.n.n.n.b.b.b.b.l.l.k.k.k.k.k.k.b.b.n.n.n.n.n.x.k.q.&.Y                     = m.m.m.m.m.m.m.m.m.m.m.m.m.m.m.m.m.m.m.m.m.m.m.m.m.m.m.m.m.m.m.m.m.m.m.m.m.m.v               F ;.s.k.n.n.n.n.m.n.m.n.n.n.n.b.b.b.l.l.k.k.k.k.k.k.k.b.b.n.n.n.n.b.k.d.,.[ N                   . v.m.m.m.m.m.m.m.m.m.m.m.m.m.m.m.m.m.m.m.m.m.m.m.m.m.m.m.m.m.m.m.m.m.m.m.m.m.o.%                 ",
"                W <.h.v.n.n.m.m.m.m.m.m.n.n.n.n.n.n.b.b.b.b.b.b.l.l.b.n.n.n.n.n.n.b.k.q.-.E                     = j.v.j.h.h.n.m.m.m.m.m.m.m.m.m.m.m.m.m.m.m.m.m.m.m.m.m.m.m.m.m.m.m.m.m.m.m.m.v               F ;.s.j.n.n.m.m.m.m.m.m.n.n.n.n.n.n.b.b.b.b.b.b.b.l.b.n.n.n.n.n.n.b.k.d.<.[ N                   . v.v.v.s.j.h.m.m.m.m.m.m.m.m.m.m.m.m.m.m.m.m.m.m.m.m.m.m.m.m.m.m.m.m.m.m.m.m.o.@                 ",
"                W <.h.v.n.n.m.m.m.m.m.m.m.n.n.n.n.n.n.n.n.b.n.n.n.n.n.n.n.n.n.n.n.k.k.0.-.E                     = m.c.c.c.c.c.m.m.n.h.p.j.s.v.s.j.j.j.n.m.m.m.m.m.m.m.m.m.m.m.m.m.m.m.m.m.m.m.v               F ;.s.j.n.n.m.m.m.m.m.m.m.n.n.n.n.n.n.n.n.b.n.n.n.n.n.n.n.n.n.n.n.b.k.d.<.[ Z                   . v.c.c.c.c.c.n.m.v.k.s.s.j.j.s.h.n.h.h.m.m.m.m.m.m.m.m.m.m.m.m.m.m.m.m.m.m.m.o.@                 ",
"                W <.h.v.n.n.m.m.m.m.m.m.m.n.n.<.#.o.o.o...( ;.n.n.n.n.n.n.n.n.n.n.x.k.0.,.E                     = m.h k z z z m.m.n.3.p.3.j.4.h.s.m.m.m.m.m.m.m.m.m.m.m.m.m.m.m.m.m.m.m.m.m.m.v               F ;.s.j.n.n.n.m.m.m.m.m.m.n.n.s.#.o.o.o...( o.n.n.n.n.n.n.n.n.n.n.b.k.d.<.[ Z                   . v.z l z z x i.m.v.q.h.s.s.s.h.r.h.m.m.m.m.m.m.m.m.m.m.m.m.m.m.m.m.m.m.m.m.m.o.+                 ",
"                W <.h.v.n.n.n.m.n.m.m.m.m.n.n.3.! ! R R R W ,.b.n.n.n.n.n.n.n.n.n.k.j.q.,.E                     = m.m.m.m.m.m.m.m.h.:.q.>.q.;.4.:.q.>.h.,.m.m.m.m.m.m.m.m.m.m.m.m.m.m.m.m.m.m.c               G ;.s.j.b.n.n.m.m.m.m.m.m.n.n.j.! ! ! R R W o.k.n.n.n.n.n.n.n.n.n.k.k.d.<.[ Z                   . v.m.m.m.m.m.m.m.h.>.;.<.p.>.p.=.s.:.h.;.m.m.m.m.m.m.m.m.m.m.m.m.m.m.m.m.m.m.o.+                 ",
"                W <.h.k.n.n.n.m.n.m.m.m.n.n.n.4.@.o.o.O.O...;.k.b.n.n.n.n.n.n.n.n.k.g.q.,.E                     = m.m.m.m.m.m.m.m.s.>.:.#.p.>.v.m.m.m.m.m.m.m.m.m.m.m.m.m.m.m.m.m.m.m.m.m.m.m.c               G :.s.j.n.n.n.n.m.m.m.m.m.n.n.h.@.o.O.o.O...@.f.b.n.n.n.n.n.n.n.n.k.k.d.<.[ Z                   . v.m.m.m.m.m.m.m.h.#.p.<.s.%.;.m.m.m.m.m.m.m.m.m.m.m.m.m.m.m.m.m.m.m.m.m.m.m.o.O                 ",
"                Q <.h.k.n.n.n.m.n.n.m.m.n.n.b.,.%.#.@.@.@.@.%.g.l.b.b.n.n.n.n.n.n.k.k.q.&.E                     = m.m.m.m.m.m.m.m.z. .y.y.i.t.m.m.m.m.m.m.m.m.m.m.m.m.m.m.m.m.m.m.m.m.m.m.m.m.c               L :.s.j.b.n.n.n.m.m.m.m.n.n.n.p.%.#.#.@.@.@.%.d.k.b.n.n.n.n.n.n.n.k.k.d.<.[ N                   . v.m.m.m.m.m.m.m.s.e.u.y.y.y.m.m.m.m.m.m.m.m.m.m.m.m.m.m.m.m.m.m.m.m.m.m.m.m.o.X                 ",
"                Q <.h.k.n.n.n.n.n.m.n.n.n.n.k.,.%.%.%.%.#.#.%.s.k.l.l.b.n.n.n.n.n.b.k.d.,.E                     = m.m.m.m.m.m.m.m.z.e.u.u.t.e.u.u. .m.m.m.m.m.m.m.m.m.m.m.m.m.m.m.m.m.m.m.m.m.c               L >.s.j.b.n.n.n.n.n.n.n.n.n.v.3.%.%.%.%.%.#.@.9.k.k.l.b.n.n.n.n.n.b.k.d.<.[ Z                   . v.m.m.m.m.m.m.m.q.e.i.i.i.u.y.y.u.m.m.m.m.m.m.m.m.m.m.m.m.m.m.m.m.m.m.m.m.m.o.X                 ",
"                Q <.h.v.n.n.n.n.m.n.n.n.b.v.j.;.=.%.%.%.%.%.%.1.g.k.k.l.b.b.n.n.n.b.k.d.,.E                     = m.m.m.m.m.m.m.m.m.m.m.m.m.m.m.m.m.m.m.m.m.m.m.m.m.m.m.m.m.m.m.m.m.m.m.m.m.m.c               I ;.s.k.b.n.n.n.m.n.n.n.b.v.j.4.=.%.%.%.%.%.%.,.d.k.k.k.b.b.n.n.n.n.k.d.<.[ Z                   . v.m.m.m.m.m.m.m.m.m.m.m.m.m.m.m.m.m.m.m.m.m.m.m.m.m.m.m.m.m.m.m.m.m.m.m.m.m.o..                 ",
"                W <.h.v.n.n.n.n.n.n.n.b.k.j.s.;.;.=.=.=.%.%.%.;.q.h.j.k.k.k.x.b.b.k.k.d.,.W                     = m.m.m.m.m.m.m.m.m.m.m.m.m.m.m.m.m.m.h.h.h.m.m.m.m.m.m.m.m.m.m.m.m.m.m.m.m.m.c               T ;.s.k.n.n.n.n.n.n.n.b.v.j.h.,.;.=.=.=.%.%.%.%.q.h.j.k.k.k.x.b.b.b.k.g.<.[ Z                   . j.m.m.m.m.m.m.m.m.m.m.m.m.m.m.m.m.m.v.h.n.n.m.m.m.m.m.m.m.m.m.m.m.m.m.m.m.m.o..                 ",
"                W <.h.v.n.n.n.n.n.b.v.k.h.s.q.,.,.,.;.;.=.=.%.%.<.r.d.h.g.j.k.k.k.k.k.d.<.W                     = m.m.m.m.m.m.m.m.m.m.m.m.m.m.m.m.m.m.m.m.m.m.m...#...m.m.m.m.m.m.m.m.m.m.m.m.c               T ;.s.k.n.n.n.n.n.b.v.k.j.h.p.,.,.,.,.;.;.=.=.%.,.q.d.h.g.j.k.k.k.b.k.g.9.[ A                   . j.m.m.m.m.m.m.m.m.m.m.m.m.m.m.m.m.m.m.m.m.m.m.o.R :.s.m.m.m.m.m.m.m.m.m.m.m.o..                 ",
"                W 4.h.v.n.n.b.v.k.j.j.h.s.q.3.,.,.,.O.#.,.;.;.#.=.1.q.q.s.d.h.g.k.k.k.g.<.W                     = m.m.m.m.m.m.m.m.m.m.m.m.m.m.m.m.m.u y i #.#.v.m.m.m.m.m.m.m.m.m.m.j.j.m.m.m.c               L ;.h.k.b.n.b.b.v.k.j.f.d.p.3.<.,.,.%.O.,.,.;.%.%.<.q.q.s.d.h.g.k.k.k.g.9.} F                   . v.m.m.m.m.m.m.m.m.m.m.m.m.m.m.m.m.~ y y #.#.3.m.m.m.m.m.m.m.m.m.m.v.v.m.m.m....                 ",
"                W 4.j.v.v.k.k.j.f.h.s.w.q.4.<.4.4.[ d j o.,.,.@.#.=.,.1.4.q.q.r.d.j.k.g.9.W                     @ T T T T T T T T T T T K K K T T e e e r v v v D T T T T T T T T T T T K K J 4               L ;.h.k.v.v.k.j.j.h.d.s.q.4.,.4.4.%.b d E ,.,.%.#.=.,.1.4.9.q.q.d.j.k.g.q...Z                   . D T T T T T T T T T T T T T T T e e e e v v v M T T T T T T T T T T T J K J c .                 ",
"                W 3.j.j.j.s.p.q.q.q.4.<.,.;.,.q.<.W J L Q <.<.o...@.%.=.;.,.,.<.4.q.d.d.9.[                     X X X X X X X X X X X X X X X X X X X X X X X X X X X X X X o O O O O O O O O O               T :.h.j.j.h.s.q.q.q.3.4.,.;.;.q.4.[ L G E ,.<.%...@.%.%.;.,.,.,.1.q.d.d.q.o.D                   X X X X X X X X X X X X X X X X X X X X X X X X X X o X X X X O O O O O O O O O O                 ",
"                Q q.h.s.,.#.L F L H [ B [ #.,.q.q.T D S W 4.4.o.[ } O.@.#.%.%.%.%.;.<.<.9.[                     v v v M M M B B D D G J K T T R R R R R T ! ! ( ......o.o.o.o.o.o.#.#.#.$.$.>.>.              R <.h.s.,.;.E H G H T G G #.%.q.q.Q G B J <.4.%.Q [ ..@.#.%.%.%.%.;.,.<.q.%.G                   v v v M M M B B D D G J J T T T R R R R T ! ! ( ......o.o.o.X.o.o.o.#.#.#.$.>.>.(                 ",
"                ..3.4.,.;.*.%.%.%.#.#.o...[ ,.s.q.;.T W ,.9.9...T W [ [ ....O.O.o.o.@.%.,.@.                    v v M M M B B D D D G J T T R R R R R 0 8 ! ......o.o.o.X.o.o.o.#.#.#.$.>.>.>.>.              Q <.3.,.;.*.%.%.%.%.#.o.....#.s.w.4.R T %.9.9.%.U E Q [ } ..O.O.O.O.@.%.,.%.W                   v v M M M B B B D D G J T T T R R R R M 1 ! ( ....o.o.o.o.o.o.o.#.#.#.$.>.>.>.>...                ",
"                o.#.+.o.o.o.o.......[ ! R T 4.s.s.s.q.q.q.q.q.O.H L U E Q Q [ [ [ [ [ [ ..o.                    v v M M M B B D D D G J T T R R R R R w 3 ! ......o.o.o.o.o.o.o.#.#.#.$.>.>.>.>.              o.%.o.o.o.o.o.O.......! R R #.s.s.s.w.q.q.q.q.,.F L U E W Q [ [ [ [ [ [ [ o.O.                  v v M M M B B B D D G J K T T R R R R V = R ( ....o.o.o.o.o.o.o.#.#.#.$.>.>.>.>...                ",
"                                            s.d.s.s.s.s.s.w.q.,.                                                c c v v v M M M B B D D D G G J J J J T T T T R R R R ! ! ! ........o.o.o.o.X.o.                                          4.d.d.s.s.w.w.w.q.q.                                                c c v v v M M M B B D D D G G J J J J K T T T R R R R ! ! ! ..........o.o.o.X.o.                  ",
"                                            h.h.h.d.d.s.s.s.s.s.                                                                                B B B B B B B B                                                                           h.h.h.h.d.s.s.s.w.s.                                                                                B B B B B B B B B                                                 ",
"                                            f.h.h.h.h.h.d.s.s.s.                                                                                :.:.:.:.:.:.:.:.:.                                                                        j.f.h.h.d.h.d.d.s.s.                                                                                :.:.:.:.:.:.:.:.:.                                                ",
"                                            ' ' ' ) ) ) ) ) ) )                                                                               s s s s s s s s s s                               , , , , , , , ,                           ' ' ' ' ) ) ) ) ) )                                                                               t s s s s s s s s s 5                                               ",
", , , , , , , , , , , , , , , , , , , , , , , , , > , , , , , , , , , , , , , , , , , , , , , , , , , , , , , , , , , , , , , , , , , , , , , , , , , , , , , , , , , , , , , , , , > > , , , , , , , , , , , , , , , , , , , , , , , , , , , , , , , , , , , , , , , , , , , , , , , , , , , , , , , , , , , , , , , , , , , , , , , , , , , , , , , , , , , , , , , , , , , , , , , , , , , , , , , , , , , , ",
", , , , , , , , , , , , , , , , , , , , , , , , , , , , , , , , , , , , , , , , , , , , , , , , , , , , , , , , , , , , , , , , , , , , , , , , , , , , , , , , , , , , , , , , , , , , , , , , , , , , , , , , , , , , , , , , , , , , , , , , , , , , , , , , , , , , , , , , , , , , , , , , , , , , , , , , , , , , , , , , , , , , , , , , , , , , , , , , , , , , , , , , , , , , , , , , , , , , , , , , ",
", , , , , , , , , , , , , , , , , , , , , , , , , > > , , , , , , , , , , , , , , , , , , , , , , , , , , , , , , , , , , , , , , , , , , , , , , , , , , , , , , , , , , , , , , , , , , , , , , , , , , , , , , , , , , , , , , , , , , , , , , , , , , , , , , , , , , , , , , , , , , , , , , , , , , , , , , , , , , , , , , , , , , , , , , , , , , , , , , , , , , , , , , , , , , , , , , , , , , , , , ",
"        , , >                                                                                     , ,                                                                                                 , , ,                                                                                     > , >                                                                                               > , ,       ",
"        , , ,                                                                                     , ,                                                                                                 > , ,                                                                                     , , ,                                                                                                 , ,       ",
"        , , ,                                                                                     , ,                                                                                                 > , ,                                                                                     , , ,                                                                                                 , ,       ",
"        , , ,                                                                                     , ,                                                                                                 > , ,                                                                                     , , ,                                                                                                 , ,       ",
"        , , ,                                                                                     , ,                                                                                                 > , ,                                                                                     , , ,                                                                                                 , ,       ",
"        , , ,                                                                                     , ,                                                                                                 > , ,                                                                                     , , ,                                                                                                 , ,       ",
"        , , ,                                                                                     , ,                                                                                                 > , ,                                                                                     , , ,                                                                                                 , ,       ",
"        , , ,                                                                                     , ,                                                                                                 > , ,                                                                                     , , ,                                                                                                 , ,       ",
"        , , ,                                                                                     , ,                                                                                                 > , ,                                                                                     , , ,                                                                                                 , ,       ",
"        , , ,                                                                                     , ,                                                                                                 > , ,                                                                                     , , ,                                                                                                 , ,       ",
"        , , ,                                                                                     , ,                                                                                                 > , ,                                                                                     , , ,                                                                                                 , ,       ",
"        , , ,                                                                                     , ,                                                                                                 > , ,                                                                                     , , ,                                                                                                 , ,       ",
"        , , ,                                                                                     , ,                                                                                                 > , ,                                                                                     , , ,                                                                                                 , ,       ",
"        , , ,                                                                                     , ,                                                                                                 > , ,                                                                                     , , ,                                                                                                 , ,       ",
"        , , ,                                                                                     , ,                                                                                                 > , ,                                                                                     , , ,                                                                                                 , ,       ",
"        , , ,                                                                                     , ,                                                                                                 > , ,                                                                                     , , ,                                                                                                 , ,       ",
"        , , ,                                                                                     , ,                                                                                                 > , ,                                                                                     , , ,                                                                                                 , ,       ",
"        , , ,                                                                                     , ,                                                                                                 > , ,                                                                                     , , ,                                                                                                 , ,       ",
"        , , ,                                                                                     , ,                                                                                                 > , ,                                                                                     , , ,                                                                                                 , ,       ",
"        , , ,                                                                                     , ,                                                                                                 > , ,                                                                                     , , ,                                                                                                 , ,       ",
"        , , ,                                                                                     , ,                                                                                                 > , ,                                                                                     , , ,                                                                                                 , ,       ",
"        , , ,                                                                                     , ,                                                                                                 > , ,                                                                                     , , ,                                                                                                 , ,       ",
"        , , ,                                                                                     , ,                                                                                                 > , ,                                                                                     , , ,                                                                                                 , ,       ",
"        , , ,                                                                                     , ,                                                                                                 > , ,                                                                                     , , ,                                                                                                 , ,       ",
"        , , ,                                                                                     , ,                                                                                                 > , ,                                                                                     , , ,                                                                                                 , ,       ",
"        , , ,                                                                                     , ,                                                                                                 > , ,                                                                                     , , ,                                                                                                 , ,       ",
"        , , ,                                                                                     , ,                                                                                                 > , ,                                                                                     , , ,                                                                                                 , ,       ",
"        , , ,                                                                                     , ,                                                                                                 > , ,                                                                                     , , ,                                                                                                 , ,       ",
"        , , ,                                                                                     , ,                                                                                                 > , ,                                                                                     , , ,                                                                                                 , ,       ",
"        , , ,                                                                                     , ,                                                                                                 > , ,                                                                                     , , ,                                                                                                 , ,       ",
"        , , ,                                                                                     , ,                                                                                                 > , ,                                                                                     , , ,                                                                                                 , ,       ",
"        , , ,                                                                                     , ,                                                                                                 > , ,                                                                                     , , ,                                                                                                 , ,       ",
"        , , ,                                                                                     , ,                                                                                                 > , ,                                                                                     , , ,                                                                                                 , ,       ",
"        , , ,                                                                                     , ,                                                                                                 > , ,                                                                                     , , ,                                                                                                 , ,       ",
"        , , ,                                                                                     , ,                                                                                                 > , ,                                                                                     , , ,                                                                                                 , ,       ",
"        , , >                                                                                     , ,                                                                                                 , , >                                                                                     , , ,                                                                                                 , ,       "
};
