/* XPM */
static char *matrix[] = {
/* columns rows colors chars-per-pixel */
"100 100 233 2 ",
"   c #010201",
".  c #020B02",
"X  c #080F06",
"o  c #080702",
"O  c #031303",
"+  c #091305",
"@  c #041B04",
"#  c #081D06",
"$  c #0B1409",
"%  c #061D08",
"&  c #0A1D09",
"*  c #071609",
"=  c #111D0C",
"-  c #131C10",
";  c #052305",
":  c #082307",
">  c #062B05",
",  c #082B07",
"<  c #062309",
"1  c #0A240A",
"2  c #072C09",
"3  c #0A2C0B",
"4  c #11220D",
"5  c #132D0E",
"6  c #063205",
"7  c #083306",
"8  c #063C06",
"9  c #093D07",
"0  c #073309",
"q  c #0B330C",
"w  c #073B09",
"e  c #0C3B0C",
"r  c #10360F",
"t  c #113B0E",
"y  c #18360F",
"u  c #0F2D10",
"i  c #122510",
"p  c #152B12",
"a  c #192D14",
"s  c #1B2E19",
"d  c #0E3510",
"f  c #0E3B11",
"g  c #123412",
"h  c #1B3316",
"j  c #113C12",
"k  c #1C3419",
"l  c #1C3C1A",
"z  c #1C3C17",
"x  c #223B1C",
"c  c #20361A",
"v  c #223C21",
"b  c #084306",
"n  c #0C430C",
"m  c #0D4B0D",
"M  c #074507",
"N  c #11430F",
"B  c #124B0F",
"V  c #0D540D",
"C  c #0E5C0D",
"Z  c #11540F",
"A  c #0E4311",
"S  c #0F4B11",
"D  c #124413",
"F  c #124C14",
"G  c #1A4B16",
"H  c #154C19",
"J  c #1A4C1B",
"K  c #1B431A",
"L  c #0E5311",
"P  c #0E5B12",
"I  c #135414",
"U  c #135B15",
"Y  c #165319",
"T  c #1A541C",
"R  c #165B19",
"E  c #1A5B1C",
"W  c #1A5617",
"Q  c #23421D",
"!  c #244C1F",
"~  c #20551D",
"^  c #0E620D",
"/  c #0F6812",
"(  c #136315",
")  c #196217",
"_  c #146A15",
"`  c #166319",
"'  c #1A631D",
"]  c #176B1A",
"[  c #1A6B1D",
"{  c #186917",
"}  c #147315",
"|  c #16741A",
" . c #1A741D",
".. c #167A1A",
"X. c #1A7A1E",
"o. c #167D17",
"O. c #10600F",
"+. c #22641E",
"@. c #1E4821",
"#. c #1C5D21",
"$. c #1C5620",
"%. c #244222",
"&. c #2A4B25",
"*. c #2C4C29",
"=. c #264A25",
"-. c #2A5425",
";. c #2C542A",
":. c #285B25",
">. c #31592E",
",. c #355B31",
"<. c #2E5D30",
"1. c #1D6521",
"2. c #1D6C22",
"3. c #1F6D28",
"4. c #1D7323",
"5. c #1E7B23",
"6. c #1F772A",
"7. c #226C24",
"8. c #276927",
"9. c #32682D",
"0. c #217525",
"q. c #217C25",
"w. c #237429",
"e. c #2B752D",
"r. c #237B2A",
"t. c #2A7C2B",
"y. c #2B7526",
"u. c #34732E",
"i. c #2F6231",
"p. c #346333",
"a. c #3D6B3B",
"s. c #3A6737",
"d. c #2C7A30",
"f. c #3E733B",
"g. c #397836",
"h. c #416E3D",
"j. c #43773C",
"k. c #3F7841",
"l. c #447442",
"z. c #447B42",
"x. c #4A7C48",
"c. c #406C42",
"v. c #1B831D",
"b. c #1B8A1E",
"n. c #168518",
"m. c #1E8324",
"M. c #1E8B22",
"N. c #1F8729",
"B. c #1E9323",
"V. c #228326",
"C. c #218A25",
"Z. c #24832B",
"A. c #28842D",
"S. c #258C2C",
"D. c #298B2E",
"F. c #308A2E",
"G. c #25932C",
"H. c #29932E",
"J. c #249B2C",
"K. c #249929",
"L. c #278C30",
"P. c #2B8D32",
"I. c #288531",
"U. c #378536",
"Y. c #279331",
"T. c #2B9433",
"R. c #269B32",
"E. c #2B9C33",
"W. c #2E9A39",
"Q. c #2F9638",
"!. c #339D3A",
"~. c #349637",
"^. c #1DA324",
"/. c #24A32C",
"(. c #24A82A",
"). c #2BA334",
"_. c #2AAC33",
"`. c #2EA33A",
"'. c #2DAB39",
"]. c #26A131",
"[. c #32A43C",
"{. c #32AC3C",
"}. c #33A338",
"|. c #2EB23B",
" X c #2CB937",
".X c #33B43D",
"XX c #31B93E",
"oX c #24B52E",
"OX c #42883E",
"+X c #30C33B",
"@X c #33BB41",
"#X c #36B641",
"$X c #4D834D",
"%X c #498A48",
"&X c #52854E",
"*X c #489549",
"=X c #4E8551",
"-X c #538E55",
";X c #539556",
":X c #5A985A",
">X c #549A4F",
",X c #45A846",
"<X c #59A658",
"1X c #55B458",
"2X c #41BA4B",
"3X c #60A55C",
"4X c #5E9D62",
"5X c #5DA661",
"6X c #5BBD61",
"7X c #62AA63",
"8X c #63A966",
"9X c #6AB46D",
"0X c #66BA6B",
"qX c #6BB972",
"wX c #72BC74",
"eX c #72BD6F",
"rX c #37C645",
"tX c #3BD54A",
"yX c #46CA50",
"uX c #75C47A",
"iX c #77CB7B",
"pX c #77C579",
"aX c #75CF77",
"sX c #7BCE83",
"dX c #7ED888",
"fX c #6BC981",
"gX c #83D789",
"hX c #88DE91",
"jX c #88E18E",
"kX c #8BEC9A",
"lX c #8FED9A",
"zX c #92F6A6",
"xX c #A0FFB6",
/* pixels */
". f 2.2.3 3 3 o     Y w.. j t.. T 4.E.R     1 Z.2.D.Q.d 3 #.1.`.O & t.3 D t.O % [.R 1   H P.      1.Z.  & 3 u 4.P.  H !.. d [.@     1 j q q & o   O 4.H   1.#.. 0.4.`.3     D Z.2.T.Z.@ T J D.q.  j w.O ",
"@ ' U F 3 q 3 .     D H   q E   j U J.R     , Z.4.S.q.> q ` [ R.O O 2.O 3 0.@ # ).I :   T Y..   . U 2.  & 3 f ] r.  D I.. q Q.#     3 j 0 e >       R 3   T d   Y ( ].3     I m.5.S.] O F U G.4.  q R . ",
"# 4.I 0 ] [ I r.j . 2.A   1 <     3 R # . 2.V.r.: ; R Z.] U e .   q 0.: . 3 .   . R 1.  @ 0 .     I H   d T ' W ; . 3 T #   .   : 2.4.] q. .R r.O 3 4.1   q O     D F . 1 Z.C.' O q 4.Z.I U : . . T 1.. ",
"# Z.' 0 ] ] 4.{.H   w.T   3 3     3 0.3 . Y._.E.O . 1.T.G.Z.e     R Z.@ O j       6.T.  # q       ' 7.  R V.m.5.q . j q.@       e V.D.H.T.Z.5.{.@ % A.q   e O     I ' O 3 |.'.0.  1 q.).Z.q.@     Z.E . ",
": U e n F m R 7 @   . %   D D   % n [ H . R U ` 3   q I m , @     # e . O e O   X : #   3 ` O     R U . S m 9 m R O q ] @ # E 1 @ 4.n R I U F , .   O O . T 3   3 m 0.1 # ] I R O O e U e : X     q 3   ",
"3 [ R E.q.G.J.E d         1.E   T ].S.D . 3.D w.3   j 4.D         O j   3 [.3 O D @     R rX%     E.V.  2.4.e 4.Q.. f r.. F E.3 3 #X` Q.4.'.X.E O       O d.q . Z.J.Z.& 1 w.D w.. O T 4.3         3 3   ",
"O e m m U ` ` R D   . .   3 q   q I ] 3   D N U O . 0 I R : .     . > . X : X . # 3 1   < A .     n e . > n ; 7 m O . F @ # D O : ` ( ] 9 ` R R 3   X   . e : . n U ` @ O F m D   @ 9 R D O .     @ #   ",
"1 r.D n XXZ.Z.4.1.  g 1   1.Y   2.XX.XD   `.S.q.O 1 0.n Z.E.D     3 P.%       . e Z.Q.            g j . F Z.f ` 0.O # ~.q   f . . ] ).q.r.0.Z.5.j   j . O r.3   `.|.[.O d .XV.1.  J R I S.P.@     E w.  ",
"1 E n b [ W T U 3   0 3   3 q   j ] 2.q . 2.R f . O q 3 D F 3     f q.@         , ( E .           1 < . D R , n I O 3 0.: . 3 .   D ` D H Y I I O O n O   j # . T ] 2.O 1 5.D 3   1 3 d A F O     ' E o ",
"@ 4. .G.O f [ S.A . T.1.          . `.R . r.E     . 3 3 , 2.e     F E.O O d . O 2.m 3   & 3       3 1   3 U Z.' q.O 0 T.0 1 4.3 . e O     F 4.V.: 2 {.3           e |.> 3 Z.q     @ q 3 e 4.O     Z.4.  ",
"% 0.] 2.. D ' R j . Z.I         . @ Y.H O m.e     . g 2 q 0.j     D Z.. @ q . @ 2.e 1   # q .     3 &   3 n U R E . q 5.# 3 2.: . q O     T W ' : 1 Y.,         . d T.@ f q.#     % q , n 6.@     2.E   ",
"@ 3 F U 3 3 3 . . . I 2.        3 0.@   . R 2.3 .     f R ' 1     O 3   e 2.# @ D. .T   j 7..     1 1   F 5.R D     3 ] O >  .1 O W 2.r.O 3 : . . O  .D         H #.    # 5.Y &     . Y ` R O     : : . ",
"@ q R 5.1.D 3       1.w.        1 1.    . 2.5.E O     T 2.' #     O q   1 w.: # `.M.[ . d T .     H G   H S.5.I     q S.@ 3 Z.# : 7.q.).@ q :     O D.D         H H     : C.2.H     . w.' R .     1 1   ",
"3 R S U , D T ' j O ` q   T J   H E O X O 2.[ 2.O   @ F D , O     3 ' .   O . O F ` T   q 4.O     Y D   O , ] ] 1.O # e O . @ . : 0.e ; O I I ' % 3 ` # O 2.3 . 2.A O   3 5.2.T   . 3 W e , .     F F   ",
"3 q.0.4.q T ] |.4.@ q.n . Y.Z.  q.T.' d   S.H.{.O O 0.V.S 0.3     E .XO       : S.).T.  E rX#     !.r.    O 0.'..X@ < j . @ j . 3 .XI r O 1.[ XX0 f 4.> # #XD . {.4.1.. 3 E.E.I.  q Z. .I 2..     T.Z.  ",
"# R F e m n I W d O T E . e n . 1 q t 1   1 q 0 . X e I ' 0 O     q ) : @ D . O : 3 1   # g .     q q   < 0 W n q O > e O < f O # ' A > . n L W @ : 2.j O F 3 . 3 q D O . 3 q 3   & n ' R 3 .   . F I O ",
"1 !.F @ .XJ.].[ 3 . D.'   1.' .   4 x.*.    @ #.. X q q.0..       3 S.q A rX: O F @               q 3   #.R m.` T . 1.r.# f T.: . 1.H.A.  C.G.' . q T.d O Z.A     Q x.p     g J   # D Y.H       . I Z.@ ",
"@ H # > X...| I 3 . U n . F F . @ 3 ~ g + %.-.' # . e I A .       q ] @ & Y O   O > 1 X           # #   : 0 I I T . q I O O D # O +.T q   U { n @ > ( , @ R q . # r ~ # = &.:.T . # 9 U q         Y W . ",
"O q O @ 5.).Z.E.T . 2.R O r.] . 2.5.|.` # wX>XV.q 3 [.2.' .       Y [..           q D.@ # r .   . H 0.. 3 H : 4.W.  D !.@ O j   v uXh.    D.Z.W.1 # q.0 > Y.t # D.5.@X, &.gXU.q.. 1.Q.2.D         L.w.  ",
". 1 . @ ` ] R ` q @ e.F . e I . q R V.S . l.f.R O 3 Z.` I .       D Z.O           3 I . : 3 .   . H R . 3 n @ W 4.. 3 ' O . q . h 7X>.    ( U E @ r t., . I e . D { V.> i &X8.S   T 5.' e         2.`   ",
". 3   d 4.U ` ' e 1 9.w.  4.2.  R G.q.t   X j  .3 e U 5.r.        : q.3 : r.<     2.2.O f R .     .     I S.[ 4.w.. O q   1 ' 1 o $ $   . ` ` ` 3 h F.H O H.f . Z.Z.4.:   % I ] @ W L Y.F         D 0.O ",
". g . : 2.[ ` 4.f   F J   Z.0.  4.S.' q     q V.3 e ' q.2.        O 1.O , q.:     j ' O e W .           I N.4.2.7.. O q   3 4.:           1.] 0.< . 1.3 @ `.j . T. .' #   . I r.O R E Y.D         q T   ",
"O T 1 @ 0.[ ] m.j   Y q   n F O q I B f     3 ` O 3 ` ( n         D ` O O # .     D ] . A 5.@   . T 2.. A U . q I O O 3   # { > @ H j H   q  .[ @ O R @ O I q . F F I <     F I . N ` R ,         ' D . ",
": G.3 # Z.` ` {.J   7.f   1.' . T ] 4.1.    q G.@ 3 2.' H         j r.@ O d O     r.T.  H T.O   . [ S.  H Z.  H 0.O % T   3 G.> : 1.R Z.. q [ W.O 1 7.@ O Z.e O w.U D.q     ' 5.  Y ` 2.3         1.E . ",
"# R 3 # H D B 9 @ = u.E . A D . F ' 0 O     @ F @ @ ` f O         O F : @ R #     , D . O : .     1 :   e W H ` E O       : ` > O n 9 0 . q m e . h e.e O I q O ' T , .     q A O q ' 3 .         3 D O ",
"> T.F q A.2.U D @ o 8.w.  #.D   2.D.        , H.> . r.e           j r.@ e tXf     T T..                 E R r.H.R .       f tXe O T.T 3   D I j . = P.D O 0.> . E.E         T V.. 3 Z.O           2.' O ",
": R 1 O U I F D 1   > :   D D . 1 g .       q q.3 . A 0 1         q [ : O H O     q n .   .             : 9 U 8.u.&       O H O O n n t . @ b D O   q O O T 3   q 3 .       Y 2.O # n 3 O         W U O ",
"@ C.3 O Z.' E.T.j   D j   r.q.      j O     @ r.3 # T.S.D         e '.q           3 H   1 T       D D   1 e q.0XlXl O D         O 5.4.T.T E G.Z.# . T # O [.D     O j       e r.. D E.0.,       . ] H.. ",
"# 2.1 . D U ` F 3   D D   I W . = p t 1     O Y . O D U F .       3 ' O           q Y . : n .     j j   # q 0.*X:Xp O 3         @  .` ` E R I D O O E 1 O ' 0 . i 5 t O     3 F   3 I R q         F Y   ",
"O q . 1 T.`  .E.H   1.I . n r.O $X7XwXl.    j Q.O # R T.0.        O q   O q X     H ' . T E..   . 3 1   T E 2.t .   q Z.@ O d . f q.[  .5.D ` ).@ @ 4.q . ' E & 7X3XwXQ     0.w.  q 2.E.D         3 1   ",
"O q . O ' U X.G.D   ' D   e R . s.:X8Xs.    D T.@ : 2.R.7.        O q   O 3 O     H R . F q..     1 #   H U 4.3     j F.: O 3 . 3 ` U 4.Y 0 ` S.# # 7.3   R e O $X:X8Xk     0.w.. t q.T.D         1 <   ",
". 3 .   , { 5.q #   5.4.. E 2.. . - X o     . .   : ] 6 .         @ R O O W <     ` ` O q W O     f H . D V.4.Y 1 . a.wXh e ' 3   e 0 0 , U ] 3 . # H.n O 0.F   $ = .         .   A R @ .         q F   ",
". e .   q 5.T.F 1   Y.m.  r.R .                   1 q.>           D E.: 3 A.>     H 7.. H r.O   . U q.. I G.A.R #.. -XlXl A 0.#   e 0 e 0 ` V.H . : |.A : S.e                     H [ .           4.Z.. ",
"O A 1   . q W , . . R D . W n               @ j @ : ] n q j &     9 ] O O q O       @ . O & .     ] ` . D U : e I O a &.% . e . O S D I I ] R @   @  .3 : ` ,               3 f . f ` e e j .   . R I . ",
"3 Z.3     H 7.D 1   2.D O 0.S               3 P.q e .XV. .H.D     E #XO . d                       Y.T.  H V.  e Z..       X D   1 [ G.'.S.S.P.r X O V.# q 5.,               H L.O 0.'.q.X.T.@     T.r.  ",
": ' q . : D R ; @ . F e O 8.9.X             3 [ > # m m V U e     0 U O O H O     1 j .         . I F . D ( D W ] O       . :   @ ( L n U I n , . @ U > 3 g.J               F ` O 3 S m V ( #   . L S . ",
"1 Y.F @ 7.[ 4.D.#.  L.T @ 9XwX$             : T.d   e ' T.T.D     j 2.  3 I.@     0.@X. 1 j .     ] 4.. r. .`.q.1..       O T . : {.0 ; L.q.4.S.3 1 T.3 x hX$X              D T.. & n Z.J.S.&     1.D   ",
": R 3 O G n I ` D . n t O ,.>.X             3 r.1   1 , A I #     @ q   . 3 X     j ' . O : .     D H . 3 N N e j .       # D O @ ( 9 e [ I I ` 3 . H > 4 a.v               H 7.. O 3 q S D .     1 >   ",
": S.3 > {.S.'.5.D O 2.j                     D P.1       . e :     1 U.3           J R   D D.O     e e   3 D 7 2.|.O       3 E.A D V.G.T.E.U 6 0.> 3 0.@                     2.0..       # e .     J e.X ",
"@ R # # 5.[ m.7.q . D 3   . .               j 1.O   .   O q @     f ,X=.          g j   3 T .     F H   3 e , U S.O       , 5.3 @ '  . . .V b 1.# @ H O   . .               #.H .   .   # 3 .     2.*X4 ",
"O 1 . 3 4.4.Z.. .   r.E   w.w.    . .         .   1 2.@ O 2.q     j H.@ g r.#                     R U O e 2.3 ` V..       f T.> O n { Z.K. .0 #   : Y.3 O W.j     . .         .   D E   3 7.O     2.7.O ",
"@ r O O ` m.Z..   . D.'   q.2.    O O .           > ` @ g !.D     H E.O : 2.:                   . 2.I O D r.q F ' .       # 2.> @ F 5.] M._ 0 O   3 E.q @ E.e   . O O             A I . -.Q.@     Z.4.  ",
"> [ q O  .{  .V.f . 2.H . j 1.O   O @ .     # Y O 3 Z.q K ,Xq     3 :.& 3 q.#     j D .         O 5.` . O q R > O         @ I 7 ; m I 4./ } ..q.O : r.3 O E I   . @ O       d D   W 4.@ g.~.O     K ! O ",
"> H.A : .XK.X.{.W   Z.T   f 2.    . O .     q H.# q E., g yXD     ,.pXa e .X:     E '           . [ `     1 T.e           3 !.G b ).5.R.G.n.M.'.: # T.3   ' H     O .       ' q.  [ V.O e.2XO   . :X:X@ ",
": ` : @ ` v.] { e   H H   q f               3 R 6 :.3X-.O A #     l ,.& , ' :     @ 0           X D f . d D 7 z.=X&       . j h b X.{ U | B.| ( @ O ' 3   A 3               S S 7 f.<X5 ; A X   O ;.&.O ",
"@ D.q   ]  X(.rXe.  `.Y.  d.+..             Y #Xm.1XlXs.  g .   . O O   q [.<     q t           O S.R   Z.|.. :XgXh             7 H.R.H.K.G..XyXg % tXI # ~.e               P.).H.aXgXa O g     . @ . . ",
": { q . m } n.0.-.. j d + g.9..             % D 6 J l.s . 3 @   . @ O   @ I >     > q           # U.U.O F ` r p.s.=       . : . ; ( e 7 I C X.e.h O H # p OXJ               q n 0 <.a.$ O 3 .   O @ .   ",
"q 0.: @ S.K.G.O         . :X-XX                 u 1     @ D.f   . O O   3 Z.3     0.Y.          p qXsX1 1.T.~.f.X         3 0.O < 4.t Y e _ J.@         h wX,.                  j O     D Z.#   X O . . ",
"O H : @ I _ { @ .   O O   ,.p.              . O q q     O E 3     . .   3 ] #     Y 1.          p 5X;X# > F ` q           O j . O I D W 9 V  .#   . O . * l.x               X @ j #     q R @     X     ",
"O e , . . ` _.S.j . q.T     X     . .       f Z.q.2..   O q.j           3 Z.:                   % j 3   H 5.Z.f                 , E.q @ [.5.m.r.& > D.3   X X     . .       E q.Z.H     q q.O           ",
"@ A , . O ] /.{ e   H e           O O .     1 ` m.F     O 7.q O . .     @ T O                   . @ .   D E T ,                 3 F.t @ D.,XS.` # O E #         . O O       f ] m.q     q 2.@ O . .     ",
". 0 @ . @ ( M.R D     .   2.1.    O @ .       O q ,     O I Z.9.1 . .   < R O     f D           . O .   % , n 4.8.              %.0X*Xq q.~.[ R 3   .   O Z.q   . @ O         O e @     : ` A.;.O . .   ",
". n @ . @ V.G.q.2.        Z.w.    X O           q :       T D.7.1 O .   1 1..     H T             .     3 E S.E.P.              %.uX;XF S.8.4.S.g       @ [.j     . X         . e .     O 0.A.W @ O .   ",
"# I :   # *X0X<Xj.4 a.p.O e A               3 1.m n     O 2.e ` : O .     O     o a.&X=                 3 I ] e O               = Q E ' 8 g.<X1X;.a z.%.. D 3               H W m 1     d [ e R O O .   ",
"3 5.> . # qXkXiX8X5 sX9XO 2.w.              H {.X.4.    < #X` Q.3 . .             4XiX=                 F C.4.3                     r.+Xb fXdXsX%.&.lXh.O Y.D               L.H.C.S     E '.] Z.O O .   ",
": ( e . O i.z.f.%.X x h . e D .   # e #     3 ` L F .   4 g.y.U : .     . # .     v ,.$           .   $ u.U.u.T q           1 #   O q f 6 T s.>.  = Q 4 O S 3     , e O     D ( U q     Q U.+.S O .     ",
"2 T.` . . @ @ .           I.I..   e E.e     D rXZ.I .   x wX,X5.@       3 }.3                   . O   4 qXpXwX,X].        O Q.D   D . . A.e O           @ [.T     [ G.#     q. Xq.q     l.eX}.U O       ",
"> | n O . : w @           f m .   > } n     1 ' R D     $ a.J n O       O f O                   O @ . . &.z.h.y.X.O       j U.d . n @ @ ' e > O         O I q   . 8 | :     D ` R 3     l s.N q .       ",
"; M.m O   ] ).6 .         E ' .   0 J.W         ' D       . 3 q .                               X % O   3 F n ] V.@       $X9Xx , {.4.T.R G.V.@         O 0.A     U H.3       O 4.:       O d 1         ",
"> V.m O . I  .;           J Y .   , m.e       & ~ j         > 3 .                               . @ O   j ] 8 ] ' .       h.9X*.> Z.I E H  .U O         X 7.q     F 4.@     . 5 +.:         q :         ",
"3  .m 3 . ` S.@             X     . e :     i 9XuXl.X   X 2.S ,         O 3 .                     U ` . . 9 H. .r.@       X = X e ` 7 ; , C.] .           . X     @ n .     ;.sX9X;.    3 2.e :   .     ",
"1 ` M e O ( m.@                     e @     ;.iXiX$X.   @ D._ 9 . . .   @ e O                   O ..X.. . >  .S.[ .             A 5.m e 7 M.(                     O e .   . &XdXuX;.    D H.Z , . . .   ",
"# [ ] S @ ( m.@           e R .   . F q     D ~.G 4     h 8XU.Z O O .   : ' @                   @ X.X.O A  .{ M #               ; X.D @ ` 5.V .         . W D     : I #     8.F.y $     p.7Xy.9 . O .   ",
": C.G.W @ m.'.O           T D..   a ,XD     D W.>       &.lX1X{ O O .   3 q.#                   O G.5.. Y V.H.m                 @ 4.n > D.H.] .         . r.1.    :.!.:     w.Z..       -XkX~.n . O .   ",
"p u.t.I @ w V U q         E T     h g.t     . : @ .     = p.T b O O .   x <X=.                  . b U . O 6 M C m O             ,  .n I U ] ] ( j       O 4.0     -.u.:     O 1 O       x 9.B 7 . . . . ",
"*.iX6X5.@ A b._.]         Q.Z.    3 5X;.        Y J         R E.# . .   s.xXc.                  . e.Q..   O > X._.@             n rX .'.G.B._.J.H..     # #XD     ;.8Xi       . 7.1       O S.r.  .   + ",
"h =X%Xt.q e _ o.V       X g.%X=   1 >.p         q q       . m U O       x -Xl                   X :.F     < L ^ m O             , ( I { o.} C U n       5 *X9..   k ;.$       . j #       # U n .     X ",
"  1 8XwXJ ; b J.m.      . l.uXp   . .           q 3       . e n .                               . e 3     q /.] m               O m @ 6  X( b G.e       & 8X4X.   . .         O j @       @ D q         ",
"  % ;X<XK 7 V n.U         *.l.o   . # O         , ,         : , .                               . 9 6     @ C V 0               O 9 ; 8 /._ C v.e         z.*.    O #         O 0 #       O , ;         ",
"  . u g > X. Xb.Z         X .     # `.D         2.T         : j                                 O S.]     ; C.U .               : n V B.n.b.(.v.q         . .     F `.O       # Z.q         q 3         ",
"      . @ ..oXB.m                 : J.e         I D         t 2..             O                 @ K.4..   , m.m O               : n _ J.b.C / | 2                 F Y.O       O ' 1         E F         ",
"    D T @ | ^.B.(                 @ m @         O O         > 0               @ .               # _ / O   , _  .w..             : 5.L b } X.4.H q                 , M .       . O .       . 0 >         ",
"    ` 5.@ X.(.K.U   . 3 O         O F @         .           : q               # O               O m.{ .   3 X.{ 2..             @ 0.8 8 B.K.T.5.e   % 1           > S .                     q :         ",
"  . U U O I v...U   O Y > .       O n q                     N A .           O f @               . : 1     O M m B O             @ U 6 w M.X.( X.e   3 F O .       : D @                   O F 3         ",
". O R.E.  ' J.M.5.  . , ; O .     O Z.e                     0.q..           O 0 O                         > E.K.S.O             3 q.6 m (.o.b./.A   @ 6 @ O .     f Z.#                   # D.I         ",
". @ m e . e _ } m   O e > @ .     @ ` q                   . M { O . # O O O # I #                 @ O     : ( _ U O             6 ..S M } } m.( 6   1 q @ @ .     q R @                   O U F   O # O ",
"O % # O . ` M.B.R   O e , % O     1 T.A     . @ @         . ` V.. D '., O % O 0 O               . I S     > q.S.rX@             m _.V 0 ( M.K.J.`   < e > % .     Y Y.:     . @ O         @ C.R   0.Z.O ",
"O < # O O C ..{ D   O n q @ .     . D q     O n e       . % F ) @ > m @ O . . : .               O V m . . 6 | ] ] .             j F.E > b U U O.m   % A > O .     # I #     @ F >       O 1 ` F . e e O ",
"O < N e @ ..].D #   . q , O .     . . .     @ b 7 .     O 1 %XpXa > q.< . . . @ .               O /.V.. O b b.b                 <.iX,.O @ 2 e ].m.  O e @ O .     . .     . , M >     . @ j 0X:X. F 2.. ",
". # e 0 @ ( X.q O   O f @ .                 @ L S .     O 1 j.;X= f D.<   . O q O               O m.` . . N ~.T O               Q 7X=.. O r H E.q.  3 e .                 . , U 0     . @ g ;Xl.. 1.4.. ",
". O I ( ; ( X.e O   @ A O         O 3 @     @ U P O     . O * .   O 0 O     % e @               . 9 6     p.dX*X1               @ g 1 . . p.9XiXk.  3 f           @ 3 .     , ] 9       O % O     > ,   ",
". O ' [ ; I  .R q   O e @         @ n :     O , > .       .       1 w..     . 2 @                 q ,   . :.iX%X%             . O @ O O O z.gXiX$X. < e O         2 n O     @ 2 #       . .       J T   ",
". @ I 0.; @ T 3X$XX O I , .       @ L q       O O                 . O       @ A @                 E ` . . # @.=.O         . . . @ 1 1 @ O l g.<X,.  3 F O .     . 0 I @     . O O                 O .   ",
"O @ ( H.@ . Q gX9X. . q : O .     , ).W     . , , .         o               O 3 O                 Y.R.. . O @ % O         O . . O % # @ O @ :.hXk.  # q @ .       I _.,     O 0 :                       ",
"O @ L U O q +.f.%.  O H > @ .     l <Xp.    # U m O     . . . .   @ q . . . O q O               . U m . O @ < < O         . O . . . . O O . # p.p   3 D @ O .   . p.<Xz   . 0 ( w .     . O .     3 1   ",
"O O R V.. 1.E.@     . 3 6 6 O     %.jXx.  . 2 C m O     . @ # .   A 4.O . . . @ .               O q.S O @ < % @ .         . .       . O .   . .     @ q 0 , .     x.jX%.  O e ^ w .     O # * .   2.I   ",
". O e H @ m .., .   . O b U @     * a.&.  . 2 ( L O     O < 1 O   3 m O           .               j f O @ < @ X o                 . * @ . . . < O   . @ L m .     a j.p   O e _ e .   . % 1 % . . N e . ",
"  . 0 e @ X.+X8 . . . @ e n @         o     : M e .     * 1 < O   T D.#       . . O .                 . O < @ .         .         O < % O   @ L.j   O ; M e .             . , m 3     . % 3 & X . Z.' . ",
"  . 7 9 @ _ ^.8 .   O q 7 e O       .       O , > .     O 1 : .   > R ;     . q : . .                 . O < 1 # .     3 :       . O < % O . O H 1   1 0 8 , .       .       @ 7 @     . @ < % .   e I . ",
"    R 2.@ X.(.> .   O e 0 0 O     . W.R     . # @       . % @ .   E 4.: . . . : @ .               E E   . % 2 1 O     e 3       . @ @ % @ q F O .   3 9 0 > .     d {.1     . # O       O < O   O 0.W O ",
"    W R @ ../.> .   @ e , # .     X J.U       . .       . @ O     f 4., 0 @ O d 1                 E U . O @ # O .     , :       O O O % 2 V 4.O     2 e > @       q ].>     . . .       O @ X     E R ; ",
"  * :X:XK m B.e .   < F 3 @ .     . U e     . @ @ .     X O .     O 0 ; F > . q &                 ' [ O O % O .       q >       O O O # , C _ e *   f A > O       1 U :     O @ O       O O       > , , ",
"  . ;XqXJ O._.0     # e , 2       O L.n     . , 0 .     X X       O e @ w ; O > @ .               T.J.O @ % O         2 0 q O   O O O @ ; ] M.U 3   , 0 7 #       j D.#     @ 0 <       O .       3 q ; ",
"    1 ;.f _ v.;     # e e e .     . 1 @     . D 9 .     . .       3 U 6 L ; @ D 3 O .           % U.*Xg % < O         q e R >   . O O O @ M V { q   3 e n 3       O 1 X     @ S ,       . .       S m 8 ",
". . . O < X.B.8 : . @ , e 0 .               O w 0 O     . .       R XX6 M > . O O O .           1 uXwXl < 1 O .       > q 0 @   O O O O @ m C XX'   > 7 9 ,                 # n , .     . .       H.S.> ",
". O . O 3 U.,X[ U : q I b F O               @ S m ; .             A | m L ,       .             & k.f.u < % O . .     q n A @   > O.V < < m ^ | I @ A S m e               . , P 9 @ . . .         ( ( m ",
"X O . O q 0XzXt.M > 9 m b M O     . j &     # M n , O . .         H C.M M >                     . @ O O # # ; > O     O > , O   S  X} q q _ K.| 4.; m m M e .     & j .   . , m 9 : O . .         0.] b ",
"O O O % f *X0X4.V , 9 U S n O     . q #     @ 0 7 # O . O O       1 +.7 e ;                     O ; @ . O O e N O     3 q e @ . M b.P d 0 ( m.U e ; L L m 0 .     @ q .   . : 9 > @ O . O .       D E > ",
". O O % d D D n A > w L m m @     O ].A     O , > O O O O # O     l z., w >                     @ { 5.O . O 0 9 O     < 0 D : . L K.C d > ] J.b.U ; m m V 9 .     D ].O   . @ 6 @ O O O # # O     p.p.> ",
". . . @ 3 d 2 @ O @ w P V m @     @ E.D     . e 0 O O . O 0 0 .   @.z.3 n ,                     @ ..4.. . @ 9 S O     > , @ O   6 M.L 2 : ' H. .E @ m V m 9 .     D E.#     O A < O . . # e <   . s.i.> "
};
