/* XPM */
static char *north[] = {
/* columns rows colors chars-per-pixel */
"100 100 256 2 ",
"   c #161619",
".  c #0A0C11",
"X  c #0C1729",
"o  c #171D27",
"O  c #0D1D37",
"+  c #121E35",
"@  c #182639",
"#  c #162232",
"$  c #26252A",
"%  c #262B37",
"&  c #363338",
"*  c #312F33",
"=  c #2C1C1B",
"-  c #52261D",
";  c #674D38",
":  c #1C2C44",
">  c #152B4B",
",  c #1A2D4B",
"<  c #142844",
"1  c #1C314B",
"2  c #142E54",
"3  c #1B3353",
"4  c #1B355B",
"5  c #1C395C",
"6  c #173359",
"7  c #0F2546",
"8  c #232F43",
"9  c #23344B",
"0  c #293548",
"q  c #373A49",
"w  c #223653",
"e  c #243A54",
"r  c #2B3B53",
"t  c #233B5C",
"y  c #2A3D5B",
"u  c #263756",
"i  c #343D54",
"p  c #302F40",
"a  c #1C3B64",
"s  c #193A69",
"d  c #193E76",
"f  c #0F3869",
"g  c #233D63",
"h  c #263E66",
"j  c #273F6B",
"k  c #443D47",
"l  c #2C425D",
"z  c #34435C",
"x  c #3A4457",
"c  c #3C414C",
"v  c #1D416C",
"b  c #1D4274",
"n  c #1C437C",
"m  c #254164",
"M  c #2B4364",
"N  c #23436C",
"B  c #2B456B",
"V  c #2C496E",
"C  c #27486C",
"Z  c #334563",
"A  c #334A6C",
"S  c #3A4C6B",
"D  c #374866",
"F  c #3B516B",
"G  c #234573",
"H  c #254974",
"J  c #2C4B74",
"K  c #244A7B",
"L  c #2C4D7B",
"P  c #254679",
"I  c #334C73",
"U  c #364E78",
"Y  c #2C517C",
"T  c #33527C",
"R  c #3B537B",
"E  c #3A5375",
"W  c #45444B",
"Q  c #474856",
"!  c #564D4F",
"~  c #645850",
"^  c #444C65",
"/  c #46526A",
"(  c #435473",
")  c #475879",
"_  c #52596C",
"`  c #536576",
"'  c #68696D",
"]  c #6E675A",
"[  c #9A5635",
"{  c #1C4888",
"}  c #1B4E96",
"|  c #234C83",
" . c #274D86",
".. c #2C5284",
"X. c #2B548C",
"o. c #27538A",
"O. c #335483",
"+. c #32568A",
"@. c #34598D",
"#. c #3B5C8C",
"$. c #395785",
"%. c #2A5493",
"&. c #2C5B9B",
"*. c #285696",
"=. c #335C93",
"-. c #3B5D94",
";. c #335E9B",
":. c #385C98",
">. c #244E92",
",. c #34629C",
"<. c #3B629B",
"1. c #386195",
"2. c #376495",
"3. c #1A54A7",
"4. c #1B5BB8",
"5. c #2C5CA3",
"6. c #275AA8",
"7. c #325EA4",
"8. c #275DB3",
"9. c #2D63AC",
"0. c #2C62A5",
"q. c #3463A3",
"w. c #3B64A3",
"e. c #3364AB",
"r. c #3A66AA",
"t. c #3B6BAC",
"y. c #396AA6",
"u. c #2C63B3",
"i. c #2B64BC",
"p. c #2A66BA",
"a. c #346AB4",
"s. c #3B6CB3",
"d. c #346CBB",
"f. c #3B6EBB",
"g. c #3465B4",
"h. c #3C72BC",
"j. c #3971B8",
"k. c #3B70AE",
"l. c #1F62BB",
"z. c #435C86",
"x. c #445F94",
"c. c #48648A",
"v. c #536887",
"b. c #466698",
"n. c #577699",
"m. c #536F93",
"M. c #68798F",
"N. c #436CAC",
"B. c #4569A5",
"V. c #4773AA",
"C. c #5579A7",
"Z. c #436DB4",
"A. c #4473BC",
"S. c #4876B7",
"D. c #547CB3",
"F. c #627FA3",
"G. c #1C65C9",
"H. c #1B6BD7",
"J. c #1E71DD",
"K. c #2969C7",
"L. c #336DC3",
"P. c #366DC6",
"I. c #3573C4",
"U. c #3C74C4",
"Y. c #3473CC",
"T. c #3B75CB",
"R. c #3C7ACD",
"E. c #3979C9",
"W. c #286ED4",
"Q. c #2C72D5",
"!. c #2B74DA",
"~. c #2976DB",
"^. c #3475D3",
"/. c #3579D4",
"(. c #3C7BD4",
"). c #357BDC",
"_. c #3B7DDB",
"`. c #3876D4",
"'. c #2D70CE",
"]. c #1C73E5",
"[. c #277AE6",
"{. c #347DE2",
"}. c #3A7EE1",
"|. c #227EF0",
" X c #1B5EC3",
".X c #437AC4",
"XX c #4B7BC4",
"oX c #437BCC",
"OX c #4678C8",
"+X c #437DD3",
"@X c #427EDA",
"#X c #4A7ED3",
"$X c #537EC7",
"%X c #5784BB",
"&X c #5881B1",
"*X c #6986AC",
"=X c #6D8398",
"-X c #3D82DC",
";X c #3D81D6",
":X c #2B81ED",
">X c #3581E4",
",X c #3C83E4",
"<X c #3C8AED",
"1X c #3785EA",
"2X c #398BF1",
"3X c #2D87F2",
"4X c #4B82CA",
"5X c #5587C9",
"6X c #4482D6",
"7X c #4B83D4",
"8X c #4383DC",
"9X c #4A85DB",
"0X c #4C8ADD",
"qX c #4789DA",
"wX c #538BDC",
"eX c #5589D5",
"rX c #5B92DA",
"tX c #5D90CE",
"yX c #6996D2",
"uX c #4385E3",
"iX c #4986E2",
"pX c #458AE4",
"aX c #4B8BE4",
"sX c #448CEB",
"dX c #4B8EEA",
"fX c #4186E9",
"gX c #528EE3",
"hX c #538FE7",
"jX c #4C92EC",
"kX c #4B91E8",
"lX c #5392E5",
"zX c #5394EC",
"xX c #5A95EC",
"cX c #5599ED",
"vX c #5B9AED",
"bX c #5A94E4",
"nX c #458EF1",
"mX c #4593F2",
"MX c #4B94F2",
"NX c #4D99F5",
"BX c #4A9AF7",
"VX c #5296F2",
"CX c #549AF4",
"ZX c #5B9CF3",
"AX c #569BF6",
"SX c #639DE9",
"DX c #619EF3",
"FX c #5DA1F6",
"GX c #5AA2F9",
"HX c #63A2F6",
"JX c #64A4F8",
"KX c #6CAAFA",
"LX c #69A7F9",
"PX c #6CA6F1",
"IX c #878A9C",
"UX c #90ADDE",
/* pixels */
"_./.T.(.8X8X@X+X8X`.+X8XuX/.`.i.dXhXaXdXcXZXDXZXZXHXZXvXDXZXcXZXVXR.A.5XdXdXVXxXnXsXMXMXdXiXdX9X8X[.3X,XQ.<XNX5XD.lXAXAXGXvXbXbXVXbXbXVX1X,X'.Q.pXhXaXdXpXuX).,X,X+XOX9XsXfX+X7.+XP.+XmXnXnXVXZXxXzXMX2X",
"(._.R.(._.8X@X8X8X`.+X9X,X/.Y.i.hXhXpXaXcXCXDXZXZXDXZXZXHXZXcXZXMXT.Z.eXdXsXMXxXdXsXmXMXdX9XiX9X8X|.3X,XW.<XBXrX5XcXNXGXGXZXbXxXVXbXbXVX2X_.K.Q.,XaXpXsXiX@X).}.}._.oX#XdXfX@XZ.+XP.@XnXsXjXVXZXxXzXMX2X",
"(./.T.(.-X8X8X8X8X`.R.8X,X)./.i.gXhXpXfXcXZXDXZXZXZXCXZXSXDXcXZXNX(.f.5XaXsXMXxXdXnXnXMXdX#X9X6X-X|.3X>X!.<XNXrXtXNXBXGXLXFXZXzXVXxXlXMXnX_.8.Q.1XpXaXpXiX8X~.}.}.}.@X#XiXuX}.U.T.d.(.nXsXjXVXcXxXzXVX2X",
"_./.`.(._.8X8X8XiXT.oX8X,X).`.i.aXhXpXuXcXZXDXZXZXZXZXZXSXyXvXCXNX(.f.$XpX<XVXlXdXdXnXdXpXXX#X6X_.|.3X>X!.mXNXrXrXNXBXGXLXFXZXcXVXxXzXMX<XuXK.Q.<XpXdXfX8X8X~.}.,X,X@X+X8XuXuX+X+XP._.nXsXdXVXxXbXxXVXnX",
"_./.(.+X@X8X8X8X9X`.+XpX,X).`.i.hXhXpXfXjXZXDXZXZXZXZXDXyX_ C.vXCX_.T.$XaX1XjXlXaXdXsXdXiXXX#X7X_.[.:X>X!.mXNXbXyXCXAXFXLXJXAXVXVXcXcXmX<XuXQ.^.fXiXaXsXiX@X~.}.,X,X}.(.@XuX@X+X(.'._.mXnXjXVXSXvXxXVXmX",
"_./.`.(.8X8X8X6X8X`.oXaX,X{.).i.gXhXaXdXVXZXDXAXZXZXZXZXyXW c.vXCX_.R.$X0X{.mXxXhXdXsXdXpXXXXX7X).[.3X>X!.MXNXbXyXcXAXFXKXJXAXCXVXxXcXMX<XuXQ.^.fXiXaXdX8X@X~.}.uX}.}.(.(.8X(..XY.K._.BXmXMXMXZXZXcXCXMX",
"(./.`.(.+X6X8X8X8XT.oXaX<X}./.i.0XgXgXdXZXZXDXAXZXZXAXZXSXyXyXZXNX_.T.$X0X{.jXxXhXdX<XsXpXXXS.8X).|.3X:X!.CXAXbXrXcXCXJXKXJXZXCXlXxXxXCX<XfXQ.^.pXiXaXpXuX8X~.}.,X{._./.@XiXU.g.T.7.+XZXMXmXmXCXCXVXVXVX",
"/._.`.(.8X8X8X8X8XY..XaXfX}./.i.aXgXgXdXCXAXDXZXAXAXAXZXSXPXSXvXNX_.Y.$X0X>XkXxXhXdX<XsXiX#XXX8X).|.3X:XQ.CXAXbXrXCXCXJXKXKXZXCXlXbXxXVX<XuX~.^.pXiXaXuX8XuX{.}._.).}._.(.oXA.r.u.5.+XAXNXMXmXZXCXMXVXVX",
"_.)./._.8X8X8X6X6X/.oXaXfX_./.u.aXlXgXhXCXAXZXAXAXFXAXZXDXSXSXcXNX_.Y.S.0X8XrXxXhXsX2XsXaX#XoX8X{.|.3X:XQ.ZXFXbXrXCXAXJXKXJXZXCXbXbXcXCXsXiX~.'.iXpXpX<X8X8X}./.T.^.^.d.e.X.j y g >.8XAXAXAXMXZXZXVXVXVX",
"@X/.^.).-X8X_./.+X_.oX0XfX}./.i.aXbXgXgXCXAXDXZXAXFXFXvXHXSXSXcXCX/.Y.S.7X&X=XrXhXsX1XsXaX9XXX8X{.|.3X:X!.ZXJXbXrXZXAXJXKXJXZXCXbXbXxXcXdXdX~.'.8XiXpX,X,X@X/.^.`.K.8.b s : @ > O g 9XCXHXHXCXZXDXCXCXdX",
"(./.Q.).,X8X_.(.+X_..X7XpX>X).i.aXbXgXhXCXCXDXZXZXZXAXvXHXSXvXbXcX/.^.XX4X` ! 5XhXsX1XsXdX8XoX8X>X|.:X{.!.ZXJXlXrXZXAXJXKXJXAXCXcXbXvXvXjXiXQ.W.uXiXpXfXuX(./.!.'.8.} d 3 > 3 6 O j 9XZXJXHXZXZXvXZXZXVX",
"@X/.W.).-X8X_._.8X@XA.5XaX}.).i.aXlXhXdXCXCXDXDXAXZXZXxXDXHXvXlXzX_.^.XXXXR = D.lXsX2XsXpXpXuXpX[.[.:X{.!.ZXGXlXrXZXAXJXKXJXZXCXCXxXxXxXMX#XW.W.fXiXpXsXuX}.[.~.G.4.l.b + O > 2 O j iXZXJXHXCXZXvXZXCXVX",
"+X/.K.!._.@X8X(.6XU.N.S.qX_./.i.9XlXdXdXCXCXSXvXFXZXcXbXvXFXZXgXkX_.Y.S.A.B.W D.hXsX2XsXaXuX8XuX[.~.:X{.Q.CXGXlXrXZXAXJXKXJXAXVXCXcXbXvXjX8XW.!.uXuXiXsXuX}.[.J.H.[.W.P X X X O O | 8XAXHXHXCXZXxXCXVXMX",
"+X/.K.W.}.8X8X_.8XY.Z.%X7X_./.u.9XjXdXdXCXVXSXvXZXZXzXlXvXFXcXlXkX+XP.N.#.$.z.5XaX<X2XsXdXuXuXuX[.[.:X).Q.CXGXbXrXZXZXJXKXKXZXMXVXxXbXxXMXpX~.'.iXsXiXuX@X(.^.K.J.|.W.| , + O 2 n 6.8XCXZXHXAXAXxXMXMXmX",
"+X/.G.W.>X8X8X-X8X^.Z.%X7X_.Y.8.8XdXdXMXjXuX7XgXlXcXcXwXvXGXcXcXkX@XP.Z.N.J w.wXaX2X2XpXdXuXuXuX[.[.:X).Q.jXGXcXrXvXZXJXKXKXZXVXCXxXbXhXMXfXW.W.uXpXuX@X+XT.K.K.G.K.K.d.&.&.3.3.4.i.8XCXZXHXAXZXVXMXnXsX",
"+X).G.~.,XuX8X_.8X/.S.5X0X,XY.i.8XdXdXaXs.f.r.uXMXCXcXwXcXFXAXCXlX+XP.S.oXI.0XlXdX1X<XpXdXuXuXuX[.[.:X).!.nXGXvXrXvXZXJXKXKXHXCXCXzXhXlXjXpXW.8.U.+X8X+X_.T.d.K.8.} o.&.u.K.G.4.H.u.8XCXAXZXZXAXVXVXMXsX",
"+X).H.~.,X,X-X(.8X_.4X%X0X_.Y.i.9XhXgXA.7.Y.T.sXMXMXCXbXvXCXAXCXaX+XP.5X8X,XbXlXpX2XsXiXpXuX8X+X{.[.[.{.!.<XGXcXrXZXZXHXKXKXHXAXAXxXhXlXsXa.K.K.T._.,XT._.U.K.i.6.8.>.n n { 3.G.H.8.6XCXAXAXCXAXcXVXCXsX",
"(.).K.!.uXuX,X_.@X_.S.m.S.U.I.p.0XhX9XA.P.1XfXdXjXNXCXgXxXvXNXNX0XoXY.0X8XpXbXwXiX<XfX9XaX,X8XoX{.[.[.:X!.<XAXvXrXvXZXHXKXKXHXHXZXgXeXhXnX5.i.K.T.@XuXoX+Xd.K.i.8.K.6.>.{ d { 4.W.i.7XCXAXAXCXZXxXVXCXjX",
"+X).W.{.-X,X,X_.+X(.c./ B.A.f.K.0XaX9X+X,X2XjXVXMXCXZXwXvXZXjXcX0XoXY.7XuXpXbXwXpX<XuX#X0XuX+X+X).[.:X[.Q.sXNXvXrXZXZXHXKXKXLXLXHXgXeXlXhX8X`.8.s.U.uXoXT.Y.K.6.8.K.8.6.*.{ 3.4.H.i.+XCXCXAXAXZXxXcXCXjX",
"+X).Q.).-XuX,X-X6XoX) q b.s.a.K.9XpXiX8XsXnXMXCXcXCXCXwXbXZXCXcXeX.XY.9XuXaXrXbXdX<XpX#X9X8X8XuX{.[.:X{.^.fXNXcXrXvXZXHXKXLXLXKXJXbXeXbXwXB.L.8.Z.oX8X(.`.`.K.6.u.K.8.u.8.8.p.G.J.i.+XCXVXAXCXZXvXcXCXdX",
"+X-X!._.8XiX,X-X+X.X) q c.r.a.i.7XaX8X+X<XmXMXAXCXCXCXgXeXvXCXzXeXOXY.gXsXaXrXxXjXmXdX#X7X@X8XuX{.[.3X:XQ.fXNXcXrXvXZXDXKXLXJXLXHXxXrXgXeXS.P.6.r.T.@X+X`.'.K.6.8.K.i.p.8.p.W.H.[.K.8XCXMXCXVXZXZXZXNXsX",
"6X-X)._.8XiX,X-X+XZ.0 $ ( :.e.8.OXaX8X#XsXmXjXCXZXZXAXbXeXvXAXzX0XU.Y.hXsXkXbXcXjXmXnX7X9X9X8XuX>X[.:X:XQ.iXNXCXrXvXZXZXJXLXHXHXDXxXbXwX7XXXP.6.r.T.R.oXT.P.K.8.i.K.K.i.i.K.~.].[.W.uXCXMXVXCXZXZXZXCXdX",
"+X_.!._.@X8X8X,X8XS.r   z w.r.8.oXaX7X$XjXMXMXCXCXZXCXzXeXvXCXcX0XU.Y.aX<XaXlXcXjXnXjX0X9X9X+X+X}.{.{.{.W.pXAXcXrXSXZXDXLXJXHXAXZXvXxXlX0X7Xd.6.r.T.(.+X+XP.'.i.i.K.i.i.i.'.[.].|.K.uXVXmXNXAXZXZXZXCXVX",
"6X-X).).+X8X-X-X6XXXS $ D Z.q.6.A.iX7XXXaXMXMXCXcXZXCXcXbXZXAXCXaXoXY.aX<XpXlXCXmXmXMXaX9X@X+XOX).{./.{.W.8XAXjXrXvXZXDXJXJXFXZXZXZXZXcXhX9Xe.6.=.T.T.+XT.`.).'.K.K.K.i.p.K.[.|.|.W.iXCXMXCXAXZXZXVXNXMX",
"(._.).).-X8X8X-X-X.Xz.& ) s.;.&.t.0X7X4X7XkXcXcXxXZXCXZXvXAXCXAXaXoXY.0X<XaXbXCXmXmXNXaXaX8X+X#X1X{.^.).K.7XAXcXrXSXZXZXHXJXHXZXZXZXZXcXkXaXg.>.7.T.oXOXU.`./.'.W.'.^.d.u.'.[.|.[.W.@XcXVXCXAXZXZXCXBXMX",
"oX-X).).-X8XuX,X-XR.b.x ) N.:.*.s.9X4X5XgXVXVXxXbXvXAXHXvXAXCXAXaX+XL.0XmXpXbXCXmXmXmXaXaXiX#X+X1X[.^.~.K.oXNXMXrXvXZXZXHXJXHXZXZXCXZXcXMX0Xe.} r.T.+XOXU.`.`.Y.W.Q./.Y.u.'.:X|.[.W.@XVXMXCXCXAXZXCXCXVX",
"+X_.).)._.uX,X,X8X(.N.) z.t.@.5.s.0X%XD.wXCXCXzXzXvXAXHXZXAXCXAXjX+Xd.0XsXsXbXcXMXmXNXaXaXiX8XoX>X[.~.).K.oXMXMXrXxXCXZXZXHXHXZXZXCXCXxXzX7Xg.6.g.T.oXoXU.`.`.^.W.^._.T.i.Q.:X3X[.G.uXCXMXCXCXZXZXCXNXVX",
"+X(.).{.}.uX,X>X-XR.Z.c.z.w...6.s.0X*XM.eXCXCXcXlXxXZXHXDXAXCXAXzX+XP.pXpXpXlXAXMXNXNXaX0X0X#XA./.[.{.{.'.+XMXmXlXxXVXZXZXHXHXZXAXCXZXvXhX#XL.6.r.U.oX+XoX/.`.).Q.Q./.T.i.!.:X3X[.H.uXcXMXVXZXDXZXCXVXzX",
"oX_._.{.}.,X,X>X-X(.N.c.b.s.=.u.f.7X' ~ 5XzXCXZXbXvXAXHXZXAXAXAXkX6X'.iXpXpXlXCXMXMXNXaX9X9X#XOX>X:X/.).K.OXjXjXlXvXCXZXAXFXFXAXAXAXAXvXwXA.d.6.r.T.R.oX+X(.(.).!.Q./.E.L.!.:X:X|.H.uXlXmXVXcXZXZXBXMXaX",
"6X-X).{.>X,X1X>X,XR.B.b.B.f.+.8.d.eXQ * 5XcXMXCXlXcXAXFXZXAXAXAXjX+X'.fXsXsXkXCXMXMXBX0X7X9X8X@X,X1X).).K.Z.dXjXbXcXCXDXAXZXAXZXHXHXHXvXwXS.g.6.U.U.oX#X+X+X+X`.!.~./.(.I.).:X:X|.J.iXaXjXcXcXZXZXNXNXhX",
"6X_./.}.>X1X<X1X-XE.N.m.c.t.+.9.a.4XQ & 5XMXNXCXzXvXAXAXZXFXFXAXjX6XQ.fXaXaXzXAXMXMXNXaX#X0XuXuX1X3X{.{.K.N.dXjXzXCXCXZXZXDXAXAXJXLXHXxXwXXXL.8.f..XoX#X+X@X+X(.W.~.>X(.I.).:X|.[.J.uX7XdXVXZXZXCXNXCXzX",
"+X8X_.>X,X,X<X1X-XE.h.V.b.s.;.6.r.4X' ] 5XMXNXCXcXZXAXAXZXFXJXAXjX+XW.fX0XaXcXCXMXmXmXaXXX9XpXpX<X3X).!.i.N.hXcXzXcXCXZXZXDXZXFXLXKXLXZXgXXX8.8.N.f.+XoX8X@X@X/.W.~.>X(.Y.).:X|.[.H.uX7XdXVXvXvXCXBXVXlX",
"(._./._._.(.,X1X-X(.R.S.N.oXq.5.s.0XM.M.tXcXNXCXcXCXAXAXAXHXJXAXkXoXK.<XaXjXCXNXmXmXmXaXS.7XaXpX<X1X/.Y.i.N.lXzXlXVXVXZXZXvXZXHXKXKXLXvXhXS.7.6.w.h.+XoX@X@X@X/.!.[.1X(.Y.).:X[.[.J.,XwXsXMXcXxXVXMXVXzX",
"6X(.).}.T.f.R./._.`.U.S.A.(.e.5.U.0X*XM.5XkXMXCXcXCXAXFXAXHXGXAXzXoXK.<XaXkXcXNXmXmXmXaXS.OX9X8X<X,XT.`.i.B.wXzXcXcXMXCXAXZXZXJXKXKXLXxXgXb.g.8.t.U.+XoX@X@X8X_.[.[.1X/.I.!.:X[.[.].,XaXmXMXcXcXVXMXMXVX",
"8X(.).}.U.q.h.Y.Y.Y.U.D.A./.e.&.I.pX%X*X4XkXMXNXvXCXAXAXAXGXFXAXcX6X'.<XkXaXMXNXmXmXmXaXb.Z.7X6XuX_.U.`.i.w.wXzXVXVXmXVXZXZXZXJXKXKXLXxX9XR e.i.Z.T.+XoX+X@XuX,X{.{.>X_.I./.:X[.W.J.uXlXMXMXVXVXcXMXCXcX",
"6X(._.}.I.+.r.I.Y.Y.U.V.S.(.;. .e.uX5X%XwXkXMXMXvXCXZXAXCXAXFXAXVX8XQ.<XaXhXVXNXmX<XmXsXN.S.XX#X8X_.A.`.K.e.0XzXMXcXMXmXVXAXZXJXKXKXHXbX7XI g.8.N._.+XoX+X+X@X}.{.{.1X-XI.Y.{.[.W.H.uXjXnXjXVXxXzXVXCXcX",
"(.(._.}.I.$.w.f.Y.Y.h.c.N.U.:. .e.fXtXtXwXhXjXCXvXZXZXZXCXAXCXNXjX6X'.<XdXhXcXCXNX<XmXsXZ.S.B.S.(.(.U./.K.s.gXzXjXCXdXdXMXAXZXHXKXKXDXhX9XJ u.6.7.-X@X#X@X8X8X}.{.:X1X,XI.Y.!.[.J. X,XdXnXnXzXxXzXVXAXVX",
"(./.).}.I.@.r.;.d.I.h.$.B.A.<.&.I.sXeXtX4XgXCXCXZXZXFXZXcXCXNXMXMX8XW.<XdXgXcXNXBXmXmXdXS.S.z.N.8X+XT.).K.Z.gXzXcXMXjXVXVXZXxXHXKXKXvXgX9XL e.8.N._.@X7XuXiXuX}.{.:X1X-XY./.[.[.~. X,XsXmXVXcXbXzXVXZXVX",
"6X(._.}.L.&.:.O.a.f.s.R b.t.O.5.d.pXeXtX5X7XcXCXcXZXFXcXbXCXMXMXNXiXQ.sXpX0XcXNXAXNXBXdXXXZ.x.N.U.A.T.{.K.Z.gXzXjXMXMXCXCXZXZXHXKXKXbXwXiX#.5.i.w.R.8X7XiXiX8X{.{.{.1X-XU./.:X[.J.G.,XsXmXVXVXlXzXZXCXVX",
"7X-X,X>XY.g.;.T r.f.h.c.<.t.L 5.d.pXwXtXeX5XlXCXcXZXFXcXlXCXmXmXmX8XK.uX8X0XzXVXAXAXNXdXXXS.B.Z..X.XU.).K.oXaXkXdXsXmXCXZXZXZXHXKXLXbXeXdX:.%.8.-.T.uX0XaX8X+X).{.{.1X-XE.Y.[.[.H.H.2XnXsXiXaXlXhXVXlXlX",
"7X8X-X>X^.d.&.L q.j.s.b.N.A.;.6.h.pXwXtXwXXXwXCXCXZXHXzXwXCXmXmXmX8XK.-X8XqXlXMXNXAXNXsXXXN.N.Z.A.R./.).K.+XdXaXpXmXmXCXZXZXZXHXLXJXwX7XpX:.>.*.$._.<XiXiX+X+X_.).}.,X8XE.Y.[.~.H.].<XnX2X(.A.0X9XcX9X9X",
"4X8X-X).Y.d.;...q.f.h.S.A.f.=.u.h.pX0XrXwXS.7XzXCXZXFXcXlXzXmXMX<X8XK.E.8X0XlXjXBXNXNXdXA.B.B.Z.f.(.).^.K.+XlXaXpXMXmXNXCXAXZXHXHXFXwXXXpXw.>.| $.(.sXaX9XoX.X_.)._.,X8XE./.[.W.H.[.sXsX_.%.P N.0XlXE.+X",
"V.R.).).P.e.q...e.f.d.A.A.t...e.f.jXlXrXlX4X7XlXcXvXFXCXlX9XdXMXsX8X9.r.(.aXhXaXsXmXBXaXB.b.x.B.N.T.).~.K.(.lX0X8XmXmXNXCXAXAXFXAXCXwX7XdXN.>.| U (.pXaX8XoXU.(._._.,X+X.X^.~.~.H.[.sXsX5.3.&.r.aXzXf.qX",
"c.h.{./.9.e.&.L s.f.d..X.Xs.+.u.s.jXlXrXjX7X7XzXcXbXFXCXlX0XdXlXjX6X5.@.Y.-XaX6X-XmXBX0Xb.b.b.Z.A.U.^.~.G.U.gX0X6XmXMXCXCXZXAXCXlXcXwXXXpXs.o.P O.(.iXaX9X+Xs.(./.{.}.R.A.E.~.~.H.~.mXsX6.} +..XaXaXq.6X",
"W y.-XY.7.;.&.&.d.h.f.oXoXA.;.g.:.lXlXwXjX0XwXcXcXzXAXCXcXhXaXhXaX6X5.O.d.,XdXqX-X<XmX4Xb.B.B.Z.OXT.).Q.K.T.wX0X6XmXmXCXCXAXAXcX6X0X7XN.8Xs.| d $.R.iXaX9X+Xf.T.).).}.oXk.Y.~.G.4.W.mXsX~.L.oX9XqXuX5./.",
"* $./.a.O.O.@.5.d.d.I..XoXh.O.e.w.kXlXkXjXaXgXzXCXcXAXAXzXaXaX0XaX+X9.L a.,XsX6X+X,XmXXXb.B.b.N.A.T.).Q.K.T.wX9XqXjXmXCXCXAXAXVX6X7XOXB.8X<.| | :.T.9XgX0X8Xf.d.^.!.}.h.B.I.W.G.4.W.sXuX1XsXjXaXqX-Xg.!.",
"  H ^.5.A I -.;.q.d.Y.OXoXU.@.;.N.kXzXlXjXaXgXzXCXCXAXNXaXjXpX6X9X.X8.I w.-XpX#XA.oX8XZ.b.B.b.B.s.U./.W.8.T.7X9XpXjXMXNXNXAXAXcX9X7X7XN._.@.X.} N.(.8XaX9X9X7.e.).~.>Xa.1.d.W.G.G.W.sXiXsXsXaXaX+XT.f._.",
"% ,.).=.0 p $.:.;.h.T.oX.Xf.1.O.N.dXkXwXkXkXzXcXCXCXAXjX9XaX8X6X7XU.u.M =.R.fX9XZ.Z..XN.b.w.B.B.Z.s.Y.W.G.T.7X0XpXjXmXMXNXAXCXcX9X#XwXXX_.;. .%.B.6X9X0X#X9Xq.e.}.{.{.U.b.Y.~. XG.W.pX8XsXpXqXpX6Xh.s.iX",
"` d./.=.q q T L ;.h.f..X.Xh.1.U s.sXdX0XgXjXNXCXCXCXAXMXoX8X-X6XOXf.9.h U t.8X9XB.b.Z.N.B.B.z.B.B.q.Y.K.4.+X4X7XpXdXmXmXNXAXCXMX#XA.9X#XuX+.| | #.7XaX7X+X6Xt.U.,X{.>XU.b.d.~.G.G.~.uXiXdXiX7XaXpXoXf.8X",
") d./.:.Z i U L 7.s.s.A.A.s.-.g P 1X<XlXgXkXNXCXAXAXAXjXh.qX,X6X.Xs.u.T T =..X#Xb.z.N.B.b.x.S x.B.w.`.K.4.+X4X4XdXdXjXMXCXAXCXMXoXN.7X7XuXU G a R 4X7X7X7X+XA._./.{.>Xf.#.a.W.G.G.~.pXiXdXaX7XhXdXqXoXaX",
"F e.Y.a.I 0 A @.q.s.e.t.h.a.O.w P 1XfXlXaXzXCXCXFXAXCXjXj.pX1X+X.Xs.g.$.U $.A.XXR ) N.N.x.E i R b.:.P.K.8._.7XeXkXdXpXjXCXCXVXMXqXOXwX7X,XJ P s T 4X4X7X7XqXR._._.>X{.U.c.a.G.G.G.~.9XaXkXaX9XlXdX0XqXlX",
"F ..u.T.$.0 I w.s.s.e.q.h.r.L %.5.,X0XlXaXkXCXCXFXCXCXVXh.pX<X-XoXs.7.D S $.XXS.R ) B.b.b.i i z.N.q.d.K.3._.5X5XaXaXiXjXCXCXCXNX7XXX0X9X8XB s a #.4XS.#XeXaX,X,X_.>X}.I.$.e.G.4.4.~.oX7XdXpX0XhXjXpXE.0X",
"c.I.'.I.:.0 L r.f.f.a.,.t.@.U &.9.aX5XlXdXkXNXCXFXZXCXNXU.8X<X-XR.t.X.% i S S.S.R x.b.z.z.q D x.N.r.P.i.8.T.%X%XaXpXiXkXjXcXjXMXqXXX9X9X8XB g 2 #.4Xn.S.4XaX8X,X/.)._.s.E q.4.4.4.W.+X#XpXsXiXhXdX8X9.oX",
"` /.[.~.e.M O.a.s.g.a.q.w.-.U &.*.7X%XeXnXkXCXAXGXAXMXmX;X8X<X-XT.f.K   $ % V.S.z.( ( ( ( q S z.-.q.d.8.6.T.C.%XaXaX9XaXkXzXjXMXpXOX7X9X8X+.P f R %Xv.S.4X0X(.,X_.).).h.) y.p.} 3.W.+X.XaXjXaXgXdX8Xd.9X",
"Q k.[.[.d.U T d.w.t.a.<.$.#.A *.%.%XM.5XdXaXdXMXGXAXmXmX8X6X<X_.(.T.G       c.b.x x R S x p p ( $.w.d.8.6.U.n.F.0XaX6X6XaXlXkXjXaXS.XX9X8Xq.d d R %X' D.%X7X_._._./.Y.U.c.k.p.4.3.W.R..X7XkXhX0XjXaXY.T.",
"$ 2.[.~.u.I I j.w.q.e.<.O.#.Z X.X.C.' &XpX6X+XpXMXCXdXmX-XU.,X/.oX(.X.o $ . D ) i D Z i q p p S b.r.d.6.6.A._ ' 5XaX+X#X0X4XaXjXpXN.XX0XaXf.d { :.C.] n.%XeX(._._.Y.u.f.c.q.4.3.6.K.(.S.C.tXaX0XdX8X(.(.",
"  K ).!.e.A Z a.r.:.=.#.U R z ..=.v.* ) 7XU.U.R.sXMX8XsX,X+XpXR.U.T.7.0 $   ^ ) ^ i z i Q q % D B.N.d.6.6.S.Q W D.9XoXXX4X4XgXjXdXXX$X9XaXf.6.} r.D * M.*X5X(.(./.Y.d.t.) y.l.3.8.K.+XR * M.lXhXdX8XU.8X",
"c ,.~.!.u.U Z s.;.#.T R S i i L :.m.$ R qXT.R.U.-XnX+X-XsXjXsX(.I.I.6.y   . q / D Z U i x q q ( b.s.g.>.*.S.W $ V.+XR.XX%X%XwXaXpXXXXX0XaXT.6.} e.I & =X=XD.(._.Y.P.L.s.` 2.G.3.4.K.+X) = m.gXlXjX6Xj.E.",
"c.k.!.).K.X.h e.B Z U R A Z i L w.m.W c.8X(.+XU.(.mXR.L.fXkXpX+XXXoXu.r = . & Q z S R i i D z.x.r.U.d.| } A._ ! N.R.R..X&Xn.4XqXpXA.4X7XqXT.K.3.e.b.M.UX=Xc.I.Y.Y.L.u.w.) @.l.} 3.K.f.m.' D.dXdXcXpXR.U.",
"y.e.K.Y.'.q.A <.y Z I R I S i ..t.m.Q _ A.,X-XU._.mXT.d.-X8X9XoXoXoXp.y * . & c z A R Z 0 ( w.A.A.T.K.{ { j.` _ Z.R.U.D.M.~ m.7XaXA.oX4X+Xq.i.3.L.A.yXUXyXm.U.g.L.P.5.../ R 3.s } K.;.m.m.4XaXhXcXkX+XU.",
"2.9.p.'.'.e.O.r.I I R $.O.U i O.w.c.v.M.S.8XuX(.(.pXd.0.T.(.pX(.(.(.8.0 * $ * k Q U $.S 0 D $.w.$.q.&.| { h.m.` Z..Xs.n.' - ! D.6XN.A..X.XB *.} d.S.D.eXC.v.T.u.Y.Y.u.,./ F } f } K.h.V.C.4XdXkXcXkX+Xd.",
"2.d.K.Q.^.L.d.d.O.I U #.;.R r O.x.m.tXyXD.t.B.A.8XpXh.e.U.9XpX(.(.(.*.$ * $ ! ' Q R -.#.( ( -.R 0 Z B G { h.m.) N..XN._ - [ - ) A.$.c.Z..X$.>.{ g.N.n.C.` ` U.u.Y.`.u.q.x D } s >.p.T.S.D..XaXcXcXkX8Xf.",
",.9.p.'.^.^.Y.d.O.U $.c.w.$.r L #.m.m.*Xv.$.) B.8XjXU.d.I.pXpX8X8X-XX.0 0 * =XUX' O.q.s.b.z.-.$.S #.+.g s U.V.c.S..XN.q - [ [ ! V.D -._.(.r. .d 9.t.n.=X] ` d.d.Y.P.p.7.Q x } N K 8.R.XXS.U.0XlXcXaX8XI.",
"=.&.6.K.'.Q.'.P.L U #.) y.#.i L #.n.` ` v.R z.<.8XjXs.a.d.8XuX-XiXU.K S z.q M.IX_ $.q.f.B.N.x.$.R $.X.4 a f.B.c.N.t.N.x - = - Q V.-.-X>XI.d. .d &.t.m.] ] _ h.L.g.g.d.0.Q c | a n 4.(.7XXXU.9XlXzXkX6Xf.",
"T *.6.p.p.K.u.P.q.;.#.z 2.@.i O.#.C.C.tXD.U ) -.8XjXt.a.d.-X8X+X.X:.g Z b.q W ! Q $.%.r.y.s.=.$.F B %.s 4 a.Z.z.b.<.<.` =   = ` S.N..Xh.a.g.%.n { q.` ; ; ~ j.P.7.e.6.5.q q >.j >.K.8X7X4X6XaXlXlXlX8Xd.",
"V =.u.6.u.u.6.P.Y.s.I % $.q.r L #.%X%XbXeX1.$.U.MXjX-.s.A..Xs.Z.f.=.N A <.i Q ` _ O.X.;.<.r.t.c.x O.e.d 4 h.A.) R -.<.v.~ _ M.C.A.#.z E q.;.>.n  .e.` IXIX! t.L.5.9.5.7.c & | N >.p.+XoXh.8XaXzXzXzXqXI.",
"M ..a.*.5.9.>.u.Y.r.r o I q.M H =.7XeXwXXX.Xf.,XpXjX,.f.c.( R <.s.1.j T -.0 ^ n.c.O.&.,.:.=.-.R % y.d.| 4 U.y.Z $.w.w.c.v.F.%XD.E.R o z y.O. .{ X.y.v.UXUX' y.e.5.e.5.;.z   n { | 8.E.;Xj.;XdXjXCXcXpXE.",
"m K 0.5.6.&.K 5.a.q.0 . M @.I L w.lXwXwXlX7XR.sXsXjX<.q.S = F B.<.@.d ;.w.% z b.c.@.;.=.=.;.=.r # =.L.*., s.Z.D R B.#.b.C.C.C.Z.U.$.. r j.$.K d %.A.m.M.=X_ N.u.5.*.&.&.l   | b | 6.E.8X(.8XsXjXcXjX8X(.",
"B L &.*.5.*. .&.u.q.i % M q.O.X.q.lXwXcXCXkXNXjXfXjX,.e.1.` c.b.<.:.P 0.@.# z V.b.1.=.B D T T x z =.Y.6.s w.S.E R B.b.b.b.C.m.t.U.A $ 0 <.+.G s P .XC.~ ~ ~ Z.9.&.*.5.*.V 0 >.n  .6.-X-X-XuXsXpXjXjX8XE.",
"9 G X.5.*.*.%.&.a.+.z q L a.=.o.,.cXcXvXcXqXMXjXuXjXq.q.q.V.b.b.w.,.a &.@.$ R %XV.<...Z q x r q z L L.6.s -.V.z.$.-.b.B.B.D.b.q.I.h & i S =.K 2 4 U.%X' ] ' V.*.%.*.5.*.T A } K { *._.-X(.8XpXpXkXjXpXE.",
"w L *.9.>.| P &.9. .y i T a.=.| ;.bXZXvXvX4XsXjX8XdXe.e.a.N.b.c.w.,.s ..+.o F S.V.;.=.^ * q 0 S z B u.>.t O.b.#.R :.B.C.V.V.N.s.U.:.i T 1.O.K 2 4 s.%XM.` _ N.%.o.%.%.>.L J { 3.n >.-X-XE._.,X,X-X,X,X;X",
"t ..*.5.>.G G ;.5.X.Z Z O.d.&.P q.lXcXcXvXoX6XjX6X8Xr.e.h.w.c.z.c.@.v  .J o #.S.B.,.=.` k i h I M B 5.>.a @.b.b.-.w.S.V.B.D.XXh.I.U.y @.$.Z P 6 g h.D.v.` ` y.%.%.%.%.>.| a { 4.{ >.-X-XY.Y.,X-X/./.(.E.",
"t P X.%.>.| G *.o.L 0 E T j.X.G q.0XzXcXvX4Xh.kX8X-Xj.q.f.1.#.z.) T a K V % b.A.<.=.&.1.A $.O.L J w >.n 2 I b.b.<.<.S.S.S.5X4XoXU.h.r =.O.A G 6 b a.S.v.v.v.k.0. . . . .| a } 3.d  .-X_.Y.(.fX,X_./.I.E.",
"m G >.%.o.K J L X.9 o E T t.O.h ,.0XlXcXvX7Xj.-X-X-Xh.;.e.,.#.R ) A 4 M m r w.Z.1...%.&.T $.&.X...N >.n 4 I z.c.=.#.N.S.S.D.4X6XY.h.I :.U J  .f b a.A.m.m.c.a.9.K K  .| n b { 3.f { -X/.E.R.8X-X_.Y.d.E.",
"t a | *.o.| I Z V $ o I O.q.L 3 O.qXkXvXvX4XU.(.(.R.h.;.q.,.#.R R A 3 g N A N.Z.-...=.;.#.=.%.P K K >.n , S z.$.I D m.S.S.m.XXA.E.s.A @.I J K s | e.A.m.b.c.e.6.d G b K b v } 3.f { _.(.U.f.(.E.E.p.a.d.",
"N 4 G ..| | J z r     y ..y.A 3 G 0XzXvXvX4Xh.R.E.R.E.,.q.<.#.E $.V 3 5 N E V.V.#.$.=.q.:.;.o.G ....| K , A c.z.i q m.S.V.z.V.N.h.t.M #.O.w a s b ;.N.b.b.b.e.5. .P s | s 6 { } d { (.E.d.a./.Y.9.9.a.a.",
"v b P J | o.V i l   . % +.j.A 9 N 0XcXvXvX4Xh.(.U.R.+Xe.<.1.$.Z R L > t M I V.y.#.@.=.7.X.X.o.K .... .n : y $.R Z q z.N.b.) _ ) t.q.I $.@.M t a 4 +.y.b.V.b.,.6.| b { *.s 2 s } d { Y.I.a.q.E.d.&.a.9.0.",
"v b | .. . .V Q z o   8 O.h.I 9 t 7XzXcXvX4Xh.-XE.(.;Xw.:.:.$.A O.J > 5 m V N.q.O...=.;.L ..| G K  .| b @ r S Z T ^ / b.V.v.Q ) w.e.O.O.+.L t 5 3 O.y.V.V.1.&.0.b s | q.b a d d f { d.I.a.=.E.a.&.d.5.0.",
"K K | ..G | H Q r o   t ..I.L 5 t 4XlXcXzX7Xh.;Xd.R.(.,.;.,.$.A 1.Y 3 N N V w.,...| o.X.L o.| P P P | b # r A z T ^ Q z.b.v.k ) B.e.L O...V w a 4 B #.N.b.#.X.;.d a b =.b v d a 2 n a.I.9...E.e.o.a.*.;.",
"K K | P 4 L V & 0 #   y X.h.B 3 t 4XlXzXkXeXh.R.U.E.R.w.+.:.O.Z -...2 N 5 J ,.:.+.....X.o.| n  .K ..| s < r S Z R ^ Q ) b.c.Q ) w.q.T O.$.I e a a B R B.B.b.X.@.| s s | s a n 2 2 d &.a.0...U.q.H q.X.,.",
"G a K K 9 Z I & % # o M +.j.l 3 g h.0XlX0XwXA.8X8X(.R.:.L =.=.I #...4 N 5 J ,...Y ..X.X...K K | K K s f < z O.M O.i Q ^ c.c./ c.#.+.L Y L L g 4 s B I y.N.w.=.$.X.b v s a s { 2 2 b &.9.0...d.&.G &. .e.",
"K a g N g r z * $ o % m K e.Z 3 t k.qXqX4XqXA.-X-X;XE.$.J O.+.O.#...a H g C 2...J Y ..$.I K b P P ..G s , I #.A I k ^ / z.z.) ) ^ L J A V m w 2 g V T y.y.1.X.&...G a a s b n > 7 n e.5.*.o.9.&.K 5.*.9.",
"G G 5 4 H M r $ * % % m H e.m 3 w y.4X4XR.6XB.E.;X;XE.$.I O.O.O.<.K 4 L G L ,...G J  ./ D P s G K o.b s 6 I 1.I A k / ) z.) ( Q ^ +...S z 0 : > a B T <.w.O...&.V N N v s s d < O d q.*. .#.&...N &.5.9.",
"G G 5 3 N T l * * 8 o m N =.y t w :.j.j.h.;X+.e.;X;XE.$.O.:.@.L =.J a L N T <...H J ..) ( N N G  . .5 6 2 T #.R z k ( z.v.) / Q ^ +.X.Z z 0 : > 2 B T <.y.O.L O.I g 5 5 a a f < O b &.|  .U @.J g X.%.q.",
"G a 3 1 m O.m 0 q 9 $ M ....y w 3 =.,.,.s..X$.+./.-XE.@.O.X.L J 1.=.6 L a ..1...G L  .-.( a v G *...a a 2 l E R i W ( c.c.) D Q ^ T L y z i : > a B I 2.j.@.J D D t w > > s 4 > > b o.G o.L K N K ..%.5.",
"G a 3 : e J t 0 p e 0 y ..O.r 9 : Y +.q.h.oXb.R d.(..X#.T L J O.1.,.4 X.4 i O.H v H P #.S N N N 9.=.m 6 > y M E D Q ) z.b.c.( ^ Q T L i z q @ O 5 J T @.j.=.J D x e t , < 6 a , 2 a K  .o.J P w t Y =.;.",
"..m 1 : y V e % $ t M e L ..0 e o V q.y.j.E.=.t +.s.s.-.L J +.O.,.,.2 X.w & I N g K v $.S N 5 g +.$.y 2 > M I Z c W ( z.b.b.( / k I U q q 0 < X 3 V T O.k.@.m x c 9 5 3 , 4 4 3 4 a v o.&.M A e 9 T =.=.",
"o.5 : @ V V e % $ m y m O.O.r 0 # M q.,.j.j.=.4 B @.y.<.@...@...,.=.> X.t ^ U G N H N O.E m t a I ^ r 6 , A E z q q ( c.c.b.R ( Q T A & x e O X > m I I y.@.M z x 9 3 B m , 2 3 > > a  .*.V S T , J ..L ",
"N N : o ..K l 0 * t w B T T y 8 9 N ..=.h.h.;.N m B <.y.q.=.=.q.q.,.3 +.m ( S H N m g +.E t 4 w m S 0 > < ..$.D q W ) z.c.z.R ) / M 9 & q B < X 2 m L L y.=.V r D t 5 a a 2 6 6 < < 4 K t M E L , g L U ",
"B H 9 : o.K M 8 $ 9 9 9 I Y r @ w B @.y.h.h.&.N e M w.t.a.q.;.t.<.,.3 +.B / z m a t t $.E 4 t 1 e ^ c , O ..O.z q Q ) c.c.( S ( ^ M A ^ q V < X > N ....,.=.V r D t a 5 4 < > , : O 5 K 9 r S B @ e A A ",
"@.H 9 e L P Z 8 $ % @ 8 R J g , : Y e.y.h.t.+.h 0 A j.,.t.q.q.S.B.@.3 +.Z _ x m h e e #./ t t 9 r Q x 3 @ J O.D W ^ ) z.z.( / / ( M I v.Q V @ X O 5 X...=.=.K t D g 6 2 > > 2 , > O b &.g V ,.g o 9 I B ",
",.K @ 9 J H A 8 $ % # 9 $.J H a 9 +.a.;.a.;.O.V l S h.q.a.=.a.(.a.=.4 L Z / ^ M m 0 t #./ B 5 r r Q r a < l I z W ^ ( E ) ( ) / Q B A ) _ J + X + > o...=.;.o.A D N 5 < O > 6 , < O K o.g O.q.e   o y B ",
"0...# @ N N G : $ % # : $.K O.H 9 T q.@.,.;...G 9 z t.e.d.=.q.-XE.=.: J I ( z m t : 5 z.( Y t r 8 Q r , # t L z k W E E ^ ( ( Q c I O./ ^ o.X . X < | o.,.;. .J M t 6 O O < > < @ X C a t T =.0   $ D y ",
"X...9 w H g N : % $ o 9 O...=.Y q T &.$.T $.Y w % x y.q.e.1.y.8X(.;.< T A F Z g g , t #.( M m e % c r 9 @ m V q ! W z F ^ F E x W O.@.Q D o.X . X @ K  .+.2.Y A q 9 < O @ < 3 3 O X C 5 9 $.E 0 % % Z y ",
"X.G 4 5 G 5 N : $ @ 1 : V B E K i $.O.E m y J e % c 1.O.+.O.w.-X-Xe.< ..I S D 5 3 , e T / 9 g 9 8 r 9 : , B A q _ q z x Q F R x c T <._ ^ ..X . o @ n | %.2.J D & 1 > 7 O > < 2 < X m t e A S 0 % r D h ",
"O.J 4 g 4 3 N : % w N N O.e q J 1 ..L l w r J t @ r T g J J O.h.,Xa.< ..M S D 1 , : 9 m ^ : h 3 % q 0 @ , A l z Q & x x Q x F F Q I <.( x w X . o + a G ..2.Y Z q t 3 @ O 2 > 6 O X m L l B J r 8 x ` y ",
"E J 3 N 3 : m : % e m ..=.B * V < Y I l t V H g : i I e A I L q.-Xe.@ Y M Z F 1 1 1 9 B c : t e 9 0 r @ : $.l z Q & & c / x F F Q D B.z.D % X .   o 4 N H 2...z q 9 5 # < 3 6 5 + X J X.M l A z w r Q M ",
"A I 0 m t % w @ @ w m L =.J $ e , G J J m V J V @ q ( e A I L 1.h.e.: L J T $.9 1 1 9 M i : B l 9 r I g : #.A r q & $ q F x F F q q 1.t.c.% . . o o 3 g t O.Y Z q # 4 < > 5 4 a # . N o.C l E r e , % z ",
"V 2.w D M % : @ 8 9 9 J q.Y $ # < a Y L H X...L @ q ( B O.Z L q.a.q.: V T O.#.: 1 1 @ M S : V 0 9 r z B + #.z 0 q & $ c D z / F A $ D t.) $ . .   # < w l I K Z r @ 3 > < 5 5 3 X . b  .G M S @ 9 : 0 r ",
"I ,.t F e @ @ 5 e # p =.a.@.#   O a  .o.%.e.;.2.: % @...@.Z U y.a.@.# Y T Y <.w w @ + t E e M @ 9 y 0 9 + R % $ q * % D F F ( D E & x O.% &   .   o @ w e J Y B 0 , > < @ > @ 3 X . v ....A x % 9 : 8 0 "
};
