/* XPM */
static char * pill_xpm[] = {
"351 118 8586 3",
"   	c None",
".  	c #DB9595",
"+  	c #DB9794",
"@  	c #D38C8A",
"#  	c #D78686",
"$  	c #D87B7C",
"%  	c #D3696B",
"&  	c #D46162",
"*  	c #CC4D4F",
"=  	c #CB4648",
"-  	c #D04548",
";  	c #D54646",
">  	c #DE4A42",
",  	c #DC473C",
"'  	c #D94438",
")  	c #D84238",
"!  	c #D8423A",
"~  	c #D84339",
"{  	c #D94338",
"]  	c #D84239",
"^  	c #DB4338",
"/  	c #DC4238",
"(  	c #DC4139",
"_  	c #DD4139",
":  	c #DD4138",
"<  	c #DE403A",
"[  	c #DD4039",
"}  	c #DB4039",
"|  	c #DC3F39",
"1  	c #DD413A",
"2  	c #DD403A",
"3  	c #DC403A",
"4  	c #DD413B",
"5  	c #DC403B",
"6  	c #DC413A",
"7  	c #DC3F3A",
"8  	c #D8423B",
"9  	c #D6443C",
"0  	c #D94740",
"a  	c #DE4D45",
"b  	c #E15048",
"c  	c #E25048",
"d  	c #E04F48",
"e  	c #DE4E47",
"f  	c #DF5147",
"g  	c #DE4F46",
"h  	c #E05048",
"i  	c #DF5148",
"j  	c #DF5048",
"k  	c #DE5148",
"l  	c #DE5047",
"m  	c #DE4E46",
"n  	c #DF4F48",
"o  	c #DE4F47",
"p  	c #E05149",
"q  	c #E14F48",
"r  	c #E04F47",
"s  	c #E24E48",
"t  	c #E34E46",
"u  	c #DE4842",
"v  	c #D9433E",
"w  	c #DB423E",
"x  	c #DA413C",
"y  	c #DB413C",
"z  	c #DC4138",
"A  	c #DB4139",
"B  	c #DD423A",
"C  	c #DC423A",
"D  	c #DC4239",
"E  	c #DA4037",
"F  	c #E0473F",
"G  	c #E24C46",
"H  	c #E14D47",
"I  	c #E14E48",
"J  	c #E14F49",
"K  	c #E24D47",
"L  	c #E14A45",
"M  	c #DD4742",
"N  	c #DA443E",
"O  	c #DB443D",
"P  	c #D9423D",
"Q  	c #D9423C",
"R  	c #DB443F",
"S  	c #E14B46",
"T  	c #E34D47",
"U  	c #E14D46",
"V  	c #E14E47",
"W  	c #E15049",
"X  	c #DD4E46",
"Y  	c #E04E47",
"Z  	c #DE5048",
"`  	c #DD4F47",
" . 	c #DE5044",
".. 	c #E05145",
"+. 	c #DE5146",
"@. 	c #E2544B",
"#. 	c #E3584D",
"$. 	c #E35750",
"%. 	c #E35751",
"&. 	c #E45751",
"*. 	c #E35850",
"=. 	c #E35950",
"-. 	c #E35951",
";. 	c #E25950",
">. 	c #E25A50",
",. 	c #E25A51",
"'. 	c #E35A50",
"). 	c #E15950",
"!. 	c #E15951",
"~. 	c #E25951",
"{. 	c #E35A51",
"]. 	c #E25851",
"^. 	c #E3584F",
"/. 	c #E1584E",
"(. 	c #E2594F",
"_. 	c #E2584F",
":. 	c #E2584E",
"<. 	c #E45850",
"[. 	c #E3574F",
"}. 	c #DF544C",
"|. 	c #DA5148",
"1. 	c #DC5148",
"2. 	c #DC5249",
"3. 	c #DE564C",
"4. 	c #E25A4F",
"5. 	c #E15A4F",
"6. 	c #E05A50",
"7. 	c #DD594F",
"8. 	c #DC5C50",
"9. 	c #DD5D51",
"0. 	c #DD5D53",
"a. 	c #DB5B51",
"b. 	c #D65E58",
"c. 	c #D26965",
"d. 	c #DD7D77",
"e. 	c #DD837B",
"f. 	c #DA8079",
"g. 	c #DD7E7C",
"h. 	c #DC7C7C",
"i. 	c #D48C84",
"j. 	c #D27472",
"k. 	c #CB545A",
"l. 	c #D55353",
"m. 	c #DB5452",
"n. 	c #CE403E",
"o. 	c #CC3332",
"p. 	c #D53334",
"q. 	c #D32727",
"r. 	c #D11C1C",
"s. 	c #D21414",
"t. 	c #D61414",
"u. 	c #D91311",
"v. 	c #D9100C",
"w. 	c #E4170C",
"x. 	c #E41509",
"y. 	c #E21307",
"z. 	c #E31408",
"A. 	c #E5150A",
"B. 	c #E31308",
"C. 	c #E41307",
"D. 	c #E51308",
"E. 	c #E41308",
"F. 	c #E5130B",
"G. 	c #E3140B",
"H. 	c #E3130B",
"I. 	c #E2130B",
"J. 	c #E6140C",
"K. 	c #E5130C",
"L. 	c #E3150C",
"M. 	c #E01409",
"N. 	c #E2150A",
"O. 	c #E4190F",
"P. 	c #E41A0F",
"Q. 	c #E3180D",
"R. 	c #E71C11",
"S. 	c #E81E14",
"T. 	c #E71E13",
"U. 	c #E71F13",
"V. 	c #E71F14",
"W. 	c #E61D16",
"X. 	c #E61D18",
"Y. 	c #E71E18",
"Z. 	c #E81F19",
"`. 	c #E61D17",
" + 	c #E51C16",
".+ 	c #E61C12",
"++ 	c #E81D12",
"@+ 	c #E71D11",
"#+ 	c #E61910",
"$+ 	c #E81B12",
"%+ 	c #EA1D12",
"&+ 	c #E5170D",
"*+ 	c #E2130A",
"=+ 	c #E4130B",
"-+ 	c #E41309",
";+ 	c #E5140C",
">+ 	c #E4130A",
",+ 	c #E51509",
"'+ 	c #E9190D",
")+ 	c #EA1A0F",
"!+ 	c #E5160F",
"~+ 	c #E61813",
"{+ 	c #E91C16",
"]+ 	c #EA1E18",
"^+ 	c #EA1D18",
"/+ 	c #E91D17",
"(+ 	c #EA1C17",
"_+ 	c #E61713",
":+ 	c #E3130F",
"<+ 	c #E4130E",
"[+ 	c #E4140A",
"}+ 	c #E5140B",
"|+ 	c #E8170F",
"1+ 	c #E6180E",
"2+ 	c #E7180E",
"3+ 	c #E6180F",
"4+ 	c #E51810",
"5+ 	c #E31712",
"6+ 	c #E51915",
"7+ 	c #E81E18",
"8+ 	c #E81C17",
"9+ 	c #E71D18",
"0+ 	c #E61E18",
"a+ 	c #E71E17",
"b+ 	c #E61F13",
"c+ 	c #E71F12",
"d+ 	c #E61E11",
"e+ 	c #E82114",
"f+ 	c #E92216",
"g+ 	c #E82217",
"h+ 	c #E82117",
"i+ 	c #E92117",
"j+ 	c #EA2016",
"k+ 	c #EA2017",
"l+ 	c #E92018",
"m+ 	c #E72119",
"n+ 	c #E6221A",
"o+ 	c #E6221B",
"p+ 	c #E7231B",
"q+ 	c #E7231C",
"r+ 	c #E8241C",
"s+ 	c #E7241A",
"t+ 	c #E52216",
"u+ 	c #E52217",
"v+ 	c #E42216",
"w+ 	c #E52317",
"x+ 	c #E62418",
"y+ 	c #E72419",
"z+ 	c #E52117",
"A+ 	c #E22014",
"B+ 	c #E32015",
"C+ 	c #E51F15",
"D+ 	c #E72117",
"E+ 	c #E92319",
"F+ 	c #E92318",
"G+ 	c #E62319",
"H+ 	c #E9261A",
"I+ 	c #E52418",
"J+ 	c #E6251A",
"K+ 	c #E22117",
"L+ 	c #EC2C21",
"M+ 	c #E62F27",
"N+ 	c #D82C27",
"O+ 	c #DA332F",
"P+ 	c #D8332E",
"Q+ 	c #D9322E",
"R+ 	c #DC3331",
"S+ 	c #DA3032",
"T+ 	c #D53538",
"U+ 	c #D84C4C",
"V+ 	c #C85853",
"W+ 	c #D67971",
"X+ 	c #E29592",
"Y+ 	c #E9A1A4",
"Z+ 	c #EF6F6E",
"`+ 	c #E35E59",
" @ 	c #D44541",
".@ 	c #DC3538",
"+@ 	c #E41F2B",
"@@ 	c #E51A21",
"#@ 	c #E51C1D",
"$@ 	c #DE1113",
"%@ 	c #DA0709",
"&@ 	c #E10A0C",
"*@ 	c #E80C0C",
"=@ 	c #E40405",
"-@ 	c #E50303",
";@ 	c #E50301",
">@ 	c #E50300",
",@ 	c #E90602",
"'@ 	c #ED0506",
")@ 	c #EF0507",
"!@ 	c #EE0607",
"~@ 	c #EF0607",
"{@ 	c #F00607",
"]@ 	c #EE0608",
"^@ 	c #ED0709",
"/@ 	c #EB0807",
"(@ 	c #EB0805",
"_@ 	c #EB0704",
":@ 	c #EC0805",
"<@ 	c #ED0705",
"[@ 	c #EF080A",
"}@ 	c #EE0609",
"|@ 	c #EE0509",
"1@ 	c #F0080B",
"2@ 	c #EF060A",
"3@ 	c #ED0508",
"4@ 	c #F0090C",
"5@ 	c #F20B0E",
"6@ 	c #F20A0E",
"7@ 	c #F30C0E",
"8@ 	c #F00C0D",
"9@ 	c #F00D0C",
"0@ 	c #F10D0C",
"a@ 	c #F00C0B",
"b@ 	c #EF0C0B",
"c@ 	c #F20E0D",
"d@ 	c #EE0A0A",
"e@ 	c #EE090B",
"f@ 	c #F00B0D",
"g@ 	c #EF0B0D",
"h@ 	c #EE080B",
"i@ 	c #F30A0D",
"j@ 	c #EC0407",
"k@ 	c #ED0408",
"l@ 	c #F0050A",
"m@ 	c #EF0408",
"n@ 	c #EC0606",
"o@ 	c #EE0705",
"p@ 	c #ED0706",
"q@ 	c #EC0807",
"r@ 	c #ED0707",
"s@ 	c #EC0707",
"t@ 	c #ED0808",
"u@ 	c #EC0808",
"v@ 	c #F20E0E",
"w@ 	c #F10B0B",
"x@ 	c #EC0605",
"y@ 	c #EE0806",
"z@ 	c #F10B09",
"A@ 	c #F20D0B",
"B@ 	c #F10D0A",
"C@ 	c #F30D0B",
"D@ 	c #F10B0A",
"E@ 	c #EF0707",
"F@ 	c #EF0605",
"G@ 	c #F20808",
"H@ 	c #F00509",
"I@ 	c #F00409",
"J@ 	c #F10509",
"K@ 	c #EF0308",
"L@ 	c #EF0409",
"M@ 	c #EE0508",
"N@ 	c #EE0507",
"O@ 	c #F00A0A",
"P@ 	c #F20B0B",
"Q@ 	c #F20C0B",
"R@ 	c #F30B0B",
"S@ 	c #F10C0B",
"T@ 	c #EF0B0A",
"U@ 	c #F40D0F",
"V@ 	c #F20C0E",
"W@ 	c #F00A0C",
"X@ 	c #F00B0E",
"Y@ 	c #EF0B0E",
"Z@ 	c #EE0C0E",
"`@ 	c #EE0B0F",
" # 	c #EE0C0C",
".# 	c #EE0C0B",
"+# 	c #EF0D0B",
"@# 	c #EF0C0D",
"## 	c #EE0B0E",
"$# 	c #EF0C0F",
"%# 	c #EF0C10",
"&# 	c #EE0C0F",
"*# 	c #ED0B0E",
"=# 	c #EF0D10",
"-# 	c #ED0C0F",
";# 	c #ED0C0E",
"># 	c #EC0D0E",
",# 	c #EB0D0F",
"'# 	c #EC0F0F",
")# 	c #E70D0C",
"!# 	c #EA100F",
"~# 	c #F11716",
"{# 	c #F21716",
"]# 	c #EB0D0E",
"^# 	c #E70909",
"/# 	c #E60707",
"(# 	c #EA0808",
"_# 	c #E90607",
":# 	c #E60709",
"<# 	c #E00A0C",
"[# 	c #E21E1C",
"}# 	c #D7241F",
"|# 	c #D83531",
"1# 	c #DA4342",
"2# 	c #E25658",
"3# 	c #EC6D6D",
"4# 	c #E37473",
"5# 	c #EC908C",
"6# 	c #F2ABA5",
"7# 	c #EFBBB5",
"8# 	c #CE726F",
"9# 	c #CB4747",
"0# 	c #D72D2E",
"a# 	c #E82A2A",
"b# 	c #DB1E1A",
"c# 	c #D5150E",
"d# 	c #E00E0C",
"e# 	c #F0060D",
"f# 	c #EF070B",
"g# 	c #EA0809",
"h# 	c #EC0609",
"i# 	c #EF0205",
"j# 	c #F10105",
"k# 	c #F10005",
"l# 	c #F40308",
"m# 	c #F30308",
"n# 	c #F10206",
"o# 	c #F20407",
"p# 	c #F20204",
"q# 	c #F20305",
"r# 	c #F10103",
"s# 	c #F10204",
"t# 	c #F20104",
"u# 	c #F30205",
"v# 	c #F40306",
"w# 	c #F40305",
"x# 	c #F40204",
"y# 	c #F40103",
"z# 	c #F50204",
"A# 	c #F70407",
"B# 	c #F60305",
"C# 	c #F70406",
"D# 	c #F50306",
"E# 	c #F40205",
"F# 	c #F50405",
"G# 	c #F50406",
"H# 	c #F40405",
"I# 	c #F30406",
"J# 	c #F30405",
"K# 	c #F20304",
"L# 	c #F40506",
"M# 	c #F30506",
"N# 	c #F30505",
"O# 	c #F20506",
"P# 	c #F20203",
"Q# 	c #F30304",
"R# 	c #F50305",
"S# 	c #F30102",
"T# 	c #F30104",
"U# 	c #F30204",
"V# 	c #F70507",
"W# 	c #F20103",
"X# 	c #F30404",
"Y# 	c #F30503",
"Z# 	c #F10403",
"`# 	c #F00402",
" $ 	c #F30604",
".$ 	c #F20402",
"+$ 	c #F20302",
"@$ 	c #F30302",
"#$ 	c #F40202",
"$$ 	c #F50304",
"%$ 	c #F30103",
"&$ 	c #F20102",
"*$ 	c #F40203",
"=$ 	c #F60205",
"-$ 	c #F40304",
";$ 	c #F50205",
">$ 	c #F20405",
",$ 	c #F40404",
"'$ 	c #F40307",
")$ 	c #F30306",
"!$ 	c #F30307",
"~$ 	c #F30305",
"{$ 	c #F10104",
"]$ 	c #F10205",
"^$ 	c #F00304",
"/$ 	c #EE0102",
"($ 	c #EE0302",
"_$ 	c #ED0402",
":$ 	c #EF0503",
"<$ 	c #EF0403",
"[$ 	c #EF0506",
"}$ 	c #F00508",
"|$ 	c #F20606",
"1$ 	c #F30706",
"2$ 	c #F00502",
"3$ 	c #EE0602",
"4$ 	c #EB0601",
"5$ 	c #EC0907",
"6$ 	c #E80605",
"7$ 	c #E70707",
"8$ 	c #E51010",
"9$ 	c #E41B19",
"0$ 	c #E32928",
"a$ 	c #D62F2D",
"b$ 	c #D64948",
"c$ 	c #D76562",
"d$ 	c #D47B79",
"e$ 	c #D59191",
"f$ 	c #E3AEB0",
"g$ 	c #D56C6F",
"h$ 	c #C95455",
"i$ 	c #C03233",
"j$ 	c #CC1F22",
"k$ 	c #DD1518",
"l$ 	c #DD0B0B",
"m$ 	c #D50A02",
"n$ 	c #D80F03",
"o$ 	c #E10902",
"p$ 	c #F00203",
"q$ 	c #EE0404",
"r$ 	c #EF0304",
"s$ 	c #F60206",
"t$ 	c #F40004",
"u$ 	c #F30005",
"v$ 	c #F20105",
"w$ 	c #F10102",
"x$ 	c #F10101",
"y$ 	c #F20202",
"z$ 	c #F30303",
"A$ 	c #F50302",
"B$ 	c #F60202",
"C$ 	c #F60102",
"D$ 	c #F60103",
"E$ 	c #F50103",
"F$ 	c #F50004",
"G$ 	c #F40104",
"H$ 	c #F50106",
"I$ 	c #F60106",
"J$ 	c #F60003",
"K$ 	c #F60004",
"L$ 	c #F70206",
"M$ 	c #F70205",
"N$ 	c #F70103",
"O$ 	c #F70302",
"P$ 	c #F70201",
"Q$ 	c #F60101",
"R$ 	c #F50100",
"S$ 	c #F60201",
"T$ 	c #F60203",
"U$ 	c #F50203",
"V$ 	c #F60304",
"W$ 	c #F30401",
"X$ 	c #F30301",
"Y$ 	c #F40201",
"Z$ 	c #F60403",
"`$ 	c #F70305",
" % 	c #F60204",
".% 	c #F60105",
"+% 	c #F60001",
"@% 	c #F80203",
"#% 	c #F70102",
"$% 	c #F40403",
"%% 	c #F20201",
"&% 	c #F20301",
"*% 	c #F10100",
"=% 	c #F50101",
"-% 	c #F60302",
";% 	c #F40100",
">% 	c #F50201",
",% 	c #F50301",
"'% 	c #F40002",
")% 	c #F40102",
"!% 	c #F50300",
"~% 	c #F80302",
"{% 	c #F70303",
"]% 	c #F50102",
"^% 	c #F40101",
"/% 	c #F30201",
"(% 	c #F40001",
"_% 	c #F50202",
":% 	c #F60404",
"<% 	c #F30101",
"[% 	c #EF0106",
"}% 	c #F20408",
"|% 	c #F10203",
"1% 	c #EE0501",
"2% 	c #EF0501",
"3% 	c #FB0106",
"4% 	c #EF0405",
"5% 	c #ED1010",
"6% 	c #E41616",
"7% 	c #D81E1D",
"8% 	c #CD2524",
"9% 	c #CC3637",
"0% 	c #D05052",
"a% 	c #D26668",
"b% 	c #D87D7D",
"c% 	c #E69E9E",
"d% 	c #CF6468",
"e% 	c #DB4C50",
"f% 	c #CE2E30",
"g% 	c #CE2C2B",
"h% 	c #CF1D20",
"i% 	c #CC0F11",
"j% 	c #D10B0D",
"k% 	c #D60B0D",
"l% 	c #D50908",
"m% 	c #D00D05",
"n% 	c #D01004",
"o% 	c #DC0B03",
"p% 	c #F30203",
"q% 	c #EF0303",
"r% 	c #F10303",
"s% 	c #F20205",
"t% 	c #F50206",
"u% 	c #F10301",
"v% 	c #F40005",
"w% 	c #F50005",
"x% 	c #F60007",
"y% 	c #F40107",
"z% 	c #EE0909",
"A% 	c #E90909",
"B% 	c #E5090A",
"C% 	c #E40F11",
"D% 	c #E11A1D",
"E% 	c #DC2B2B",
"F% 	c #D63B37",
"G% 	c #D14E48",
"H% 	c #C56462",
"I% 	c #CC8483",
"J% 	c #DAA6A6",
"K% 	c #CF4650",
"L% 	c #BD2D30",
"M% 	c #CD2221",
"N% 	c #E11C17",
"O% 	c #E10E0C",
"P% 	c #E6080E",
"Q% 	c #EF0711",
"R% 	c #F20811",
"S% 	c #ED040B",
"T% 	c #EA0308",
"U% 	c #E70206",
"V% 	c #DD0906",
"W% 	c #DA0C06",
"X% 	c #E00906",
"Y% 	c #F00105",
"Z% 	c #F20003",
"`% 	c #EF0504",
" & 	c #EF0302",
".& 	c #F20005",
"+& 	c #EF020A",
"@& 	c #E90A12",
"#& 	c #DC0D13",
"$& 	c #CE0E14",
"%& 	c #CB1A23",
"&& 	c #C72832",
"*& 	c #CF424E",
"=& 	c #DE6372",
"-& 	c #DF7486",
";& 	c #C94644",
">& 	c #CA3033",
",& 	c #CB2425",
"'& 	c #D21F1C",
")& 	c #D91209",
"!& 	c #E70E02",
"~& 	c #F10D04",
"{& 	c #F00707",
"]& 	c #F10408",
"^& 	c #F20709",
"/& 	c #ED0607",
"(& 	c #EF080B",
"_& 	c #E40B09",
":& 	c #DC0C08",
"<& 	c #DE0907",
"[& 	c #EC0309",
"}& 	c #F00106",
"|& 	c #F00104",
"1& 	c #F00103",
"2& 	c #F10302",
"3& 	c #F20101",
"4& 	c #F00300",
"5& 	c #ED0400",
"6& 	c #ED0500",
"7& 	c #EF0400",
"8& 	c #F50209",
"9& 	c #EB0209",
"0& 	c #E00208",
"a& 	c #DA070D",
"b& 	c #CF0A10",
"c& 	c #C50B0E",
"d& 	c #C51517",
"e& 	c #CF2C30",
"f& 	c #D63E4A",
"g& 	c #C95864",
"h& 	c #DF9FA6",
"i& 	c #C4413C",
"j& 	c #B6211C",
"k& 	c #C01715",
"l& 	c #CC1111",
"m& 	c #D81412",
"n& 	c #DE100A",
"o& 	c #E70D03",
"p& 	c #EA0A01",
"q& 	c #E70C04",
"r& 	c #E30D05",
"s& 	c #E10D05",
"t& 	c #E60C08",
"u& 	c #ED090A",
"v& 	c #E70808",
"w& 	c #DE0706",
"x& 	c #DE0707",
"y& 	c #EB0308",
"z& 	c #EE0106",
"A& 	c #EF0003",
"B& 	c #F00202",
"C& 	c #F00102",
"D& 	c #F20100",
"E& 	c #F20200",
"F& 	c #EE0300",
"G& 	c #EE0701",
"H& 	c #EC0600",
"I& 	c #EB0401",
"J& 	c #EC0402",
"K& 	c #E80202",
"L& 	c #E30606",
"M& 	c #DC0808",
"N& 	c #D80B0C",
"O& 	c #D2060A",
"P& 	c #CF0707",
"Q& 	c #D00D06",
"R& 	c #D1150C",
"S& 	c #DA2221",
"T& 	c #C1262A",
"U& 	c #C9585C",
"V& 	c #DC8D92",
"W& 	c #D23F45",
"X& 	c #DD2A33",
"Y& 	c #D3181D",
"Z& 	c #C4100E",
"`& 	c #CD0C0D",
" * 	c #D8080F",
".* 	c #DB0810",
"+* 	c #D4080D",
"@* 	c #DC0B0F",
"#* 	c #DB0707",
"$* 	c #DC0A03",
"%* 	c #DC0E05",
"&* 	c #D40C03",
"** 	c #D60E05",
"=* 	c #DE0A05",
"-* 	c #EA0305",
";* 	c #E80205",
">* 	c #E40305",
",* 	c #ED0006",
"'* 	c #EE0105",
")* 	c #ED0103",
"!* 	c #F40105",
"~* 	c #EF0101",
"{* 	c #F00001",
"]* 	c #F30002",
"^* 	c #F50002",
"/* 	c #F40000",
"(* 	c #F10201",
"_* 	c #E90500",
":* 	c #E40400",
"<* 	c #E30602",
"[* 	c #E20905",
"}* 	c #DC0A06",
"|* 	c #D50B05",
"1* 	c #D60D0B",
"2* 	c #DE0810",
"3* 	c #E3080E",
"4* 	c #E30C08",
"5* 	c #DC0801",
"6* 	c #DE0804",
"7* 	c #DD140F",
"8* 	c #C71718",
"9* 	c #D3444B",
"0* 	c #DF737C",
"a* 	c #DCA5A7",
"b* 	c #B13C34",
"c* 	c #C21D1D",
"d* 	c #D60E15",
"e* 	c #D70B0F",
"f* 	c #CF0F0B",
"g* 	c #D40B0C",
"h* 	c #DB070C",
"i* 	c #DA0810",
"j* 	c #D10A13",
"k* 	c #CD0B13",
"l* 	c #D80A12",
"m* 	c #E0070A",
"n* 	c #DD0809",
"o* 	c #D80B09",
"p* 	c #D80B08",
"q* 	c #DF0807",
"r* 	c #EF060B",
"s* 	c #EC0307",
"t* 	c #E50405",
"u* 	c #E20403",
"v* 	c #EA0104",
"w* 	c #EC0004",
"x* 	c #EB0104",
"y* 	c #ED0105",
"z* 	c #F20404",
"A* 	c #F30004",
"B* 	c #F00003",
"C* 	c #F20303",
"D* 	c #F60104",
"E* 	c #EC0303",
"F* 	c #E80203",
"G* 	c #E70304",
"H* 	c #E60506",
"I* 	c #E40506",
"J* 	c #E20608",
"K* 	c #E1080A",
"L* 	c #DE080D",
"M* 	c #E3070E",
"N* 	c #E30608",
"O* 	c #E00502",
"P* 	c #E40500",
"Q* 	c #E70A04",
"R* 	c #E10F0D",
"S* 	c #CF1217",
"T* 	c #B31D25",
"U* 	c #9A4547",
"V* 	c #C09594",
"W* 	c #C32431",
"X* 	c #C41619",
"Y* 	c #CA0C0E",
"Z* 	c #D40B0E",
"`* 	c #D00A08",
" = 	c #CE0F06",
".= 	c #D11007",
"+= 	c #D40C05",
"@= 	c #D60A08",
"#= 	c #D40B0B",
"$= 	c #CF0B0D",
"%= 	c #D50A0F",
"&= 	c #DF060F",
"*= 	c #DD070E",
"== 	c #D70A0E",
"-= 	c #D60B0B",
";= 	c #DD080A",
">= 	c #E9060A",
",= 	c #E00805",
"'= 	c #DE0903",
")= 	c #E50402",
"!= 	c #EC0205",
"~= 	c #EE0206",
"{= 	c #EF0004",
"]= 	c #EF0204",
"^= 	c #EE0204",
"/= 	c #EF0203",
"(= 	c #F10003",
"_= 	c #EE0103",
":= 	c #F00305",
"<= 	c #F10004",
"[= 	c #F30006",
"}= 	c #F20107",
"|= 	c #ED0005",
"1= 	c #EE0107",
"2= 	c #EE0207",
"3= 	c #EC0106",
"4= 	c #EC0107",
"5= 	c #EA0108",
"6= 	c #E90106",
"7= 	c #E80306",
"8= 	c #EA0409",
"9= 	c #E4040C",
"0= 	c #DC070B",
"a= 	c #D80A08",
"b= 	c #D60D06",
"c= 	c #D90F08",
"d= 	c #D7090B",
"e= 	c #CC040F",
"f= 	c #AC0D18",
"g= 	c #B43B45",
"h= 	c #CF727E",
"i= 	c #E0A5A9",
"j= 	c #AC2A2E",
"k= 	c #BA1820",
"l= 	c #CF101B",
"m= 	c #DC0914",
"n= 	c #D5090D",
"o= 	c #D00E0D",
"p= 	c #D00E0B",
"q= 	c #D7150D",
"r= 	c #D01408",
"s= 	c #CD0F02",
"t= 	c #D10D01",
"u= 	c #D50D05",
"v= 	c #CF0D06",
"w= 	c #D10D0C",
"x= 	c #D9090F",
"y= 	c #DA080F",
"z= 	c #D50B0E",
"A= 	c #D50B0C",
"B= 	c #DC080A",
"C= 	c #E50509",
"D= 	c #E30707",
"E= 	c #DE0A06",
"F= 	c #DE0A04",
"G= 	c #E60303",
"H= 	c #E90204",
"I= 	c #E90104",
"J= 	c #EB0205",
"K= 	c #ED0206",
"L= 	c #EE0305",
"M= 	c #EF0305",
"N= 	c #F00205",
"O= 	c #EE0002",
"P= 	c #EF0002",
"Q= 	c #EF0104",
"R= 	c #EE0003",
"S= 	c #F00004",
"T= 	c #EF0103",
"U= 	c #EF0206",
"V= 	c #F10106",
"W= 	c #EF0107",
"X= 	c #ED0106",
"Y= 	c #EB0105",
"Z= 	c #EC0206",
"`= 	c #ED0308",
" - 	c #EB0206",
".- 	c #EA0301",
"+- 	c #E90304",
"@- 	c #E4040A",
"#- 	c #DD080F",
"$- 	c #D80A0F",
"%- 	c #D10B0A",
"&- 	c #D00E09",
"*- 	c #D60B09",
"=- 	c #E10910",
"-- 	c #D00810",
";- 	c #C1131D",
">- 	c #B4222F",
",- 	c #B0484B",
"'- 	c #C38883",
")- 	c #B4272A",
"!- 	c #B91517",
"~- 	c #C40E11",
"{- 	c #CE0B0E",
"]- 	c #D8080D",
"^- 	c #D00A0C",
"/- 	c #CD0E0E",
"(- 	c #D10E0F",
"_- 	c #D71010",
":- 	c #CF110B",
"<- 	c #CB1005",
"[- 	c #CE0E04",
"}- 	c #D30C07",
"|- 	c #CC0E09",
"1- 	c #CE0F0B",
"2- 	c #D60B0C",
"3- 	c #DA0A0B",
"4- 	c #D70B0B",
"5- 	c #D80A0A",
"6- 	c #DE0709",
"7- 	c #E50408",
"8- 	c #DF0907",
"9- 	c #E10805",
"0- 	c #EC0105",
"a- 	c #EA0105",
"b- 	c #EB0204",
"c- 	c #EB0202",
"d- 	c #EB0102",
"e- 	c #EC0102",
"f- 	c #EF0105",
"g- 	c #EC0104",
"h- 	c #EC0002",
"i- 	c #EB0002",
"j- 	c #EF0005",
"k- 	c #ED0104",
"l- 	c #EC0203",
"m- 	c #ED0003",
"n- 	c #EE0104",
"o- 	c #EC0103",
"p- 	c #ED0203",
"q- 	c #ED0405",
"r- 	c #EC0306",
"s- 	c #F20308",
"t- 	c #EE0307",
"u- 	c #EA0506",
"v- 	c #E90506",
"w- 	c #E80404",
"x- 	c #E60202",
"y- 	c #E30501",
"z- 	c #E10603",
"A- 	c #E10606",
"B- 	c #E2070A",
"C- 	c #E7040D",
"D- 	c #DE080E",
"E- 	c #D20E0E",
"F- 	c #C90D09",
"G- 	c #CD0705",
"H- 	c #D00D0A",
"I- 	c #CE1110",
"J- 	c #C30F12",
"K- 	c #B51B1C",
"L- 	c #BA4444",
"M- 	c #D88584",
"N- 	c #B5121A",
"O- 	c #C40F15",
"P- 	c #C50909",
"Q- 	c #C40A04",
"R- 	c #C51008",
"S- 	c #C8100B",
"T- 	c #CE0F0F",
"U- 	c #D20D11",
"V- 	c #D40811",
"W- 	c #D10B11",
"X- 	c #CC0E0F",
"Y- 	c #D20C0F",
"Z- 	c #D50910",
"`- 	c #D30912",
" ; 	c #D50C11",
".; 	c #D70C09",
"+; 	c #DA0A08",
"@; 	c #D90B07",
"#; 	c #DD0806",
"$; 	c #E30807",
"%; 	c #DF0A07",
"&; 	c #DA0B06",
"*; 	c #DD0905",
"=; 	c #E90205",
"-; 	c #E70205",
";; 	c #E90105",
">; 	c #EA0003",
",; 	c #E90003",
"'; 	c #EB0003",
"); 	c #ED0205",
"!; 	c #EF0307",
"~; 	c #EE0306",
"{; 	c #EB0103",
"]; 	c #EE0205",
"^; 	c #ED0002",
"/; 	c #ED0306",
"(; 	c #E90002",
"_; 	c #E90103",
":; 	c #EA0204",
"<; 	c #E80403",
"[; 	c #E90503",
"}; 	c #EE0405",
"|; 	c #F20406",
"1; 	c #F00405",
"2; 	c #EB0101",
"3; 	c #EA0002",
"4; 	c #EA0005",
"5; 	c #E10404",
"6; 	c #DB0A01",
"7; 	c #DE0C02",
"8; 	c #E80604",
"9; 	c #E1090A",
"0; 	c #CA0807",
"a; 	c #BB0804",
"b; 	c #C70505",
"c; 	c #D50B0A",
"d; 	c #D40D08",
"e; 	c #CC0D04",
"f; 	c #CA0D0B",
"g; 	c #C21518",
"h; 	c #C53B41",
"i; 	c #CB7375",
"j; 	c #AA1114",
"k; 	c #B10305",
"l; 	c #BE0505",
"m; 	c #C70909",
"n; 	c #C80906",
"o; 	c #C40905",
"p; 	c #C20F0A",
"q; 	c #CF0D0E",
"r; 	c #D4070C",
"s; 	c #D7090F",
"t; 	c #D30E10",
"u; 	c #D01010",
"v; 	c #CB0F0D",
"w; 	c #CB120E",
"x; 	c #C9100E",
"y; 	c #CF0B0E",
"z; 	c #DB0C12",
"A; 	c #DC090C",
"B; 	c #D9090A",
"C; 	c #D60B07",
"D; 	c #D90A06",
"E; 	c #E60805",
"F; 	c #E10B04",
"G; 	c #DE0C03",
"H; 	c #E20901",
"I; 	c #E90301",
"J; 	c #EA0404",
"K; 	c #E60203",
"L; 	c #E50102",
"M; 	c #E70204",
"N; 	c #E80103",
"O; 	c #EA0203",
"P; 	c #EA0202",
"Q; 	c #E60204",
"R; 	c #E80204",
"S; 	c #E60304",
"T; 	c #E90305",
"U; 	c #EA0102",
"V; 	c #EA0101",
"W; 	c #ED0304",
"X; 	c #EC0304",
"Y; 	c #ED0305",
"Z; 	c #EA0103",
"`; 	c #ED0204",
" > 	c #EC0305",
".> 	c #EC0204",
"+> 	c #E80304",
"@> 	c #E90202",
"#> 	c #E70102",
"$> 	c #E80303",
"%> 	c #E50202",
"&> 	c #E30301",
"*> 	c #E30603",
"=> 	c #E40600",
"-> 	c #E70500",
";> 	c #F40504",
">> 	c #F30504",
",> 	c #F00301",
"'> 	c #F30402",
")> 	c #F20106",
"!> 	c #E70307",
"~> 	c #E40505",
"{> 	c #DC0A02",
"]> 	c #DA0C02",
"^> 	c #E10806",
"/> 	c #DC0608",
"(> 	c #D0080B",
"_> 	c #C60A0A",
":> 	c #CB0A0A",
"<> 	c #DA0C0C",
"[> 	c #D80A0C",
"}> 	c #D20D08",
"|> 	c #C90D07",
"1> 	c #B20B09",
"2> 	c #A82928",
"3> 	c #C77B7D",
"4> 	c #931C1E",
"5> 	c #B21B1C",
"6> 	c #BA1111",
"7> 	c #BD0B09",
"8> 	c #C00808",
"9> 	c #C30809",
"0> 	c #C70608",
"a> 	c #C90709",
"b> 	c #C40B08",
"c> 	c #D20E0F",
"d> 	c #D60A0D",
"e> 	c #D40D0F",
"f> 	c #D1100F",
"g> 	c #D00C0D",
"h> 	c #CD0A09",
"i> 	c #CA100C",
"j> 	c #C9130D",
"k> 	c #D10F0F",
"l> 	c #DC1013",
"m> 	c #DA0D11",
"n> 	c #D80B0E",
"o> 	c #DD0A09",
"p> 	c #E10707",
"q> 	c #DF0704",
"r> 	c #E00B05",
"s> 	c #E40E07",
"t> 	c #E90B06",
"u> 	c #EA0402",
"v> 	c #EB0404",
"w> 	c #EA0406",
"x> 	c #EA0205",
"y> 	c #EE0406",
"z> 	c #EE0407",
"A> 	c #ED0407",
"B> 	c #E70403",
"C> 	c #E60504",
"D> 	c #E40704",
"E> 	c #E40702",
"F> 	c #E60401",
"G> 	c #E80305",
"H> 	c #E70402",
"I> 	c #DD0903",
"J> 	c #D80B05",
"K> 	c #DA0909",
"L> 	c #D9090E",
"M> 	c #D20910",
"N> 	c #CA0A0E",
"O> 	c #C90C0E",
"P> 	c #CD0C0C",
"Q> 	c #D3080D",
"R> 	c #D80911",
"S> 	c #CA0C07",
"T> 	c #CA0D06",
"U> 	c #C11217",
"V> 	c #B2373F",
"W> 	c #B4737A",
"X> 	c #982020",
"Y> 	c #A30D0F",
"Z> 	c #B30507",
"`> 	c #BC0306",
" , 	c #C20708",
"., 	c #C1080A",
"+, 	c #BF0508",
"@, 	c #C3070B",
"#, 	c #C50709",
"$, 	c #C60A07",
"%, 	c #D10E0C",
"&, 	c #D00D0C",
"*, 	c #CA0F0C",
"=, 	c #CA100E",
"-, 	c #D41012",
";, 	c #D60A0F",
">, 	c #D50B0F",
",, 	c #D20C0E",
"', 	c #D50B0D",
"), 	c #D6090B",
"!, 	c #DD070C",
"~, 	c #E1070C",
"{, 	c #DE080B",
"], 	c #DC0D0F",
"^, 	c #D80C0C",
"/, 	c #DA080A",
"(, 	c #E3050A",
"_, 	c #E8020A",
":, 	c #EA0107",
"<, 	c #EA0004",
"[, 	c #EB0005",
"}, 	c #EE0005",
"|, 	c #ED0004",
"1, 	c #EC0003",
"2, 	c #EE0004",
"3, 	c #F00107",
"4, 	c #EE0007",
"5, 	c #EE0006",
"6, 	c #EC0005",
"7, 	c #EB0004",
"8, 	c #EA0306",
"9, 	c #E70305",
"0, 	c #E40304",
"a, 	c #E40204",
"b, 	c #E80009",
"c, 	c #E8010D",
"d, 	c #E60411",
"e, 	c #E60510",
"f, 	c #E8010B",
"g, 	c #F10008",
"h, 	c #F20002",
"i, 	c #ED0000",
"j, 	c #E80401",
"k, 	c #DF0901",
"l, 	c #D80C04",
"m, 	c #D3090D",
"n, 	c #CA080E",
"o, 	c #C3090F",
"p, 	c #C2090F",
"q, 	c #C5070C",
"r, 	c #CA060A",
"s, 	c #D10F11",
"t, 	c #C8130B",
"u, 	c #C90F05",
"v, 	c #D30A09",
"w, 	c #D00510",
"x, 	c #AF0918",
"y, 	c #A12E3B",
"z, 	c #B06C72",
"A, 	c #D5B0B0",
"B, 	c #B71C1F",
"C, 	c #B20B0D",
"D, 	c #B80507",
"E, 	c #B90101",
"F, 	c #BB0304",
"G, 	c #B60506",
"H, 	c #B40607",
"I, 	c #B40708",
"J, 	c #BC0C0E",
"K, 	c #C00A0B",
"L, 	c #C70D07",
"M, 	c #CD0E08",
"N, 	c #CD0F0C",
"O, 	c #C9110E",
"P, 	c #CA1512",
"Q, 	c #CF0F13",
"R, 	c #D20A10",
"S, 	c #D30C11",
"T, 	c #DA090D",
"U, 	c #D90A09",
"V, 	c #D80A07",
"W, 	c #DC0A09",
"X, 	c #DE0A0C",
"Y, 	c #DA0A0C",
"Z, 	c #D1090A",
"`, 	c #D40D0E",
" ' 	c #DB070F",
".' 	c #E5030F",
"+' 	c #E8030A",
"@' 	c #E50307",
"#' 	c #E70508",
"$' 	c #E90408",
"%' 	c #EB0609",
"&' 	c #EB0509",
"*' 	c #EB0508",
"=' 	c #EC0508",
"-' 	c #EC0408",
";' 	c #EC0409",
">' 	c #EC040A",
",' 	c #EB0409",
"'' 	c #EB0408",
")' 	c #EC0308",
"!' 	c #EB0309",
"~' 	c #ED0409",
"{' 	c #ED040A",
"]' 	c #EA060A",
"^' 	c #E8060A",
"/' 	c #E80609",
"(' 	c #E80509",
"_' 	c #E80608",
":' 	c #EA0407",
"<' 	c #EB030A",
"[' 	c #EB0407",
"}' 	c #EA0408",
"|' 	c #E90407",
"1' 	c #E70409",
"2' 	c #E9050A",
"3' 	c #E50206",
"4' 	c #E70208",
"5' 	c #E60208",
"6' 	c #E60108",
"7' 	c #E60206",
"8' 	c #E50308",
"9' 	c #E0040A",
"0' 	c #DF060B",
"a' 	c #DF050B",
"b' 	c #E4030B",
"c' 	c #E7030A",
"d' 	c #E50409",
"e' 	c #E30508",
"f' 	c #E90207",
"g' 	c #E60406",
"h' 	c #DF0806",
"i' 	c #DC0906",
"j' 	c #DB090B",
"k' 	c #CE060D",
"l' 	c #C6070E",
"m' 	c #C6090F",
"n' 	c #C8090D",
"o' 	c #CE0A0D",
"p' 	c #CC070A",
"q' 	c #C20906",
"r' 	c #C30B07",
"s' 	c #BD0703",
"t' 	c #B30303",
"u' 	c #AB0E0F",
"v' 	c #AA2127",
"w' 	c #9F2D34",
"x' 	c #B7646B",
"y' 	c #D4A4A4",
"z' 	c #AB1E1A",
"A' 	c #AE0F08",
"B' 	c #B30903",
"C' 	c #BC0704",
"D' 	c #BC0100",
"E' 	c #BD0405",
"F' 	c #B40103",
"G' 	c #AF0103",
"H' 	c #AF0203",
"I' 	c #B30506",
"J' 	c #BD0908",
"K' 	c #C80903",
"L' 	c #CE0804",
"M' 	c #D20A0A",
"N' 	c #D10D0F",
"O' 	c #D01013",
"P' 	c #CF0E12",
"Q' 	c #CF0D11",
"R' 	c #D00D0F",
"S' 	c #D20B0D",
"T' 	c #D8080B",
"U' 	c #DB090D",
"V' 	c #D50A0C",
"W' 	c #D40A0C",
"X' 	c #CE0A0A",
"Y' 	c #CE0B0A",
"Z' 	c #CC0908",
"`' 	c #C80604",
" ) 	c #CB0A07",
".) 	c #DB1413",
"+) 	c #DD1614",
"@) 	c #DB1713",
"#) 	c #E11D19",
"$) 	c #E6221E",
"%) 	c #E6231D",
"&) 	c #E7211B",
"*) 	c #E8221C",
"=) 	c #E6221C",
"-) 	c #E7221C",
";) 	c #E6211B",
">) 	c #E7211C",
",) 	c #E9231D",
"') 	c #E9221D",
")) 	c #E6211C",
"!) 	c #E8221D",
"~) 	c #E8211C",
"{) 	c #E8211D",
"]) 	c #E8211B",
"^) 	c #E5221B",
"/) 	c #E3231C",
"() 	c #E2231D",
"_) 	c #DF1E1B",
":) 	c #D81613",
"<) 	c #DC1617",
"[) 	c #DB1314",
"}) 	c #D50C0E",
"|) 	c #DA0A0D",
"1) 	c #DC0708",
"2) 	c #DA0302",
"3) 	c #DB0601",
"4) 	c #D90B02",
"5) 	c #D80C02",
"6) 	c #DD0A06",
"7) 	c #DF080A",
"8) 	c #DF070D",
"9) 	c #DF060E",
"0) 	c #E3040E",
"a) 	c #E3050D",
"b) 	c #E1060B",
"c) 	c #E0060A",
"d) 	c #DE070C",
"e) 	c #DA080D",
"f) 	c #CE0509",
"g) 	c #C00B08",
"h) 	c #BD0B04",
"i) 	c #C70C07",
"j) 	c #C90606",
"k) 	c #BC0503",
"l) 	c #BE0E0B",
"m) 	c #B80C08",
"n) 	c #AD0601",
"o) 	c #AA0C05",
"p) 	c #AB110E",
"q) 	c #A11317",
"r) 	c #9F2B33",
"s) 	c #B16068",
"t) 	c #A21D1D",
"u) 	c #A50E09",
"v) 	c #AD0E04",
"w) 	c #AD0801",
"x) 	c #B30601",
"y) 	c #B40500",
"z) 	c #AF0202",
"A) 	c #AF0405",
"B) 	c #B30609",
"C) 	c #B60609",
"D) 	c #B80204",
"E) 	c #C10606",
"F) 	c #CA0A07",
"G) 	c #CD0807",
"H) 	c #D40A0D",
"I) 	c #D40B0F",
"J) 	c #CF0A0E",
"K) 	c #CB0C0E",
"L) 	c #CB100E",
"M) 	c #CB0F0C",
"N) 	c #D00D09",
"O) 	c #DB0B07",
"P) 	c #DA0907",
"Q) 	c #DA0A0A",
"R) 	c #C21713",
"S) 	c #BF1A17",
"T) 	c #C81B21",
"U) 	c #C72126",
"V) 	c #C33634",
"W) 	c #C94F49",
"X) 	c #D05B52",
"Y) 	c #D46157",
"Z) 	c #E16E64",
"`) 	c #EA756C",
" ! 	c #E8746A",
".! 	c #E77368",
"+! 	c #E87368",
"@! 	c #E87468",
"#! 	c #E87369",
"$! 	c #E77469",
"%! 	c #E77369",
"&! 	c #E67368",
"*! 	c #E47267",
"=! 	c #E57368",
"-! 	c #E57469",
";! 	c #E67469",
">! 	c #E57369",
",! 	c #E87269",
"'! 	c #E87268",
")! 	c #E6746A",
"!! 	c #E67468",
"~! 	c #E77468",
"{! 	c #E57268",
"]! 	c #E47268",
"^! 	c #E57367",
"/! 	c #E87469",
"(! 	c #E57569",
"_! 	c #E4766A",
":! 	c #E2766A",
"<! 	c #DE7268",
"[! 	c #D6665F",
"}! 	c #D5625D",
"|! 	c #D25C59",
"1! 	c #C44948",
"2! 	c #C93A3F",
"3! 	c #CC2C30",
"4! 	c #C91D1C",
"5! 	c #CF150C",
"6! 	c #D61003",
"7! 	c #DB0D00",
"8! 	c #DE0C01",
"9! 	c #DF0B04",
"0! 	c #DE0A07",
"a! 	c #DE0A0A",
"b! 	c #DB080B",
"c! 	c #DB080F",
"d! 	c #DD080D",
"e! 	c #DD090A",
"f! 	c #CB0908",
"g! 	c #C40C08",
"h! 	c #BE0B04",
"i! 	c #B80A00",
"j! 	c #BD0800",
"k! 	c #C60805",
"l! 	c #C00A09",
"m! 	c #C00A0C",
"n! 	c #BF080A",
"o! 	c #BC0603",
"p! 	c #B70703",
"q! 	c #BB0E09",
"r! 	c #B00D0D",
"s! 	c #9C0F17",
"t! 	c #9F343D",
"u! 	c #BE757D",
"v! 	c #9D0B0A",
"w! 	c #B20A09",
"x! 	c #AF0302",
"y! 	c #B00402",
"z! 	c #B00804",
"A! 	c #AB0603",
"B! 	c #AB0907",
"C! 	c #B11010",
"D! 	c #B30D0E",
"E! 	c #B9090C",
"F! 	c #BF0407",
"G! 	c #C40506",
"H! 	c #C40A0A",
"I! 	c #C30909",
"J! 	c #C80D0C",
"K! 	c #C70D0B",
"L! 	c #CA110E",
"M! 	c #C81009",
"N! 	c #CB0F06",
"O! 	c #CA0D04",
"P! 	c #D01204",
"Q! 	c #D51101",
"R! 	c #DB0C04",
"S! 	c #E00E0F",
"T! 	c #D32223",
"U! 	c #B93C36",
"V! 	c #B54B4B",
"W! 	c #C8505F",
"X! 	c #CF6174",
"Y! 	c #C98490",
"Z! 	c #C1A3A4",
"`! 	c #D1B8B5",
" ~ 	c #DEC2BD",
".~ 	c #ECD1CA",
"+~ 	c #F1D5CF",
"@~ 	c #EFD3CE",
"#~ 	c #F0D4CD",
"$~ 	c #EFD3CC",
"%~ 	c #EED4CC",
"&~ 	c #EDD4CC",
"*~ 	c #ECD4CE",
"=~ 	c #ECD5CD",
"-~ 	c #ECD5CE",
";~ 	c #EDD6CF",
">~ 	c #EDD6CE",
",~ 	c #EED7CF",
"'~ 	c #EDD7D0",
")~ 	c #EDD8CF",
"!~ 	c #EED7D0",
"~~ 	c #EFD6D0",
"{~ 	c #F0D6D0",
"]~ 	c #EFD6CF",
"^~ 	c #EFD7CF",
"/~ 	c #EED6CE",
"(~ 	c #EED7CE",
"_~ 	c #EFD8CD",
":~ 	c #EFD7CE",
"<~ 	c #EED6CF",
"[~ 	c #EED6D0",
"}~ 	c #EFD7D0",
"|~ 	c #ECD7D0",
"1~ 	c #ECD8CF",
"2~ 	c #EFD6CE",
"3~ 	c #ECD9D1",
"4~ 	c #EBD9D1",
"5~ 	c #ECDAD3",
"6~ 	c #EAD5D1",
"7~ 	c #DFC8C5",
"8~ 	c #D7BDBD",
"9~ 	c #C7A7A8",
"0~ 	c #C28D91",
"a~ 	c #C27479",
"b~ 	c #BF5758",
"c~ 	c #C73E3C",
"d~ 	c #D32725",
"e~ 	c #DC1916",
"f~ 	c #E11213",
"g~ 	c #DF0F0E",
"h~ 	c #D80B07",
"i~ 	c #D60B04",
"j~ 	c #D60C05",
"k~ 	c #D20E0D",
"l~ 	c #D40E0C",
"m~ 	c #D70C08",
"n~ 	c #D50D06",
"o~ 	c #D10E06",
"p~ 	c #CC1109",
"q~ 	c #C9110C",
"r~ 	c #C40C09",
"s~ 	c #C20707",
"t~ 	c #C00503",
"u~ 	c #BD0401",
"v~ 	c #BE0804",
"w~ 	c #C20709",
"x~ 	c #C9040D",
"y~ 	c #CD030C",
"z~ 	c #CC0608",
"A~ 	c #C70904",
"B~ 	c #C90C07",
"C~ 	c #BD0808",
"D~ 	c #AB0B10",
"E~ 	c #991920",
"F~ 	c #942D36",
"G~ 	c #DA9297",
"H~ 	c #861713",
"I~ 	c #A30706",
"J~ 	c #B30308",
"K~ 	c #B40006",
"L~ 	c #B70206",
"M~ 	c #B80306",
"N~ 	c #B30204",
"O~ 	c #B30508",
"P~ 	c #B50B10",
"Q~ 	c #B0090B",
"R~ 	c #B30B0B",
"S~ 	c #B40B08",
"T~ 	c #B70B07",
"U~ 	c #BF070B",
"V~ 	c #BD0B0D",
"W~ 	c #BC0D0A",
"X~ 	c #C40F0C",
"Y~ 	c #CB0E0D",
"Z~ 	c #CE0F0E",
"`~ 	c #D00F0F",
" { 	c #CC0B0A",
".{ 	c #CD100E",
"+{ 	c #C41710",
"@{ 	c #BE211A",
"#{ 	c #BC2726",
"${ 	c #CF343A",
"%{ 	c #E14653",
"&{ 	c #E36D75",
"*{ 	c #D39A95",
"={ 	c #DFBCB8",
"-{ 	c #F0BBC3",
";{ 	c #F9C3CF",
">{ 	c #F6D9DF",
",{ 	c #F2EBEC",
"'{ 	c #F8F0EF",
"){ 	c #FCF0ED",
"!{ 	c #FDF2ED",
"~{ 	c #FCF0EC",
"{{ 	c #F9EFEB",
"]{ 	c #FBF2EC",
"^{ 	c #FCF3ED",
"/{ 	c #FCF4EC",
"({ 	c #FAF4ED",
"_{ 	c #FAF5EE",
":{ 	c #FAF4EE",
"<{ 	c #FBF5EF",
"[{ 	c #FBF5EE",
"}{ 	c #F9F6EF",
"|{ 	c #F8F6EE",
"1{ 	c #F9F6EE",
"2{ 	c #FCF6F0",
"3{ 	c #FBF6F0",
"4{ 	c #F9F4EE",
"5{ 	c #F9F4EA",
"6{ 	c #F9F4E9",
"7{ 	c #F9F3EA",
"8{ 	c #FAF3EA",
"9{ 	c #FAF3E9",
"0{ 	c #FAF4EC",
"a{ 	c #FAF3ED",
"b{ 	c #FBF3EE",
"c{ 	c #FAF2ED",
"d{ 	c #FAF3EC",
"e{ 	c #FAF2EC",
"f{ 	c #FAF2EA",
"g{ 	c #FBF4EE",
"h{ 	c #FAF3EE",
"i{ 	c #FAF5EF",
"j{ 	c #F9F3ED",
"k{ 	c #F9F3EC",
"l{ 	c #FBF4ED",
"m{ 	c #F7F4EC",
"n{ 	c #F8F5EF",
"o{ 	c #FAF7F1",
"p{ 	c #FAF5F1",
"q{ 	c #F9F3F0",
"r{ 	c #F2E8E7",
"s{ 	c #EEDEDE",
"t{ 	c #EDD2D1",
"u{ 	c #E9BFBA",
"v{ 	c #EDACA7",
"w{ 	c #ED918F",
"x{ 	c #E77276",
"y{ 	c #D8525B",
"z{ 	c #CF3C44",
"A{ 	c #CB2A2E",
"B{ 	c #CA1718",
"C{ 	c #CD0D0C",
"D{ 	c #D30D0A",
"E{ 	c #D80C07",
"F{ 	c #DA0A04",
"G{ 	c #D70B03",
"H{ 	c #D01005",
"I{ 	c #C81008",
"J{ 	c #C40C0B",
"K{ 	c #C3040A",
"L{ 	c #C6010B",
"M{ 	c #C9000C",
"N{ 	c #BE0105",
"O{ 	c #B40501",
"P{ 	c #BB0203",
"Q{ 	c #C50007",
"R{ 	c #C70008",
"S{ 	c #C20506",
"T{ 	c #C10F08",
"U{ 	c #C30B03",
"V{ 	c #C50A09",
"W{ 	c #B80A0E",
"X{ 	c #9B0E12",
"Y{ 	c #95171D",
"Z{ 	c #B24D52",
"`{ 	c #CF9595",
" ] 	c #831817",
".] 	c #941310",
"+] 	c #A60807",
"@] 	c #B00205",
"#] 	c #B10005",
"$] 	c #B30306",
"%] 	c #B30305",
"&] 	c #B00304",
"*] 	c #B10608",
"=] 	c #B60D10",
"-] 	c #B60C10",
";] 	c #B70A0E",
">] 	c #B40507",
",] 	c #C00108",
"'] 	c #C40B10",
")] 	c #C10B0C",
"!] 	c #C6070A",
"~] 	c #D10A0F",
"{] 	c #CF0E15",
"]] 	c #D11F25",
"^] 	c #CB3234",
"/] 	c #C74A4C",
"(] 	c #CE686E",
"_] 	c #E08A8F",
":] 	c #F09FA7",
"<] 	c #F6C3C7",
"[] 	c #F2F0E8",
"}] 	c #EBF8F0",
"|] 	c #F6F2F3",
"1] 	c #FAF0F5",
"2] 	c #F6F5F9",
"3] 	c #FDF7FC",
"4] 	c #FBFAFA",
"5] 	c #F8FBF9",
"6] 	c #F7FAF8",
"7] 	c #F4F9F6",
"8] 	c #F5FAF7",
"9] 	c #F6FCF8",
"0] 	c #F5FDF7",
"a] 	c #F5FDF6",
"b] 	c #F4FDF8",
"c] 	c #F3FCF7",
"d] 	c #F3FBF7",
"e] 	c #F4FBF7",
"f] 	c #F5FBF8",
"g] 	c #F6F9F7",
"h] 	c #F3FAF7",
"i] 	c #F4FBF6",
"j] 	c #F3FCF5",
"k] 	c #F4FBF5",
"l] 	c #F6FAF5",
"m] 	c #F5FBF5",
"n] 	c #F4FAF6",
"o] 	c #F4FCF7",
"p] 	c #F4FBF8",
"q] 	c #F4FCF8",
"r] 	c #F6FAF7",
"s] 	c #F5F9F6",
"t] 	c #F6FAF6",
"u] 	c #F4FAF7",
"v] 	c #F5FBF7",
"w] 	c #F3FAF6",
"x] 	c #F3FBF6",
"y] 	c #F3F9F6",
"z] 	c #F7FEFA",
"A] 	c #F5FCF9",
"B] 	c #F6FEFA",
"C] 	c #F2FAF6",
"D] 	c #EEF6F2",
"E] 	c #F0F4EE",
"F] 	c #F6F5ED",
"G] 	c #F8F6E7",
"H] 	c #FFF2E5",
"I] 	c #FCDED7",
"J] 	c #F0C1C3",
"K] 	c #E5AAB3",
"L] 	c #DB939D",
"M] 	c #D57A80",
"N] 	c #D15B5E",
"O] 	c #C63235",
"P] 	c #D51E1F",
"Q] 	c #DB0F12",
"R] 	c #DC0709",
"S] 	c #DA0908",
"T] 	c #D30D09",
"U] 	c #C50B07",
"V] 	c #BE0607",
"W] 	c #BC0107",
"X] 	c #BF000C",
"Y] 	c #BF010D",
"Z] 	c #B70207",
"`] 	c #AF0400",
" ^ 	c #AE0502",
".^ 	c #B50202",
"+^ 	c #BD0205",
"@^ 	c #C10406",
"#^ 	c #C40E0B",
"$^ 	c #BE0A05",
"%^ 	c #BF0C09",
"&^ 	c #B80D0B",
"*^ 	c #A9120F",
"=^ 	c #9F1314",
"-^ 	c #921B1E",
";^ 	c #A45151",
">^ 	c #D7AAA7",
",^ 	c #972327",
"'^ 	c #971314",
")^ 	c #A2100E",
"!^ 	c #A60606",
"~^ 	c #AA0205",
"{^ 	c #AB0204",
"]^ 	c #AA0402",
"^^ 	c #AB0401",
"/^ 	c #AB0501",
"(^ 	c #AA0403",
"_^ 	c #B00809",
":^ 	c #B3090E",
"<^ 	c #B5080D",
"[^ 	c #B5060B",
"}^ 	c #BA070C",
"|^ 	c #BE020B",
"1^ 	c #B90408",
"2^ 	c #BE090A",
"3^ 	c #C7080A",
"4^ 	c #CF1012",
"5^ 	c #CC1D20",
"6^ 	c #C9292F",
"7^ 	c #CB3F48",
"8^ 	c #D96B70",
"9^ 	c #EC9C9C",
"0^ 	c #ECB7B4",
"a^ 	c #E8CDC7",
"b^ 	c #EED9D5",
"c^ 	c #EEEBE5",
"d^ 	c #DEF9ED",
"e^ 	c #DDFAF0",
"f^ 	c #EEF6F5",
"g^ 	c #F5F8F9",
"h^ 	c #EEFBFA",
"i^ 	c #F8FBFB",
"j^ 	c #F5FAFA",
"k^ 	c #F2FCFC",
"l^ 	c #F1FBFB",
"m^ 	c #F1FCFC",
"n^ 	c #F2FEFE",
"o^ 	c #F1FDFB",
"p^ 	c #EFFDFB",
"q^ 	c #EFFDFA",
"r^ 	c #EFFDF9",
"s^ 	c #EEFDFB",
"t^ 	c #EFFCFC",
"u^ 	c #F0FCFC",
"v^ 	c #F2FCFD",
"w^ 	c #F3FCFC",
"x^ 	c #F4FCFD",
"y^ 	c #F5FCFE",
"z^ 	c #F3FCFD",
"A^ 	c #F4FBFD",
"B^ 	c #F5FAFD",
"C^ 	c #F5FBFC",
"D^ 	c #F4FCFC",
"E^ 	c #F3FBFD",
"F^ 	c #F4FDFD",
"G^ 	c #F4FDFF",
"H^ 	c #F4FCFF",
"I^ 	c #F5FCFF",
"J^ 	c #F4FCFE",
"K^ 	c #F5FCFD",
"L^ 	c #F5FDFD",
"M^ 	c #F4FBFC",
"N^ 	c #F4FDFE",
"O^ 	c #F3FDFC",
"P^ 	c #F5FBFD",
"Q^ 	c #F6FBFD",
"R^ 	c #F1F8F8",
"S^ 	c #F1F9F9",
"T^ 	c #F1FCFB",
"U^ 	c #F0FDFB",
"V^ 	c #F2FBFA",
"W^ 	c #F4FAF5",
"X^ 	c #EFF9EC",
"Y^ 	c #F4FBEA",
"Z^ 	c #FAF8EB",
"`^ 	c #F9EFE8",
" / 	c #F4E7E6",
"./ 	c #EFDEDD",
"+/ 	c #ECCAC9",
"@/ 	c #EBB1AD",
"#/ 	c #DB817E",
"$/ 	c #CB4A4B",
"%/ 	c #C6272C",
"&/ 	c #C71118",
"*/ 	c #CA060B",
"=/ 	c #CE0C0F",
"-/ 	c #C60A0B",
";/ 	c #C10608",
">/ 	c #C10309",
",/ 	c #BE0207",
"'/ 	c #B60205",
")/ 	c #B30203",
"!/ 	c #B10200",
"~/ 	c #AE0301",
"{/ 	c #B60102",
"]/ 	c #BF0206",
"^/ 	c #C2090C",
"// 	c #C40A0C",
"(/ 	c #C3090A",
"_/ 	c #BB0605",
":/ 	c #AE0804",
"</ 	c #A10E0B",
"[/ 	c #941212",
"}/ 	c #A13437",
"|/ 	c #C07678",
"1/ 	c #E6BFC1",
"2/ 	c #A0191D",
"3/ 	c #A60F10",
"4/ 	c #A40807",
"5/ 	c #A50505",
"6/ 	c #A70404",
"7/ 	c #A60402",
"8/ 	c #A50300",
"9/ 	c #A70300",
"0/ 	c #A90400",
"a/ 	c #AF0808",
"b/ 	c #AC0709",
"c/ 	c #AE0A0E",
"d/ 	c #B00D0E",
"e/ 	c #B41011",
"f/ 	c #B50D0F",
"g/ 	c #B00A0B",
"h/ 	c #B60E0D",
"i/ 	c #BC0A08",
"j/ 	c #C8120F",
"k/ 	c #C2211C",
"l/ 	c #C13B37",
"m/ 	c #CF6261",
"n/ 	c #DE8C8D",
"o/ 	c #E8B4B3",
"p/ 	c #F5DAD4",
"q/ 	c #F0E9DC",
"r/ 	c #E5F3E2",
"s/ 	c #E2F3E4",
"t/ 	c #E2F9EB",
"u/ 	c #D9FCEB",
"v/ 	c #E0F9ED",
"w/ 	c #F3EEEE",
"x/ 	c #F5EDEE",
"y/ 	c #E6F2EC",
"z/ 	c #F2FEF8",
"A/ 	c #F5FBFE",
"B/ 	c #F4F9FD",
"C/ 	c #F4FAFE",
"D/ 	c #F5FBFF",
"E/ 	c #F2FAFD",
"F/ 	c #F3FBFE",
"G/ 	c #F6FAFE",
"H/ 	c #F7F9FD",
"I/ 	c #F8F9FD",
"J/ 	c #F9F9FE",
"K/ 	c #F8F9FE",
"L/ 	c #F7FAFE",
"M/ 	c #F6FAFD",
"N/ 	c #F9F8FE",
"O/ 	c #F9F8FD",
"P/ 	c #F9F7FD",
"Q/ 	c #F8F8FD",
"R/ 	c #F8F8FF",
"S/ 	c #F9F9FF",
"T/ 	c #F9F8FF",
"U/ 	c #F8F8FE",
"V/ 	c #F9F9FD",
"W/ 	c #F8F7FD",
"X/ 	c #FAF9FD",
"Y/ 	c #FAF8FD",
"Z/ 	c #F9F7FC",
"`/ 	c #F8F8FB",
" ( 	c #F6F6F9",
".( 	c #F5FAFF",
"+( 	c #F6F8FD",
"@( 	c #F3FAEC",
"#( 	c #F6F8E9",
"$( 	c #FAFAEE",
"%( 	c #F6F8EF",
"&( 	c #F3F7ED",
"*( 	c #F7F0E6",
"=( 	c #FAE2D6",
"-( 	c #F6CBC0",
";( 	c #D69D99",
">( 	c #C86D6F",
",( 	c #C34147",
"'( 	c #B7161C",
")( 	c #BD0E11",
"!( 	c #C20406",
"~( 	c #C60406",
"{( 	c #B60200",
"]( 	c #B60001",
"^( 	c #B20201",
"/( 	c #B40201",
"(( 	c #B90204",
"_( 	c #C0080C",
":( 	c #CB0911",
"<( 	c #CD040C",
"[( 	c #C80306",
"}( 	c #B80501",
"|( 	c #A20803",
"1( 	c #9D1211",
"2( 	c #A02023",
"3( 	c #9F3C41",
"4( 	c #C78C8E",
"5( 	c #962424",
"6( 	c #9D0F10",
"7( 	c #AA0C0C",
"8( 	c #A60604",
"9( 	c #A20401",
"0( 	c #A50303",
"a( 	c #A60202",
"b( 	c #A80404",
"c( 	c #A80504",
"d( 	c #A80405",
"e( 	c #AB0709",
"f( 	c #AD090A",
"g( 	c #AD0708",
"h( 	c #B30C0C",
"i( 	c #B30D0B",
"j( 	c #B10C0A",
"k( 	c #B20A10",
"l( 	c #B30B13",
"m( 	c #B8110F",
"n( 	c #C71914",
"o( 	c #CA2F2C",
"p( 	c #D35658",
"q( 	c #EC9598",
"r( 	c #EEC6C2",
"s( 	c #F4E4DF",
"t( 	c #F2F5F0",
"u( 	c #E8FAF2",
"v( 	c #E4FBF2",
"w( 	c #D9FDF0",
"x( 	c #D4FEEE",
"y( 	c #D8FFEF",
"z( 	c #DFFBED",
"A( 	c #F2EDEC",
"B( 	c #F5E3E7",
"C( 	c #F0EBEB",
"D( 	c #F4F8F5",
"E( 	c #F4F9F9",
"F( 	c #F5F9FB",
"G( 	c #F3F8F9",
"H( 	c #F4F9FA",
"I( 	c #F5FAFB",
"J( 	c #F2F7F9",
"K( 	c #F3F9FA",
"L( 	c #F3F8FA",
"M( 	c #F4F8F9",
"N( 	c #F6F8FA",
"O( 	c #F9F9FB",
"P( 	c #F9F8FB",
"Q( 	c #FAF8FB",
"R( 	c #FAF8FA",
"S( 	c #F9F9FA",
"T( 	c #FAF9FC",
"U( 	c #FAF9FB",
"V( 	c #FBF8FC",
"W( 	c #FBF7FB",
"X( 	c #F9F7FA",
"Y( 	c #FBF7FC",
"Z( 	c #FAF9FA",
"`( 	c #FAF8F9",
" _ 	c #F9F7F8",
"._ 	c #F8F7F8",
"+_ 	c #FBFAFB",
"@_ 	c #F9F7F9",
"#_ 	c #FBF9FB",
"$_ 	c #F8F6F8",
"%_ 	c #FAF8FC",
"&_ 	c #F9F7FB",
"*_ 	c #F9F8FA",
"=_ 	c #FBF8FB",
"-_ 	c #FAF7FA",
";_ 	c #FBFAFD",
">_ 	c #FBF9FC",
",_ 	c #F8F7F6",
"'_ 	c #F8F7F4",
")_ 	c #FAF9F6",
"!_ 	c #F9F8FC",
"~_ 	c #F8F6FA",
"{_ 	c #FBF7FA",
"]_ 	c #FCF8FA",
"^_ 	c #FCF8FC",
"/_ 	c #F8F7FA",
"(_ 	c #FAF6FA",
"__ 	c #FAFAFB",
":_ 	c #FBF8FA",
"<_ 	c #F9F8F6",
"[_ 	c #F8FBF7",
"}_ 	c #FAFBF8",
"|_ 	c #FAFAF7",
"1_ 	c #F8F8F7",
"2_ 	c #F7F9F7",
"3_ 	c #FCF6F7",
"4_ 	c #FFF4F8",
"5_ 	c #FBF6F9",
"6_ 	c #EDFDFA",
"7_ 	c #EFFDFD",
"8_ 	c #F4FEF9",
"9_ 	c #F3FDF6",
"0_ 	c #F3F8F3",
"a_ 	c #F5F8F4",
"b_ 	c #F8F9F8",
"c_ 	c #FAF9F5",
"d_ 	c #FCF8F1",
"e_ 	c #FCF1E9",
"f_ 	c #F7D6D4",
"g_ 	c #EEAAAE",
"h_ 	c #D76C71",
"i_ 	c #BF2F35",
"j_ 	c #AE0E11",
"k_ 	c #B8070B",
"l_ 	c #C10609",
"m_ 	c #BF0505",
"n_ 	c #B70501",
"o_ 	c #B80200",
"p_ 	c #B70200",
"q_ 	c #B00201",
"r_ 	c #AF0301",
"s_ 	c #B00302",
"t_ 	c #B40303",
"u_ 	c #C00508",
"v_ 	c #C6070B",
"w_ 	c #C50508",
"x_ 	c #C50809",
"y_ 	c #BB0705",
"z_ 	c #AF0806",
"A_ 	c #A7090A",
"B_ 	c #A71214",
"C_ 	c #8F1618",
"D_ 	c #9F5351",
"E_ 	c #CFA8A6",
"F_ 	c #951012",
"G_ 	c #9D0606",
"H_ 	c #A40503",
"I_ 	c #A50402",
"J_ 	c #A40000",
"K_ 	c #A90304",
"L_ 	c #AA0607",
"M_ 	c #A80506",
"N_ 	c #AA070A",
"O_ 	c #AD0A0C",
"P_ 	c #AE0A0B",
"Q_ 	c #AE080A",
"R_ 	c #AE0507",
"S_ 	c #B4080A",
"T_ 	c #B40807",
"U_ 	c #B70109",
"V_ 	c #BC0612",
"W_ 	c #C51518",
"X_ 	c #D31D1D",
"Y_ 	c #D84545",
"Z_ 	c #E58183",
"`_ 	c #F9C1C2",
" : 	c #FAE5E2",
".: 	c #F2F3F0",
"+: 	c #E3F7F2",
"@: 	c #DBFAF0",
"#: 	c #DDFBF2",
"$: 	c #D6FEF3",
"%: 	c #D2FDF2",
"&: 	c #D5FCF2",
"*: 	c #DCF8EF",
"=: 	c #F0F0EF",
"-: 	c #F7E8EB",
";: 	c #F5EDEC",
">: 	c #F5F7F2",
",: 	c #F1FAF0",
"': 	c #F0FAED",
"): 	c #F1FBED",
"!: 	c #F2FCEE",
"~: 	c #F1FBEE",
"{: 	c #F3FCEF",
"]: 	c #F1FBEF",
"^: 	c #F2FBF2",
"/: 	c #EFF8F1",
"(: 	c #F1F9F2",
"_: 	c #F1F7F1",
":: 	c #F4F8F2",
"<: 	c #F5FAF4",
"[: 	c #F7F9F4",
"}: 	c #F8F8F4",
"|: 	c #F8F9F4",
"1: 	c #F7F9F2",
"2: 	c #F8F9F2",
"3: 	c #F7F8F2",
"4: 	c #F7F9F1",
"5: 	c #F8F9F3",
"6: 	c #F7F8F3",
"7: 	c #FAFAF6",
"8: 	c #F9F9F5",
"9: 	c #F8FAF3",
"0: 	c #F6FAF2",
"a: 	c #F7F8F1",
"b: 	c #F9FAF3",
"c: 	c #F8FAF1",
"d: 	c #F7F9F0",
"e: 	c #F6F7F0",
"f: 	c #F9FBF2",
"g: 	c #F8F9F1",
"h: 	c #F8F9F0",
"i: 	c #F9FAF1",
"j: 	c #F8F8F2",
"k: 	c #F9F9F3",
"l: 	c #F8FAF5",
"m: 	c #F6F7F3",
"n: 	c #F6F7F1",
"o: 	c #F8FAF2",
"p: 	c #F7F8F0",
"q: 	c #F6F8F2",
"r: 	c #F7F8F4",
"s: 	c #F8F9F7",
"t: 	c #F9F9F7",
"u: 	c #F7F7F7",
"v: 	c #F5F7F4",
"w: 	c #F7F9F3",
"x: 	c #F6F7F4",
"y: 	c #F9FAF5",
"z: 	c #F6F8F1",
"A: 	c #F6F8F3",
"B: 	c #F5F7F0",
"C: 	c #F4FAF2",
"D: 	c #F5FAF3",
"E: 	c #F6FAF3",
"F: 	c #F5FBF3",
"G: 	c #F4FBF3",
"H: 	c #FDF5F4",
"I: 	c #FBF7F4",
"J: 	c #F0FDF6",
"K: 	c #F1FFFA",
"L: 	c #F0FCFA",
"M: 	c #F1FDF7",
"N: 	c #F0FEF7",
"O: 	c #EDFCF7",
"P: 	c #EDFCF8",
"Q: 	c #EDFEFB",
"R: 	c #EBFEF9",
"S: 	c #E7FDF4",
"T: 	c #E3FCEF",
"U: 	c #E2FBEC",
"V: 	c #EFF7EC",
"W: 	c #F2D6CF",
"X: 	c #DF9692",
"Y: 	c #C24A48",
"Z: 	c #B71419",
"`: 	c #C20A10",
" < 	c #C6070C",
".< 	c #C20407",
"+< 	c #BF0201",
"@< 	c #B70300",
"#< 	c #B10400",
"$< 	c #B30202",
"%< 	c #B60203",
"&< 	c #C20609",
"*< 	c #C10508",
"=< 	c #C30B0B",
"-< 	c #BE0908",
";< 	c #B60406",
">< 	c #B5080A",
",< 	c #AF0A0C",
"'< 	c #980A0B",
")< 	c #922929",
"!< 	c #B07071",
"~< 	c #E1BDC2",
"{< 	c #9B1C20",
"]< 	c #A3080D",
"^< 	c #A80708",
"/< 	c #A50603",
"(< 	c #A70603",
"_< 	c #AA0303",
":< 	c #B10B0C",
"<< 	c #B10D0E",
"[< 	c #AE0B0D",
"}< 	c #AD080B",
"|< 	c #AD0709",
"1< 	c #AD0406",
"2< 	c #AE0204",
"3< 	c #B30406",
"4< 	c #B50302",
"5< 	c #BA0300",
"6< 	c #C20108",
"7< 	c #C60411",
"8< 	c #C60B11",
"9< 	c #DF2125",
"0< 	c #F06D6D",
"a< 	c #F8B8B4",
"b< 	c #F5E0DD",
"c< 	c #F5E9EA",
"d< 	c #EFF8F8",
"e< 	c #E4FBF7",
"f< 	c #DFFCF1",
"g< 	c #E2FAF2",
"h< 	c #E1FBF6",
"i< 	c #E0FCF7",
"j< 	c #DEFBF7",
"k< 	c #E4F9F8",
"l< 	c #F1F5F6",
"m< 	c #F7F0F1",
"n< 	c #F7F3EF",
"o< 	c #F6FAF1",
"p< 	c #F6FDF0",
"q< 	c #F4FDEE",
"r< 	c #F6FDEF",
"s< 	c #F4FBED",
"t< 	c #F1F9EB",
"u< 	c #F2FBEC",
"v< 	c #F3FBED",
"w< 	c #F3FCED",
"x< 	c #F5FDF0",
"y< 	c #F4FCEF",
"z< 	c #F5FCEF",
"A< 	c #F6FCEF",
"B< 	c #F6FCF0",
"C< 	c #F7FBEF",
"D< 	c #F7FBF0",
"E< 	c #F7FCEF",
"F< 	c #F8FCF0",
"G< 	c #F8FCEF",
"H< 	c #F7FCF0",
"I< 	c #F6FBEF",
"J< 	c #F7FDF0",
"K< 	c #F5FBEF",
"L< 	c #F6FAEF",
"M< 	c #F8FBF1",
"N< 	c #F5F9EF",
"O< 	c #F7FBF1",
"P< 	c #F6F9EF",
"Q< 	c #F6FAF0",
"R< 	c #F5F9EE",
"S< 	c #F6FBEE",
"T< 	c #F6FAED",
"U< 	c #F5FAEC",
"V< 	c #F7FCEE",
"W< 	c #F9FDF0",
"X< 	c #F7FBEE",
"Y< 	c #F6FBED",
"Z< 	c #F8FDEF",
"`< 	c #F8FCF1",
" [ 	c #F9FCF1",
".[ 	c #F6F9EE",
"+[ 	c #F7FAEF",
"@[ 	c #F8FBF0",
"#[ 	c #F4F8EC",
"$[ 	c #F5F9ED",
"%[ 	c #F6F9F3",
"&[ 	c #F5F9F1",
"*[ 	c #F7FAF0",
"=[ 	c #F8FCEE",
"-[ 	c #F6FCEE",
";[ 	c #F5FDEE",
">[ 	c #F6FDEE",
",[ 	c #F5FDED",
"'[ 	c #F5FCED",
")[ 	c #F6FEF0",
"![ 	c #F5FDEF",
"~[ 	c #F5FBED",
"{[ 	c #F4FDEF",
"][ 	c #F6FEF1",
"^[ 	c #F6FDF1",
"/[ 	c #F5FCF0",
"([ 	c #F4FCEE",
"_[ 	c #F5FCEE",
":[ 	c #F5FAED",
"<[ 	c #F5FBEE",
"[[ 	c #F5FDF1",
"}[ 	c #F3FEF2",
"|[ 	c #F2FCF0",
"1[ 	c #F0FAEE",
"2[ 	c #F3F9EE",
"3[ 	c #F6F9F0",
"4[ 	c #F8FCF3",
"5[ 	c #F2F9F6",
"6[ 	c #F2FBF4",
"7[ 	c #EDFDF3",
"8[ 	c #E9FDF3",
"9[ 	c #E9FEF8",
"0[ 	c #E8FFFA",
"a[ 	c #E5FFF9",
"b[ 	c #E1FDF5",
"c[ 	c #DCFBEE",
"d[ 	c #DFFEEE",
"e[ 	c #E8F9EC",
"f[ 	c #F5EADE",
"g[ 	c #EDB8AE",
"h[ 	c #D46B66",
"i[ 	c #C32428",
"j[ 	c #C50D13",
"k[ 	c #C7070C",
"l[ 	c #C50207",
"m[ 	c #C60002",
"n[ 	c #B90300",
"o[ 	c #B10203",
"p[ 	c #AF0100",
"q[ 	c #BC0507",
"r[ 	c #C3090B",
"s[ 	c #BA0304",
"t[ 	c #BB0408",
"u[ 	c #AA0809",
"v[ 	c #991315",
"w[ 	c #9F4043",
"x[ 	c #BB8084",
"y[ 	c #7D1819",
"z[ 	c #99060B",
"A[ 	c #AD0106",
"B[ 	c #AE0505",
"C[ 	c #A50501",
"D[ 	c #A50602",
"E[ 	c #AC0001",
"F[ 	c #AD0404",
"G[ 	c #B40E10",
"H[ 	c #B20E0F",
"I[ 	c #B00C0D",
"J[ 	c #B0070A",
"K[ 	c #AF0304",
"L[ 	c #B10204",
"M[ 	c #B60306",
"N[ 	c #B80303",
"O[ 	c #BC0500",
"P[ 	c #C00004",
"Q[ 	c #C70510",
"R[ 	c #C5070E",
"S[ 	c #DA1F26",
"T[ 	c #EC7D7D",
"U[ 	c #F7D6D1",
"V[ 	c #F4F8F4",
"W[ 	c #F7F3F6",
"X[ 	c #F0F7FB",
"Y[ 	c #E9FBFA",
"Z[ 	c #EDFEF7",
"`[ 	c #EFFBF7",
" } 	c #F1F9FB",
".} 	c #EDFCFD",
"+} 	c #F0F9FC",
"@} 	c #F2F5F3",
"#} 	c #F6F6F0",
"$} 	c #F4FAF0",
"%} 	c #F5F7F1",
"&} 	c #F5F5F1",
"*} 	c #F6F6F2",
"=} 	c #F7F7F3",
"-} 	c #F5F4F0",
";} 	c #F4F4F0",
">} 	c #F8F8F5",
",} 	c #F8F7F3",
"'} 	c #F6FBEC",
")} 	c #F4F8EA",
"!} 	c #F7FCED",
"~} 	c #F8FDEE",
"{} 	c #F8FDF1",
"]} 	c #F6FDED",
"^} 	c #F4FBEC",
"/} 	c #F8FFEF",
"(} 	c #F7FDEF",
"_} 	c #F5F8EE",
":} 	c #F7FBF3",
"<} 	c #F8FCF5",
"[} 	c #F7FAF3",
"}} 	c #F7FBF4",
"|} 	c #F5F9F2",
"1} 	c #F5F8F1",
"2} 	c #F5F9F0",
"3} 	c #F6FAEE",
"4} 	c #F5F8ED",
"5} 	c #F3F9ED",
"6} 	c #F7FDF1",
"7} 	c #F6FCF1",
"8} 	c #F6FAEC",
"9} 	c #F5F9EB",
"0} 	c #F7FBED",
"a} 	c #F9FDF1",
"b} 	c #F8FCF2",
"c} 	c #F7FBF2",
"d} 	c #F7FAF4",
"e} 	c #F8FBF5",
"f} 	c #F9FDEF",
"g} 	c #F7FBEC",
"h} 	c #F9FDF2",
"i} 	c #F6FFEE",
"j} 	c #F5FFEE",
"k} 	c #F4FEED",
"l} 	c #F5FEED",
"m} 	c #F4FDED",
"n} 	c #F4FCEC",
"o} 	c #F2FBEB",
"p} 	c #F4FCED",
"q} 	c #F3FBEB",
"r} 	c #F1FAEA",
"s} 	c #F5FEEE",
"t} 	c #F4FDF0",
"u} 	c #F3FBEF",
"v} 	c #F2FAED",
"w} 	c #F1FAED",
"x} 	c #F2F9ED",
"y} 	c #F3F7EB",
"z} 	c #F4F8ED",
"A} 	c #F3FAEE",
"B} 	c #F4FDF1",
"C} 	c #F4FEF2",
"D} 	c #F2FDF0",
"E} 	c #F2FBEE",
"F} 	c #F3FAED",
"G} 	c #F0FAEC",
"H} 	c #F1FDEC",
"I} 	c #FEF4EC",
"J} 	c #FAEFEC",
"K} 	c #F7F4F1",
"L} 	c #F4F9F2",
"M} 	c #EBF9EF",
"N} 	c #E5FAEF",
"O} 	c #E9FDF6",
"P} 	c #EBFFFB",
"Q} 	c #EEFEFD",
"R} 	c #EFFCFB",
"S} 	c #F0FBF8",
"T} 	c #F4FAF4",
"U} 	c #F6EBE9",
"V} 	c #FCE1DC",
"W} 	c #F3B9B2",
"X} 	c #DE7571",
"Y} 	c #C2302F",
"Z} 	c #BB0F11",
"`} 	c #C50206",
" | 	c #C30203",
".| 	c #BC0301",
"+| 	c #B80202",
"@| 	c #B50104",
"#| 	c #B30103",
"$| 	c #AF0101",
"%| 	c #B30101",
"&| 	c #BB0305",
"*| 	c #BE0407",
"=| 	c #BC0404",
"-| 	c #BA0204",
";| 	c #BB0405",
">| 	c #BA090A",
",| 	c #AA0D10",
"'| 	c #9F2325",
")| 	c #9F4E4F",
"!| 	c #D5AAA9",
"~| 	c #840B0B",
"{| 	c #9E0304",
"]| 	c #AD0001",
"^| 	c #AA0401",
"/| 	c #A30500",
"(| 	c #A50702",
"_| 	c #AB0101",
":| 	c #B10C0C",
"<| 	c #B81413",
"[| 	c #B61213",
"}| 	c #B10C0E",
"|| 	c #B40D0F",
"1| 	c #B3090C",
"2| 	c #B20306",
"3| 	c #B50205",
"4| 	c #B80206",
"5| 	c #B80203",
"6| 	c #B60700",
"7| 	c #B90305",
"8| 	c #BA020A",
"9| 	c #BE0B10",
"0| 	c #D1262A",
"a| 	c #E28483",
"b| 	c #EDDCD8",
"c| 	c #EBFAF8",
"d| 	c #F6F5FA",
"e| 	c #F6F7FC",
"f| 	c #F1FCFD",
"g| 	c #EBFDFB",
"h| 	c #F6F5F7",
"i| 	c #F0FAF7",
"j| 	c #F0FDF8",
"k| 	c #EEFBF4",
"l| 	c #F7F9F5",
"m| 	c #F6FAF4",
"n| 	c #F5F8F2",
"o| 	c #F7F7F2",
"p| 	c #FAF8EF",
"q| 	c #FCFAF0",
"r| 	c #FBF9EF",
"s| 	c #FAFAF1",
"t| 	c #FAFBF0",
"u| 	c #FAFCF0",
"v| 	c #FAFCEF",
"w| 	c #FAFCEE",
"x| 	c #FAFBEE",
"y| 	c #F8FAEE",
"z| 	c #F8FAF0",
"A| 	c #F6F8EC",
"B| 	c #F9FBF0",
"C| 	c #F9FBF1",
"D| 	c #FBFCEF",
"E| 	c #F9FBED",
"F| 	c #F8F9EC",
"G| 	c #F8F9EB",
"H| 	c #FBFBF0",
"I| 	c #F9F9EE",
"J| 	c #FAFAEF",
"K| 	c #F8F9EE",
"L| 	c #FBFDEF",
"M| 	c #F9FAED",
"N| 	c #F8FAEC",
"O| 	c #F6F9EB",
"P| 	c #F9FBEE",
"Q| 	c #F8FAED",
"R| 	c #FBFCF1",
"S| 	c #FBFCF2",
"T| 	c #FBFBF1",
"U| 	c #FBFBF2",
"V| 	c #FAFAF0",
"W| 	c #F8F8EC",
"X| 	c #F7F8EB",
"Y| 	c #FAFBED",
"Z| 	c #FAFBEF",
"`| 	c #F7F7F0",
" 1 	c #F9F9F0",
".1 	c #FAFAF3",
"+1 	c #F8F8F1",
"@1 	c #F9F9F4",
"#1 	c #F9F8F3",
"$1 	c #F9F8F4",
"%1 	c #F8F6F9",
"&1 	c #FAFBF2",
"*1 	c #F9F9EF",
"=1 	c #F9FAEE",
"-1 	c #F9FCF0",
";1 	c #FBFDF2",
">1 	c #FAFDF1",
",1 	c #FAFCF1",
"'1 	c #FBFDF1",
")1 	c #F7F9EF",
"!1 	c #F9FBEF",
"~1 	c #FBFDF0",
"{1 	c #F6F8EB",
"]1 	c #F6F7F2",
"^1 	c #F5FAF2",
"/1 	c #FCF9F2",
"(1 	c #F5FBF1",
"_1 	c #F1FDF0",
":1 	c #F6F7ED",
"<1 	c #FFE8E7",
"[1 	c #FBE8E8",
"}1 	c #F5EFEB",
"|1 	c #F0F7ED",
"11 	c #E6FAEC",
"21 	c #DFFAEC",
"31 	c #E0FBF1",
"41 	c #E7FCF9",
"51 	c #EFFAFC",
"61 	c #F4F6FA",
"71 	c #FCFAFD",
"81 	c #FBF2F4",
"91 	c #FEE9EC",
"01 	c #FFDFE0",
"a1 	c #F8B9B5",
"b1 	c #DE7973",
"c1 	c #BC3531",
"d1 	c #B60C0D",
"e1 	c #C30208",
"f1 	c #C40307",
"g1 	c #B70704",
"h1 	c #B50601",
"i1 	c #B90302",
"j1 	c #B80105",
"k1 	c #B40104",
"l1 	c #B00203",
"m1 	c #AF0303",
"n1 	c #B10101",
"o1 	c #B60103",
"p1 	c #BA0305",
"q1 	c #B1080B",
"r1 	c #A41719",
"s1 	c #973835",
"t1 	c #C59890",
"u1 	c #F5E9E2",
"v1 	c #89181A",
"w1 	c #8F0704",
"x1 	c #9B0300",
"y1 	c #A60200",
"z1 	c #A50400",
"A1 	c #A20500",
"B1 	c #A20501",
"C1 	c #A90101",
"D1 	c #AB0304",
"E1 	c #AD0908",
"F1 	c #B4100F",
"G1 	c #B30F10",
"H1 	c #B30D0F",
"I1 	c #B71012",
"J1 	c #B60A0E",
"K1 	c #BA0307",
"L1 	c #B20601",
"M1 	c #B1020B",
"N1 	c #B70F13",
"O1 	c #CC3536",
"P1 	c #D98C88",
"Q1 	c #E3D8D3",
"R1 	c #E4F5F3",
"S1 	c #EAF5F4",
"T1 	c #F3F8F6",
"U1 	c #F1F7FA",
"V1 	c #ECFAFE",
"W1 	c #F4FEFF",
"X1 	c #FCF6FA",
"Y1 	c #FCF2F1",
"Z1 	c #FDF8EF",
"`1 	c #F3FCF4",
" 2 	c #FDF6F8",
".2 	c #FEF5FA",
"+2 	c #F9FAFA",
"@2 	c #F8F9FA",
"#2 	c #F8F9F9",
"$2 	c #F6F7F7",
"%2 	c #F5F6F7",
"&2 	c #F8FAF8",
"*2 	c #F6F9F6",
"=2 	c #F5F9F5",
"-2 	c #F3FAF5",
";2 	c #F2FBF5",
">2 	c #F2FBF6",
",2 	c #F1FBF6",
"'2 	c #F4FCF9",
")2 	c #F4FCFA",
"!2 	c #F3FCF8",
"~2 	c #F1FBF4",
"{2 	c #F1FBF5",
"]2 	c #F1FCF5",
"^2 	c #F2FCF6",
"/2 	c #F3FEF7",
"(2 	c #F3FDF8",
"_2 	c #F3FDF9",
":2 	c #F3FDFA",
"<2 	c #F5FBFA",
"[2 	c #F4FBFA",
"}2 	c #F4FAF9",
"|2 	c #F5FDFA",
"12 	c #F5FCFA",
"22 	c #F3FBF9",
"32 	c #F2FAF8",
"42 	c #F3FCFA",
"52 	c #F3FCF9",
"62 	c #F2FCF9",
"72 	c #F4FCF6",
"82 	c #F5FDF8",
"92 	c #F6FEF8",
"02 	c #F2FAF7",
"a2 	c #F5FDFB",
"b2 	c #F3FCF6",
"c2 	c #F4FDF7",
"d2 	c #F3FBF8",
"e2 	c #F5FCF7",
"f2 	c #F6FDF8",
"g2 	c #F5FCF8",
"h2 	c #F6FDF9",
"i2 	c #F5FDF9",
"j2 	c #F5FCFB",
"k2 	c #F3FAF9",
"l2 	c #F1FBF7",
"m2 	c #F4F8F6",
"n2 	c #F1FDF5",
"o2 	c #E9FCF1",
"p2 	c #F1FAF2",
"q2 	c #FAE4E5",
"r2 	c #FCE9E9",
"s2 	c #F8F3ED",
"t2 	c #EFF5EA",
"u2 	c #EAFBEC",
"v2 	c #E2F8EA",
"w2 	c #E6FAF2",
"x2 	c #ECF9F8",
"y2 	c #F2F7FB",
"z2 	c #F2F4F8",
"A2 	c #F7F9FB",
"B2 	c #F4F7F7",
"C2 	c #F6F0F0",
"D2 	c #F8E1DF",
"E2 	c #EEC0B7",
"F2 	c #D3867A",
"G2 	c #B1352D",
"H2 	c #B2090A",
"I2 	c #BC0103",
"J2 	c #BE0708",
"K2 	c #B40804",
"L2 	c #B70202",
"M2 	c #B90205",
"N2 	c #AD0303",
"O2 	c #AF0404",
"P2 	c #B40001",
"Q2 	c #AB0201",
"R2 	c #AA0503",
"S2 	c #AD0503",
"T2 	c #B00102",
"U2 	c #B5060A",
"V2 	c #8F2320",
"W2 	c #A26A62",
"X2 	c #DBC9C0",
"Y2 	c #9D1417",
"Z2 	c #9F0D09",
"`2 	c #950400",
" 3 	c #9F0600",
".3 	c #A10500",
"+3 	c #A00501",
"@3 	c #A10501",
"#3 	c #A70101",
"$3 	c #A80302",
"%3 	c #A90504",
"&3 	c #AF0B0A",
"*3 	c #B00B0D",
"=3 	c #B1080A",
"-3 	c #B00204",
";3 	c #B80205",
">3 	c #B90303",
",3 	c #B40302",
"'3 	c #B1030A",
")3 	c #AC010A",
"!3 	c #B10E11",
"~3 	c #D14542",
"{3 	c #DD9790",
"]3 	c #E3DAD4",
"^3 	c #E2F4F1",
"/3 	c #E1F6ED",
"(3 	c #EBF8EE",
"_3 	c #F0F4F5",
":3 	c #F4F7FF",
"<3 	c #F7F8FE",
"[3 	c #FEF4F7",
"}3 	c #FEF3ED",
"|3 	c #FBF5E7",
"13 	c #FDF6E7",
"23 	c #F1FBF0",
"33 	c #F5F4F3",
"43 	c #FCF5FC",
"53 	c #F5FBF9",
"63 	c #F4FAF8",
"73 	c #F2F8F6",
"83 	c #F1F7F6",
"93 	c #F3F9F8",
"03 	c #F2FAF9",
"a3 	c #F2FBFB",
"b3 	c #F1FAFA",
"c3 	c #F0FBFA",
"d3 	c #EEFCFA",
"e3 	c #EEFBFB",
"f3 	c #EDFBFA",
"g3 	c #EEFAFA",
"h3 	c #F0FDFD",
"i3 	c #EFFDFC",
"j3 	c #EDFCFA",
"k3 	c #EDFBF9",
"l3 	c #ECFBF9",
"m3 	c #EFFCFA",
"n3 	c #EFFBFD",
"o3 	c #EDFAFB",
"p3 	c #EEFAFC",
"q3 	c #EEFAFB",
"r3 	c #F0FCFD",
"s3 	c #F1FCFE",
"t3 	c #EEFBF9",
"u3 	c #EFFBFA",
"v3 	c #EDFAFA",
"w3 	c #EFFBFB",
"x3 	c #F1FDFA",
"y3 	c #F1FDF9",
"z3 	c #F0FEF9",
"A3 	c #F1FEF9",
"B3 	c #EFFCF9",
"C3 	c #EEFBF8",
"D3 	c #EFFBF9",
"E3 	c #EEFCF7",
"F3 	c #EDFCF3",
"G3 	c #EFFDF5",
"H3 	c #F0FCF9",
"I3 	c #F0FCFB",
"J3 	c #EEFCF9",
"K3 	c #EEFBF7",
"L3 	c #F1FDFD",
"M3 	c #F0FAFA",
"N3 	c #EFFAF9",
"O3 	c #F0FAF9",
"P3 	c #F0FBFC",
"Q3 	c #F0FBFD",
"R3 	c #EFFCFD",
"S3 	c #F2FEFD",
"T3 	c #F2FDFC",
"U3 	c #F1FBFC",
"V3 	c #F1FAFB",
"W3 	c #F0FBF9",
"X3 	c #F1FAF9",
"Y3 	c #F0FBF7",
"Z3 	c #F3F9F7",
"`3 	c #EAFDF6",
" 4 	c #F1FCF7",
".4 	c #F7EBEB",
"+4 	c #F8F1EC",
"@4 	c #F3F7EC",
"#4 	c #EBF3E6",
"$4 	c #EBF7E9",
"%4 	c #ECF7ED",
"&4 	c #F6F3F6",
"*4 	c #F7F2F9",
"=4 	c #F3F4F9",
"-4 	c #F1FCFA",
";4 	c #EDFEF9",
">4 	c #EAF9F3",
",4 	c #F0EEE5",
"'4 	c #E5CBBD",
")4 	c #CE8C7D",
"!4 	c #B43930",
"~4 	c #B40C0C",
"{4 	c #B80102",
"]4 	c #BA0707",
"^4 	c #B90403",
"/4 	c #B70204",
"(4 	c #B10202",
"_4 	c #B20101",
":4 	c #B00101",
"<4 	c #A90302",
"[4 	c #A70403",
"}4 	c #AA0302",
"|4 	c #B00104",
"14 	c #B50409",
"24 	c #AC0C0F",
"34 	c #8E1210",
"44 	c #8C3F39",
"54 	c #C19A96",
"64 	c #F2E4E2",
"74 	c #96141C",
"84 	c #A40B0E",
"94 	c #A50E07",
"04 	c #980A00",
"a4 	c #9D0700",
"b4 	c #A10402",
"c4 	c #A10404",
"d4 	c #A00503",
"e4 	c #A70301",
"f4 	c #A50200",
"g4 	c #AA0806",
"h4 	c #AF0D0B",
"i4 	c #AB0707",
"j4 	c #A80304",
"k4 	c #AE0002",
"l4 	c #B00002",
"m4 	c #BB0205",
"n4 	c #B4010C",
"o4 	c #AF010B",
"p4 	c #B50E0F",
"q4 	c #DD4F48",
"r4 	c #E09C92",
"s4 	c #E3DAD3",
"t4 	c #E5F6F2",
"u4 	c #E4FBF1",
"v4 	c #E9FEF0",
"w4 	c #F0F7F4",
"x4 	c #FAF4FF",
"y4 	c #F9F6FD",
"z4 	c #FBF5F4",
"A4 	c #F8F2E9",
"B4 	c #F2EFE0",
"C4 	c #F4F7E4",
"D4 	c #E9FAE6",
"E4 	c #E4FCE9",
"F4 	c #EBFCF3",
"G4 	c #F2FBF9",
"H4 	c #F1FAF6",
"I4 	c #F0FBF3",
"J4 	c #F1FCF4",
"K4 	c #F2FDF5",
"L4 	c #F0FBF4",
"M4 	c #F1FAF8",
"N4 	c #F2FAFA",
"O4 	c #F0FAF8",
"P4 	c #F1FBFA",
"Q4 	c #EFFCF7",
"R4 	c #EFFCF5",
"S4 	c #F0FCF4",
"T4 	c #EFFBF4",
"U4 	c #EFFBF6",
"V4 	c #EFFBF8",
"W4 	c #EEFAF9",
"X4 	c #EEFAF8",
"Y4 	c #EFFCF6",
"Z4 	c #EDFCF4",
"`4 	c #EEFCF4",
" 5 	c #EFFBF3",
".5 	c #EFFCF2",
"+5 	c #F0FCF3",
"@5 	c #F0FCF6",
"#5 	c #F0FBF6",
"$5 	c #EFFBF5",
"%5 	c #F0FDF7",
"&5 	c #EFFCF4",
"*5 	c #EEFAF7",
"=5 	c #EFFAF8",
"-5 	c #EFFAF6",
";5 	c #EFFAF7",
">5 	c #EFF9F8",
",5 	c #F0FCF7",
"'5 	c #EEFAF3",
")5 	c #EFFAF3",
"!5 	c #EEFBF3",
"~5 	c #EFFAF5",
"{5 	c #EFF9F7",
"]5 	c #F1FBF9",
"^5 	c #F1FBF8",
"/5 	c #EEFAF5",
"(5 	c #F1FAF4",
"_5 	c #EDFAF3",
":5 	c #F1FAF3",
"<5 	c #F5F6F1",
"[5 	c #EDF9EE",
"}5 	c #E7FDEB",
"|5 	c #E5FAE9",
"15 	c #E9F9EA",
"25 	c #F1F6ED",
"35 	c #FBF3F4",
"45 	c #FCEAF2",
"55 	c #FCEBF5",
"65 	c #F7F3F9",
"75 	c #E5FEF6",
"85 	c #E3F9F2",
"95 	c #ECF9EC",
"05 	c #E8D6C7",
"a5 	c #DA8B82",
"b5 	c #C23432",
"c5 	c #BD0E10",
"d5 	c #BB0104",
"e5 	c #BB0303",
"f5 	c #B90201",
"g5 	c #B70002",
"h5 	c #B60005",
"i5 	c #B20204",
"j5 	c #AE0202",
"k5 	c #AF0102",
"l5 	c #AD0300",
"m5 	c #AB0300",
"n5 	c #A80202",
"o5 	c #AA0002",
"p5 	c #B00005",
"q5 	c #B30208",
"r5 	c #AB0409",
"s5 	c #940507",
"t5 	c #861C1B",
"u5 	c #9D5959",
"v5 	c #D6B0B1",
"w5 	c #9C0F14",
"x5 	c #A70808",
"y5 	c #A30801",
"z5 	c #9B0700",
"A5 	c #A50403",
"B5 	c #A60207",
"C5 	c #A10206",
"D5 	c #9F0503",
"E5 	c #A70200",
"F5 	c #A80301",
"G5 	c #A50301",
"H5 	c #A70503",
"I5 	c #A60805",
"J5 	c #A60502",
"K5 	c #A70302",
"L5 	c #A70202",
"M5 	c #B70203",
"N5 	c #B8020C",
"O5 	c #B6050C",
"P5 	c #BD0F0D",
"Q5 	c #E24540",
"R5 	c #E09389",
"S5 	c #DFD7CF",
"T5 	c #E5F7F4",
"U5 	c #EDFBF6",
"V5 	c #EDF8F2",
"W5 	c #F5F7F9",
"X5 	c #ECF9F2",
"Y5 	c #EBF5EA",
"Z5 	c #ECF3E6",
"`5 	c #EBFBE9",
" 6 	c #E5FEE9",
".6 	c #DFFEE8",
"+6 	c #E4FFEE",
"@6 	c #ECFEF1",
"#6 	c #F2FAF3",
"$6 	c #F4F9F7",
"%6 	c #F5FAF8",
"&6 	c #F6FBF8",
"*6 	c #F3F7F5",
"=6 	c #F3F8F4",
"-6 	c #F2F9F1",
";6 	c #F2FBF1",
">6 	c #F1FCF1",
",6 	c #F1FCF2",
"'6 	c #F0FBF2",
")6 	c #F1FBF2",
"!6 	c #F3FCF3",
"~6 	c #F2FCF3",
"{6 	c #F1FCF3",
"]6 	c #F0FBF1",
"^6 	c #F0FAF1",
"/6 	c #F2FBF3",
"(6 	c #F2FCF2",
"_6 	c #F2FCF1",
":6 	c #F1FBF1",
"<6 	c #F3FCF2",
"[6 	c #F3FBF5",
"}6 	c #F2FBF0",
"|6 	c #F3FBF2",
"16 	c #F3FAF2",
"26 	c #F3FBF3",
"36 	c #F4FBF0",
"46 	c #F2FCEF",
"56 	c #F0FCEF",
"66 	c #F0FEF0",
"76 	c #F4FCF3",
"86 	c #EDFFF1",
"96 	c #E5FEED",
"06 	c #DFFDEA",
"a6 	c #DFFEE9",
"b6 	c #E2FCE9",
"c6 	c #EBFAEE",
"d6 	c #F3F3F1",
"e6 	c #F7EAF0",
"f6 	c #FAECF5",
"g6 	c #DFFCF2",
"h6 	c #DDF8F1",
"i6 	c #E5F8EC",
"j6 	c #EDD3C7",
"k6 	c #EC8685",
"l6 	c #D63136",
"m6 	c #CE0E16",
"n6 	c #C30006",
"o6 	c #BB0204",
"p6 	c #B00503",
"q6 	c #B10001",
"r6 	c #B20205",
"s6 	c #B10205",
"t6 	c #AD0202",
"u6 	c #A90402",
"v6 	c #A70500",
"w6 	c #A90501",
"x6 	c #AA0301",
"y6 	c #AA0102",
"z6 	c #AE0206",
"A6 	c #AD0407",
"B6 	c #A80305",
"C6 	c #9D0506",
"D6 	c #900E0F",
"E6 	c #8D2E30",
"F6 	c #C08487",
"G6 	c #ECCCCE",
"H6 	c #861E1D",
"I6 	c #98090A",
"J6 	c #A70804",
"K6 	c #A50700",
"L6 	c #A20400",
"M6 	c #AE0005",
"N6 	c #AB0009",
"O6 	c #A20108",
"P6 	c #9E0404",
"Q6 	c #A90100",
"R6 	c #A90301",
"S6 	c #A50401",
"T6 	c #A40502",
"U6 	c #A30401",
"V6 	c #A50502",
"W6 	c #A60201",
"X6 	c #AA0201",
"Y6 	c #B60408",
"Z6 	c #B60608",
"`6 	c #C10D08",
" 7 	c #E33632",
".7 	c #E68F85",
"+7 	c #E0D9D0",
"@7 	c #EAF9F8",
"#7 	c #FBF4FA",
"$7 	c #F5F6F6",
"%7 	c #F0F8F2",
"&7 	c #EAFDF2",
"*7 	c #EEF6F0",
"=7 	c #F8EFEF",
"-7 	c #F7F0EE",
";7 	c #F8F0EB",
">7 	c #F5ECE4",
",7 	c #F7EDE1",
"'7 	c #FDE7DD",
")7 	c #FFDED8",
"!7 	c #FFDCD9",
"~7 	c #FFDCDA",
"{7 	c #FFDDDA",
"]7 	c #FFDDDB",
"^7 	c #FFDEDB",
"/7 	c #FFDEDA",
"(7 	c #FFDFDA",
"_7 	c #FFDED9",
":7 	c #FFDFDB",
"<7 	c #FFE0DB",
"[7 	c #FFDFD9",
"}7 	c #FFE0DA",
"|7 	c #FFDDDC",
"17 	c #FFDEDC",
"27 	c #FEDED8",
"37 	c #FFDEDD",
"47 	c #FEDEDC",
"57 	c #FEDFDC",
"67 	c #FEDFDD",
"77 	c #FFE0D8",
"87 	c #FFDFD8",
"97 	c #FEDED9",
"07 	c #FEDEDA",
"a7 	c #FEDFD9",
"b7 	c #FEDFDA",
"c7 	c #FEDDD8",
"d7 	c #FEDFDB",
"e7 	c #FEE0DA",
"f7 	c #FEE0DB",
"g7 	c #FEE1DB",
"h7 	c #FEE2DB",
"i7 	c #FBE2DB",
"j7 	c #FFDFDF",
"k7 	c #FBF1E8",
"l7 	c #F7EEE7",
"m7 	c #F1EDE6",
"n7 	c #F1F7EB",
"o7 	c #EEF8EE",
"p7 	c #EFEFED",
"q7 	c #F6EDF2",
"r7 	c #FBEFF7",
"s7 	c #F6F1F5",
"t7 	c #E4F9F2",
"u7 	c #DFFAF5",
"v7 	c #EAF6EE",
"w7 	c #EDD1C7",
"x7 	c #E48C86",
"y7 	c #CF3B3B",
"z7 	c #C81116",
"A7 	c #AD0501",
"B7 	c #A60500",
"C7 	c #B50002",
"D7 	c #AF0204",
"E7 	c #AD0304",
"F7 	c #AB0202",
"G7 	c #A80502",
"H7 	c #A40700",
"I7 	c #A70600",
"J7 	c #A90300",
"K7 	c #A70304",
"L7 	c #A30503",
"M7 	c #9F0402",
"N7 	c #8A1B1D",
"O7 	c #B1696A",
"P7 	c #DCB9B9",
"Q7 	c #821211",
"R7 	c #980709",
"S7 	c #A70605",
"T7 	c #A80400",
"U7 	c #AD0104",
"V7 	c #AA0006",
"W7 	c #A30106",
"X7 	c #9F0305",
"Y7 	c #A60104",
"Z7 	c #A10302",
"`7 	c #A20303",
" 8 	c #A30403",
".8 	c #A30303",
"+8 	c #A40402",
"@8 	c #AC0303",
"#8 	c #AD0301",
"$8 	c #AD0101",
"%8 	c #B20206",
"&8 	c #B0080B",
"*8 	c #AF0905",
"=8 	c #BF0E07",
"-8 	c #E73032",
";8 	c #E58E88",
">8 	c #DFDBD4",
",8 	c #E9F7F9",
"'8 	c #FBF1FA",
")8 	c #F6F3F7",
"!8 	c #F2F8F4",
"~8 	c #EFFFF3",
"{8 	c #EBFFF5",
"]8 	c #F0EFED",
"^8 	c #FDD7E1",
"/8 	c #FDD7DE",
"(8 	c #F5C5CB",
"_8 	c #EEBBBC",
":8 	c #F2B8B7",
"<8 	c #F19CA0",
"[8 	c #ED8F90",
"}8 	c #EE8F8C",
"|8 	c #EE8F8D",
"18 	c #EF8F8D",
"28 	c #EF908D",
"38 	c #F0908D",
"48 	c #EC8E8C",
"58 	c #ED8F8E",
"68 	c #ED8E8D",
"78 	c #EE8E8D",
"88 	c #EE8E8E",
"98 	c #EF8F8F",
"08 	c #EF8F8E",
"a8 	c #EF908F",
"b8 	c #EF9090",
"c8 	c #ED8F8D",
"d8 	c #EE908E",
"e8 	c #EE908D",
"f8 	c #EF908E",
"g8 	c #F08F8E",
"h8 	c #EE908F",
"i8 	c #EE9090",
"j8 	c #F08F90",
"k8 	c #EF8E90",
"l8 	c #EF8E8F",
"m8 	c #F08F8F",
"n8 	c #EE8E8F",
"o8 	c #ED8E8E",
"p8 	c #F08D8F",
"q8 	c #EE8F8F",
"r8 	c #EF8F90",
"s8 	c #F08F91",
"t8 	c #EE8F8E",
"u8 	c #ED8F8F",
"v8 	c #EF8F92",
"w8 	c #EF8F91",
"x8 	c #ED8D90",
"y8 	c #EE8E90",
"z8 	c #EE8E91",
"A8 	c #EC908F",
"B8 	c #ED9090",
"C8 	c #ED8E8C",
"D8 	c #EF8D8E",
"E8 	c #F18C8F",
"F8 	c #EE8D91",
"G8 	c #ED8E93",
"H8 	c #EB8F91",
"I8 	c #E99091",
"J8 	c #EB9292",
"K8 	c #F28D91",
"L8 	c #F38D93",
"M8 	c #EA939A",
"N8 	c #F1B8BA",
"O8 	c #F3BBC2",
"P8 	c #F2C3CA",
"Q8 	c #F8E0DE",
"R8 	c #F0EEE8",
"S8 	c #EDF3EC",
"T8 	c #ECEDEB",
"U8 	c #F6ECF1",
"V8 	c #FCEBF6",
"W8 	c #F7EBF2",
"X8 	c #F5F7F8",
"Y8 	c #E6F7F2",
"Z8 	c #D9F8F2",
"`8 	c #E7F6EF",
" 9 	c #E8D3CA",
".9 	c #D18C83",
"+9 	c #B83835",
"@9 	c #A30400",
"#9 	c #B30104",
"$9 	c #AC0202",
"%9 	c #A80402",
"&9 	c #A60301",
"*9 	c #9E0300",
"=9 	c #9F0301",
"-9 	c #9B0605",
";9 	c #8A1210",
">9 	c #984846",
",9 	c #C69B99",
"'9 	c #ECDCDC",
")9 	c #782320",
"!9 	c #850D0F",
"~9 	c #9A080C",
"{9 	c #A80308",
"]9 	c #AC0103",
"^9 	c #A40500",
"/9 	c #A30301",
"(9 	c #A40103",
"_9 	c #A20106",
":9 	c #9F0208",
"<9 	c #9F0408",
"[9 	c #9F0406",
"}9 	c #A00306",
"|9 	c #A20405",
"19 	c #A30305",
"29 	c #A40303",
"39 	c #A60303",
"49 	c #A90303",
"59 	c #AC0105",
"69 	c #AE000F",
"79 	c #A5080B",
"89 	c #A30C03",
"99 	c #B90F08",
"09 	c #E02931",
"a9 	c #E58A89",
"b9 	c #EBDDD8",
"c9 	c #F6F1F7",
"d9 	c #FDF5FD",
"e9 	c #FDF3F6",
"f9 	c #FCF3F0",
"g9 	c #FBF6F1",
"h9 	c #F0F0E8",
"i9 	c #DFE5D9",
"j9 	c #D9BDBB",
"k9 	c #E897A4",
"l9 	c #E799A0",
"m9 	c #D68388",
"n9 	c #CA7477",
"o9 	c #CE7073",
"p9 	c #D54C5B",
"q9 	c #D7444B",
"r9 	c #D14241",
"s9 	c #D0413F",
"t9 	c #D34241",
"u9 	c #D64544",
"v9 	c #D54443",
"w9 	c #D23F3F",
"x9 	c #D23E3E",
"y9 	c #D54242",
"z9 	c #D84544",
"A9 	c #D34040",
"B9 	c #D33F40",
"C9 	c #D54041",
"D9 	c #D74041",
"E9 	c #D94142",
"F9 	c #D74141",
"G9 	c #D54141",
"H9 	c #D64242",
"I9 	c #D44241",
"J9 	c #D44140",
"K9 	c #D44040",
"L9 	c #D54241",
"M9 	c #D2403F",
"N9 	c #D03E3D",
"O9 	c #D33F3F",
"P9 	c #D54040",
"Q9 	c #D84142",
"R9 	c #D84043",
"S9 	c #D44043",
"T9 	c #D23F43",
"U9 	c #D44144",
"V9 	c #D43F43",
"W9 	c #D44044",
"X9 	c #D64145",
"Y9 	c #D74045",
"Z9 	c #D74044",
"`9 	c #D73F44",
" 0 	c #D73F43",
".0 	c #D74042",
"+0 	c #D64041",
"@0 	c #D43F40",
"#0 	c #D13E3E",
"$0 	c #D44141",
"%0 	c #D34141",
"&0 	c #D44041",
"*0 	c #D33E3F",
"=0 	c #D74142",
"-0 	c #D64141",
";0 	c #D64142",
">0 	c #D23D3E",
",0 	c #D64143",
"'0 	c #D84044",
")0 	c #D63E43",
"!0 	c #D84146",
"~0 	c #D63F43",
"{0 	c #D63F44",
"]0 	c #D53D42",
"^0 	c #D84045",
"/0 	c #D43F42",
"(0 	c #D54142",
"_0 	c #D44242",
":0 	c #D34242",
"<0 	c #D44342",
"[0 	c #D34140",
"}0 	c #D2413F",
"|0 	c #CF3F3D",
"10 	c #D03F3E",
"20 	c #D13F3F",
"30 	c #D23E3F",
"40 	c #D53F40",
"50 	c #D43D3E",
"60 	c #D43D3F",
"70 	c #D53E3F",
"80 	c #D63F40",
"90 	c #D33E3E",
"00 	c #D13D3D",
"a0 	c #D43F3F",
"b0 	c #D53F3F",
"c0 	c #D83B40",
"d0 	c #D73A44",
"e0 	c #D33C46",
"f0 	c #CF3E44",
"g0 	c #CE3F40",
"h0 	c #D53E3C",
"i0 	c #DC3C3D",
"j0 	c #D83D42",
"k0 	c #CE4A54",
"l0 	c #D16A76",
"m0 	c #D26B7D",
"n0 	c #D87C8B",
"o0 	c #D69BA2",
"p0 	c #C7ACAB",
"q0 	c #C7BAB7",
"r0 	c #DBCDCC",
"s0 	c #F2D9DE",
"t0 	c #FEE4EC",
"u0 	c #FEECF2",
"v0 	c #FCF5F6",
"w0 	c #F2FAF4",
"x0 	c #E6F9F4",
"y0 	c #F0F9F3",
"z0 	c #ECD6CF",
"A0 	c #D28D87",
"B0 	c #B23938",
"C0 	c #AB1010",
"D0 	c #A80102",
"E0 	c #AC0306",
"F0 	c #AC0205",
"G0 	c #AD0204",
"H0 	c #A90207",
"I0 	c #A80207",
"J0 	c #A40300",
"K0 	c #A00201",
"L0 	c #A50406",
"M0 	c #A80608",
"N0 	c #9C0301",
"O0 	c #890905",
"P0 	c #7D201D",
"Q0 	c #B07575",
"R0 	c #E5C9C6",
"S0 	c #7B1510",
"T0 	c #880A0A",
"U0 	c #9B070B",
"V0 	c #A70208",
"W0 	c #A80002",
"X0 	c #A30601",
"Y0 	c #A40105",
"Z0 	c #A10207",
"`0 	c #9F0206",
" a 	c #9F0205",
".a 	c #A00203",
"+a 	c #A20202",
"@a 	c #A50203",
"#a 	c #AB0403",
"$a 	c #AC0403",
"%a 	c #AC0305",
"&a 	c #AB0008",
"*a 	c #A20900",
"=a 	c #AE0C01",
"-a 	c #CA1719",
";a 	c #DD6865",
">a 	c #F2AFAC",
",a 	c #FBC6CA",
"'a 	c #F7C0C3",
")a 	c #F7BEBD",
"!a 	c #F4B1B0",
"~a 	c #F4ADAD",
"{a 	c #EEA2A0",
"]a 	c #D38E88",
"^a 	c #C86869",
"/a 	c #D64C58",
"(a 	c #CF4D54",
"_a 	c #BF3B3F",
":a 	c #B22F30",
"<a 	c #B62E2E",
"[a 	c #C41A24",
"}a 	c #C3181E",
"|a 	c #BC1617",
"1a 	c #BA1415",
"2a 	c #BD1517",
"3a 	c #C1191B",
"4a 	c #BF1719",
"5a 	c #BD1215",
"6a 	c #BD1114",
"7a 	c #C01518",
"8a 	c #C3171A",
"9a 	c #C21216",
"0a 	c #C31217",
"aa 	c #C51318",
"ba 	c #C61218",
"ca 	c #C81319",
"da 	c #C51117",
"ea 	c #C51217",
"fa 	c #C41318",
"ga 	c #C31116",
"ha 	c #C41217",
"ia 	c #C51419",
"ja 	c #BF0F14",
"ka 	c #C01014",
"la 	c #C21116",
"ma 	c #C51218",
"na 	c #C71218",
"oa 	c #C51216",
"pa 	c #C61617",
"qa 	c #C41515",
"ra 	c #C51616",
"sa 	c #C61515",
"ta 	c #C61314",
"ua 	c #C51214",
"va 	c #C51213",
"wa 	c #C71417",
"xa 	c #C21015",
"ya 	c #C11115",
"za 	c #C01115",
"Aa 	c #C11216",
"Ba 	c #C21217",
"Ca 	c #C41116",
"Da 	c #C51418",
"Ea 	c #C41418",
"Fa 	c #C31317",
"Ga 	c #C11015",
"Ha 	c #C41316",
"Ia 	c #C61315",
"Ja 	c #C71416",
"Ka 	c #C41112",
"La 	c #C41113",
"Ma 	c #C61419",
"Na 	c #C71319",
"Oa 	c #C61319",
"Pa 	c #C41117",
"Qa 	c #BF1114",
"Ra 	c #BF1115",
"Sa 	c #C51519",
"Ta 	c #C6151A",
"Ua 	c #BE1114",
"Va 	c #BF1316",
"Wa 	c #C11417",
"Xa 	c #C11518",
"Ya 	c #C21417",
"Za 	c #C41519",
"`a 	c #C21317",
" b 	c #BE1215",
".b 	c #C21112",
"+b 	c #C41110",
"@b 	c #C40F14",
"#b 	c #C11018",
"$b 	c #BE1216",
"%b 	c #BD1312",
"&b 	c #C5140E",
"*b 	c #CC120F",
"=b 	c #CB1316",
"-b 	c #C11A21",
";b 	c #BC2C34",
">b 	c #C02C39",
",b 	c #C3333F",
"'b 	c #C0464C",
")b 	c #BA5558",
"!b 	c #BD6667",
"~b 	c #C97979",
"{b 	c #DE8F90",
"]b 	c #EEA3A4",
"^b 	c #F2B3B0",
"/b 	c #F6C4BC",
"(b 	c #F1C5BD",
"_b 	c #F6C5C6",
":b 	c #FDCACB",
"<b 	c #F6ADAC",
"[b 	c #D67370",
"}b 	c #B0312D",
"|b 	c #A40F0C",
"1b 	c #A70402",
"2b 	c #AA0203",
"3b 	c #AA0104",
"4b 	c #A90305",
"5b 	c #AB0203",
"6b 	c #AA0207",
"7b 	c #A80106",
"8b 	c #A00300",
"9b 	c #9B0201",
"0b 	c #9E0306",
"ab 	c #A70508",
"bb 	c #A40504",
"cb 	c #910401",
"db 	c #7F0D0D",
"eb 	c #9E4D51",
"fb 	c #CAA1A1",
"gb 	c #8A201E",
"hb 	c #89100B",
"ib 	c #8C0806",
"jb 	c #980204",
"kb 	c #A10003",
"lb 	c #A60004",
"mb 	c #A30202",
"nb 	c #A20403",
"ob 	c #A50102",
"pb 	c #A30104",
"qb 	c #9F0203",
"rb 	c #A00202",
"sb 	c #A60302",
"tb 	c #AB0302",
"ub 	c #A70800",
"vb 	c #A70B01",
"wb 	c #B50908",
"xb 	c #C43634",
"yb 	c #DB6261",
"zb 	c #EE7477",
"Ab 	c #D26261",
"Bb 	c #CE5B57",
"Cb 	c #C34341",
"Db 	c #BF3336",
"Eb 	c #B52A2C",
"Fb 	c #A62220",
"Gb 	c #AB1617",
"Hb 	c #BE0D16",
"Ib 	c #B61215",
"Jb 	c #B30D0D",
"Kb 	c #B00B08",
"Lb 	c #B30F0A",
"Mb 	c #C2070A",
"Nb 	c #C0060A",
"Ob 	c #BC0608",
"Pb 	c #BD080A",
"Qb 	c #BC0508",
"Rb 	c #BD0609",
"Sb 	c #BD0508",
"Tb 	c #BE0609",
"Ub 	c #C0080B",
"Vb 	c #BF070A",
"Wb 	c #BE0508",
"Xb 	c #C2060A",
"Yb 	c #C4070C",
"Zb 	c #C5080D",
"`b 	c #C2060B",
" c 	c #C00408",
".c 	c #C10509",
"+c 	c #C3060B",
"@c 	c #C4080C",
"#c 	c #C4060B",
"$c 	c #C00509",
"%c 	c #C1070A",
"&c 	c #BF0609",
"*c 	c #C00609",
"=c 	c #C00409",
"-c 	c #C10408",
";c 	c #C00406",
">c 	c #C10605",
",c 	c #C20806",
"'c 	c #C50A08",
")c 	c #C40806",
"!c 	c #C30705",
"~c 	c #C60907",
"{c 	c #C60A08",
"]c 	c #C50808",
"^c 	c #C3050A",
"/c 	c #C7070D",
"(c 	c #C6070D",
"_c 	c #C10409",
":c 	c #C2080C",
"<c 	c #C2050A",
"[c 	c #C1060A",
"}c 	c #C00308",
"|c 	c #C3080A",
"1c 	c #C40606",
"2c 	c #C70A08",
"3c 	c #C50907",
"4c 	c #C50807",
"5c 	c #C30606",
"6c 	c #C7090E",
"7c 	c #C6080D",
"8c 	c #C3070C",
"9c 	c #C5090E",
"0c 	c #C6090E",
"ac 	c #C5080C",
"bc 	c #C5090D",
"cc 	c #C1050A",
"dc 	c #BF0509",
"ec 	c #BF0308",
"fc 	c #C0070A",
"gc 	c #C2070B",
"hc 	c #BF0408",
"ic 	c #C10308",
"jc 	c #C20409",
"kc 	c #BF0307",
"lc 	c #BE0604",
"mc 	c #BE0801",
"nc 	c #BF0705",
"oc 	c #BE0709",
"pc 	c #BD0805",
"qc 	c #C10901",
"rc 	c #C70600",
"sc 	c #BF0608",
"tc 	c #B4090D",
"uc 	c #B40A0C",
"vc 	c #B40B0C",
"wc 	c #B60F10",
"xc 	c #B51014",
"yc 	c #B51318",
"zc 	c #B61A1F",
"Ac 	c #B92428",
"Bc 	c #BA292C",
"Cc 	c #BC3334",
"Dc 	c #CC4747",
"Ec 	c #CE4E4E",
"Fc 	c #D96165",
"Gc 	c #EA7375",
"Hc 	c #E26566",
"Ic 	c #C74542",
"Jc 	c #AB231D",
"Kc 	c #9E0E07",
"Lc 	c #9F0500",
"Mc 	c #A60404",
"Nc 	c #AC0206",
"Oc 	c #AA0206",
"Pc 	c #A60203",
"Qc 	c #A50302",
"Rc 	c #A70201",
"Sc 	c #A80104",
"Tc 	c #A80003",
"Uc 	c #9B0200",
"Vc 	c #930100",
"Wc 	c #950102",
"Xc 	c #A20508",
"Yc 	c #A90605",
"Zc 	c #9F0404",
"`c 	c #9B1215",
" d 	c #8E232A",
".d 	c #A46C6E",
"+d 	c #EEDAD6",
"@d 	c #941211",
"#d 	c #910703",
"$d 	c #940604",
"%d 	c #980001",
"&d 	c #A50205",
"*d 	c #A10204",
"=d 	c #9F0304",
"-d 	c #A10403",
";d 	c #A70102",
">d 	c #A60002",
",d 	c #A30102",
"'d 	c #A20201",
")d 	c #A30200",
"!d 	c #AC0302",
"~d 	c #AE0203",
"{d 	c #AC0707",
"]d 	c #A60D0A",
"^d 	c #AE0B0E",
"/d 	c #BC2122",
"(d 	c #CE3638",
"_d 	c #DD4043",
":d 	c #BD2E2C",
"<d 	c #B3211E",
"[d 	c #AD1312",
"}d 	c #AA090B",
"|d 	c #AB0608",
"1d 	c #A70604",
"2d 	c #AE0304",
"3d 	c #B80003",
"4d 	c #B60101",
"5d 	c #B90502",
"6d 	c #B90702",
"7d 	c #C30304",
"8d 	c #C20404",
"9d 	c #BE0404",
"0d 	c #BF0404",
"ad 	c #C10506",
"bd 	c #C00405",
"cd 	c #C00304",
"dd 	c #C10405",
"ed 	c #C20606",
"fd 	c #C00505",
"gd 	c #C40909",
"hd 	c #C40809",
"id 	c #C5090A",
"jd 	c #C50A0A",
"kd 	c #BE0504",
"ld 	c #BD0504",
"md 	c #C00606",
"nd 	c #C10707",
"od 	c #C00707",
"pd 	c #C30808",
"qd 	c #BD0303",
"rd 	c #BD0404",
"sd 	c #BB0504",
"td 	c #BD0201",
"ud 	c #BF0403",
"vd 	c #C40908",
"wd 	c #C00605",
"xd 	c #C00403",
"yd 	c #C50908",
"zd 	c #C60B0A",
"Ad 	c #C40808",
"Bd 	c #C10808",
"Cd 	c #BB0404",
"Dd 	c #C30708",
"Ed 	c #C60809",
"Fd 	c #C6090A",
"Gd 	c #BF0707",
"Hd 	c #C40708",
"Id 	c #BD0304",
"Jd 	c #C10908",
"Kd 	c #C40A09",
"Ld 	c #C30807",
"Md 	c #C60A09",
"Nd 	c #C40807",
"Od 	c #C10404",
"Pd 	c #BF0303",
"Qd 	c #C20607",
"Rd 	c #C70A0B",
"Sd 	c #C50B0B",
"Td 	c #BE0605",
"Ud 	c #BF0606",
"Vd 	c #C20808",
"Wd 	c #C70B0B",
"Xd 	c #BD0505",
"Yd 	c #C60709",
"Zd 	c #C10607",
"`d 	c #BB0403",
" e 	c #BB0302",
".e 	c #C10304",
"+e 	c #C00204",
"@e 	c #BF0204",
"#e 	c #C6080A",
"$e 	c #C9070A",
"%e 	c #C60508",
"&e 	c #C30305",
"*e 	c #C10305",
"=e 	c #BF0304",
"-e 	c #BE0304",
";e 	c #C30607",
">e 	c #BF0605",
",e 	c #BB0602",
"'e 	c #B80800",
")e 	c #BB0604",
"!e 	c #BC0409",
"~e 	c #BB0607",
"{e 	c #BB0503",
"]e 	c #BD0400",
"^e 	c #C10401",
"/e 	c #BF0101",
"(e 	c #B10501",
"_e 	c #BD0003",
":e 	c #BC0003",
"<e 	c #B90004",
"[e 	c #B50206",
"}e 	c #B00308",
"|e 	c #AD0306",
"1e 	c #B80B10",
"2e 	c #C2181C",
"3e 	c #C02828",
"4e 	c #D23C3C",
"5e 	c #D83F3D",
"6e 	c #C32C29",
"7e 	c #A91712",
"8e 	c #A2100B",
"9e 	c #A10705",
"0e 	c #A70405",
"ae 	c #A70205",
"be 	c #A30201",
"ce 	c #A40501",
"de 	c #A40401",
"ee 	c #9A0400",
"fe 	c #920302",
"ge 	c #930206",
"he 	c #9D0206",
"ie 	c #AA0404",
"je 	c #A70203",
"ke 	c #9F0709",
"le 	c #8C1117",
"me 	c #9D565B",
"ne 	c #EDCDCC",
"oe 	c #900505",
"pe 	c #960200",
"qe 	c #950200",
"re 	c #9C0302",
"se 	c #A10105",
"te 	c #9E0104",
"ue 	c #9E0205",
"ve 	c #A40302",
"we 	c #A50100",
"xe 	c #A20300",
"ye 	c #AC0402",
"ze 	c #AF0106",
"Ae 	c #A60007",
"Be 	c #9D030B",
"Ce 	c #A50711",
"De 	c #A80C12",
"Ee 	c #B21417",
"Fe 	c #C11B1E",
"Ge 	c #AA110F",
"He 	c #9E0606",
"Ie 	c #A10606",
"Je 	c #A90506",
"Ke 	c #AE0303",
"Le 	c #BC0406",
"Me 	c #BA0403",
"Ne 	c #BE0305",
"Oe 	c #BC0303",
"Pe 	c #B90100",
"Qe 	c #BA0201",
"Re 	c #BB0202",
"Se 	c #BB0301",
"Te 	c #BA0100",
"Ue 	c #BB0201",
"Ve 	c #BC0402",
"We 	c #B80100",
"Xe 	c #BD0503",
"Ye 	c #B60300",
"Ze 	c #B70201",
"`e 	c #B80402",
" f 	c #BA0503",
".f 	c #BA0301",
"+f 	c #B80201",
"@f 	c #B70301",
"#f 	c #B60301",
"$f 	c #B70502",
"%f 	c #B90206",
"&f 	c #BA0306",
"*f 	c #BF080B",
"=f 	c #BE070B",
"-f 	c #BC0408",
";f 	c #BD0509",
">f 	c #BB0502",
",f 	c #B70400",
"'f 	c #B70402",
")f 	c #B60401",
"!f 	c #B50300",
"~f 	c #B60201",
"{f 	c #BC0403",
"]f 	c #BD0402",
"^f 	c #BC0504",
"/f 	c #BC0604",
"(f 	c #B90301",
"_f 	c #B60100",
":f 	c #B50301",
"<f 	c #B70401",
"[f 	c #BD0604",
"}f 	c #B80502",
"|f 	c #BD0907",
"1f 	c #BE070A",
"2f 	c #BC0308",
"3f 	c #BF060A",
"4f 	c #BD0408",
"5f 	c #BA0104",
"6f 	c #BD0605",
"7f 	c #BA0604",
"8f 	c #B90503",
"9f 	c #B80401",
"0f 	c #BE0705",
"af 	c #BF0706",
"bf 	c #BC0605",
"cf 	c #BD0705",
"df 	c #BD0403",
"ef 	c #B90401",
"ff 	c #BD0704",
"gf 	c #BA0101",
"hf 	c #BF0504",
"if 	c #C10504",
"jf 	c #BB0101",
"kf 	c #BA0302",
"lf 	c #B80301",
"mf 	c #B60501",
"nf 	c #B60305",
"of 	c #B80108",
"pf 	c #B8010A",
"qf 	c #B6020A",
"rf 	c #B40403",
"sf 	c #BB0103",
"tf 	c #BE0306",
"uf 	c #B40705",
"vf 	c #AF0804",
"wf 	c #B40202",
"xf 	c #B90104",
"yf 	c #BA0105",
"zf 	c #A40202",
"Af 	c #A30404",
"Bf 	c #A80808",
"Cf 	c #A41009",
"Df 	c #B21A12",
"Ef 	c #C42521",
"Ff 	c #BC1D1C",
"Gf 	c #A80F0D",
"Hf 	c #A80F0E",
"If 	c #A50607",
"Jf 	c #A90105",
"Kf 	c #A80103",
"Lf 	c #A50503",
"Mf 	c #9F0401",
"Nf 	c #A60503",
"Of 	c #A10300",
"Pf 	c #A00400",
"Qf 	c #9B0401",
"Rf 	c #920104",
"Sf 	c #930108",
"Tf 	c #9D0006",
"Uf 	c #AB0405",
"Vf 	c #A70100",
"Wf 	c #9E0201",
"Xf 	c #89070A",
"Yf 	c #98464B",
"Zf 	c #E8C1BF",
"`f 	c #93161A",
" g 	c #910203",
".g 	c #960300",
"+g 	c #980300",
"@g 	c #9A0201",
"#g 	c #9A0102",
"$g 	c #9A0002",
"%g 	c #9B0003",
"&g 	c #9D0105",
"*g 	c #9E0203",
"=g 	c #A50201",
"-g 	c #A80100",
";g 	c #A40200",
">g 	c #AB0606",
",g 	c #AA0604",
"'g 	c #AC0401",
")g 	c #AB0400",
"!g 	c #AB0303",
"~g 	c #A0010D",
"{g 	c #A3010E",
"]g 	c #9E0309",
"^g 	c #A80707",
"/g 	c #A60A0B",
"(g 	c #9F0204",
"_g 	c #B0080A",
":g 	c #B50B0D",
"<g 	c #B6090B",
"[g 	c #AD0203",
"}g 	c #B50103",
"|g 	c #BA0004",
"1g 	c #BA0205",
"2g 	c #BC0206",
"3g 	c #B90203",
"4g 	c #B90304",
"5g 	c #BA0404",
"6g 	c #BD0204",
"7g 	c #BC0205",
"8g 	c #BD0104",
"9g 	c #B90102",
"0g 	c #BA0203",
"ag 	c #BC0104",
"bg 	c #BD0103",
"cg 	c #B90103",
"dg 	c #BB0106",
"eg 	c #BB0007",
"fg 	c #BB0006",
"gg 	c #BC0108",
"hg 	c #BD0108",
"ig 	c #BD0208",
"jg 	c #BC0208",
"kg 	c #BB0207",
"lg 	c #BA0103",
"mg 	c #BA0102",
"ng 	c #BE0205",
"og 	c #BF0205",
"pg 	c #BF0104",
"qg 	c #BA0303",
"rg 	c #BC0204",
"sg 	c #BE0104",
"tg 	c #BB0105",
"ug 	c #BD0203",
"vg 	c #BD0004",
"wg 	c #BF0004",
"xg 	c #B80103",
"yg 	c #BA0003",
"zg 	c #BB0002",
"Ag 	c #BA0005",
"Bg 	c #BB000A",
"Cg 	c #B9000A",
"Dg 	c #B60308",
"Eg 	c #B40406",
"Fg 	c #B50404",
"Gg 	c #C20105",
"Hg 	c #C40007",
"Ig 	c #C30007",
"Jg 	c #C20007",
"Kg 	c #C00006",
"Lg 	c #BB0005",
"Mg 	c #B50006",
"Ng 	c #AE0105",
"Og 	c #A90206",
"Pg 	c #A90408",
"Qg 	c #A9070B",
"Rg 	c #A80A0A",
"Sg 	c #9B0901",
"Tg 	c #A50C06",
"Ug 	c #B00D0C",
"Vg 	c #AF0A0D",
"Wg 	c #A40507",
"Xg 	c #A30408",
"Yg 	c #A80307",
"Zg 	c #AD0105",
"`g 	c #A30501",
" h 	c #A10601",
".h 	c #A80403",
"+h 	c #A30203",
"@h 	c #9E0200",
"#h 	c #9A0100",
"$h 	c #940005",
"%h 	c #950007",
"&h 	c #9F0107",
"*h 	c #A90403",
"=h 	c #980401",
"-h 	c #870708",
";h 	c #8C3034",
">h 	c #DBA9AA",
",h 	c #88080C",
"'h 	c #8D0202",
")h 	c #930403",
"!h 	c #990102",
"~h 	c #970302",
"{h 	c #960303",
"]h 	c #9B0004",
"^h 	c #9D0104",
"/h 	c #9D0203",
"(h 	c #9F0403",
"_h 	c #AA0705",
":h 	c #AC0807",
"<h 	c #AA0504",
"[h 	c #AD0606",
"}h 	c #AD0707",
"|h 	c #AC0800",
"1h 	c #AD0D04",
"2h 	c #A80706",
"3h 	c #A50106",
"4h 	c #AB020A",
"5h 	c #9C0200",
"6h 	c #A30300",
"7h 	c #AD0508",
"8h 	c #AC0503",
"9h 	c #B40505",
"0h 	c #B60405",
"ah 	c #B60304",
"bh 	c #B30102",
"ch 	c #B20502",
"dh 	c #B90105",
"eh 	c #BA0106",
"fh 	c #BA0206",
"gh 	c #B90005",
"hh 	c #BD0005",
"ih 	c #BC0004",
"jh 	c #BC0005",
"kh 	c #BC0105",
"lh 	c #BA0002",
"mh 	c #BB0206",
"nh 	c #BE0002",
"oh 	c #BE0003",
"ph 	c #B40504",
"qh 	c #C00101",
"rh 	c #C40005",
"sh 	c #C30005",
"th 	c #BC0002",
"uh 	c #B80002",
"vh 	c #B50203",
"wh 	c #B40405",
"xh 	c #B10103",
"yh 	c #AF0003",
"zh 	c #AE0208",
"Ah 	c #AC0209",
"Bh 	c #A60107",
"Ch 	c #A80105",
"Dh 	c #AF0403",
"Eh 	c #A80500",
"Fh 	c #A70303",
"Gh 	c #A40102",
"Hh 	c #A00303",
"Ih 	c #9E0405",
"Jh 	c #9D0403",
"Kh 	c #9D0200",
"Lh 	c #9B0100",
"Mh 	c #970006",
"Nh 	c #960007",
"Oh 	c #9E0005",
"Ph 	c #960701",
"Qh 	c #840706",
"Rh 	c #821F25",
"Sh 	c #CB9293",
"Th 	c #F9DFDB",
"Uh 	c #8E090B",
"Vh 	c #8F0808",
"Wh 	c #8D0304",
"Xh 	c #960103",
"Yh 	c #930203",
"Zh 	c #920403",
"`h 	c #960204",
" i 	c #9A0103",
".i 	c #9C0303",
"+i 	c #9B0403",
"@i 	c #A10202",
"#i 	c #A40301",
"$i 	c #AA0706",
"%i 	c #AE0909",
"&i 	c #AC0704",
"*i 	c #AB0900",
"=i 	c #AC1205",
"-i 	c #A91006",
";i 	c #AB0805",
">i 	c #B10406",
",i 	c #AD0706",
"'i 	c #A60603",
")i 	c #AF0707",
"!i 	c #B40608",
"~i 	c #B10304",
"{i 	c #B10000",
"]i 	c #B40000",
"^i 	c #B50501",
"/i 	c #B40601",
"(i 	c #B60400",
"_i 	c #B80104",
":i 	c #B70205",
"<i 	c #B90200",
"[i 	c #B80300",
"}i 	c #B90306",
"|i 	c #B70104",
"1i 	c #B70105",
"2i 	c #B60104",
"3i 	c #B90202",
"4i 	c #BD0001",
"5i 	c #BA0200",
"6i 	c #B30501",
"7i 	c #B10600",
"8i 	c #BD0101",
"9i 	c #BA0001",
"0i 	c #B40100",
"ai 	c #B00200",
"bi 	c #AF0501",
"ci 	c #B00701",
"di 	c #B20402",
"ei 	c #AD0102",
"fi 	c #B10106",
"gi 	c #B00004",
"hi 	c #AF0007",
"ii 	c #AD0207",
"ji 	c #AA0407",
"ki 	c #A70206",
"li 	c #AA0200",
"mi 	c #A80300",
"ni 	c #A60304",
"oi 	c #A40203",
"pi 	c #A00405",
"qi 	c #9B0405",
"ri 	c #9B0304",
"si 	c #9B0001",
"ti 	c #970005",
"ui 	c #960006",
"vi 	c #9D0205",
"wi 	c #950502",
"xi 	c #830405",
"yi 	c #7D1419",
"zi 	c #BE7E7E",
"Ai 	c #F0D4D1",
"Bi 	c #930A08",
"Ci 	c #950C0D",
"Di 	c #8E0509",
"Ei 	c #8E0204",
"Fi 	c #8E0403",
"Gi 	c #930202",
"Hi 	c #9D0002",
"Ii 	c #9A0202",
"Ji 	c #970503",
"Ki 	c #980404",
"Li 	c #9D0204",
"Mi 	c #A20301",
"Ni 	c #A30001",
"Oi 	c #A60405",
"Pi 	c #AC0809",
"Qi 	c #AC0705",
"Ri 	c #A30B04",
"Si 	c #9C0A01",
"Ti 	c #A50902",
"Ui 	c #B10705",
"Vi 	c #B10B0A",
"Wi 	c #A90A09",
"Xi 	c #AB0909",
"Yi 	c #B40A0B",
"Zi 	c #B60A0A",
"`i 	c #B30707",
" j 	c #AF0201",
".j 	c #B50101",
"+j 	c #B50200",
"@j 	c #B20501",
"#j 	c #B10701",
"$j 	c #B30500",
"%j 	c #B50102",
"&j 	c #B40101",
"*j 	c #B10201",
"=j 	c #B20302",
"-j 	c #B20202",
";j 	c #B10302",
">j 	c #B50303",
",j 	c #B30200",
"'j 	c #B20200",
")j 	c #B20400",
"!j 	c #B00300",
"~j 	c #B00301",
"{j 	c #B20303",
"]j 	c #B30302",
"^j 	c #B20300",
"/j 	c #B10300",
"(j 	c #B20301",
"_j 	c #B00502",
":j 	c #B10402",
"<j 	c #B20403",
"[j 	c #B10401",
"}j 	c #AE0600",
"|j 	c #B10500",
"1j 	c #B70100",
"2j 	c #B10603",
"3j 	c #B50403",
"4j 	c #B60303",
"5j 	c #B40401",
"6j 	c #B40602",
"7j 	c #B30602",
"8j 	c #B00600",
"9j 	c #AF0300",
"0j 	c #AE0200",
"aj 	c #AB0503",
"bj 	c #B00001",
"cj 	c #AE0101",
"dj 	c #AC0404",
"ej 	c #A90503",
"fj 	c #A60401",
"gj 	c #AA0101",
"hj 	c #A30302",
"ij 	c #A20101",
"jj 	c #9E0102",
"kj 	c #9D0202",
"lj 	c #9C0203",
"mj 	c #9B0206",
"nj 	c #9C0204",
"oj 	c #9C0100",
"pj 	c #9A0101",
"qj 	c #950103",
"rj 	c #930003",
"sj 	c #9A0204",
"tj 	c #9A0405",
"uj 	c #8C030B",
"vj 	c #801219",
"wj 	c #A25E5E",
"xj 	c #D5B6B2",
"yj 	c #96201C",
"zj 	c #990808",
"Aj 	c #94090A",
"Bj 	c #900509",
"Cj 	c #920005",
"Dj 	c #8D0305",
"Ej 	c #8C0503",
"Fj 	c #920303",
"Gj 	c #9A0001",
"Hj 	c #9D0001",
"Ij 	c #990101",
"Jj 	c #950402",
"Kj 	c #950304",
"Lj 	c #990104",
"Mj 	c #9D0102",
"Nj 	c #A10101",
"Oj 	c #A90609",
"Pj 	c #AC090C",
"Qj 	c #AE070D",
"Rj 	c #B00710",
"Sj 	c #A50B0E",
"Tj 	c #9C0C06",
"Uj 	c #A20D06",
"Vj 	c #AE0A08",
"Wj 	c #B6060D",
"Xj 	c #B30A11",
"Yj 	c #A40D0E",
"Zj 	c #AD0F0F",
"`j 	c #AF0508",
" k 	c #AA0406",
".k 	c #AF0305",
"+k 	c #B10104",
"@k 	c #B60004",
"#k 	c #B50305",
"$k 	c #B40404",
"%k 	c #B60402",
"&k 	c #B60403",
"*k 	c #B50503",
"=k 	c #B40502",
"-k 	c #B30502",
";k 	c #B30100",
">k 	c #B40200",
",k 	c #B50100",
"'k 	c #B30003",
")k 	c #B00202",
"!k 	c #B50201",
"~k 	c #B20100",
"{k 	c #B10102",
"]k 	c #B30401",
"^k 	c #B30301",
"/k 	c #B20401",
"(k 	c #B30300",
"_k 	c #B20000",
":k 	c #AF0200",
"<k 	c #B30000",
"[k 	c #B00400",
"}k 	c #B70007",
"|k 	c #AA0601",
"1k 	c #AF0500",
"2k 	c #B90003",
"3k 	c #B50105",
"4k 	c #B10207",
"5k 	c #B10308",
"6k 	c #B50207",
"7k 	c #B20405",
"8k 	c #B30404",
"9k 	c #B70101",
"0k 	c #AA0202",
"ak 	c #A40400",
"bk 	c #A30700",
"ck 	c #A60801",
"dk 	c #AC0301",
"ek 	c #9E0100",
"fk 	c #9D0101",
"gk 	c #9C0202",
"hk 	c #9C0106",
"ik 	c #9C0002",
"jk 	c #910103",
"kk 	c #980304",
"lk 	c #9E0107",
"mk 	c #960410",
"nk 	c #820F17",
"ok 	c #8F4848",
"pk 	c #C09E9A",
"qk 	c #961A17",
"rk 	c #990709",
"sk 	c #980B0A",
"tk 	c #8D0503",
"uk 	c #8E0205",
"vk 	c #8E0306",
"wk 	c #910204",
"xk 	c #960003",
"yk 	c #980103",
"zk 	c #960102",
"Ak 	c #950201",
"Bk 	c #970202",
"Ck 	c #9B0203",
"Dk 	c #A10203",
"Ek 	c #A30204",
"Fk 	c #A40304",
"Gk 	c #A40404",
"Hk 	c #A90607",
"Ik 	c #AC0A09",
"Jk 	c #AF060B",
"Kk 	c #AB090B",
"Lk 	c #A90D0A",
"Mk 	c #A80C08",
"Nk 	c #AA0909",
"Ok 	c #AD060A",
"Pk 	c #AD090D",
"Qk 	c #A6080C",
"Rk 	c #A70A0E",
"Sk 	c #AD0B0F",
"Tk 	c #AC0102",
"Uk 	c #B30205",
"Vk 	c #B30201",
"Wk 	c #B20102",
"Xk 	c #B10301",
"Yk 	c #B20203",
"Zk 	c #B40002",
"`k 	c #B20002",
" l 	c #B20304",
".l 	c #B10303",
"+l 	c #B00403",
"@l 	c #B00000",
"#l 	c #B00103",
"$l 	c #B00003",
"%l 	c #B20103",
"&l 	c #B30002",
"*l 	c #AE0401",
"=l 	c #B00303",
"-l 	c #B10403",
";l 	c #B00404",
">l 	c #B40105",
",l 	c #B10003",
"'l 	c #A90201",
")l 	c #A80204",
"!l 	c #A00401",
"~l 	c #A00403",
"{l 	c #A00404",
"]l 	c #9A0105",
"^l 	c #920103",
"/l 	c #9E0204",
"(l 	c #9F0104",
"_l 	c #9C0205",
":l 	c #950609",
"<l 	c #820F11",
"[l 	c #8F3939",
"}l 	c #B98484",
"|l 	c #981B1A",
"1l 	c #970609",
"2l 	c #960905",
"3l 	c #8D0701",
"4l 	c #8B0503",
"5l 	c #8C0405",
"6l 	c #8F0306",
"7l 	c #910206",
"8l 	c #930006",
"9l 	c #940004",
"0l 	c #950003",
"al 	c #960201",
"bl 	c #960301",
"cl 	c #980102",
"dl 	c #9B0103",
"el 	c #9C0104",
"fl 	c #9F0102",
"gl 	c #AB0706",
"hl 	c #AF0A08",
"il 	c #AE0807",
"jl 	c #AD0907",
"kl 	c #A80908",
"ll 	c #A90A0A",
"ml 	c #AA0B0B",
"nl 	c #B10C10",
"ol 	c #B30C12",
"pl 	c #AD0201",
"ql 	c #AE0100",
"rl 	c #AC0203",
"sl 	c #B00100",
"tl 	c #B20003",
"ul 	c #B40003",
"vl 	c #AE0102",
"wl 	c #AE0103",
"xl 	c #AF0001",
"yl 	c #AE0001",
"zl 	c #A50202",
"Al 	c #9F0200",
"Bl 	c #9E0301",
"Cl 	c #9C0201",
"Dl 	c #9C0102",
"El 	c #9B0202",
"Fl 	c #9B0204",
"Gl 	c #990103",
"Hl 	c #980104",
"Il 	c #930303",
"Jl 	c #900204",
"Kl 	c #930103",
"Ll 	c #9A0003",
"Ml 	c #990505",
"Nl 	c #950B08",
"Ol 	c #8B1414",
"Pl 	c #822122",
"Ql 	c #A76466",
"Rl 	c #E9CBCB",
"Sl 	c #9C1918",
"Tl 	c #98080A",
"Ul 	c #920904",
"Vl 	c #8C0701",
"Wl 	c #8A0403",
"Xl 	c #8B0303",
"Yl 	c #8E0305",
"Zl 	c #900206",
"`l 	c #920106",
" m 	c #940203",
".m 	c #940202",
"+m 	c #940201",
"@m 	c #970102",
"#m 	c #AC0A08",
"$m 	c #AB0B08",
"%m 	c #A90A07",
"&m 	c #A90908",
"*m 	c #AC090A",
"=m 	c #B10B0D",
"-m 	c #B1090C",
";m 	c #AD0403",
">m 	c #AE0404",
",m 	c #AF0402",
"'m 	c #AD0504",
")m 	c #AE0302",
"!m 	c #AE0402",
"~m 	c #AD0302",
"{m 	c #AD0401",
"]m 	c #AB0404",
"^m 	c #A00302",
"/m 	c #A20302",
"(m 	c #A20204",
"_m 	c #9E0402",
":m 	c #970103",
"<m 	c #960203",
"[m 	c #8E0404",
"}m 	c #8F0304",
"|m 	c #970001",
"1m 	c #990203",
"2m 	c #980504",
"3m 	c #970B09",
"4m 	c #8E1514",
"5m 	c #841D1E",
"6m 	c #A86163",
"7m 	c #E7C8C7",
"8m 	c #A31616",
"9m 	c #9C0E0F",
"0m 	c #920C08",
"am 	c #8B0702",
"bm 	c #880401",
"cm 	c #8A0401",
"dm 	c #8D0403",
"em 	c #920305",
"fm 	c #910101",
"gm 	c #920202",
"hm 	c #970204",
"im 	c #980203",
"jm 	c #9A0203",
"km 	c #9F0201",
"lm 	c #A50605",
"mm 	c #A70807",
"nm 	c #A90B08",
"om 	c #AA0B08",
"pm 	c #AB0C09",
"qm 	c #AE0B0A",
"rm 	c #B00909",
"sm 	c #B00607",
"tm 	c #AC0304",
"um 	c #AD0103",
"vm 	c #AC0101",
"wm 	c #AA0300",
"xm 	c #9E0504",
"ym 	c #9D0404",
"zm 	c #9D0305",
"Am 	c #9D0304",
"Bm 	c #930104",
"Cm 	c #8F0302",
"Dm 	c #8D0404",
"Em 	c #900305",
"Fm 	c #930204",
"Gm 	c #940001",
"Hm 	c #970303",
"Im 	c #970909",
"Jm 	c #931313",
"Km 	c #8D1D20",
"Lm 	c #AA5B5D",
"Mm 	c #DFB9B9",
"Nm 	c #AB1818",
"Om 	c #A21817",
"Pm 	c #930E0C",
"Qm 	c #890702",
"Rm 	c #870400",
"Sm 	c #8A0501",
"Tm 	c #8B0502",
"Um 	c #8D0303",
"Vm 	c #900304",
"Wm 	c #8F0203",
"Xm 	c #920204",
"Ym 	c #940002",
"Zm 	c #950002",
"`m 	c #9B0102",
" n 	c #9C0101",
".n 	c #9E0202",
"+n 	c #A40506",
"@n 	c #9F0202",
"#n 	c #A40604",
"$n 	c #A60705",
"%n 	c #A70704",
"&n 	c #A90202",
"*n 	c #A80101",
"=n 	c #A80203",
"-n 	c #A90401",
";n 	c #A80303",
">n 	c #A90502",
",n 	c #AB0301",
"'n 	c #A10303",
")n 	c #9B0302",
"!n 	c #9A0304",
"~n 	c #990204",
"{n 	c #950203",
"]n 	c #930102",
"^n 	c #910003",
"/n 	c #910202",
"(n 	c #8C0404",
"_n 	c #8F0404",
":n 	c #8F0204",
"<n 	c #910201",
"[n 	c #950303",
"}n 	c #950202",
"|n 	c #9D0E0E",
"1n 	c #9F1A1B",
"2n 	c #8B1419",
"3n 	c #A14A4D",
"4n 	c #D5A9A9",
"5n 	c #B22A34",
"6n 	c #B41C1C",
"7n 	c #A8201E",
"8n 	c #93110F",
"9n 	c #890705",
"0n 	c #870300",
"an 	c #890501",
"bn 	c #8A0502",
"cn 	c #8B0402",
"dn 	c #8B0403",
"en 	c #8E0304",
"fn 	c #8F0405",
"gn 	c #900103",
"hn 	c #920102",
"in 	c #960202",
"jn 	c #9B0303",
"kn 	c #A20402",
"ln 	c #A80201",
"mn 	c #A60403",
"nn 	c #A70401",
"on 	c #A50101",
"pn 	c #A40201",
"qn 	c #A80200",
"rn 	c #A60101",
"sn 	c #A50103",
"tn 	c #A70400",
"un 	c #A90200",
"vn 	c #A30304",
"wn 	c #A00204",
"xn 	c #9D0306",
"yn 	c #990304",
"zn 	c #970203",
"An 	c #8F0303",
"Bn 	c #8B0504",
"Cn 	c #8B0404",
"Dn 	c #8C0303",
"En 	c #8E0302",
"Fn 	c #950404",
"Gn 	c #A21212",
"Hn 	c #A21A1A",
"In 	c #911318",
"Jn 	c #A4454A",
"Kn 	c #D3A1A3",
"Ln 	c #B72B35",
"Mn 	c #B6201D",
"Nn 	c #AB2321",
"On 	c #971516",
"Pn 	c #900C0D",
"Qn 	c #8B0703",
"Rn 	c #8A0602",
"Sn 	c #890300",
"Tn 	c #8B0401",
"Un 	c #8C0302",
"Vn 	c #900202",
"Wn 	c #A60300",
"Xn 	c #A20200",
"Yn 	c #A40100",
"Zn 	c #A50306",
"`n 	c #A10201",
" o 	c #A60102",
".o 	c #A10304",
"+o 	c #9C0105",
"@o 	c #9B0205",
"#o 	c #990003",
"$o 	c #980003",
"%o 	c #960304",
"&o 	c #8A0405",
"*o 	c #890503",
"=o 	c #900504",
"-o 	c #970807",
";o 	c #A11211",
">o 	c #A61D1D",
",o 	c #9D1B20",
"'o 	c #AB444B",
")o 	c #D1999B",
"!o 	c #BE3138",
"~o 	c #B9261F",
"{o 	c #AA2421",
"]o 	c #9D181C",
"^o 	c #950E12",
"/o 	c #8F0908",
"(o 	c #8C0605",
"_o 	c #890502",
":o 	c #880400",
"<o 	c #8C0402",
"[o 	c #8F0202",
"}o 	c #900201",
"|o 	c #910302",
"1o 	c #980305",
"2o 	c #990202",
"3o 	c #A10301",
"4o 	c #A40205",
"5o 	c #A50404",
"6o 	c #A00200",
"7o 	c #A30402",
"8o 	c #A00402",
"9o 	c #A30504",
"0o 	c #A50304",
"ao 	c #A70204",
"bo 	c #A70103",
"co 	c #A20103",
"do 	c #A40104",
"eo 	c #9A0104",
"fo 	c #900302",
"go 	c #8E0402",
"ho 	c #8B0302",
"io 	c #8E0505",
"jo 	c #8B0305",
"ko 	c #8A0305",
"lo 	c #890506",
"mo 	c #860504",
"no 	c #880503",
"oo 	c #930B09",
"po 	c #A01413",
"qo 	c #AC1E1C",
"ro 	c #A72320",
"so 	c #A01E22",
"to 	c #A83C43",
"uo 	c #C5878A",
"vo 	c #BA3437",
"wo 	c #B4291E",
"xo 	c #A9231F",
"yo 	c #A0181D",
"zo 	c #970F15",
"Ao 	c #930C0E",
"Bo 	c #8D0808",
"Co 	c #8A0504",
"Do 	c #8B0704",
"Eo 	c #8B0400",
"Fo 	c #8E0201",
"Go 	c #960104",
"Ho 	c #A00103",
"Io 	c #9F0002",
"Jo 	c #A10103",
"Ko 	c #A50204",
"Lo 	c #A60204",
"Mo 	c #A20404",
"No 	c #9F0302",
"Oo 	c #A40305",
"Po 	c #A10503",
"Qo 	c #A40403",
"Ro 	c #A40405",
"So 	c #A20504",
"To 	c #A00304",
"Uo 	c #9F0306",
"Vo 	c #990002",
"Wo 	c #980002",
"Xo 	c #950204",
"Yo 	c #8E0301",
"Zo 	c #8D0301",
"`o 	c #8D0300",
" p 	c #8C0401",
".p 	c #8D0504",
"+p 	c #8D0505",
"@p 	c #8A0304",
"#p 	c #870304",
"$p 	c #850706",
"%p 	c #8A0C09",
"&p 	c #95100D",
"*p 	c #A21715",
"=p 	c #AA1E1C",
"-p 	c #A92823",
";p 	c #A22024",
">p 	c #A93942",
",p 	c #C48086",
"'p 	c #B13131",
")p 	c #AD2B1A",
"!p 	c #AC2521",
"~p 	c #A81D24",
"{p 	c #A41821",
"]p 	c #9E151A",
"^p 	c #8D0707",
"/p 	c #8D0806",
"(p 	c #8B0601",
"_p 	c #9C0304",
":p 	c #A20305",
"<p 	c #A10405",
"[p 	c #9F0405",
"}p 	c #A20203",
"|p 	c #9F0303",
"1p 	c #A20304",
"2p 	c #A10305",
"3p 	c #950101",
"4p 	c #930101",
"5p 	c #930302",
"6p 	c #8E0605",
"7p 	c #8F0505",
"8p 	c #900407",
"9p 	c #8C0306",
"0p 	c #860303",
"ap 	c #860806",
"bp 	c #8F120E",
"cp 	c #9A1814",
"dp 	c #A61E1B",
"ep 	c #AB211F",
"fp 	c #A62822",
"gp 	c #A8272A",
"hp 	c #B1414A",
"ip 	c #C78187",
"jp 	c #AD322F",
"kp 	c #AD2D1E",
"lp 	c #B02A25",
"mp 	c #AE2229",
"np 	c #AD212A",
"op 	c #A82026",
"pp 	c #9F181B",
"qp 	c #910A0C",
"rp 	c #8C0706",
"sp 	c #8A0300",
"tp 	c #8F0503",
"up 	c #8E0503",
"vp 	c #940102",
"wp 	c #970003",
"xp 	c #9E0103",
"yp 	c #9D0103",
"zp 	c #9F0004",
"Ap 	c #A00102",
"Bp 	c #A20102",
"Cp 	c #A10102",
"Dp 	c #9E0302",
"Ep 	c #9D0201",
"Fp 	c #9E0305",
"Gp 	c #9E0101",
"Hp 	c #A00105",
"Ip 	c #9D0301",
"Jp 	c #9E0307",
"Kp 	c #9E0206",
"Lp 	c #980202",
"Mp 	c #920101",
"Np 	c #910100",
"Op 	c #900200",
"Pp 	c #910402",
"Qp 	c #8E0300",
"Rp 	c #8A0500",
"Sp 	c #8D0401",
"Tp 	c #910506",
"Up 	c #8D0407",
"Vp 	c #8A0909",
"Wp 	c #8D1511",
"Xp 	c #951C17",
"Yp 	c #A3221D",
"Zp 	c #B22625",
"`p 	c #A72B26",
" q 	c #AB2E30",
".q 	c #AD3C45",
"+q 	c #BB6F76",
"@q 	c #AB3236",
"#q 	c #B22C28",
"$q 	c #B12D26",
"%q 	c #B02828",
"&q 	c #B32A2E",
"*q 	c #AA252A",
"=q 	c #A41D21",
"-q 	c #9A1317",
";q 	c #910B0C",
">q 	c #8C0606",
",q 	c #8C0604",
"'q 	c #8A0402",
")q 	c #880300",
"!q 	c #8C0502",
"~q 	c #8E0504",
"{q 	c #9B0104",
"]q 	c #9D0003",
"^q 	c #9C0003",
"/q 	c #A00205",
"(q 	c #9F0105",
"_q 	c #9E0105",
":q 	c #9C0103",
"<q 	c #9E0406",
"[q 	c #9D0303",
"}q 	c #9F0003",
"|q 	c #9E0002",
"1q 	c #9F0103",
"2q 	c #9B0002",
"3q 	c #880200",
"4q 	c #890400",
"5q 	c #880500",
"6q 	c #8A0601",
"7q 	c #900609",
"8q 	c #92090E",
"9q 	c #8C1111",
"0q 	c #871A14",
"aq 	c #911D18",
"bq 	c #AC2422",
"cq 	c #BD2627",
"dq 	c #B82625",
"eq 	c #A92E2B",
"fq 	c #A13132",
"gq 	c #A1363E",
"hq 	c #B5636E",
"iq 	c #AD343B",
"jq 	c #B42C2A",
"kq 	c #AD2E25",
"lq 	c #AF2C28",
"mq 	c #B52E31",
"nq 	c #AB272C",
"oq 	c #A52224",
"pq 	c #A31E21",
"qq 	c #9B1518",
"rq 	c #8C0607",
"sq 	c #890401",
"tq 	c #9C0001",
"uq 	c #9C0305",
"vq 	c #860400",
"wq 	c #8B0806",
"xq 	c #92070C",
"yq 	c #980D13",
"zq 	c #951518",
"Aq 	c #8D1C18",
"Bq 	c #951D19",
"Cq 	c #AB2220",
"Dq 	c #BC2626",
"Eq 	c #B72826",
"Fq 	c #A82F2B",
"Gq 	c #972B2C",
"Hq 	c #9D3840",
"Iq 	c #BB6976",
"Jq 	c #B13D43",
"Kq 	c #AD2926",
"Lq 	c #AC3127",
"Mq 	c #AF312D",
"Nq 	c #B23032",
"Oq 	c #AD2B2E",
"Pq 	c #A82729",
"Qq 	c #A82427",
"Rq 	c #A11D1F",
"Sq 	c #971112",
"Tq 	c #940E0F",
"Uq 	c #920C0C",
"Vq 	c #8E0807",
"Wq 	c #890301",
"Xq 	c #890402",
"Yq 	c #8B0604",
"Zq 	c #980303",
"`q 	c #9A0305",
" r 	c #9A0205",
".r 	c #9B0305",
"+r 	c #8F0201",
"@r 	c #8E0202",
"#r 	c #8E0303",
"$r 	c #880600",
"%r 	c #8A0703",
"&r 	c #8C0B07",
"*r 	c #8F0C0C",
"=r 	c #980B11",
"-r 	c #A11119",
";r 	c #A21B21",
">r 	c #9C2222",
",r 	c #A02421",
"'r 	c #B12929",
")r 	c #BB2C2C",
"!r 	c #B62E2B",
"~r 	c #AC3531",
"{r 	c #972D2D",
"]r 	c #A34148",
"^r 	c #C67985",
"/r 	c #B04046",
"(r 	c #B02F2C",
"_r 	c #AD332A",
":r 	c #AE332F",
"<r 	c #B23435",
"[r 	c #B03132",
"}r 	c #AF3031",
"|r 	c #AF2F30",
"1r 	c #AC292B",
"2r 	c #A92425",
"3r 	c #A51F20",
"4r 	c #9F1919",
"5r 	c #981211",
"6r 	c #8D0706",
"7r 	c #8A0604",
"8r 	c #920201",
"9r 	c #990205",
"0r 	c #9D0406",
"ar 	c #990305",
"br 	c #900403",
"cr 	c #8E0203",
"dr 	c #890500",
"er 	c #8A0702",
"fr 	c #8B0B07",
"gr 	c #8F110E",
"hr 	c #971414",
"ir 	c #A2151B",
"jr 	c #AD1D24",
"kr 	c #B0262B",
"lr 	c #AA292B",
"mr 	c #AB2C2A",
"nr 	c #B52F2F",
"or 	c #B9312E",
"pr 	c #B3302C",
"qr 	c #A83330",
"rr 	c #942B2C",
"sr 	c #9C4147",
"tr 	c #C78089",
"ur 	c #AD4448",
"vr 	c #B13231",
"wr 	c #AF372F",
"xr 	c #B03634",
"yr 	c #B33739",
"zr 	c #B13535",
"Ar 	c #B23636",
"Br 	c #B53637",
"Cr 	c #B43435",
"Dr 	c #B12F31",
"Er 	c #AE292A",
"Fr 	c #910B0A",
"Gr 	c #8E0806",
"Hr 	c #8D0402",
"Ir 	c #940303",
"Jr 	c #940304",
"Kr 	c #970304",
"Lr 	c #940404",
"Mr 	c #960404",
"Nr 	c #940302",
"Or 	c #970404",
"Pr 	c #8C0301",
"Qr 	c #8D0A06",
"Rr 	c #92110E",
"Sr 	c #9B1917",
"Tr 	c #A62122",
"Ur 	c #B02528",
"Vr 	c #B52A2F",
"Wr 	c #B62E32",
"Xr 	c #B02F2E",
"Yr 	c #B3302F",
"Zr 	c #B63130",
"`r 	c #B22F2E",
" s 	c #AD3837",
".s 	c #973132",
"+s 	c #A14A4E",
"@s 	c #D5979E",
"#s 	c #B04B52",
"$s 	c #B03731",
"%s 	c #B43937",
"&s 	c #B23837",
"*s 	c #B13736",
"=s 	c #B33637",
"-s 	c #B43536",
";s 	c #B53435",
">s 	c #B12E30",
",s 	c #B12D2E",
"'s 	c #AD2829",
")s 	c #A31E1F",
"!s 	c #9C1717",
"~s 	c #981110",
"{s 	c #920808",
"]s 	c #8F0605",
"^s 	c #910906",
"/s 	c #8E0603",
"(s 	c #890302",
"_s 	c #900404",
":s 	c #900303",
"<s 	c #940103",
"[s 	c #8C0403",
"}s 	c #8A0302",
"|s 	c #8A0201",
"1s 	c #8B0301",
"2s 	c #8A0200",
"3s 	c #8D0705",
"4s 	c #981412",
"5s 	c #9C1816",
"6s 	c #A51E1E",
"7s 	c #AD2628",
"8s 	c #B12C2D",
"9s 	c #B23031",
"0s 	c #B03333",
"as 	c #B13432",
"bs 	c #B43433",
"cs 	c #B42F30",
"ds 	c #AF3A39",
"es 	c #922F2F",
"fs 	c #A14F54",
"gs 	c #D59EA3",
"hs 	c #AF5459",
"is 	c #B3393B",
"js 	c #B23B35",
"ks 	c #B43938",
"ls 	c #B33537",
"ms 	c #B43737",
"ns 	c #B33133",
"os 	c #B53133",
"ps 	c #B43031",
"qs 	c #B02C2D",
"rs 	c #A92526",
"ss 	c #A11A1C",
"ts 	c #9A1111",
"us 	c #940A0B",
"vs 	c #900707",
"ws 	c #890403",
"xs 	c #8A0303",
"ys 	c #910303",
"zs 	c #920203",
"As 	c #910102",
"Bs 	c #910B0B",
"Cs 	c #940E0E",
"Ds 	c #950F0F",
"Es 	c #9D1717",
"Fs 	c #A21E1D",
"Gs 	c #A72020",
"Hs 	c #B12627",
"Is 	c #B42B2D",
"Js 	c #B12E2E",
"Ks 	c #AE3432",
"Ls 	c #AF3736",
"Ms 	c #B53B3A",
"Ns 	c #B63A39",
"Os 	c #B33735",
"Ps 	c #B43132",
"Qs 	c #B73335",
"Rs 	c #B03B3C",
"Ss 	c #933132",
"Ts 	c #9D5255",
"Us 	c #CA9D9F",
"Vs 	c #AB5A5E",
"Ws 	c #B13D3E",
"Xs 	c #B23C38",
"Ys 	c #B23537",
"Zs 	c #B5373B",
"`s 	c #B33938",
" t 	c #B33536",
".t 	c #B13233",
"+t 	c #B13132",
"@t 	c #B43234",
"#t 	c #B73537",
"$t 	c #B53436",
"%t 	c #AE2E2F",
"&t 	c #A62223",
"*t 	c #A21C1D",
"=t 	c #9B1415",
"-t 	c #940D0E",
";t 	c #930C0B",
">t 	c #940D0D",
",t 	c #900808",
"'t 	c #870200",
")t 	c #870100",
"!t 	c #8C0505",
"~t 	c #920001",
"{t 	c #910403",
"]t 	c #920000",
"^t 	c #8F0100",
"/t 	c #920304",
"(t 	c #8D0203",
"_t 	c #8A0202",
":t 	c #8B0202",
"<t 	c #8E0606",
"[t 	c #890101",
"}t 	c #8D0605",
"|t 	c #920D0B",
"1t 	c #9E191A",
"2t 	c #A72223",
"3t 	c #AF292A",
"4t 	c #B72D30",
"5t 	c #B82E31",
"6t 	c #B03231",
"7t 	c #AE3935",
"8t 	c #B13C38",
"9t 	c #B83D3C",
"0t 	c #B73B3B",
"at 	c #B13837",
"bt 	c #B63939",
"ct 	c #B73539",
"dt 	c #AD393B",
"et 	c #913133",
"ft 	c #965154",
"gt 	c #CBA5A6",
"ht 	c #B44747",
"it 	c #B03E3B",
"jt 	c #B2373A",
"kt 	c #BB3D40",
"lt 	c #B63B3B",
"mt 	c #B33737",
"nt 	c #B03334",
"ot 	c #AE3031",
"pt 	c #AD2F30",
"qt 	c #B03031",
"rt 	c #B63637",
"st 	c #B73839",
"tt 	c #B43637",
"ut 	c #B33435",
"vt 	c #AF2E2F",
"wt 	c #AE2A2D",
"xt 	c #A92527",
"yt 	c #A52123",
"zt 	c #A21E1F",
"At 	c #991414",
"Bt 	c #940E0D",
"Ct 	c #880201",
"Dt 	c #890201",
"Et 	c #880101",
"Ft 	c #910104",
"Gt 	c #910305",
"Ht 	c #900203",
"It 	c #900405",
"Jt 	c #8D0102",
"Kt 	c #910909",
"Lt 	c #900908",
"Mt 	c #8F0B09",
"Nt 	c #930E0F",
"Ot 	c #971213",
"Pt 	c #9A1516",
"Qt 	c #A42023",
"Rt 	c #A92729",
"St 	c #AD2B2D",
"Tt 	c #B53434",
"Ut 	c #B93435",
"Vt 	c #BB3435",
"Wt 	c #B73B39",
"Xt 	c #B6413D",
"Yt 	c #B83F3C",
"Zt 	c #BD3C3C",
"`t 	c #BA3C3D",
" u 	c #B43E3E",
".u 	c #B64040",
"+u 	c #B33A3B",
"@u 	c #AC3B3C",
"#u 	c #903234",
"$u 	c #9A5A5C",
"%u 	c #DDBDBC",
"&u 	c #B14946",
"*u 	c #AE3F3B",
"=u 	c #B33A3C",
"-u 	c #BB3D41",
";u 	c #B83C3D",
">u 	c #B53939",
",u 	c #B33638",
"'u 	c #B43839",
")u 	c #B13436",
"!u 	c #B13335",
"~u 	c #AF3132",
"{u 	c #AC2C2D",
"]u 	c #A62626",
"^u 	c #A42222",
"/u 	c #A01D1D",
"(u 	c #991614",
"_u 	c #971211",
":u 	c #950F0E",
"<u 	c #930D0C",
"[u 	c #900A09",
"}u 	c #8D0907",
"|u 	c #8C0A08",
"1u 	c #8B0907",
"2u 	c #8F0305",
"3u 	c #8F0102",
"4u 	c #8C0504",
"5u 	c #8B0605",
"6u 	c #8B0705",
"7u 	c #8C0705",
"8u 	c #8F0707",
"9u 	c #940C0C",
"0u 	c #970F0F",
"au 	c #9B1313",
"bu 	c #9B1615",
"cu 	c #9A1616",
"du 	c #9D1A1A",
"eu 	c #A11E20",
"fu 	c #AB282A",
"gu 	c #AE2C2E",
"hu 	c #B12E32",
"iu 	c #B43236",
"ju 	c #B43136",
"ku 	c #B63438",
"lu 	c #B83A38",
"mu 	c #BD3839",
"nu 	c #BA3D3B",
"ou 	c #B93F3C",
"pu 	c #BB3C3B",
"qu 	c #C1383A",
"ru 	c #BD3B3D",
"su 	c #B3403F",
"tu 	c #AE403E",
"uu 	c #AF3F3D",
"vu 	c #AE3E40",
"wu 	c #973A3C",
"xu 	c #AF7071",
"yu 	c #EDD1CE",
"zu 	c #A54843",
"Au 	c #AA423C",
"Bu 	c #B73E40",
"Cu 	c #BA3C40",
"Du 	c #B83D3D",
"Eu 	c #B73C3C",
"Fu 	c #B83B3C",
"Gu 	c #B83A3B",
"Hu 	c #BA3D3E",
"Iu 	c #B63839",
"Ju 	c #B33738",
"Ku 	c #B33839",
"Lu 	c #B23839",
"Mu 	c #B63C3D",
"Nu 	c #B83C3E",
"Ou 	c #B63A3A",
"Pu 	c #B43738",
"Qu 	c #B23333",
"Ru 	c #B33333",
"Su 	c #AF2F2F",
"Tu 	c #AC2B2B",
"Uu 	c #A92826",
"Vu 	c #A52423",
"Wu 	c #A42120",
"Xu 	c #A3201E",
"Yu 	c #9E1A19",
"Zu 	c #9A1514",
"`u 	c #991313",
" v 	c #8F0909",
".v 	c #900909",
"+v 	c #8E0A08",
"@v 	c #8E0A09",
"#v 	c #8C0205",
"$v 	c #8D0306",
"%v 	c #8D0205",
"&v 	c #8F0407",
"*v 	c #8E0407",
"=v 	c #8E0406",
"-v 	c #8D0201",
";v 	c #910304",
">v 	c #8F0103",
",v 	c #8C0203",
"'v 	c #8F0402",
")v 	c #8D0302",
"!v 	c #8F0403",
"~v 	c #8D0405",
"{v 	c #8D0204",
"]v 	c #8C0304",
"^v 	c #8E0506",
"/v 	c #8F0708",
"(v 	c #8D0506",
"_v 	c #8E0405",
":v 	c #8F0101",
"<v 	c #8D0807",
"[v 	c #8F0A08",
"}v 	c #8F0606",
"|v 	c #8E0808",
"1v 	c #900A0B",
"2v 	c #930D0D",
"3v 	c #961010",
"4v 	c #991314",
"5v 	c #9A1415",
"6v 	c #A21C1C",
"7v 	c #A72121",
"8v 	c #A82022",
"9v 	c #AD2627",
"0v 	c #B02A2B",
"av 	c #AF2C2D",
"bv 	c #AE2D2D",
"cv 	c #B33132",
"dv 	c #B53334",
"ev 	c #B53335",
"fv 	c #BC3A3C",
"gv 	c #BB3B3C",
"hv 	c #B9383B",
"iv 	c #B83C3C",
"jv 	c #BC403E",
"kv 	c #BF403F",
"lv 	c #BA3F3D",
"mv 	c #B93D3B",
"nv 	c #BC3A3A",
"ov 	c #BE3A3A",
"pv 	c #BA403D",
"qv 	c #B0433D",
"rv 	c #AB413B",
"sv 	c #B54744",
"tv 	c #B04747",
"uv 	c #9F4849",
"vv 	c #C08787",
"wv 	c #F3D8D6",
"xv 	c #A5514A",
"yv 	c #A6433D",
"zv 	c #B53D3C",
"Av 	c #BD3E3F",
"Bv 	c #B94140",
"Cv 	c #BA4140",
"Dv 	c #BB403F",
"Ev 	c #BB3F3F",
"Fv 	c #BE4242",
"Gv 	c #BA3E3E",
"Hv 	c #B63C3B",
"Iv 	c #B73E3D",
"Jv 	c #B7403E",
"Kv 	c #BA403F",
"Lv 	c #B9393A",
"Mv 	c #B33434",
"Nv 	c #AD2E2F",
"Ov 	c #AC2A2A",
"Pv 	c #A82626",
"Qv 	c #A52223",
"Rv 	c #A41F20",
"Sv 	c #A01B1C",
"Tv 	c #9E1819",
"Uv 	c #981012",
"Vv 	c #970F11",
"Wv 	c #930B0D",
"Xv 	c #930909",
"Yv 	c #8E0706",
"Zv 	c #8D0607",
"`v 	c #8D0708",
" w 	c #8B0506",
".w 	c #8C0507",
"+w 	c #8E0707",
"@w 	c #8D0606",
"#w 	c #8C0202",
"$w 	c #910808",
"%w 	c #8E0608",
"&w 	c #8E0508",
"*w 	c #8D0603",
"=w 	c #8D0704",
"-w 	c #8B0200",
";w 	c #910606",
">w 	c #8F0401",
",w 	c #8D0502",
"'w 	c #8B0607",
")w 	c #8F0809",
"!w 	c #90080A",
"~w 	c #92090B",
"{w 	c #8D0608",
"]w 	c #8E0708",
"^w 	c #900606",
"/w 	c #910707",
"(w 	c #8C0506",
"_w 	c #8D0507",
":w 	c #8E0607",
"<w 	c #8E0507",
"[w 	c #900503",
"}w 	c #8C0200",
"|w 	c #890200",
"1w 	c #8F0807",
"2w 	c #890604",
"3w 	c #920B0B",
"4w 	c #960D0D",
"5w 	c #990F0F",
"6w 	c #970C0D",
"7w 	c #9A0F11",
"8w 	c #9A1316",
"9w 	c #991417",
"0w 	c #9B1619",
"aw 	c #A01B1E",
"bw 	c #A52023",
"cw 	c #A62124",
"dw 	c #AF2A2C",
"ew 	c #B02B2E",
"fw 	c #B22C2F",
"gw 	c #B83336",
"hw 	c #B43233",
"iw 	c #B63434",
"jw 	c #B63635",
"kw 	c #B93938",
"lw 	c #BA3A39",
"mw 	c #B83837",
"nw 	c #BB3B3A",
"ow 	c #BE3F3E",
"pw 	c #BD403E",
"qw 	c #BC3F3E",
"rw 	c #BE3E41",
"sw 	c #BD3F41",
"tw 	c #BB4342",
"uw 	c #BB4341",
"vw 	c #BD3D3C",
"ww 	c #B93F3A",
"xw 	c #B1453C",
"yw 	c #AB4439",
"zw 	c #AE433A",
"Aw 	c #B74642",
"Bw 	c #AA4645",
"Cw 	c #9A4D4C",
"Dw 	c #C08D8C",
"Ew 	c #A95451",
"Fw 	c #A83F3C",
"Gw 	c #B93F3F",
"Hw 	c #BE4041",
"Iw 	c #BB4241",
"Jw 	c #BA4241",
"Kw 	c #BE4443",
"Lw 	c #BC4040",
"Mw 	c #B93D3D",
"Nw 	c #B93E3D",
"Ow 	c #B83E3D",
"Pw 	c #B93F3E",
"Qw 	c #B8403F",
"Rw 	c #B94341",
"Sw 	c #BC3E3F",
"Tw 	c #BD3F40",
"Uw 	c #B93B3C",
"Vw 	c #B53635",
"Ww 	c #B33332",
"Xw 	c #B0302F",
"Yw 	c #AF2F2E",
"Zw 	c #AB2A2A",
"`w 	c #AC2829",
" x 	c #AA2526",
".x 	c #A41E1F",
"+x 	c #A11B1C",
"@x 	c #9B1516",
"#x 	c #9A1314",
"$x 	c #991113",
"%x 	c #991415",
"&x 	c #951011",
"*x 	c #981314",
"=x 	c #981213",
"-x 	c #961011",
";x 	c #961112",
">x 	c #940F10",
",x 	c #95110F",
"'x 	c #94100E",
")x 	c #971311",
"!x 	c #971110",
"~x 	c #920A0A",
"{x 	c #930E0D",
"]x 	c #96100F",
"^x 	c #95100E",
"/x 	c #940F12",
"(x 	c #940E12",
"_x 	c #940D11",
":x 	c #93090A",
"<x 	c #930809",
"[x 	c #920C0B",
"}x 	c #920D0C",
"|x 	c #950E0D",
"1x 	c #950D0D",
"2x 	c #910604",
"3x 	c #930806",
"4x 	c #910705",
"5x 	c #900605",
"6x 	c #900A0A",
"7x 	c #910C0D",
"8x 	c #920E0C",
"9x 	c #94100F",
"0x 	c #920F0F",
"ax 	c #991213",
"bx 	c #950F10",
"cx 	c #941011",
"dx 	c #910D0B",
"ex 	c #960F0E",
"fx 	c #971010",
"gx 	c #93100E",
"hx 	c #900604",
"ix 	c #910607",
"jx 	c #960E0E",
"kx 	c #900B09",
"lx 	c #961210",
"mx 	c #961110",
"nx 	c #971212",
"ox 	c #951313",
"px 	c #961414",
"qx 	c #991515",
"rx 	c #9C1617",
"sx 	c #A11A1B",
"tx 	c #A51D1F",
"ux 	c #A31B1D",
"vx 	c #A62225",
"wx 	c #A52325",
"xx 	c #A72627",
"yx 	c #AC2B2C",
"zx 	c #B33233",
"Ax 	c #B63436",
"Bx 	c #BA393B",
"Cx 	c #BB3C3D",
"Dx 	c #BB3D3E",
"Ex 	c #BD4141",
"Fx 	c #BF4143",
"Gx 	c #BD4043",
"Hx 	c #BB4142",
"Ix 	c #BF4343",
"Jx 	c #C23C3E",
"Kx 	c #BF3739",
"Lx 	c #BA3C38",
"Mx 	c #B2453B",
"Nx 	c #AA453A",
"Ox 	c #A9443A",
"Px 	c #AF453F",
"Qx 	c #A74242",
"Rx 	c #A65859",
"Sx 	c #CDA19D",
"Tx 	c #B03F40",
"Ux 	c #BE4243",
"Vx 	c #BB4442",
"Wx 	c #BF4544",
"Xx 	c #BC4140",
"Yx 	c #BA4442",
"Zx 	c #BC3F40",
"`x 	c #BA3D3D",
" y 	c #B83C3A",
".y 	c #B53836",
"+y 	c #B53735",
"@y 	c #B23432",
"#y 	c #B23231",
"$y 	c #B02F2F",
"%y 	c #AE2B2B",
"&y 	c #B02B2C",
"*y 	c #AB2627",
"=y 	c #A92427",
"-y 	c #AA2527",
";y 	c #A82627",
">y 	c #A52425",
",y 	c #A82527",
"'y 	c #A41F21",
")y 	c #A72124",
"!y 	c #A52021",
"~y 	c #A72324",
"{y 	c #A21D1E",
"]y 	c #9F1D1C",
"^y 	c #A21F1E",
"/y 	c #A31E1E",
"(y 	c #9D1818",
"_y 	c #981212",
":y 	c #991111",
"<y 	c #991211",
"[y 	c #9A1212",
"}y 	c #9D1515",
"|y 	c #9D1615",
"1y 	c #9C1514",
"2y 	c #9E1717",
"3y 	c #A0191A",
"4y 	c #9F191A",
"5y 	c #9E1919",
"6y 	c #A01D1C",
"7y 	c #A21E1E",
"8y 	c #A11D1D",
"9y 	c #A11E1E",
"0y 	c #A11F1D",
"ay 	c #A11F1E",
"by 	c #A01F20",
"cy 	c #9F1D1F",
"dy 	c #9F1A1D",
"ey 	c #9D1719",
"fy 	c #9B1315",
"gy 	c #981011",
"hy 	c #960D0F",
"iy 	c #981112",
"jy 	c #9A1113",
"ky 	c #991012",
"ly 	c #9C1718",
"my 	c #9F1B19",
"ny 	c #9D1917",
"oy 	c #9C1716",
"py 	c #9A1413",
"qy 	c #991212",
"ry 	c #9A1011",
"sy 	c #9B1414",
"ty 	c #9E1615",
"uy 	c #9B1514",
"vy 	c #9E1918",
"wy 	c #9F1918",
"xy 	c #9E1A18",
"yy 	c #A31D1E",
"zy 	c #A01E1D",
"Ay 	c #9F1E1D",
"By 	c #A01F1E",
"Cy 	c #9F1A1A",
"Dy 	c #9E1718",
"Ey 	c #9E1818",
"Fy 	c #9A1214",
"Gy 	c #960F10",
"Hy 	c #970E0E",
"Iy 	c #98100F",
"Jy 	c #9A1211",
"Ky 	c #991312",
"Ly 	c #981312",
"My 	c #9D1B1A",
"Ny 	c #9C1A1A",
"Oy 	c #9B1819",
"Py 	c #9A1717",
"Qy 	c #9B1818",
"Ry 	c #9E1B1A",
"Sy 	c #A11C1D",
"Ty 	c #A01E1E",
"Uy 	c #A82525",
"Vy 	c #A82324",
"Wy 	c #A62222",
"Xy 	c #9E1C1C",
"Yy 	c #A01C1D",
"Zy 	c #A11B1B",
"`y 	c #9D1718",
" z 	c #A01A1A",
".z 	c #991112",
"+z 	c #9F1817",
"@z 	c #9E1817",
"#z 	c #9F1818",
"$z 	c #9E1B1B",
"%z 	c #A31D1D",
"&z 	c #A11C1C",
"*z 	c #A11E1F",
"=z 	c #9B1413",
"-z 	c #9B1212",
";z 	c #9A1010",
">z 	c #980D0E",
",z 	c #970D0D",
"'z 	c #9B1111",
")z 	c #9F1717",
"!z 	c #A11919",
"~z 	c #A21919",
"{z 	c #9F1819",
"]z 	c #9C1516",
"^z 	c #A01B1B",
"/z 	c #9D1919",
"(z 	c #A01C1C",
"_z 	c #A82323",
":z 	c #A72727",
"<z 	c #A82628",
"[z 	c #A92628",
"}z 	c #AA2729",
"|z 	c #AB2528",
"1z 	c #B02A2D",
"2z 	c #AF2C2E",
"3z 	c #B33436",
"4z 	c #B63738",
"5z 	c #B93A3B",
"6z 	c #BB3B3D",
"7z 	c #BD3D3E",
"8z 	c #BF4041",
"9z 	c #BF4142",
"0z 	c #BE4141",
"az 	c #BF4242",
"bz 	c #BC4141",
"cz 	c #BB4040",
"dz 	c #BD4243",
"ez 	c #BC4143",
"fz 	c #C24244",
"gz 	c #C73E41",
"hz 	c #C53B3D",
"iz 	c #BE3D3C",
"jz 	c #B2423B",
"kz 	c #A8453A",
"lz 	c #A4463A",
"mz 	c #A9463F",
"nz 	c #A43D3F",
"oz 	c #B86E6F",
"pz 	c #DFB9B5",
"qz 	c #B74045",
"rz 	c #BD4144",
"sz 	c #BD4443",
"tz 	c #BB4543",
"uz 	c #BC4443",
"vz 	c #BE4645",
"wz 	c #BD4342",
"xz 	c #BA3F3E",
"yz 	c #BC4342",
"zz 	c #BE4343",
"Az 	c #BE4342",
"Bz 	c #BB403E",
"Cz 	c #BA3E3D",
"Dz 	c #BA3E3C",
"Ez 	c #BA3D3C",
"Fz 	c #BC3F3D",
"Gz 	c #BC3E3D",
"Hz 	c #BB3B3B",
"Iz 	c #BB3A3A",
"Jz 	c #B83637",
"Kz 	c #B63437",
"Lz 	c #B53537",
"Mz 	c #B13334",
"Nz 	c #B33335",
"Oz 	c #B23234",
"Pz 	c #B23133",
"Qz 	c #B32F31",
"Rz 	c #B63233",
"Sz 	c #B53132",
"Tz 	c #B22D2F",
"Uz 	c #B32F30",
"Vz 	c #B42F31",
"Wz 	c #B23030",
"Xz 	c #B12F2F",
"Yz 	c #B1302F",
"Zz 	c #B22F2F",
"`z 	c #AF2B2B",
" A 	c #AC2627",
".A 	c #AB2526",
"+A 	c #AB2625",
"@A 	c #AC2525",
"#A 	c #AD2727",
"$A 	c #AF2929",
"%A 	c #AF2B2A",
"&A 	c #B12C2B",
"*A 	c #B12D2C",
"=A 	c #B02D2B",
"-A 	c #AF2C2A",
";A 	c #B02C2B",
">A 	c #B32E2F",
",A 	c #B33131",
"'A 	c #B33231",
")A 	c #B1322F",
"!A 	c #B23331",
"~A 	c #B13332",
"{A 	c #B33134",
"]A 	c #B22F32",
"^A 	c #B12C2F",
"/A 	c #AF2828",
"(A 	c #AD2929",
"_A 	c #AA2627",
":A 	c #AB2727",
"<A 	c #AD292A",
"[A 	c #AE2A2B",
"}A 	c #AF2A2B",
"|A 	c #B0282A",
"1A 	c #AE2728",
"2A 	c #AE2A2A",
"3A 	c #AF2B2C",
"4A 	c #B02C2C",
"5A 	c #B02D2D",
"6A 	c #B2302F",
"7A 	c #B12E2C",
"8A 	c #AE2A29",
"9A 	c #AE2828",
"0A 	c #B12A2A",
"aA 	c #B12B2A",
"bA 	c #B12C2C",
"cA 	c #B02B2A",
"dA 	c #B02E2C",
"eA 	c #B4312F",
"fA 	c #B2302E",
"gA 	c #B3312F",
"hA 	c #B43030",
"iA 	c #B23130",
"jA 	c #B13331",
"kA 	c #B03331",
"lA 	c #B33433",
"mA 	c #B33432",
"nA 	c #B23332",
"oA 	c #B02E2E",
"pA 	c #AC2728",
"qA 	c #AC2626",
"rA 	c #AC2726",
"sA 	c #AE2929",
"tA 	c #AE2B29",
"uA 	c #AF2C2B",
"vA 	c #B02E2D",
"wA 	c #AD2C2C",
"xA 	c #AF2E2D",
"yA 	c #AF2D2D",
"zA 	c #AE2D2C",
"AA 	c #B12B2C",
"BA 	c #B22E2E",
"CA 	c #B23131",
"DA 	c #B73234",
"EA 	c #B53333",
"FA 	c #B53534",
"GA 	c #B73536",
"HA 	c #B83737",
"IA 	c #B83536",
"JA 	c #B63334",
"KA 	c #B03030",
"LA 	c #B23232",
"MA 	c #AD2E2D",
"NA 	c #AF2D2E",
"OA 	c #B22C2D",
"PA 	c #AE2829",
"QA 	c #AD2527",
"RA 	c #AE2729",
"SA 	c #B22D2C",
"TA 	c #B32F2E",
"UA 	c #B4302F",
"VA 	c #B63030",
"WA 	c #B13030",
"XA 	c #B43131",
"YA 	c #B03130",
"ZA 	c #AE312F",
"`A 	c #B12E2F",
" B 	c #B02B2D",
".B 	c #B02A2A",
"+B 	c #AD2626",
"@B 	c #B22B2B",
"#B 	c #B32C2C",
"$B 	c #B02929",
"%B 	c #B32E2D",
"&B 	c #B52F2E",
"*B 	c #B42E2D",
"=B 	c #B53031",
"-B 	c #B12D2D",
";B 	c #AD2728",
">B 	c #B32D2E",
",B 	c #B33232",
"'B 	c #B43332",
")B 	c #B73636",
"!B 	c #B73737",
"~B 	c #B63638",
"{B 	c #B73739",
"]B 	c #B8393A",
"^B 	c #BC3D3E",
"/B 	c #BD4041",
"(B 	c #C04445",
"_B 	c #C04444",
":B 	c #BD4343",
"<B 	c #BE4444",
"[B 	c #BC4444",
"}B 	c #BB4344",
"|B 	c #BD4344",
"1B 	c #C14243",
"2B 	c #C74042",
"3B 	c #C73F41",
"4B 	c #C03D3E",
"5B 	c #B23E3A",
"6B 	c #AA423A",
"7B 	c #A6453B",
"8B 	c #A4413C",
"9B 	c #A73D43",
"0B 	c #C57E81",
"aB 	c #E6CAC4",
"bB 	c #BC444C",
"cB 	c #BD4745",
"dB 	c #BD4544",
"eB 	c #BE4544",
"fB 	c #BF4645",
"gB 	c #BB4140",
"hB 	c #BC4241",
"iB 	c #BC4644",
"jB 	c #BF4443",
"kB 	c #C14545",
"lB 	c #B93B3E",
"mB 	c #BA3D3F",
"nB 	c #BA3E40",
"oB 	c #B93D3F",
"pB 	c #BA3C3F",
"qB 	c #BC3D40",
"rB 	c #BE3D41",
"sB 	c #BC3B3E",
"tB 	c #B9383A",
"uB 	c #BD3C3E",
"vB 	c #BA393A",
"wB 	c #B93739",
"xB 	c #BC3C3D",
"yB 	c #BA383A",
"zB 	c #BB3A3C",
"AB 	c #B93737",
"BB 	c #BA3838",
"CB 	c #BD3B3B",
"DB 	c #BB3939",
"EB 	c #BC3738",
"FB 	c #BB3737",
"GB 	c #BC3B3A",
"HB 	c #BC3B3B",
"IB 	c #BC3C3B",
"JB 	c #BA3B3A",
"KB 	c #B93C3A",
"LB 	c #BB3D3B",
"MB 	c #BB3E3C",
"NB 	c #B93D3C",
"OB 	c #B93C3C",
"PB 	c #BB393B",
"QB 	c #BB3739",
"RB 	c #BD3738",
"SB 	c #BC3839",
"TB 	c #BA3939",
"UB 	c #BA3938",
"VB 	c #BA3435",
"WB 	c #BC3637",
"XB 	c #BB3738",
"YB 	c #C03E3E",
"ZB 	c #BB3838",
"`B 	c #BB3839",
" C 	c #BE3B3B",
".C 	c #BA3C3A",
"+C 	c #BE413F",
"@C 	c #B93B39",
"#C 	c #BC3939",
"$C 	c #B93838",
"%C 	c #B73736",
"&C 	c #BE3839",
"*C 	c #BA3A3B",
"=C 	c #C03E40",
"-C 	c #BA3B3D",
";C 	c #B7393A",
">C 	c #B83839",
",C 	c #BE393A",
"'C 	c #BD3A3A",
")C 	c #BB3C3A",
"!C 	c #BB3E3F",
"~C 	c #BA3739",
"{C 	c #BD383A",
"]C 	c #BF3A3C",
"^C 	c #BE393B",
"/C 	c #BE3B3C",
"(C 	c #BD3C3B",
"_C 	c #BB3A39",
":C 	c #BF3E3E",
"<C 	c #B83636",
"[C 	c #BA3737",
"}C 	c #BA3738",
"|C 	c #BA3637",
"1C 	c #BB3637",
"2C 	c #BD3E3D",
"3C 	c #BE403E",
"4C 	c #BB3F41",
"5C 	c #C04446",
"6C 	c #BB4042",
"7C 	c #BD4143",
"8C 	c #BD4241",
"9C 	c #C04545",
"0C 	c #C04544",
"aC 	c #BF4446",
"bC 	c #C14648",
"cC 	c #BE4345",
"dC 	c #BB4243",
"eC 	c #BA4243",
"fC 	c #BD4546",
"gC 	c #BC4445",
"hC 	c #BE4647",
"iC 	c #BE4546",
"jC 	c #BF4240",
"kC 	c #C14342",
"lC 	c #B43C3A",
"mC 	c #B2423E",
"nC 	c #AD443E",
"oC 	c #A33B39",
"pC 	c #A84149",
"qC 	c #DD9C9E",
"rC 	c #F7E3DE",
"sC 	c #B7444B",
"tC 	c #B64243",
"uC 	c #B84744",
"vC 	c #BB4747",
"wC 	c #BC4646",
"xC 	c #BD4445",
"yC 	c #BD4647",
"zC 	c #BB4545",
"AC 	c #BD4747",
"BC 	c #BF4345",
"CC 	c #BD4345",
"DC 	c #BF4144",
"EC 	c #BC3E41",
"FC 	c #BE3F40",
"GC 	c #BE3E3F",
"HC 	c #C24243",
"IC 	c #C44445",
"JC 	c #C34344",
"KC 	c #BF3F40",
"LC 	c #BF3D3F",
"MC 	c #BF3E40",
"NC 	c #BC3F3F",
"OC 	c #BE4442",
"PC 	c #BD4242",
"QC 	c #BD4244",
"RC 	c #BC4042",
"SC 	c #BD3F42",
"TC 	c #BD3E40",
"UC 	c #C24141",
"VC 	c #C44444",
"WC 	c #C04243",
"XC 	c #C44244",
"YC 	c #C13D40",
"ZC 	c #BF3E3F",
"`C 	c #C04142",
" D 	c #BD3F3F",
".D 	c #BD4040",
"+D 	c #C34243",
"@D 	c #C44345",
"#D 	c #C03F41",
"$D 	c #BE3D3F",
"%D 	c #C14344",
"&D 	c #C34143",
"*D 	c #C43F42",
"=D 	c #C33E41",
"-D 	c #C23D40",
";D 	c #BB3E3E",
">D 	c #C24646",
",D 	c #C04041",
"'D 	c #C24042",
")D 	c #C03D3F",
"!D 	c #BF3D40",
"~D 	c #BF3D41",
"{D 	c #BF3C41",
"]D 	c #BF4243",
"^D 	c #C14142",
"/D 	c #C03F40",
"(D 	c #C14042",
"_D 	c #BE3D3E",
":D 	c #BD4142",
"<D 	c #BC4545",
"[D 	c #B94243",
"}D 	c #B94142",
"|D 	c #B84041",
"1D 	c #BF4748",
"2D 	c #BC4546",
"3D 	c #BD4646",
"4D 	c #B94545",
"5D 	c #B54540",
"6D 	c #B54641",
"7D 	c #B74743",
"8D 	c #BA3F41",
"9D 	c #BE4445",
"0D 	c #B43E3F",
"aD 	c #A23336",
"bD 	c #A74850",
"cD 	c #E6AFB1",
"dD 	c #F8E9E6",
"eD 	c #B85359",
"fD 	c #B14645",
"gD 	c #B64845",
"hD 	c #B94645",
"iD 	c #BA4545",
"jD 	c #BE4747",
"kD 	c #C04748",
"lD 	c #C1494A",
"mD 	c #C04849",
"nD 	c #BF4848",
"oD 	c #BE4646",
"pD 	c #BF4647",
"qD 	c #BF4747",
"rD 	c #BE4848",
"sD 	c #C14748",
"tD 	c #C24648",
"uD 	c #C14346",
"vD 	c #C04345",
"wD 	c #BF4244",
"xD 	c #C04343",
"yD 	c #C34445",
"zD 	c #C24445",
"AD 	c #C24344",
"BD 	c #C34244",
"CD 	c #C14144",
"DD 	c #C04244",
"ED 	c #C14544",
"FD 	c #C44848",
"GD 	c #C24747",
"HD 	c #C24749",
"ID 	c #C04548",
"JD 	c #C04346",
"KD 	c #C34545",
"LD 	c #C14444",
"MD 	c #C34546",
"ND 	c #C44546",
"OD 	c #C54546",
"PD 	c #C44344",
"QD 	c #BE4042",
"RD 	c #BE4244",
"SD 	c #BF4344",
"TD 	c #C04245",
"UD 	c #BE4143",
"VD 	c #C24847",
"WD 	c #C14746",
"XD 	c #C04645",
"YD 	c #C44647",
"ZD 	c #C54748",
"`D 	c #C14547",
" E 	c #C14546",
".E 	c #C24547",
"+E 	c #C04344",
"@E 	c #C24546",
"#E 	c #C54244",
"$E 	c #C44144",
"%E 	c #C34043",
"&E 	c #C04144",
"*E 	c #BC4344",
"=E 	c #C14647",
"-E 	c #C24748",
";E 	c #C24245",
">E 	c #C14043",
",E 	c #C34245",
"'E 	c #C54446",
")E 	c #C14143",
"!E 	c #C14847",
"~E 	c #C24746",
"{E 	c #C14646",
"]E 	c #C04546",
"^E 	c #C04145",
"/E 	c #C14045",
"(E 	c #C34646",
"_E 	c #C24545",
":E 	c #C04547",
"<E 	c #C14849",
"[E 	c #BE4748",
"}E 	c #BF4849",
"|E 	c #C24A4B",
"1E 	c #BA4746",
"2E 	c #B34844",
"3E 	c #AC473F",
"4E 	c #AA453E",
"5E 	c #B24340",
"6E 	c #C04447",
"7E 	c #C14347",
"8E 	c #BC4044",
"9E 	c #9A2C30",
"0E 	c #A5565C",
"aE 	c #F0C7C9",
"bE 	c #FDF5F3",
"cE 	c #AC4C49",
"dE 	c #B44946",
"eE 	c #BF494A",
"fE 	c #BF4648",
"gE 	c #BE4949",
"hE 	c #BF4949",
"iE 	c #C34B4C",
"jE 	c #C04648",
"kE 	c #C14446",
"lE 	c #BF4444",
"mE 	c #C34547",
"nE 	c #C54547",
"oE 	c #C24446",
"pE 	c #C04646",
"qE 	c #C54849",
"rE 	c #C44849",
"sE 	c #C2474A",
"tE 	c #C1474A",
"uE 	c #C14548",
"vE 	c #C54647",
"wE 	c #C44648",
"xE 	c #C14445",
"yE 	c #C14345",
"zE 	c #C24647",
"AE 	c #C24447",
"BE 	c #C24848",
"CE 	c #C44949",
"DE 	c #C34748",
"EE 	c #C14747",
"FE 	c #BF4545",
"GE 	c #C34749",
"HE 	c #C34446",
"IE 	c #C64447",
"JE 	c #C44446",
"KE 	c #C2484A",
"LE 	c #C44649",
"ME 	c #C44448",
"NE 	c #C24145",
"OE 	c #C54448",
"PE 	c #BF4646",
"QE 	c #C5484A",
"RE 	c #C4484A",
"SE 	c #C14448",
"TE 	c #C24449",
"UE 	c #C0494A",
"VE 	c #C04949",
"WE 	c #C34647",
"XE 	c #C54749",
"YE 	c #C34345",
"ZE 	c #C04647",
"`E 	c #C14749",
" F 	c #C04A4A",
".F 	c #C44C4D",
"+F 	c #B34845",
"@F 	c #AA4841",
"#F 	c #A8463E",
"$F 	c #B04240",
"%F 	c #C04247",
"&F 	c #B94144",
"*F 	c #9C373A",
"=F 	c #A76C6E",
"-F 	c #F4D9D9",
";F 	c #AD5652",
">F 	c #B04744",
",F 	c #B84746",
"'F 	c #BA4646",
")F 	c #BF4A4A",
"!F 	c #C4494B",
"~F 	c #C44B4C",
"{F 	c #BE4A4A",
"]F 	c #BD4949",
"^F 	c #C5494B",
"/F 	c #C5484B",
"(F 	c #C6484B",
"_F 	c #C5474A",
":F 	c #C3464A",
"<F 	c #C34A4C",
"[F 	c #C2494C",
"}F 	c #C54A4C",
"|F 	c #C54A4A",
"1F 	c #C54549",
"2F 	c #C64549",
"3F 	c #C7464A",
"4F 	c #C8474B",
"5F 	c #C8494C",
"6F 	c #C34649",
"7F 	c #C04749",
"8F 	c #C7494C",
"9F 	c #C44749",
"0F 	c #C3484A",
"aF 	c #C2494A",
"bF 	c #C4474B",
"cF 	c #C4484B",
"dF 	c #C64A4C",
"eF 	c #C64A4B",
"fF 	c #C54949",
"gF 	c #C6494B",
"hF 	c #C24649",
"iF 	c #C44347",
"jF 	c #C64449",
"kF 	c #C24548",
"lF 	c #C34548",
"mF 	c #C24549",
"nF 	c #C14649",
"oF 	c #C1464B",
"pF 	c #C1464A",
"qF 	c #C3494B",
"rF 	c #C54649",
"sF 	c #C44549",
"tF 	c #B74A47",
"uF 	c #B24C47",
"vF 	c #B14D47",
"wF 	c #B64745",
"xF 	c #BE4346",
"yF 	c #BD4247",
"zF 	c #AD3D3F",
"AF 	c #A4504F",
"BF 	c #B58E8B",
"CF 	c #F6E4E2",
"DF 	c #AF5C59",
"EF 	c #B64E4C",
"FF 	c #B94948",
"GF 	c #BD4848",
"HF 	c #C14A4B",
"IF 	c #C44A4C",
"JF 	c #C34A4B",
"KF 	c #C14B4B",
"LF 	c #C44B4D",
"MF 	c #C54A4D",
"NF 	c #C64A4E",
"OF 	c #C6494D",
"PF 	c #C5484C",
"QF 	c #C5474B",
"RF 	c #C7484B",
"SF 	c #C7484C",
"TF 	c #C94B4E",
"UF 	c #C44A4D",
"VF 	c #C34B4D",
"WF 	c #C74C4E",
"XF 	c #C84B4E",
"YF 	c #C8484C",
"ZF 	c #C7474B",
"`F 	c #C9484C",
" G 	c #C74A4D",
".G 	c #C64B4D",
"+G 	c #C4494C",
"@G 	c #C3484B",
"#G 	c #C3494C",
"$G 	c #C1494B",
"%G 	c #C24A4C",
"&G 	c #C04B4B",
"*G 	c #C84B4D",
"=G 	c #C84A4D",
"-G 	c #CA4C4F",
";G 	c #C24C4C",
">G 	c #C24B4B",
",G 	c #C54A4E",
"'G 	c #C64B50",
")G 	c #C74A4F",
"!G 	c #C74A4E",
"~G 	c #C74B4D",
"{G 	c #C64A4A",
"]G 	c #C6494C",
"^G 	c #BF4B4B",
"/G 	c #C24B4C",
"(G 	c #C94A4D",
"_G 	c #C4484C",
":G 	c #C3484C",
"<G 	c #C3484D",
"[G 	c #C2494D",
"}G 	c #C4484D",
"|G 	c #C54C4E",
"1G 	c #C6464A",
"2G 	c #C6474A",
"3G 	c #C14A4A",
"4G 	c #C24A49",
"5G 	c #C34B4A",
"6G 	c #C34C4B",
"7G 	c #C14948",
"8G 	c #BF4746",
"9G 	c #B94644",
"0G 	c #B74444",
"aG 	c #B24743",
"bG 	c #B14743",
"cG 	c #B54443",
"dG 	c #B93F41",
"eG 	c #B44043",
"fG 	c #A03C3B",
"gG 	c #A7635E",
"hG 	c #C8B1A9",
"iG 	c #F7EEEA",
"jG 	c #B95858",
"kG 	c #B64947",
"lG 	c #C04847",
"mG 	c #C14848",
"nG 	c #C74A50",
"oG 	c #C64A4F",
"pG 	c #BC4A48",
"qG 	c #C34C4D",
"rG 	c #C54D4E",
"sG 	c #C64A4D",
"tG 	c #C54B4D",
"uG 	c #C84C4E",
"vG 	c #C74B4E",
"wG 	c #C5494C",
"xG 	c #C84D4F",
"yG 	c #C94C4E",
"zG 	c #C64C4E",
"AG 	c #C64C4D",
"BG 	c #C64B4E",
"CG 	c #C54B4C",
"DG 	c #C94C4F",
"EG 	c #C94D4F",
"FG 	c #C34C4C",
"GG 	c #C44A4B",
"HG 	c #C34B4B",
"IG 	c #BC4645",
"JG 	c #BB4645",
"KG 	c #BB4646",
"LG 	c #BA4645",
"MG 	c #B94744",
"NG 	c #BB4544",
"OG 	c #BA3E41",
"PG 	c #B44040",
"QG 	c #B2413F",
"RG 	c #A93C40",
"SG 	c #9D4A4B",
"TG 	c #B98785",
"UG 	c #D9C9C7",
"VG 	c #B65A5E",
"WG 	c #B34747",
"XG 	c #BF4847",
"YG 	c #BD4746",
"ZG 	c #C94851",
"`G 	c #C8484F",
" H 	c #BF4D4C",
".H 	c #C14C4B",
"+H 	c #C64E4F",
"@H 	c #C34849",
"#H 	c #C44D4D",
"$H 	c #C34D4D",
"%H 	c #C94E50",
"&H 	c #BC4848",
"*H 	c #B94845",
"=H 	c #BB4644",
"-H 	c #C14447",
";H 	c #BD3F43",
">H 	c #BB4143",
",H 	c #B9423E",
"'H 	c #B74241",
")H 	c #9B393B",
"!H 	c #9E5A5D",
"~H 	c #C59C9E",
"{H 	c #E8DADA",
"]H 	c #B94B4C",
"^H 	c #B74243",
"/H 	c #BC4B48",
"(H 	c #BC4F4A",
"_H 	c #BE4E4A",
":H 	c #C8474E",
"<H 	c #C2494B",
"[H 	c #C14A49",
"}H 	c #C74D4F",
"|H 	c #BB4847",
"1H 	c #B9413D",
"2H 	c #A93E3B",
"3H 	c #9C4848",
"4H 	c #B17778",
"5H 	c #DBB8BC",
"6H 	c #BE5959",
"7H 	c #B74749",
"8H 	c #BC4E4C",
"9H 	c #BA514B",
"0H 	c #B94E48",
"aH 	c #C9484D",
"bH 	c #C34948",
"cH 	c #C54C4D",
"dH 	c #C84E50",
"eH 	c #C64D4E",
"fH 	c #C54F4F",
"gH 	c #C54E4F",
"hH 	c #B94746",
"iH 	c #B94241",
"jH 	c #BB3B38",
"kH 	c #B13C37",
"lH 	c #A44540",
"mH 	c #A15F5C",
"nH 	c #C79D9B",
"oH 	c #EAD1D3",
"pH 	c #B74B4F",
"qH 	c #BC4A4B",
"rH 	c #BB4D49",
"sH 	c #BB4F4A",
"tH 	c #C54B4A",
"uH 	c #C44D4E",
"vH 	c #C44E4E",
"wH 	c #C54E4E",
"xH 	c #C65050",
"yH 	c #C64D4F",
"zH 	c #C44F4F",
"AH 	c #C34F4F",
"BH 	c #BE4547",
"CH 	c #B94344",
"DH 	c #B74846",
"EH 	c #B84441",
"FH 	c #C13F3D",
"GH 	c #BC3837",
"HH 	c #B23E3B",
"IH 	c #A04F49",
"JH 	c #A3746E",
"KH 	c #D4B8B6",
"LH 	c #F4E2E4",
"MH 	c #B75659",
"NH 	c #BF474D",
"OH 	c #BA4B47",
"PH 	c #C14C4C",
"QH 	c #BE4746",
"RH 	c #C04A48",
"SH 	c #C34E4E",
"TH 	c #C24D4D",
"UH 	c #C55050",
"VH 	c #C24E4E",
"WH 	c #C74F50",
"XH 	c #BF4147",
"YH 	c #BB4043",
"ZH 	c #B44643",
"`H 	c #B5433D",
" I 	c #BB3A37",
".I 	c #BA3636",
"+I 	c #A73A39",
"@I 	c #A5605A",
"#I 	c #CDABA5",
"$I 	c #EBDCD8",
"%I 	c #C0454F",
"&I 	c #C14146",
"*I 	c #BF4C49",
"=I 	c #BB4D48",
"-I 	c #BF4846",
";I 	c #BB4945",
">I 	c #BF4C4B",
",I 	c #C14D4D",
"'I 	c #C74D4E",
")I 	c #C74E4F",
"!I 	c #BF3E44",
"~I 	c #B93C3F",
"{I 	c #B0413D",
"]I 	c #B2433D",
"^I 	c #B53837",
"/I 	c #B5383A",
"(I 	c #A23F40",
"_I 	c #B07775",
":I 	c #E1C8C3",
"<I 	c #F7EEEC",
"[I 	c #AD4149",
"}I 	c #B0353B",
"|I 	c #B84646",
"1I 	c #B54A45",
"2I 	c #B94846",
"3I 	c #B94A46",
"4I 	c #BB4948",
"5I 	c #BF3C43",
"6I 	c #BA3B40",
"7I 	c #B1433F",
"8I 	c #B44942",
"9I 	c #AB3A38",
"0I 	c #A45155",
"aI 	c #C79B9A",
"bI 	c #F4E4E0",
"cI 	c #992E31",
"dI 	c #AB3D3B",
"eI 	c #AE4742",
"fI 	c #B84947",
"gI 	c #BC4B49",
"hI 	c #BC4948",
"iI 	c #C64F4F",
"jI 	c #BA4042",
"kI 	c #BF3D42",
"lI 	c #BB3F42",
"mI 	c #B14540",
"nI 	c #B24C45",
"oI 	c #A94543",
"pI 	c #9F4548",
"qI 	c #9D5B61",
"rI 	c #E2C3C6",
"sI 	c #8F3836",
"tI 	c #9B3431",
"uI 	c #A9453F",
"vI 	c #B94042",
"wI 	c #C34247",
"xI 	c #BC4747",
"yI 	c #C45050",
"zI 	c #C24F4F",
"AI 	c #C64F50",
"BI 	c #B73F40",
"CI 	c #B63E3F",
"DI 	c #B83D3F",
"EI 	c #B93B3F",
"FI 	c #B73F3F",
"GI 	c #AF463F",
"HI 	c #A4463F",
"II 	c #9C4542",
"JI 	c #A35A5D",
"KI 	c #B28187",
"LI 	c #9B3130",
"MI 	c #A03934",
"NI 	c #A33C38",
"OI 	c #AA3B3A",
"PI 	c #BA3D41",
"QI 	c #BF4946",
"RI 	c #BF4A48",
"SI 	c #BD4847",
"TI 	c #B94343",
"UI 	c #B63E3E",
"VI 	c #B83E3E",
"WI 	c #B83E3F",
"XI 	c #AF3E3A",
"YI 	c #A23A34",
"ZI 	c #903530",
"`I 	c #924947",
" J 	c #B48181",
".J 	c #E6C6CA",
"+J 	c #AB3030",
"@J 	c #9A3732",
"#J 	c #953C36",
"$J 	c #AD4442",
"%J 	c #BE4849",
"&J 	c #BA4B4A",
"*J 	c #BB4D4C",
"=J 	c #C24448",
"-J 	c #B94946",
";J 	c #BA4845",
">J 	c #BE4846",
",J 	c #C24B4A",
"'J 	c #C14B49",
")J 	c #C34D4B",
"!J 	c #C24F4C",
"~J 	c #C14E4B",
"{J 	c #C44E4C",
"]J 	c #C64E4D",
"^J 	c #C84E4D",
"/J 	c #C94D4D",
"(J 	c #C84E4F",
"_J 	c #C04E4D",
":J 	c #C54F4E",
"<J 	c #C54F4D",
"[J 	c #C34E4D",
"}J 	c #C74E4D",
"|J 	c #C54D4C",
"1J 	c #C54D4D",
"2J 	c #C74E4E",
"3J 	c #C14F4E",
"4J 	c #C24C4E",
"5J 	c #BF4B4C",
"6J 	c #BF4945",
"7J 	c #C34840",
"8J 	c #BD4840",
"9J 	c #B74644",
"0J 	c #B2433E",
"aJ 	c #B4403C",
"bJ 	c #B83D3B",
"cJ 	c #B73F3D",
"dJ 	c #AA4137",
"eJ 	c #A33B33",
"fJ 	c #A03132",
"gJ 	c #933338",
"hJ 	c #9C6362",
"iJ 	c #C0A9A3",
"jJ 	c #AC3737",
"kJ 	c #972E2D",
"lJ 	c #993535",
"mJ 	c #AE3E3F",
"nJ 	c #BB413E",
"oJ 	c #BA4C4A",
"pJ 	c #B94B49",
"qJ 	c #B74745",
"rJ 	c #BB4444",
"sJ 	c #BD4545",
"tJ 	c #BF4948",
"uJ 	c #C14B4A",
"vJ 	c #C34D4C",
"wJ 	c #C44F4E",
"xJ 	c #CA4C4E",
"yJ 	c #C64E4E",
"zJ 	c #C14D4C",
"AJ 	c #C24E4D",
"BJ 	c #C44E4D",
"CJ 	c #C84D4E",
"DJ 	c #C94D4E",
"EJ 	c #BF4C4C",
"FJ 	c #BD4A46",
"GJ 	c #BD4841",
"HJ 	c #B74942",
"IJ 	c #BF4547",
"JJ 	c #B34240",
"KJ 	c #B0413B",
"LJ 	c #B7403D",
"MJ 	c #B53B3C",
"NJ 	c #A73A34",
"OJ 	c #A43631",
"PJ 	c #AD363B",
"QJ 	c #A7444F",
"RJ 	c #C0888C",
"SJ 	c #831C1F",
"TJ 	c #93262C",
"UJ 	c #B43D42",
"VJ 	c #B5403B",
"WJ 	c #BE4241",
"XJ 	c #BA4947",
"YJ 	c #BB4A48",
"ZJ 	c #BA4143",
"`J 	c #BD4446",
" K 	c #C44C4E",
".K 	c #C34D4E",
"+K 	c #C44E4F",
"@K 	c #B94843",
"#K 	c #B64945",
"$K 	c #BE3F42",
"%K 	c #B63F3C",
"&K 	c #BB3E3D",
"*K 	c #BA383C",
"=K 	c #B0353A",
"-K 	c #A43634",
";K 	c #A23335",
">K 	c #A7343F",
",K 	c #B7606A",
"'K 	c #D7A6AB",
")K 	c #872128",
"!K 	c #AC373B",
"~K 	c #BE403F",
"{K 	c #BA4747",
"]K 	c #BA4847",
"^K 	c #BE4447",
"/K 	c #BE4446",
"(K 	c #C64C4B",
"_K 	c #C54D4F",
":K 	c #C64E50",
"<K 	c #C54E50",
"[K 	c #C84D50",
"}K 	c #C74C4F",
"|K 	c #C44D4F",
"1K 	c #C34C4E",
"2K 	c #C44E50",
"3K 	c #BC4647",
"4K 	c #B84447",
"5K 	c #BE4145",
"6K 	c #C13B41",
"7K 	c #C13A3F",
"8K 	c #B93A39",
"9K 	c #B83937",
"0K 	c #B33239",
"aK 	c #A6333A",
"bK 	c #953232",
"cK 	c #983A3C",
"dK 	c #AF565D",
"eK 	c #D3949A",
"fK 	c #933D43",
"gK 	c #AD343D",
"hK 	c #C2373E",
"iK 	c #C13A3D",
"jK 	c #B94445",
"kK 	c #BC4446",
"lK 	c #C04448",
"mK 	c #C74C4B",
"nK 	c #C74D4C",
"oK 	c #C44C4B",
"pK 	c #C84D4C",
"qK 	c #C84C4C",
"rK 	c #C94B4C",
"sK 	c #CA4B4C",
"tK 	c #C94C4D",
"uK 	c #CA4C4D",
"vK 	c #CC4C4D",
"wK 	c #C74C4D",
"xK 	c #CA4E4E",
"yK 	c #C74B4B",
"zK 	c #C84C4F",
"AK 	c #C74D50",
"BK 	c #C74649",
"CK 	c #BB4445",
"DK 	c #B74244",
"EK 	c #B64144",
"FK 	c #BA3A3F",
"GK 	c #BC3339",
"HK 	c #BE3837",
"IK 	c #B73932",
"JK 	c #B0342F",
"KK 	c #B13534",
"LK 	c #A93537",
"MK 	c #943335",
"NK 	c #823433",
"OK 	c #894846",
"PK 	c #C39391",
"QK 	c #873535",
"RK 	c #942B2A",
"SK 	c #AE3939",
"TK 	c #B73D3E",
"UK 	c #C34444",
"VK 	c #C14443",
"WK 	c #C04543",
"XK 	c #BD4542",
"YK 	c #BF4246",
"ZK 	c #C24346",
"`K 	c #C34246",
" L 	c #C3494A",
".L 	c #C84C4D",
"+L 	c #C84D4D",
"@L 	c #C94E4E",
"#L 	c #CA4D4E",
"$L 	c #CB4C4D",
"%L 	c #CC4D4E",
"&L 	c #CB4B4C",
"*L 	c #CD4B4D",
"=L 	c #CB4D4E",
"-L 	c #CA4C4C",
";L 	c #C74C4C",
">L 	c #CA4E50",
",L 	c #C64D4D",
"'L 	c #C74D4D",
")L 	c #CA4D4D",
"!L 	c #C94C4C",
"~L 	c #C84A4B",
"{L 	c #C84B4C",
"]L 	c #C84B4B",
"^L 	c #C7484A",
"/L 	c #C64547",
"(L 	c #BE4140",
"_L 	c #B5413F",
":L 	c #AE4240",
"<L 	c #B04140",
"[L 	c #B4393A",
"}L 	c #B5342E",
"|L 	c #AC3329",
"1L 	c #B0362E",
"2L 	c #AA312E",
"3L 	c #9E3231",
"4L 	c #873534",
"5L 	c #7D3B3A",
"6L 	c #AC7E7B",
"7L 	c #D7C4BD",
"8L 	c #7F332C",
"9L 	c #922F2C",
"0L 	c #B13F3E",
"aL 	c #B73B3C",
"bL 	c #C64345",
"cL 	c #C24242",
"dL 	c #C04341",
"eL 	c #BF4542",
"fL 	c #BF4543",
"gL 	c #C44346",
"hL 	c #C24345",
"iL 	c #C34648",
"jL 	c #BF4445",
"kL 	c #C7494B",
"lL 	c #C74B4C",
"mL 	c #C84C4B",
"nL 	c #C84E4C",
"oL 	c #C94D4C",
"pL 	c #CB4C4C",
"qL 	c #CC4B4C",
"rL 	c #CD4B4C",
"sL 	c #CD4C4D",
"tL 	c #CC4C4C",
"uL 	c #CB4B4B",
"vL 	c #CE4C4D",
"wL 	c #CB4D4D",
"xL 	c #C94B4B",
"yL 	c #C94B4D",
"zL 	c #C84A4C",
"AL 	c #CA4B4E",
"BL 	c #C94E4F",
"CL 	c #CB4D4F",
"DL 	c #C94E4D",
"EL 	c #C64B4C",
"FL 	c #C84A4A",
"GL 	c #CA4A4B",
"HL 	c #C74648",
"IL 	c #C84345",
"JL 	c #BD3F3E",
"KL 	c #B3403B",
"LL 	c #AB443C",
"ML 	c #AE423D",
"NL 	c #B63431",
"OL 	c #B2312B",
"PL 	c #A92D24",
"QL 	c #B1302A",
"RL 	c #A82726",
"SL 	c #932123",
"TL 	c #873333",
"UL 	c #A25F61",
"VL 	c #D1A6A6",
"WL 	c #842C29",
"XL 	c #9F3735",
"YL 	c #B13839",
"ZL 	c #C33D41",
"`L 	c #C03B3D",
" M 	c #C2413F",
".M 	c #C0433F",
"+M 	c #C44443",
"@M 	c #C24246",
"#M 	c #C84849",
"$M 	c #C74849",
"%M 	c #C64849",
"&M 	c #C74A4A",
"*M 	c #C84B4A",
"=M 	c #C84B49",
"-M 	c #C94B49",
";M 	c #C94C4A",
">M 	c #CA4B4A",
",M 	c #C94A49",
"'M 	c #C84A48",
")M 	c #C94A4B",
"!M 	c #C94C4B",
"~M 	c #CB4B4A",
"{M 	c #CC4A4A",
"]M 	c #CB4949",
"^M 	c #CC4B4B",
"/M 	c #CD4B4B",
"(M 	c #CE4C4C",
"_M 	c #CE4D4D",
":M 	c #CD4C4B",
"<M 	c #CB4C4B",
"[M 	c #CC4C4B",
"}M 	c #CB4C4A",
"|M 	c #CA4A49",
"1M 	c #C64B4B",
"2M 	c #C64D4C",
"3M 	c #CC4A4C",
"4M 	c #CD4D4C",
"5M 	c #CB4A4A",
"6M 	c #CA4D4B",
"7M 	c #C94D4B",
"8M 	c #C64546",
"9M 	c #C74245",
"0M 	c #C94344",
"aM 	c #C44141",
"bM 	c #BE3E3D",
"cM 	c #B6403B",
"dM 	c #AF413A",
"eM 	c #B23D39",
"fM 	c #B73535",
"gM 	c #BB3231",
"hM 	c #B62E2D",
"iM 	c #AB2722",
"jM 	c #B12426",
"kM 	c #A7181F",
"lM 	c #991C25",
"mM 	c #9B4044",
"nM 	c #CF868D",
"oM 	c #8C2B27",
"pM 	c #AA3234",
"qM 	c #BE363B",
"rM 	c #C03639",
"sM 	c #BE3A38",
"tM 	c #C03E3A",
"uM 	c #C84241",
"vM 	c #C94243",
"wM 	c #C64243",
"xM 	c #C64446",
"yM 	c #C54345",
"zM 	c #C74346",
"AM 	c #CA4749",
"BM 	c #CA4A4A",
"CM 	c #CB4A49",
"DM 	c #CB494B",
"EM 	c #CD4C4C",
"FM 	c #CC4B4D",
"GM 	c #CB4A4C",
"HM 	c #CE494A",
"IM 	c #CD4A4A",
"JM 	c #CD4D4E",
"KM 	c #CC4B4A",
"LM 	c #CD494A",
"MM 	c #CD4A4B",
"NM 	c #CE4C4E",
"OM 	c #C33D3E",
"PM 	c #BF3B39",
"QM 	c #B93836",
"RM 	c #B63935",
"SM 	c #B53A35",
"TM 	c #B53433",
"UM 	c #B82D32",
"VM 	c #BB2D33",
"WM 	c #B42D30",
"XM 	c #AC292A",
"YM 	c #A3181F",
"ZM 	c #980D18",
"`M 	c #B33C46",
" N 	c #CF7E83",
".N 	c #A32C2E",
"+N 	c #B32A30",
"@N 	c #B92E32",
"#N 	c #B83030",
"$N 	c #BF3936",
"%N 	c #C63C3B",
"&N 	c #C93D3E",
"*N 	c #C53F3F",
"=N 	c #C34242",
"-N 	c #C74545",
";N 	c #C23E40",
">N 	c #C13D3E",
",N 	c #C33F40",
"'N 	c #C54142",
")N 	c #C74244",
"!N 	c #C74344",
"~N 	c #C74243",
"{N 	c #C64244",
"]N 	c #C44243",
"^N 	c #C54344",
"/N 	c #CB4748",
"(N 	c #CC4648",
"_N 	c #CA4546",
":N 	c #CD484A",
"<N 	c #CE4A4B",
"[N 	c #CE4A4D",
"}N 	c #CE4A4A",
"|N 	c #CC4849",
"1N 	c #CD4949",
"2N 	c #CF4B4C",
"3N 	c #CF4B4B",
"4N 	c #CF4D4B",
"5N 	c #CE4C4B",
"6N 	c #CD4B4A",
"7N 	c #CE4C4A",
"8N 	c #D04B4C",
"9N 	c #CF4A4C",
"0N 	c #CA4C4B",
"aN 	c #CC4949",
"bN 	c #CC4B49",
"cN 	c #CD4B49",
"dN 	c #CD4948",
"eN 	c #CE4A49",
"fN 	c #CB4D4C",
"gN 	c #C74B4A",
"hN 	c #C74D4A",
"iN 	c #C74D4B",
"jN 	c #C7494A",
"kN 	c #C94A4A",
"lN 	c #CC4A4B",
"mN 	c #CC4D4A",
"nN 	c #CD4D4A",
"oN 	c #CD4C4A",
"pN 	c #CF4C4A",
"qN 	c #CE4B49",
"rN 	c #CD4A48",
"sN 	c #CF4B4A",
"tN 	c #CC4947",
"uN 	c #CD4849",
"vN 	c #CF4A4B",
"wN 	c #CF494A",
"xN 	c #CC4A49",
"yN 	c #CC4A48",
"zN 	c #CB4E4C",
"AN 	c #C34B49",
"BN 	c #BC3836",
"CN 	c #B63432",
"DN 	c #B33431",
"EN 	c #B1332F",
"FN 	c #B02D2E",
"GN 	c #B2282F",
"HN 	c #AF2931",
"IN 	c #A2292D",
"JN 	c #952728",
"KN 	c #99262B",
"LN 	c #A5363D",
"MN 	c #C26B70",
"NN 	c #A02429",
"ON 	c #A9262B",
"PN 	c #BB3334",
"QN 	c #C43739",
"RN 	c #C5393A",
"SN 	c #C53C3D",
"TN 	c #C54041",
"UN 	c #C94143",
"VN 	c #C84243",
"WN 	c #C43F40",
"XN 	c #C23D3E",
"YN 	c #C74141",
"ZN 	c #CA4243",
"`N 	c #CB4244",
" O 	c #CA4143",
".O 	c #C94343",
"+O 	c #CA4445",
"@O 	c #C94444",
"#O 	c #CD4748",
"$O 	c #CD4747",
"%O 	c #CE4849",
"&O 	c #CC4948",
"*O 	c #CB4948",
"=O 	c #CF494B",
"-O 	c #CE484A",
";O 	c #D04A4C",
">O 	c #D0494D",
",O 	c #CF4A4D",
"'O 	c #CF494D",
")O 	c #CE484C",
"!O 	c #CE494C",
"~O 	c #CE494B",
"{O 	c #CD4749",
"]O 	c #CC4749",
"^O 	c #CC4748",
"/O 	c #CB4848",
"(O 	c #CC4848",
"_O 	c #CB4849",
":O 	c #D04A4B",
"<O 	c #D0494B",
"[O 	c #CE4D4C",
"}O 	c #CE4B4B",
"|O 	c #CE4949",
"1O 	c #CD4848",
"2O 	c #CF4A4A",
"3O 	c #CE4B4A",
"4O 	c #C94B4A",
"5O 	c #C84C4A",
"6O 	c #C9494A",
"7O 	c #D04C4A",
"8O 	c #CF4B49",
"9O 	c #CE4948",
"0O 	c #CF4A49",
"aO 	c #CE4A48",
"bO 	c #D04849",
"cO 	c #CF4849",
"dO 	c #D0494A",
"eO 	c #CE4B4C",
"fO 	c #CC4D4C",
"gO 	c #C64947",
"hO 	c #C6494A",
"iO 	c #C64848",
"jO 	c #C74748",
"kO 	c #C64646",
"lO 	c #C24142",
"mO 	c #C14041",
"nO 	c #C34145",
"oO 	c #BD393A",
"pO 	c #B93536",
"qO 	c #B73435",
"rO 	c #B53432",
"sO 	c #AF2F2B",
"tO 	c #AD2F28",
"uO 	c #B12A29",
"vO 	c #B1242C",
"wO 	c #A8232D",
"xO 	c #94262C",
"yO 	c #822C2D",
"zO 	c #904647",
"AO 	c #AE6B6B",
"BO 	c #982B30",
"CO 	c #9D2328",
"DO 	c #A72429",
"EO 	c #B52B31",
"FO 	c #BC3134",
"GO 	c #BF3839",
"HO 	c #C73B3E",
"IO 	c #C83E40",
"JO 	c #C33C3D",
"KO 	c #CC4343",
"LO 	c #CB4040",
"MO 	c #CA3E3F",
"NO 	c #CA4242",
"OO 	c #CD4444",
"PO 	c #CE4545",
"QO 	c #CB4343",
"RO 	c #CA4443",
"SO 	c #CB4544",
"TO 	c #CC4645",
"UO 	c #CC4846",
"VO 	c #CE4749",
"WO 	c #D0484C",
"XO 	c #CF474B",
"YO 	c #CE464A",
"ZO 	c #CF484C",
"`O 	c #CE474B",
" P 	c #CF4749",
".P 	c #D0484A",
"+P 	c #CD4547",
"@P 	c #CE4748",
"#P 	c #D1494D",
"$P 	c #D24A4E",
"%P 	c #D14A4E",
"&P 	c #D0464B",
"*P 	c #D04B4E",
"=P 	c #CF4D4D",
"-P 	c #CD4847",
";P 	c #CF4948",
">P 	c #CE4847",
",P 	c #CE4848",
"'P 	c #CE484B",
")P 	c #CF494C",
"!P 	c #D0494C",
"~P 	c #CD484B",
"{P 	c #D14B4C",
"]P 	c #D04848",
"^P 	c #D14949",
"/P 	c #D14A4A",
"(P 	c #D04B49",
"_P 	c #CA4A4D",
":P 	c #CF484B",
"<P 	c #D1494C",
"[P 	c #CF4747",
"}P 	c #CE4646",
"|P 	c #CE4746",
"1P 	c #CE4747",
"2P 	c #CF4748",
"3P 	c #CA4545",
"4P 	c #C84446",
"5P 	c #C94648",
"6P 	c #C94445",
"7P 	c #C74041",
"8P 	c #CB4242",
"9P 	c #CB4240",
"0P 	c #CC4341",
"aP 	c #CA4141",
"bP 	c #C53C3C",
"cP 	c #C63C3C",
"dP 	c #C63B3C",
"eP 	c #BD3B39",
"fP 	c #B83D39",
"gP 	c #B93D3A",
"hP 	c #AE3130",
"iP 	c #AC2E2C",
"jP 	c #B12B2B",
"kP 	c #AF2A26",
"lP 	c #AE2B23",
"mP 	c #B22624",
"nP 	c #AC1C24",
"oP 	c #9F1B27",
"pP 	c #932B36",
"qP 	c #99575C",
"rP 	c #A5807E",
"sP 	c #872D2B",
"tP 	c #8E1E21",
"uP 	c #A02124",
"vP 	c #B53330",
"wP 	c #B93835",
"xP 	c #C03636",
"yP 	c #C23838",
"zP 	c #C13838",
"AP 	c #C84040",
"BP 	c #C94040",
"CP 	c #C73C3D",
"DP 	c #C83F3F",
"EP 	c #C93F3F",
"FP 	c #CA4040",
"GP 	c #C94342",
"HP 	c #CD4647",
"IP 	c #CE4648",
"JP 	c #CC4446",
"KP 	c #D1494B",
"LP 	c #CC4547",
"MP 	c #CB4345",
"NP 	c #CD4545",
"OP 	c #CC4444",
"PP 	c #CD4646",
"QP 	c #CD4648",
"RP 	c #CF4447",
"SP 	c #CE4447",
"TP 	c #CC4647",
"UP 	c #CC4746",
"VP 	c #CF4A48",
"WP 	c #CD4746",
"XP 	c #CD4645",
"YP 	c #CC4545",
"ZP 	c #CF4649",
"`P 	c #D14A49",
" Q 	c #CA4848",
".Q 	c #C94747",
"+Q 	c #C84646",
"@Q 	c #C94649",
"#Q 	c #C9464A",
"$Q 	c #CB4649",
"%Q 	c #CD4846",
"&Q 	c #CC4745",
"*Q 	c #CD4546",
"=Q 	c #CB4546",
"-Q 	c #CB4647",
";Q 	c #C74142",
">Q 	c #C64043",
",Q 	c #CB4446",
"'Q 	c #CA4142",
")Q 	c #C83E3D",
"!Q 	c #CC403F",
"~Q 	c #C93D3C",
"{Q 	c #CB3F3E",
"]Q 	c #CB403F",
"^Q 	c #C33736",
"/Q 	c #C33637",
"(Q 	c #C93939",
"_Q 	c #C03535",
":Q 	c #BA3332",
"<Q 	c #BA3533",
"[Q 	c #B93535",
"}Q 	c #A82A29",
"|Q 	c #B12427",
"1Q 	c #B22225",
"2Q 	c #AE1F20",
"3Q 	c #A51C1E",
"4Q 	c #981D23",
"5Q 	c #8D292F",
"6Q 	c #8E474A",
"7Q 	c #9D7373",
"8Q 	c #7B2523",
"9Q 	c #891D1D",
"0Q 	c #992020",
"aQ 	c #A32621",
"bQ 	c #AF2F29",
"cQ 	c #B82D2C",
"dQ 	c #BB2F2E",
"eQ 	c #BD3331",
"fQ 	c #C23937",
"gQ 	c #C43B39",
"hQ 	c #C43938",
"iQ 	c #C63A39",
"jQ 	c #C73B3A",
"kQ 	c #C43A39",
"lQ 	c #C43A38",
"mQ 	c #C53A3B",
"nQ 	c #C43A3A",
"oQ 	c #CB4141",
"pQ 	c #CC4242",
"qQ 	c #C73F3F",
"rQ 	c #C94141",
"sQ 	c #C84140",
"tQ 	c #C94041",
"uQ 	c #D04747",
"vQ 	c #CF4646",
"wQ 	c #CB4142",
"xQ 	c #CA4041",
"yQ 	c #CE4445",
"zQ 	c #CC4243",
"AQ 	c #CD4344",
"BQ 	c #D04647",
"CQ 	c #CB4243",
"DQ 	c #C94142",
"EQ 	c #C74140",
"FQ 	c #C84143",
"GQ 	c #CA4043",
"HQ 	c #C93F42",
"IQ 	c #CA4244",
"JQ 	c #C84042",
"KQ 	c #D04749",
"LQ 	c #CC4445",
"MQ 	c #CE4444",
"NQ 	c #CC4141",
"OQ 	c #CC4142",
"PQ 	c #C84141",
"QQ 	c #CB4041",
"RQ 	c #C84041",
"SQ 	c #C74040",
"TQ 	c #C94241",
"UQ 	c #C84344",
"VQ 	c #C54243",
"WQ 	c #C64343",
"XQ 	c #C74343",
"YQ 	c #C64242",
"ZQ 	c #C74345",
"`Q 	c #C84246",
" R 	c #C84145",
".R 	c #CA4241",
"+R 	c #CB4143",
"@R 	c #CB4444",
"#R 	c #CB4545",
"$R 	c #CA4344",
"%R 	c #C43D3F",
"&R 	c #C83C3C",
"*R 	c #C63938",
"=R 	c #C83A39",
"-R 	c #C73937",
";R 	c #C63736",
">R 	c #C73938",
",R 	c #BF3231",
"'R 	c #C03232",
")R 	c #C23232",
"!R 	c #BF2F2F",
"~R 	c #BC2F2F",
"{R 	c #B12F2D",
"]R 	c #AC2F2D",
"^R 	c #A52826",
"/R 	c #A62625",
"(R 	c #A82023",
"_R 	c #AC1F24",
":R 	c #AC1C23",
"<R 	c #A0141D",
"[R 	c #90161C",
"}R 	c #8B2E31",
"|R 	c #8B4A4A",
"1R 	c #8C2321",
"2R 	c #971F1C",
"3R 	c #A82221",
"4R 	c #AE2624",
"5R 	c #B22927",
"6R 	c #B52C2A",
"7R 	c #BC3230",
"8R 	c #BF3534",
"9R 	c #C03533",
"0R 	c #C13634",
"aR 	c #C13534",
"bR 	c #BF3432",
"cR 	c #C13735",
"dR 	c #C73B3C",
"eR 	c #C63B3B",
"fR 	c #C53B3B",
"gR 	c #C13939",
"hR 	c #C33B3B",
"iR 	c #C53A3A",
"jR 	c #C93F3E",
"kR 	c #CE4343",
"lR 	c #CA3F3F",
"mR 	c #CF4544",
"nR 	c #C93E3E",
"oR 	c #C83D3D",
"pR 	c #CD4242",
"qR 	c #CC4241",
"rR 	c #C73C3C",
"sR 	c #C73D3D",
"tR 	c #C53B3A",
"uR 	c #C73D3C",
"vR 	c #C23837",
"wR 	c #C43B3A",
"xR 	c #C33938",
"yR 	c #C33939",
"zR 	c #BF3535",
"AR 	c #C83F3E",
"BR 	c #CB4140",
"CR 	c #CA403F",
"DR 	c #C43B3B",
"ER 	c #C43C3B",
"FR 	c #C63D3D",
"GR 	c #C63B3E",
"HR 	c #C73C3E",
"IR 	c #C73C3F",
"JR 	c #C63B3D",
"KR 	c #C3383A",
"LR 	c #C13638",
"MR 	c #C3383B",
"NR 	c #C53A3C",
"OR 	c #C13737",
"PR 	c #C13637",
"QR 	c #C63A3B",
"RR 	c #C83C3D",
"SR 	c #C43C3C",
"TR 	c #C33B3A",
"UR 	c #C13938",
"VR 	c #C03737",
"WR 	c #C03839",
"XR 	c #C03A3B",
"YR 	c #C0393A",
"ZR 	c #BF393A",
"`R 	c #BE3738",
" S 	c #C03A39",
".S 	c #BF3737",
"+S 	c #C03838",
"@S 	c #C23B3B",
"#S 	c #C33D3C",
"$S 	c #C03B3B",
"%S 	c #C23D3D",
"&S 	c #C23E3F",
"*S 	c #C33E3F",
"=S 	c #C33D40",
"-S 	c #C33C40",
";S 	c #C43C3E",
">S 	c #C73D3F",
",S 	c #C53D3E",
"'S 	c #C83E3E",
")S 	c #C53D3C",
"!S 	c #C23A3A",
"~S 	c #C33A3A",
"{S 	c #C73F3E",
"]S 	c #C53D3D",
"^S 	c #C43D3D",
"/S 	c #C8403F",
"(S 	c #C73E3E",
"_S 	c #C63D3F",
":S 	c #C83B3C",
"<S 	c #C63838",
"[S 	c #CA3B3B",
"}S 	c #C53534",
"|S 	c #C23231",
"1S 	c #C13231",
"2S 	c #C23332",
"3S 	c #C13332",
"4S 	c #BF3130",
"5S 	c #BB2E2D",
"6S 	c #B92A2A",
"7S 	c #B82B2B",
"8S 	c #AB2D2A",
"9S 	c #A72D2A",
"0S 	c #9C211F",
"aS 	c #A21E21",
"bS 	c #A72226",
"cS 	c #A32327",
"dS 	c #971A20",
"eS 	c #8D1722",
"fS 	c #88292E",
"gS 	c #8C4C4C",
"hS 	c #8D1A1E",
"iS 	c #9F1820",
"jS 	c #A21F20",
"kS 	c #A52222",
"lS 	c #AB2525",
"mS 	c #B22A2B",
"nS 	c #BA2F31",
"oS 	c #BB3232",
"pS 	c #BA3230",
"qS 	c #BB312F",
"rS 	c #BD3230",
"sS 	c #C03332",
"tS 	c #C13434",
"uS 	c #C23637",
"vS 	c #C43839",
"wS 	c #C23738",
"xS 	c #BF3636",
"yS 	c #C23736",
"zS 	c #C43837",
"AS 	c #C83C3B",
"BS 	c #C63B3A",
"CS 	c #C53938",
"DS 	c #C23635",
"ES 	c #C63B39",
"FS 	c #C23836",
"GS 	c #C63C3A",
"HS 	c #C03634",
"IS 	c #BF3533",
"JS 	c #C03735",
"KS 	c #C33937",
"LS 	c #C53B39",
"MS 	c #C23735",
"NS 	c #C33738",
"OS 	c #BD3132",
"PS 	c #BF3334",
"QS 	c #C13536",
"RS 	c #BE3334",
"SS 	c #C33839",
"TS 	c #BC3433",
"US 	c #BC3434",
"VS 	c #BB3333",
"WS 	c #BD3535",
"XS 	c #BA3232",
"YS 	c #BD3534",
"ZS 	c #BC3635",
"`S 	c #B83231",
" T 	c #BF3A3B",
".T 	c #C03B3C",
"+T 	c #BF393C",
"@T 	c #BF383C",
"#T 	c #BE3331",
"$T 	c #BE3434",
"%T 	c #BD3434",
"&T 	c #C13836",
"*T 	c #BE3432",
"=T 	c #C63E3E",
"-T 	c #C33537",
";T 	c #C43537",
">T 	c #C53434",
",T 	c #C23030",
"'T 	c #C33232",
")T 	c #C33332",
"!T 	c #C13131",
"~T 	c #B92D2D",
"{T 	c #B22828",
"]T 	c #B3282A",
"^T 	c #B42A2B",
"/T 	c #A52A28",
"(T 	c #A42828",
"_T 	c #A42125",
":T 	c #A71F26",
"<T 	c #9A1C20",
"[T 	c #8D2022",
"}T 	c #822628",
"|T 	c #843339",
"1T 	c #88464B",
"2T 	c #921A27",
"3T 	c #901C1E",
"4T 	c #911D1C",
"5T 	c #981D1E",
"6T 	c #A32124",
"7T 	c #AA2529",
"8T 	c #B22C2B",
"9T 	c #B42B2B",
"0T 	c #B82B2A",
"aT 	c #BB302E",
"bT 	c #BD3130",
"cT 	c #BE3231",
"dT 	c #BC302F",
"eT 	c #BF3332",
"fT 	c #C03433",
"gT 	c #C03534",
"hT 	c #BF3433",
"iT 	c #BA302E",
"jT 	c #BD3231",
"kT 	c #BC3232",
"lT 	c #B82E2E",
"mT 	c #BA3030",
"nT 	c #BC3231",
"oT 	c #B72D2B",
"pT 	c #B72E2B",
"qT 	c #B62E2C",
"rT 	c #BB3230",
"sT 	c #B92F2D",
"tT 	c #BB302F",
"uT 	c #B62D2D",
"vT 	c #B93131",
"wT 	c #B72F2F",
"xT 	c #B42C2C",
"yT 	c #B52D2D",
"zT 	c #B52E2B",
"AT 	c #B62F2E",
"BT 	c #B83232",
"CT 	c #B93333",
"DT 	c #BA3433",
"ET 	c #B83334",
"FT 	c #B73233",
"GT 	c #B93334",
"HT 	c #B52D2B",
"IT 	c #B42D2A",
"JT 	c #B62F2C",
"KT 	c #B42D2C",
"LT 	c #BA3330",
"MT 	c #BB3431",
"NT 	c #BE3734",
"OT 	c #BC3532",
"PT 	c #BA322F",
"QT 	c #B82E2C",
"RT 	c #BB3131",
"ST 	c #BD3333",
"TT 	c #BE3233",
"UT 	c #C03435",
"VT 	c #BE3636",
"WT 	c #BE3030",
"XT 	c #C12F2F",
"YT 	c #C02E2E",
"ZT 	c #BF2E2D",
"`T 	c #BF2F2E",
" U 	c #BC2D2B",
".U 	c #BA2D2C",
"+U 	c #B92D2C",
"@U 	c #B4282A",
"#U 	c #AE2326",
"$U 	c #AC2227",
"%U 	c #AB2326",
"&U 	c #A62326",
"*U 	c #A12223",
"=U 	c #A21C22",
"-U 	c #AC1C27",
";U 	c #A31621",
">U 	c #90181F",
",U 	c #781D1C",
"'U 	c #7C3B38",
")U 	c #80211F",
"!U 	c #7C1213",
"~U 	c #841216",
"{U 	c #8E171A",
"]U 	c #93191C",
"^U 	c #971D1D",
"/U 	c #9C1E1C",
"(U 	c #AB1F22",
"_U 	c #A81C1C",
":U 	c #AD2522",
"<U 	c #B12926",
"[U 	c #B02725",
"}U 	c #AF2523",
"|U 	c #B02624",
"1U 	c #B12624",
"2U 	c #B32726",
"3U 	c #B62A29",
"4U 	c #B42827",
"5U 	c #B52928",
"6U 	c #B72B2A",
"7U 	c #B22826",
"8U 	c #B12725",
"9U 	c #AE2422",
"0U 	c #AF2724",
"aU 	c #B12524",
"bU 	c #B22524",
"cU 	c #AE2724",
"dU 	c #AF2725",
"eU 	c #AE2725",
"fU 	c #B02926",
"gU 	c #B22A28",
"hU 	c #B22A27",
"iU 	c #AF2825",
"jU 	c #AD2724",
"kU 	c #AE2825",
"lU 	c #AF2624",
"mU 	c #B22726",
"nU 	c #B12726",
"oU 	c #B32928",
"pU 	c #B12826",
"qU 	c #B02625",
"rU 	c #B22827",
"sU 	c #AD2625",
"tU 	c #AE2626",
"uU 	c #AD2525",
"vU 	c #AF2728",
"wU 	c #AE2727",
"xU 	c #AD2726",
"yU 	c #AE2827",
"zU 	c #AF2928",
"AU 	c #AD2623",
"BU 	c #AE2723",
"CU 	c #AD2725",
"DU 	c #B02626",
"EU 	c #B22728",
"FU 	c #B5292A",
"GU 	c #B42829",
"HU 	c #B62A2B",
"IU 	c #B6282A",
"JU 	c #B92A2C",
"KU 	c #BA2C2D",
"LU 	c #B32927",
"MU 	c #B72D2C",
"NU 	c #B72F2D",
"OU 	c #B32A28",
"PU 	c #B62C2A",
"QU 	c #B42828",
"RU 	c #B92B2A",
"SU 	c #BA2B2A",
"TU 	c #B92929",
"UU 	c #B82726",
"VU 	c #B62625",
"WU 	c #B42524",
"XU 	c #B12321",
"YU 	c #AF2322",
"ZU 	c #AE2423",
"`U 	c #A92121",
" V 	c #971E1F",
".V 	c #911C1C",
"+V 	c #8E1D1B",
"@V 	c #8C1F1D",
"#V 	c #8B1C1B",
"$V 	c #8C1619",
"%V 	c #8D131A",
"&V 	c #8D1B22",
"*V 	c #81292B",
"=V 	c #723832",
"-V 	c #661214",
";V 	c #6F0F14",
">V 	c #791216",
",V 	c #7E1416",
"'V 	c #871818",
")V 	c #8A1816",
"!V 	c #971A1A",
"~V 	c #9B1517",
"{V 	c #9B1314",
"]V 	c #A21B19",
"^V 	c #A7201D",
"/V 	c #A31C19",
"(V 	c #A71E1C",
"_V 	c #A71D1B",
":V 	c #A81E1C",
"<V 	c #AA1F1D",
"[V 	c #AC201F",
"}V 	c #AE2222",
"|V 	c #AF2323",
"1V 	c #B02524",
"2V 	c #B02423",
"3V 	c #AE2322",
"4V 	c #AD2221",
"5V 	c #AC2120",
"6V 	c #AB201F",
"7V 	c #AC2020",
"8V 	c #A91E1D",
"9V 	c #A81D1C",
"0V 	c #A81C1B",
"aV 	c #A61C1B",
"bV 	c #A71D1C",
"cV 	c #A81E1D",
"dV 	c #AB2120",
"eV 	c #A9201E",
"fV 	c #A61D1B",
"gV 	c #A81F1C",
"hV 	c #A81F1D",
"iV 	c #A71E1B",
"jV 	c #A61D1A",
"kV 	c #A51B1A",
"lV 	c #A61E1C",
"mV 	c #A61F1C",
"nV 	c #A91D1C",
"oV 	c #AA1D1D",
"pV 	c #A71F1C",
"qV 	c #A61C1A",
"rV 	c #A51C1A",
"sV 	c #AA1F1E",
"tV 	c #A91E1C",
"uV 	c #A8211E",
"vV 	c #A51D1A",
"wV 	c #A51F1C",
"xV 	c #A51E1B",
"yV 	c #A41B19",
"zV 	c #A41A18",
"AV 	c #A51B19",
"BV 	c #A91F1D",
"CV 	c #A91D1D",
"DV 	c #AA201E",
"EV 	c #A71E1E",
"FV 	c #A61E1E",
"GV 	c #A41C1C",
"HV 	c #A51D1D",
"IV 	c #A41D1D",
"JV 	c #A51F1E",
"KV 	c #A61F1F",
"LV 	c #A41E1E",
"MV 	c #A61F20",
"NV 	c #A6201F",
"OV 	c #A41E1B",
"PV 	c #A71F1D",
"QV 	c #A71C1B",
"RV 	c #A81D1B",
"SV 	c #A9201F",
"TV 	c #A61C1C",
"UV 	c #AC2221",
"VV 	c #AD2222",
"WV 	c #AA1E1E",
"XV 	c #B12525",
"YV 	c #AD1F20",
"ZV 	c #B02223",
"`V 	c #AE2021",
" W 	c #AC2320",
".W 	c #AB1F1E",
"+W 	c #AD2020",
"@W 	c #AE2120",
"#W 	c #AE201F",
"$W 	c #AC1D1C",
"%W 	c #AA1D1B",
"&W 	c #AA1F1C",
"*W 	c #AA201D",
"=W 	c #A81F1E",
"-W 	c #9C1817",
";W 	c #951516",
">W 	c #8C1A1B",
",W 	c #821818",
"'W 	c #801817",
")W 	c #801B1A",
"!W 	c #801A1A",
"~W 	c #7E1819",
"{W 	c #7B181B",
"]W 	c #7A2327",
"^W 	c #650F12",
"/W 	c #6C1313",
"(W 	c #761615",
"_W 	c #7B1411",
":W 	c #8D1919",
"<W 	c #8F1114",
"[W 	c #941111",
"}W 	c #98120F",
"|W 	c #9A1411",
"1W 	c #9B1411",
"2W 	c #9E1714",
"3W 	c #A01916",
"4W 	c #9F1614",
"5W 	c #9E1412",
"6W 	c #9F1513",
"7W 	c #A11817",
"8W 	c #A81E1E",
"9W 	c #AA2020",
"0W 	c #A91F1F",
"aW 	c #A92020",
"bW 	c #A41A1A",
"cW 	c #A01616",
"dW 	c #A11818",
"eW 	c #A21818",
"fW 	c #A11717",
"gW 	c #9F1515",
"hW 	c #A01717",
"iW 	c #A01818",
"jW 	c #9E1616",
"kW 	c #A31B1B",
"lW 	c #9F1816",
"mW 	c #9F1815",
"nW 	c #9D1613",
"oW 	c #9C1512",
"pW 	c #9C1414",
"qW 	c #9E1716",
"rW 	c #A11516",
"sW 	c #A21315",
"tW 	c #A01513",
"uW 	c #A11514",
"vW 	c #A01514",
"wW 	c #A21615",
"xW 	c #A11615",
"yW 	c #A31716",
"zW 	c #A31615",
"AW 	c #A01614",
"BW 	c #A11816",
"CW 	c #9F1714",
"DW 	c #9E1613",
"EW 	c #9A100E",
"FW 	c #980E0C",
"GW 	c #990F0D",
"HW 	c #9B110F",
"IW 	c #A21816",
"JW 	c #9E1515",
"KW 	c #A01415",
"LW 	c #A31917",
"MW 	c #A11715",
"NW 	c #A01615",
"OW 	c #9F1616",
"PW 	c #9D1313",
"QW 	c #9E1414",
"RW 	c #9D1414",
"SW 	c #A11614",
"TW 	c #A21512",
"UW 	c #A31614",
"VW 	c #A31714",
"WW 	c #A21614",
"XW 	c #A21514",
"YW 	c #A01919",
"ZW 	c #9F1312",
"`W 	c #A71918",
" X 	c #A81A19",
".X 	c #A51817",
"+X 	c #AD2120",
"@X 	c #AC2220",
"#X 	c #AA2320",
"$X 	c #A9221F",
"%X 	c #AB221F",
"&X 	c #A01515",
"*X 	c #A21616",
"=X 	c #A21716",
"-X 	c #9F1715",
";X 	c #921111",
">X 	c #921416",
",X 	c #8E181E",
"'X 	c #85161B",
")X 	c #801418",
"!X 	c #7D1317",
"~X 	c #7B1216",
"{X 	c #78181C",
"]X 	c #792528",
"^X 	c #5E1010",
"/X 	c #671412",
"(X 	c #6B0F0C",
"_X 	c #7E1615",
":X 	c #810C0D",
"<X 	c #8B0D0E",
"[X 	c #8D0C09",
"}X 	c #930F0D",
"|X 	c #950F0D",
"1X 	c #97110E",
"2X 	c #940E0B",
"3X 	c #940D0A",
"4X 	c #970E0C",
"5X 	c #980F0D",
"6X 	c #9A1110",
"7X 	c #9C1112",
"8X 	c #9B1011",
"9X 	c #9C1212",
"0X 	c #960C0C",
"aX 	c #981010",
"bX 	c #940D0C",
"cX 	c #9A0F10",
"dX 	c #9B0F10",
"eX 	c #9C0D0F",
"fX 	c #9C0F0E",
"gX 	c #990C0B",
"hX 	c #9B0D0C",
"iX 	c #9D0F0E",
"jX 	c #990B0A",
"kX 	c #9C0E0D",
"lX 	c #9A0C0B",
"mX 	c #9D0D0D",
"nX 	c #9E100F",
"oX 	c #990D0C",
"pX 	c #980C0B",
"qX 	c #970C0B",
"rX 	c #980D0B",
"sX 	c #950B09",
"tX 	c #920B08",
"uX 	c #930C09",
"vX 	c #930C0C",
"wX 	c #980D0D",
"xX 	c #950B0A",
"yX 	c #970D0B",
"zX 	c #960C0A",
"AX 	c #970D0C",
"BX 	c #950B0B",
"CX 	c #980C0D",
"DX 	c #980B0C",
"EX 	c #980908",
"FX 	c #9C0C0B",
"GX 	c #9A0B0A",
"HX 	c #9B0C0A",
"IX 	c #9B0D0B",
"JX 	c #980909",
"KX 	c #990A0A",
"LX 	c #9C0D0C",
"MX 	c #9B0E0E",
"NX 	c #980F0F",
"OX 	c #970C0C",
"PX 	c #9A0E0D",
"QX 	c #9B0F0E",
"RX 	c #950908",
"SX 	c #970B0A",
"TX 	c #990D0D",
"UX 	c #9C100F",
"VX 	c #9E1010",
"WX 	c #A21413",
"XX 	c #A01312",
"YX 	c #A31918",
"ZX 	c #A11917",
"`X 	c #A11A18",
" Y 	c #A21B18",
".Y 	c #A11A17",
"+Y 	c #98100E",
"@Y 	c #96110E",
"#Y 	c #940F0D",
"$Y 	c #910D0C",
"%Y 	c #8E0C0D",
"&Y 	c #8B0E0F",
"*Y 	c #880C0E",
"=Y 	c #8B1517",
"-Y 	c #7F171C",
";Y 	c #78181B",
">Y 	c #721416",
",Y 	c #6D1012",
"'Y 	c #691111",
")Y 	c #520B0C",
"!Y 	c #5C0C10",
"~Y 	c #5C0609",
"{Y 	c #6D0E10",
"]Y 	c #70090A",
"^Y 	c #79090D",
"/Y 	c #860E12",
"(Y 	c #84060A",
"_Y 	c #87070B",
":Y 	c #89090A",
"<Y 	c #870909",
"[Y 	c #870806",
"}Y 	c #8A0906",
"|Y 	c #8B0804",
"1Y 	c #920A09",
"2Y 	c #950A0C",
"3Y 	c #95090C",
"4Y 	c #94090B",
"5Y 	c #94090C",
"6Y 	c #93080B",
"7Y 	c #92070B",
"8Y 	c #92060B",
"9Y 	c #910508",
"0Y 	c #900508",
"aY 	c #920709",
"bY 	c #910609",
"cY 	c #92080A",
"dY 	c #92070A",
"eY 	c #8D0406",
"fY 	c #8C0406",
"gY 	c #910505",
"hY 	c #910405",
"iY 	c #8F0504",
"jY 	c #910306",
"kY 	c #940508",
"lY 	c #940608",
"mY 	c #930507",
"nY 	c #930406",
"oY 	c #96070A",
"pY 	c #95090A",
"qY 	c #980E0E",
"rY 	c #990E10",
"sY 	c #970D0F",
"tY 	c #991010",
"uY 	c #960C0E",
"vY 	c #980D0F",
"wY 	c #990D0E",
"xY 	c #970B0C",
"yY 	c #95080A",
"zY 	c #8D0C0C",
"AY 	c #830707",
"BY 	c #871112",
"CY 	c #801012",
"DY 	c #7A0F12",
"EY 	c #710C0F",
"FY 	c #6E0C11",
"GY 	c #6D0F14",
"HY 	c #5B080D",
"IY 	c #5A0C10",
"JY 	c #570C10",
"KY 	c #3D0509",
"LY 	c #3E0507",
"MY 	c #4C0E0F",
"NY 	c #51090A",
"OY 	c #5A070B",
"PY 	c #66060C",
"QY 	c #71080E",
"RY 	c #74040A",
"SY 	c #811013",
"TY 	c #841313",
"UY 	c #820D0B",
"VY 	c #810705",
"WY 	c #850704",
"XY 	c #880606",
"YY 	c #890606",
"ZY 	c #880607",
"`Y 	c #870508",
" Z 	c #860507",
".Z 	c #870507",
"+Z 	c #870307",
"@Z 	c #870406",
"#Z 	c #870405",
"$Z 	c #860405",
"%Z 	c #860406",
"&Z 	c #830103",
"*Z 	c #820101",
"=Z 	c #810101",
"-Z 	c #800102",
";Z 	c #820001",
">Z 	c #810102",
",Z 	c #800103",
"'Z 	c #800101",
")Z 	c #830102",
"!Z 	c #830101",
"~Z 	c #820102",
"{Z 	c #830203",
"]Z 	c #860506",
"^Z 	c #860407",
"/Z 	c #860505",
"(Z 	c #870505",
"_Z 	c #890607",
":Z 	c #890707",
"<Z 	c #8A0708",
"[Z 	c #8A0607",
"}Z 	c #8A0406",
"|Z 	c #890406",
"1Z 	c #8B0608",
"2Z 	c #8B0A0A",
"3Z 	c #860A09",
"4Z 	c #810A09",
"5Z 	c #841312",
"6Z 	c #6F0807",
"7Z 	c #6D0E0E",
"8Z 	c #620C0D",
"9Z 	c #560709",
"0Z 	c #510A0C",
"aZ 	c #500D10",
"bZ 	c #480709",
"cZ 	c #320D08",
"dZ 	c #360C08",
"eZ 	c #3D0906",
"fZ 	c #440404",
"gZ 	c #570B0D",
"hZ 	c #5A0507",
"iZ 	c #650A0B",
"jZ 	c #731213",
"kZ 	c #780E0E",
"lZ 	c #760404",
"mZ 	c #780101",
"nZ 	c #770202",
"oZ 	c #760302",
"pZ 	c #740402",
"qZ 	c #730402",
"rZ 	c #730403",
"sZ 	c #750404",
"tZ 	c #770505",
"uZ 	c #780505",
"vZ 	c #750504",
"wZ 	c #740504",
"xZ 	c #720302",
"yZ 	c #710402",
"zZ 	c #720404",
"AZ 	c #710404",
"BZ 	c #710504",
"CZ 	c #710502",
"DZ 	c #720402",
"EZ 	c #710201",
"FZ 	c #720301",
"GZ 	c #700401",
"HZ 	c #6E0401",
"IZ 	c #700502",
"JZ 	c #700603",
"KZ 	c #710604",
"LZ 	c #720603",
"MZ 	c #730301",
"NZ 	c #740301",
"OZ 	c #760402",
"PZ 	c #750201",
"QZ 	c #760301",
"RZ 	c #780403",
"SZ 	c #790403",
"TZ 	c #7A0605",
"UZ 	c #820D0D",
"VZ 	c #790C0C",
"WZ 	c #750D0B",
"XZ 	c #6F0D0B",
"YZ 	c #690E0C",
"ZZ 	c #580805",
"`Z 	c #560F0B",
" ` 	c #4E0F0C",
".` 	c #430C07",
"+` 	c #390805",
"@` 	c #2B0804",
"#` 	c #330604",
"$` 	c #3E0908",
"%` 	c #450607",
"&` 	c #4D0708",
"*` 	c #5B0E0D",
"=` 	c #630B0C",
"-` 	c #670508",
";` 	c #6B0106",
">` 	c #680302",
",` 	c #650501",
"'` 	c #640601",
")` 	c #620601",
"!` 	c #620602",
"~` 	c #630703",
"{` 	c #630603",
"]` 	c #640603",
"^` 	c #650503",
"/` 	c #660504",
"(` 	c #640605",
"_` 	c #630606",
":` 	c #620505",
"<` 	c #610405",
"[` 	c #600505",
"}` 	c #600506",
"|` 	c #5F0404",
"1` 	c #600304",
"2` 	c #600305",
"3` 	c #5F0405",
"4` 	c #600405",
"5` 	c #620506",
"6` 	c #610606",
"7` 	c #610403",
"8` 	c #620504",
"9` 	c #630504",
"0` 	c #630604",
"a` 	c #630605",
"b` 	c #670605",
"c` 	c #660503",
"d` 	c #640301",
"e` 	c #660302",
"f` 	c #690604",
"g` 	c #690605",
"h` 	c #6A0705",
"i` 	c #6E0B0A",
"j` 	c #660608",
"k` 	c #63070A",
"l` 	c #610A0D",
"m` 	c #550606",
"n` 	c #490203",
"o` 	c #480A08",
"p` 	c #420B09",
"q` 	c #300505",
"r` 	c #350607",
"s` 	c #410D0D",
"t` 	c #460C0D",
"u` 	c #490608",
"v` 	c #500408",
"w` 	c #57050B",
"x` 	c #570607",
"y` 	c #550704",
"z` 	c #540706",
"A` 	c #540707",
"B` 	c #550607",
"C` 	c #560607",
"D` 	c #540608",
"E` 	c #540609",
"F` 	c #510407",
"G` 	c #510306",
"H` 	c #4F0406",
"I` 	c #500406",
"J` 	c #4F0407",
"K` 	c #4F0408",
"L` 	c #500308",
"M` 	c #500307",
"N` 	c #500407",
"O` 	c #510307",
"P` 	c #510408",
"Q` 	c #500508",
"R` 	c #4E0407",
"S` 	c #4F0508",
"T` 	c #500306",
"U` 	c #4F0306",
"V` 	c #4E0307",
"W` 	c #4E0406",
"X` 	c #540306",
"Y` 	c #570408",
"Z` 	c #580609",
"`` 	c #580508",
"  .	c #59060A",
". .	c #580509",
"+ .	c #570508",
"@ .	c #570509",
"# .	c #570507",
"$ .	c #560707",
"% .	c #58090A",
"& .	c #570809",
"* .	c #570606",
"= .	c #570506",
"- .	c #550305",
"; .	c #4A0408",
"> .	c #4A080C",
", .	c #460A0D",
"' .	c #3E0708",
") .	c #340503",
"! .	c #2D0607",
"~ .	c #310808",
"{ .	c #310306",
"] .	c #340104",
"^ .	c #3B0407",
"/ .	c #3C0304",
"( .	c #3E0203",
"_ .	c #3D0302",
": .	c #3C0203",
"< .	c #3B0203",
"[ .	c #3C0205",
"} .	c #3D0306",
"| .	c #3E0307",
"1 .	c #3F0206",
"2 .	c #3D0305",
"3 .	c #3D0406",
"4 .	c #3C0406",
"5 .	c #3B0305",
"6 .	c #3C0405",
"7 .	c #3B0406",
"8 .	c #3A0407",
"9 .	c #3A0306",
"0 .	c #3A0307",
"a .	c #3B0307",
"b .	c #3C0207",
"c .	c #3B0206",
"d .	c #3B0207",
"e .	c #3C0307",
"f .	c #3C0308",
"g .	c #3D0308",
"h .	c #3B0408",
"i .	c #3C0206",
"j .	c #3B0306",
"k .	c #3C0407",
"l .	c #3E0206",
"m .	c #3F0208",
"n .	c #3F0207",
"o .	c #3D0106",
"p .	c #3E0107",
"q .	c #3F0107",
"r .	c #3E0205",
"s .	c #3C0305",
"t .	c #3F0408",
"u .	c #3D0105",
"v .	c #3E0305",
"w .	c #3C0104",
"x .	c #370306",
"y .	c #320305",
"z .	c #330507",
"A .	c #280204",
"B .	c #280202",
"C .	c #260002",
"D .	c #260203",
"E .	c #250103",
"F .	c #260304",
"G .	c #280407",
"H .	c #250104",
"I .	c #270105",
"J .	c #280306",
"K .	c #260003",
"L .	c #270505",
"M .	c #260202",
"N .	c #280506",
"O .	c #250404",
"P .	c #250402",
"Q .	c #250504",
"R .	c #260505",
"S .	c #250204",
"T .	c #240303",
"U .	c #250605",
"V .	c #230506",
"W .	c #240506",
"X .	c #200203",
"Y .	c #230507",
"Z .	c #220305",
"` .	c #220304",
" ..	c #230306",
"...	c #230304",
"+..	c #260407",
"@..	c #260306",
"#..	c #260405",
"$..	c #260305",
"%..	c #260206",
"&..	c #250205",
"*..	c #250203",
"=..	c #230103",
"-..	c #240103",
";..	c #240105",
">..	c #240104",
",..	c #250105",
"'..	c #240205",
")..	c #260205",
"!..	c #250304",
"~..	c #240204",
"{..	c #230204",
"]..	c #230104",
"^..	c #240203",
"/..	c #240304",
"(..	c #250305",
"_..	c #240305",
":..	c #270203",
"<..	c #260204",
"[..	c #270204",
"}..	c #260606",
"|..	c #260406",
"1..	c #250406",
"                                                                                                                                             .  +  @  #  $  %  &  *  =  -  ;  >  ,  '  )  !  ~  '  {  ]  ~  ^  /  (  (  _  :  _  _  /  _  <  [  }  }  |  }  }  |  }  1  2  2  2  2  3  4  5  5  5  5  5  6  6  5  2  7  7  7  1  1  1  1  3  8  9  0  a  b  c  b  d  e  f  g  h  i  i  j  k  i  h  i  i  j  k  l  h  h  l  l  m  n  o  p  q  r  b  h  d  s  t  u  v  w  x  y  3  3  4  4  4  4  4  4  4  4  4  z  A  (  z  z  B  C  D  E  F  G  H  s  H  H  I  J  K  L  M  N  O  P  Q  R  S  T  G  U  H  H  V  d  d  W  h  X  o  o  Y  Y  Y  o  Z  o  Z  o  l  o  `  `  o  l   .  . .. +. @. #. $. %. &. &. *. =. -. ;. >. ,. '. ). ;. ;. ;. ;. ). !. ). ;. =. =. !. ;. ;. ). !. ~. ~. ~. {. ~. ]. ). -. -. ~. ;. *. ^. /. (. _. _. (. (. :. ^. ;. (. *. <. ^. ;. [. }. |. 1. 2. 3. 4. 5. 6. 7. 8. 9. 0. a. b. c. d. e. f. g. h.                                                                                                                                                             ",
"                                                                                                                                    i. j. k. l. m. n. o. p. q. r. s. t. u. v. w. x. y. z. A. z. y. y. B. B. C. C. D. E. C. C. E. E. C. C. E. F. G. G. G. G. G. G. G. G. G. G. G. G. G. G. G. H. I. I. I. I. H. J. J. J. J. J. K. K. K. K. K. L. M. N. O. P. Q. R. S. T. U. V. W. X. X. X. X. X. X. X. X. X. Y. Y. Z. Z. Y. Y. Y. `. X. Z.  + .+ ++ @+ #+ $+ %+ &+ *+ =+ -+ ;+ F. F. K. J. J. K. F. F. F. F. >+ ,+ ,+ ,+ ,+ ,+ ,+ E. z. '+ )+ !+ ~+ {+ ]+ ^+ /+ ^+ (+ _+ :+ <+ ;+ J. [+ }+ |+ |+ 1+ 2+ 3+ 3+ 4+ 5+ 6+ 7+ Z. X. `. `. `. 8+ 8+ 9+ Y. Y. 0+ Y. Y. X. `. `. `. a+ b+ c+ c+ d+ e+ f+ g+ g+ h+ h+ i+ j+ k+ k+ j+ j+ k+ k+ j+ j+ k+ k+ j+ j+ k+ k+ j+ j+ k+ k+ j+ l+ m+ n+ n+ n+ n+ o+ p+ q+ q+ r+ s+ t+ u+ u+ v+ v+ u+ u+ t+ v+ u+ u+ t+ t+ u+ u+ w+ x+ y+ z+ A+ B+ C+ D+ E+ F+ G+ H+ I+ J+ K+ L+ M+ N+ O+ P+ Q+ R+ S+ T+ U+ V+ W+ X+ Y+                                                                                                                                           ",
"                                                                                                                              Z+ `+  @ .@ +@ @@ #@ $@ %@ &@ *@ =@ -@ ;@ >@ ,@ '@ )@ !@ !@ ~@ ~@ ~@ ~@ {@ {@ ]@ ^@ ^@ ^@ ^@ ^@ ^@ ^@ ^@ ^@ ^@ /@ (@ (@ (@ (@ (@ (@ (@ (@ (@ (@ _@ _@ _@ _@ _@ :@ :@ (@ (@ (@ :@ <@ <@ <@ <@ <@ <@ <@ <@ <@ <@ [@ }@ |@ 1@ 2@ 3@ 4@ 5@ 6@ 5@ 7@ 8@ 9@ 9@ 9@ 9@ 9@ 9@ 9@ 9@ 9@ 0@ 0@ 0@ 0@ 0@ a@ 0@ b@ a@ c@ d@ e@ f@ g@ h@ 4@ i@ j@ k@ l@ m@ m@ n@ <@ o@ <@ <@ <@ <@ <@ <@ <@ p@ q@ r@ r@ q@ q@ s@ t@ u@ v@ w@ x@ y@ z@ A@ A@ B@ C@ D@ E@ F@ G@ H@ I@ H@ J@ K@ L@ |@ |@ }@ }@ M@ N@ O@ P@ Q@ 0@ a@ Q@ P@ P@ R@ S@ S@ a@ a@ a@ a@ a@ a@ T@ a@ a@ U@ V@ 7@ W@ f@ X@ g@ g@ g@ g@ Y@ Z@ `@ `@ Z@ Z@ `@ `@ Z@ Z@ `@ `@ Z@ Z@ `@ `@ Z@ Z@ `@ `@ Z@ Z@  # .# .# .# .# .# .# .# .# +# @# Z@ `@ `@ ## ## `@ `@ ## ## `@ $# $# $# %# %# &# &# %# `@ *# Z@ =# -# ;# ># ,# '# )# !# )# ~# {# ]# ^# /# (# _# :# <# [# }# |# 1# 2# 3# 4# 5# 6# 7#                                                                                                                            ",
"                                                                                                                     8# 9# 0# a# b# c# d# e# f# g# h# ]@ i# j# k# l# m# n# o# p# q# q# p# r# s# s# s# s# s# p# t# t# t# t# t# t# t# t# t# t# t# t# t# t# t# t# t# t# t# t# t# u# u# u# u# u# p# t# t# t# t# t# t# t# t# t# t# v# v# v# v# w# x# y# z# A# A# B# C# D# E# F# E# G# G# G# G# G# G# G# G# G# G# H# q# I# J# q# q# K# q# K# L# L# M# N# N# O# I# H# P# Q# R# S# T# U# u# u# v# v# E# u# u# u# u# u# T# T# T# T# T# x# V# x# W# D# X# Y# Y# Z# `# `#  $ .$ +$ @$ #$ $$ %$ &$ *$ =$ R# -$ -$ w# R# ;$ B# G# D# w# >$ q# w# E# E# ;$ E# q# q# q# q# q# q# K# K# q# q# D# w# F# F# G# G# ,$ X# X# X# H# v# v# v# v# v# v# v# v# v# v# v# D# D# D# v# v# v# v# v# v# v# J# J# J# J# J# L# L# J# J# >$ >$ q# '$ '$ )$ )$ '$ !$ )$ )$ '$ ~$ ~$ ~$ w# w# )$ )$ ~$ u# s# W# W# {$ r# ]$ ^$ /$ ($ _$ :$ <$ [$ m@ }$ |$ 1$ 2$ 3$ 4$ 5$ 6$ 7$ 8$ 9$ 0$ a$ b$ c$ d$ e$ f$                                                                                                                      ",
"                                                                                                               g$ h$ i$ j$ k$ l$ m$ n$ o$ z# p$ q$ r$ s# E# s$ s$ t$ u$ v$ )$ P# w$ x$ y$ Q# Q# z$ z$ Q# Q# A$ B$ C$ C$ B$ B$ C$ C$ B$ B$ C$ D$ E$ E$ F$ G$ y# y# G$ G$ y# F$ H$ H$ I$ I$ I$ I$ I$ I$ I$ I$ I$ J$ K$ K$ J$ J$ L$ L$ M$ M$ L$ N$ O$ O$ P$ Q$ P$ P$ R$ R$ O$ S$ B$ T$ T$ T$ T$ T$ T$ T$ T$ T$ T$ U$ z# z# U$ E$ U$ V$ y# U$ U$ A$ W$ W$ W$ X$ X$ X$ Y$ Y$ Y$ Z$ V$ L$ `$ `$ L$ M$  %  % .% .% N$ +% +% +% +% +% @% Q$ #% C$ R$ A$ $% @$ %% %% &% *% %% A$ Z$ Y$ =% -% S$ ;% >% ,% ,% ,% ,% ,% A$ D$ '% T$ T$ )% U$ T$ T$ T$ N$ T$ U$ U$ U$ U$ U$ U$ U$ U$ U$ A$ O$ =% O$ S$ =% S$ S$ !% ,% ,% S$ O$ O$ O$ O$ O$ O$ O$ O$ O$ O$ ~% ~% O$ ~% ~% ~% O$ O$ O$ O$ {% Z$ V$ V$ V$ V$ V$ z# z# y# S# )% =% =% =% =% =% =% =% =% =% =% ]% #$ #$ ^% ^% /% Y$ ^% ^% Y$ (% _% E$ T$ T$ ^% ^% :% x$ A$ <% X# [% }% ]$ |% `# 1% 2% %% D$ 3% .% 4% 5% 6% 7% 8% 9% 0% a% b% c%                                                                                                                ",
"                                                                                                      d% e% f% g% h% i% j% k% l% m% n% o% t# p% q% r% P# P# p% Y$ %% %% %% %% r% ]$ ]$ s% s% )$ )$ )$ t% t% U$ A$ A$ A$ A$ A$ A$ A$ A$ A$ A$ A$ A$ @$ %% &% u% u% u% u% %% %% p# s% )$ )$ )$ )$ )$ )$ )$ )$ -$ B$ B$ B$ B$ B$ B$ B$ B$ B$ B$ B$ B$ B$ B$ B$ B$ B$ B$ B$ B$ B$ B$ B$ B$ B$ B$ B$ B$ B$ B$ B$ B$ B$ B$ B$ B$ B$ B$ B$ B$ B$ B$ A$ A$ A$ A$ A$ A$ A$ A$ A$ A$ A$ A$ A$ A$ A$ A$ A$ A$ A$ A$ A$ A$ A$ A$ A$ A$ A$ A$ A$ A$ A$ A$ A$ A$ A$ A$ A$ A$ A$ A$ A$ A$ A$ A$ A$ A$ A$ A$ A$ A$ A$ A$ A$ A$ B$ B$ B$ B$ B$ B$ B$ B$ B$ B$ B$ B$ B$ B$ B$ B$ B$ B$ B$ B$ B$ B$ B$ B$ B$ B$ B$ B$ B$ B$ B$ B$ A$ A$ A$ A$ A$ A$ A$ A$ A$ A$ B$ B$ B$ B$ B$ B$ B$ B$ B$ B$ B$ A$ A$ A$ A$ A$ A$ A$ A$ A$ A$ A$ A$ A$ A$ A$ A$ A$ A$ A$ A$ A$ -$ ~$ ~$ p# p# t# p# p# p# p# p# p# s% s% s% p# p# p# p# p# p# s% v% w% w% w% t$ t$ t$ F$ w% w% x% y% )@ z% A% B% C% D% E% F% G% H% I% J%                                                                                                       ",
"                                                                                                K% L% M% N% O% P% Q% R% S% T% U% V% W% X% Y% {$ r$ r% P# %$ y# y# Y$ %% %% %% P# P# P# P# P# Q# Q# z# z# z# U$ A$ A$ A$ A$ A$ A$ A$ A$ A$ A$ Y$ Y$ Y$ %% u% u% u% u% %% %% %% P# P# Q# Q# P# P# P# P# P# P# p% B$ B$ B$ B$ B$ B$ B$ B$ B$ B$ B$ B$ B$ B$ B$ B$ B$ B$ B$ B$ B$ B$ B$ B$ B$ B$ B$ B$ B$ B$ B$ B$ B$ B$ B$ B$ B$ B$ B$ B$ B$ B$ A$ A$ A$ A$ Y$ Y$ A$ A$ A$ A$ A$ A$ A$ A$ A$ A$ A$ A$ A$ A$ A$ A$ A$ A$ A$ A$ A$ A$ A$ A$ A$ A$ A$ A$ A$ A$ A$ A$ A$ A$ A$ A$ A$ A$ A$ A$ A$ A$ A$ A$ A$ A$ A$ A$ B$ B$ B$ B$ B$ B$ B$ B$ B$ B$ B$ B$ B$ B$ B$ B$ B$ B$ B$ B$ B$ B$ B$ B$ B$ B$ B$ B$ B$ B$ B$ B$ A$ A$ A$ A$ A$ A$ A$ A$ A$ A$ B$ B$ B$ B$ B$ B$ B$ B$ B$ B$ B$ A$ A$ A$ A$ A$ A$ Y$ A$ A$ A$ A$ A$ A$ A$ A$ A$ A$ A$ A$ A$ A$ z$ Q# P# P# P# P# P# P# P# P# P# P# P# P# P# P# P# P# P# P# P# P# y# y# y# y# y# y# y# y# y# y# Z% ^$ `% _$  & s% .& +& @& #& $& %& && *& =& -&                                                                                                 ",
"                                                                                          ;& >& ,& '& )& !& ~& {& ]& ^& /& (& (& _& :& <& [& }& |& 1& p# %$ y# y# )% y$ y$ y$ P# P# P# P# P# p% y# y# y# y# y# y# y# y# y# y# y# y# y# y# y# E$ ]% )% y$ 2& 2& 2& 2& y$ y$ y$ w$ P# P# P# P# w$ w$ w$ w$ w$ &$ Y$ Y$ Y$ Y$ Y$ Y$ Y$ Y$ Y$ Y$ Y$ Y$ Y$ Y$ Y$ Y$ Y$ Y$ Y$ Y$ Y$ Y$ Y$ Y$ Y$ Y$ Y$ Y$ Y$ Y$ Y$ Y$ Y$ Y$ Y$ Y$ Y$ Y$ Y$ Y$ Y$ Y$ U$ U$ *$ y# )% y# y# y# y# y# y# y# y# y# y# y# y# y# y# y# y# #$ Y$ Y$ Y$ Y$ Y$ Y$ Y$ Y$ Y$ Y$ Y$ Y$ Y$ Y$ Y$ Y$ Y$ Y$ Y$ Y$ Y$ Y$ Y$ Y$ Y$ Y$ Y$ Y$ Y$ Y$ Y$ Y$ Y$ Y$ Y$ Y$ Y$ Y$ Y$ Y$ Y$ Y$ Y$ Y$ Y$ Y$ Y$ Y$ Y$ Y$ Y$ Y$ Y$ Y$ Y$ Y$ Y$ Y$ Y$ Y$ Y$ Y$ Y$ #$ y# y# y# y# y# y# y# y# y# y# _% A$ A$ A$ A$ A$ Y$ Y$ Y$ Y$ Y$ y# y# y# y# y# V$ z# U$ )% S# S# y# y# E$ y# y# y# y# y# y# y# y# %$ %$ %$ %$ %$ %$ %$ %$ %$ %$ P# P# P# P# P# P# P# P# P# P# P# y# y# y# y# y# y# y# y# y# y# 3& 4& 5& 6& 7& 3& E$ 8& 9& 0& a& b& c& d& e& f& g& h&                                                                                           ",
"                                                                                       i& j& k& l& m& n& o& p& q& q& r& s& t& u& v& w& x& y& z& A& |& {$ T# y# y# %$ P# P# P# P# P# P# P# P# %$ y# y# y# y# y# y# y# y# y# y# y# y# y# y# y# E$ E$ y# P# |% B& B& B& C& w$ w$ w$ P# P# P# P# P# P# P# P# P# P# /% /% /% /% /% /% /% /% /% /% /% /% /% /% /% /% /% /% /% /% /% /% /% /% /% /% /% /% /% /% /% /% /% /% /% /% /% /% /% /% /% /% *$ z# y# y# y# y# y# y# y# y# y# y# y# y# y# y# y# y# y# y# y# y# Y$ Y$ Y$ Y$ Y$ Y$ Y$ Y$ Y$ Y$ Y$ /% /% /% /% /% /% /% /% /% /% Y$ Y$ Y$ Y$ Y$ Y$ Y$ Y$ Y$ Y$ Y$ /% /% /% /% /% /% /% /% /% /% /% /% /% /% /% /% /% /% /% /% /% /% /% /% /% /% /% /% /% /% /% #$ y# y# y# y# y# y# y# y# y# y# <% D& D& D& D& <% /% /% /% /% /% y# y# y# y# y# y# y# y# y# z# z# y# y# y# y# y# y# y# y# y# y# y# y# y# y# y# y# y# y# y# y# y# P# P# P# P# P# P# P# P# P# P# P# %$ %$ %$ %$ %$ %$ %$ %$ %$ y# _% E& F& G& H& I& J& K& L& M& N& O& P& Q& R& S& T& U& V&                                                                                        ",
"                                                                                 W& X& Y& Z& `&  * .* +* @* #* $* %* &* ** =* -* ;* >* =@ ,* '* )* |& {$ s% s% !* P# P# P# P# P# P# P# P# P# %$ y# y# y# y# y# y# y# y# y# y# y# y# y# y# y# z# y# y# w$ B& ~* ~* ~* {* {* {* w$ w$ P# P# P# P# P# P# P# P# P# P# P# P# P# P# P# P# P# P# P# P# P# P# P# P# P# P# P# P# P# P# P# P# P# P# P# P# P# P# P# P# P# P# P# P# P# P# P# P# P# P# P# %$ y# y# y# y# y# y# y# y# y# y# y# y# y# y# y# y# y# y# y# y# y# y# y# y# y# y# y# y# y# y# y# P# P# P# P# P# P# P# P# P# P# P# y# y# y# y# y# y# y# y# y# y# %$ P# P# P# P# P# P# P# P# P# P# P# P# P# P# P# P# P# P# P# P# P# P# P# P# P# P# P# P# P# P# P# P# y# y# y# y# y# y# y# y# y# y# P# P# P# P# P# P# P# P# P# P# P# y# y# y# y# y# z# z# y# y# ]* y# y# y# y# y# y# y# y# y# y# y# ]* ]* ]* y# y# y# y# y# y# y# y# P# P# P# P# P# P# P# P# P# P# P# P# P# P# P# P# P# P# P# P# P# ^* /* (* 3$ _* :* <* [* }* |* 1* 2* 3* 4* 5* 6* 7* 8* 9* 0* a*                                                                                  ",
"                                                                              b* c* d* e* f* g* h* i* j* k* l* m* n* o* p* q* r* s* t* u* v* w* x* y* }& ]$ s% {$ {$ |& |& |& z* r% |% P# w$ P# w$ w$ ]* y# y# !* !* !* !* !* !* !* !* !* !* A* T# s% s% |& |& A& A& A& A& B* P# P# P# P# P# P# P# P# P# P# P# P# P# P# P# P# H# Q# Q# P# w$ P# P# P# P# P# P# Q# Q# Q# Q# Q# Q# Q# Q# Q# Q# Q# Q# Q# Q# Q# Q# P# P# P# P# P# P# P# P# P# P# T# !* !* !* !* !* !* !* !* !* !* !* !* !* !* !* !* !* t% t% t% E# P# P# P# P# P# P# P# P# P# P# P# Q# Q# Q# Q# Q# Q# Q# Q# Q# Q# z# z# z# z# z# z# z# z# z# z# x# Q# Q# Q# Q# Q# Q# Q# Q# Q# Q# Q# Q# Q# Q# Q# Q# Q# Q# Q# Q# Q# Q# Q# Q# Q# Q# Q# Q# Q# Q# Q# U# t% t% t% !* !* !* !* !* !* !* P# P# P# P# P# P# P# P# P# P# P# !* !* !* !* !* !* !* !* !* !* !* !* !* !* !* !* !* !* !* !* !* P# P# P# P# P# P# P# P# P# P# P# w$ P# Q# Q# P# P# P# P# P# P# C* r% r% r% r% r% r% z* z* r% B& z# D* p# r$ E* F* G* H* I* J* K* L* M* N* O* P* Q* R* S* T* U* V*                                                                               ",
"                                                                           W* X* Y* Z* `*  = .= += @= #= $= %= &= *= == -= ;= >= /# ,= '= )= v* v* != '* ~= Y% {= A& )* )* )* ]= ^= /= 1& 1& 1& B* B* (= (= (= t# t# t# t# t# t# t# t# t# t# s% s% ]$ |& A& _= ^= ^= ^= ]= |& 1& 1& 1& 1& 1& |& |& |& |& |& |& |& |& |& |& |& A& A& |& |& |& B* A& A& A& A& B* |& |& |& |& |& |& |& |& |& |& |& |& |& |& |& |& 1& A& A& B* 1& |& |& |& |& |& {$ t# t# t# t# t# t# t# t# t# t# t# t# t# t# t# (= (= t# t# t# B* B* A& A& A& A& A& A& A& A& A& 1& |& |& |& |& |& |& |& |& |& |& t# t# t# t# t# t# t# t# t# t# {$ {$ |& |& |& |& |& |& |& |& |& |& |& |& |& |& |& |& |& |& |& |& |& |& |& |& |& |& |& |& |& |& {$ t# t# t# (= (= (= (= (= (= (= {$ |& |& |& |& |& 1& 1& A& A& A& t# t# t# t# t# t# t# t# t# t# t# t# t# t# t# t# t# t# t# t# t# {$ |& |& |& |& |& 1& 1& 1& 1& 1& B* |& {$ {$ |& |& |& |& |& |& 1& _= _= ]= := := ]= ]= ]= ]= _= <= [= }= {= |= 1= 2= 3= 4= 5= 6= 7= 8= 9= 0= a= b= c= d= e= f= g= h= i=                                                                         ",
"                                                                     j= k= l= m= n= o= p= q= r= s= t= u= v= w= x= y= z= A= B= C= D= E= F= G= H= I= J= != y* K= ~= ^= ^= ^= ^= L= L= M= N= N= _= O= O= P= P= O= A& A& A& A& A& A& A& A& A& A& B* A& Q= Q= L= L= ^= ^= ^= ^= Q= |& N= N= N= N= |& Q= Q= Q= Q= Q= R= R= R= R= R= Q= Q= Q= Q= R= R= R= R= R= R= A& Q= Q= Q= Q= Q= Q= Q= Q= Q= Q= Q= Q= Q= Q= Q= Q= Q= Q= R= Q= Q= R= R= R= R= R= A& A& A& A& A& A& A& A& A& A& A& A& A& A& A& A& A& B* S= S= B* A& )* R= R= )* )* R= R= )* )* R= Q= |& |& |& |& |& |& |& |& |& |& |& |& |& |& |& |& |& |& |& |& |& Q= Q= Q= Q= Q= Q= Q= Q= Q= Q= Q= Q= Q= Q= Q= Q= Q= Q= Q= Q= Q= Q= Q= Q= Q= Q= Q= Q= Q= Q= Q= Q= B* S= S= B* A& A& B* S= S= B* |& Q= Q= Q= Q= Q= R= R= R= R= O= A& A& A& A& A& A& A& A& A& A& A& A& A& A& A& A& A& A& A& A& A& A& R= R= R= R= R= Q= Q= Q= Q= Q= |& |& Q= T= A& Q= |& |& |& |& ]= ^= ^= ^= ^= )* ^= ^= )* )* ^= '* U= V= }& }& W= X= Y= Z= `=  - .- +- @- #- $- %- &- *- =- -- ;- >- ,- '-                                                                      ",
"                                                                  )- !- ~- {- ]- ^- /- (- _- :- <- [- }- |- 1- 2- 3- 4- 5- 6- 7- D= 8- 9- 0- Y= ;* ;* a- x* x* x* x* x* b- c- d- d- e- )* )* )* )* ^= |& |& {= f- f- f- f- f- f- f- f- f- f- }& [% y* w* g- x* x* x* x* g- w* h- h- h- )* )* )* h- h- h- h- h- h- h- h- h- h- h- i- h- h- )* )* )* )* )* )* )* )* )* )* )* )* h- h- h- h- h- h- h- h- h- h- h- h- h- h- h- )* )* )* )* )* )* f- f- f- f- f- f- f- f- f- f- f- f- f- f- f- f- }& }& }& }& j- k- l- l- l- l- l- l- l- l- l- l- O= O= O= O= O= O= O= O= O= O= O= O= O= O= O= O= O= O= O= O= O= O= h- h- h- h- h- h- h- h- h- h- h- h- h- h- h- h- h- h- h- h- h- h- h- h- h- h- h- h- h- h- h- m- j- }& }& }& }& j- }& }& }& j- _= )* )* )* )* )* )* )* )* )* ^= f- f- f- f- f- f- f- f- f- f- f- f- f- f- f- f- f- f- f- f- f- n- )* )* )* )* ^= ^= ^= ^= ^= ^= )* )* h- h- h- )* )* )* )* )* )* )* ^= M= M= ^= )* o- h- h- p- q- r- ~= s- s- t- M@ u- v- w- x- y- z- A- B- C- D- E- F- G- H- I- J- K- L- M-                                                                   ",
"                                                               N- O- P- Q- R- S- T- U- V- W- X- X- Y- Z- `-  ; .; +; p* @; #; $; %; &; *; =; =; -; ;* ;; a- v* >; ,; ,; ,; ,; >; >; >; x* x* ,; '; y* ~= ~= ); ~= ~= ~= ~= ~= ~= ~= ~= ~= ~= !; ~; y* x* >; ,; ,; ,; ,; >; ,; >; >; >; x* x* v* >; >; >; >; {; o- )* )* o- o- )* o- h- h- h- h- i- i- h- h- h- h- h- h- h- h- h- h- h- h- h- h- h- h- h- h- e- o- h- h- h- )* ^= ^= ^= ^= ^= ]; ~= ~= ~= ~= ~= ~= ~= ~= ~= ~= ~= ~= ~= ~= ~= ~= ~; !; ~= y* g- d- d- d- d- d- d- d- d- d- d- ^; O= O= O= O= O= O= O= O= O= O= h- h- h- h- h- h- h- h- h- h- h- h- h- h- h- h- h- h- h- h- h- h- h- h- h- h- h- h- h- h- h- h- h- h- h- h- h- h- h- h- h- h- o- y* ~= !; !; ~= ~= ~= t- y* '; h- h- h- h- h- h- i- h- )* ^= ^= ~= ~= ~= ~= ~= ~= ~= ~= ~= ~= ~= ~= ~= ~= ~= ~= ~= ~= ~= ~= ~= ~= /; /; /; /; /; /; /; /; /; /; != x* (; (; ,; >; >; >; >; >; >; x* != r- r- != >; ,; (; _; :; <; [; }; q# ~$ )$ |; 1; p- 2; 3; 4; 5; 6; 7; 8; 9; 0; a; b; c; d; e; f; g; h; i;                                                                ",
"                                                            j; k; l; m; n; o; p; q; r; s; t; u; v; w; x; y; z; A; B; C; D; ,= E; F; G; H; I; J; K; L; M; N; N; O; P; P; P; K& M; Q; M; R; H= N; >; J= r- /; r- r- /; /; r- r- /; /; r- r- /; /; != x* v* ,; ,; v* v* v* v* H= M; Q; Q; Q; Q; S; S; S; S; S; T; r- /; /; /; /; /; != b- v* {; d- U; U; d- d- U; V; d- l- E* E* W; W; X; X; W; W; X; X; W; W; X; X; W; W; X; X; W; W; X; X; W; Y; r- r- /; /; r- r- /; /; r- r- /; /; r- r- /; != != != != != J= Z; Z; Z; Z; Z; Z; Z; Z; x* J= `; `; `; `; `; `; `; `; `; `; `; Y; Y;  >  > Y; Y;  >  > Y; Y;  >  > Y; Y;  >  > Y; Y;  >  > Y; Y;  >  > Y; Y;  >  > Y; Y;  >  > Y; Y;  >  > Y; Y;  >  > Y; Y;  > r- /; /; /; r- != != != x* x* {; Z; Z; {; {; Z; (; >; .> !=  > /; /; r- r- /; /; r- r- /; /; r- r- /; /; r- r- /; /; r- r- /; r- r- r- r- r- r- r- r- r- r- r- r- J= I= N; ,; v* H= H= v* v* R; G* +> H= H= @> #> $> %> &> *> => ->  & ;> >> ,> '> U$ )>  - !> 3= ~> {> ]> ^> /> (> _> :> 1* <> [> }> |> 1> 2> 3>                                                             ",
"                                                      4> 5> 6> 7> 8> 9> 0> a> b> c> d> e> f> g> h> i> j> k> l> m> n> 3- o> p> q> r> s> t> u> v> +> +> w> H= H= P; P; d- U; U; G* S; M; R; R; :; b- r- /; /; /; K= K= K= K= K= K= K= K= K= K= ~; /; != != != != x* x* x* x* x* H= H= H= H= H= +- +- +- +- +- x> != != != != != != != g- g- g- != .> .> != != .> .> ); /; y> y> /; /; Y; Y; /; /; Y; Y; /; /; Y; Y; /; /; Y; Y; /; /; Y; Y; /; /; /; /; /; /; /; /; /; /; /; /; /; /; /; /; /; /; /; /; /; /; /; != != != != != != != /; /; z> /; Y; Y; /; /; Y; Y; /; /; Y; /; /; /; /; /; /; /; /; /; /; /; /; /; /; /; /; /; /; /; /; /; /; /; /; /; /; /; /; /; /; /; /; /; /; /; /; /; /; /; /; /; /; /; /; /; /; /; /; /; /; /; /; /; != != g- g- g- g- g- x* != /; /; z> /; /; /; /; /; /; /; /; /; /; /; K= K= K= K= K= K= K= K= K= K= K= K= K= K= K= K= K= K= K= K= Z= A> r- J= b- v* v* v* v* v* v* R; S; +> R; H= @> K& B> C> D> D> E> F> e- z&  - -* N= K$ w% z& G> n- H> I> J> K> L> M> N> O> P> Q> R> S> <- T> U> V> W>                                                          ",
"                                                   X> Y> Z> `>  , ., +, @, #, $, %, &, *, =, -, ;, >, ,, +* ', &, ), !, ~, {, ], ^, /, (, _, :, a- J=  - <, x* >; 3; i- i- >; >; <, >; >; <, [, g- 0- }, }, |, 1, 1, 1, 1, 1, 1, 1, 1, 1, 1, |= }, 2, }, z& '* m- |, |, m- m- |, |, m- m- |, [% }& }& 3, 3, [% }, }, }, }, }, [% }, }, '* [% |= |= |= ,* ,* |= }, 4, 4, 5, 5, ,* ,* |= |= ,* ,* |= |= ,* ,* |= |= ,* ,* |= |= ,* ,* |= |= ,* |, |, |, |, |, |, |, |, |, |, |, |, |, |, |, |, }, }, }, }, }, 2, |, |, |, |, |, }, }, }, }, 5, }, |= |= ,* ,* |= |= ,* ,* |= |= |, |, |, |, |, |, |, |, |, |, |, |, |, |, |, |, |, |, |, |, |, |, |, |, |, |, |, |, |, |, |, |, |, |, |, |, |, |, |, |, |, |, |, |, |, |, |, |, }, }, }, }, }, z& f- f- [% [% '* 2, }, }, }, }, |, |, |, |, |, |, |, |, |, |, m- 1, 1, 1, 1, 1, 1, 1, 1, 1, 1, 1, 1, 1, 1, 1, 1, 1, 1, 1, 1, '; |= 6, 0- g- 6, 7, '; '; 7, 7, Z; v* x* x* x* a- Z= x> 8, 7= 9, 0, a, b, c, d, e, f, g, w% h, i, {* j, k, l, o* m, n, o, p, q, r, s, t, u, v, w, x, y, z, A,                                                    ",
"                                                B, C, D, E, F, G, H, I, J, K, L, M, N, O, P, Q, R, R, S, s; T, U, V, W, X, Y, Z, g> `,  ' .' +' @' #' $' $' %' &' *' =' =' -' ;' >' ;' ;' >' ,' ,' '' '' '' '' )' [& [& )' )' [& [& )' )' [& !' '' '' '' ;' ;' ~' {' {' ~' ;' ]' ^' /' /' ^' (' _' _' (' (' $' :' '' '' :' :' '' '' :' :' ,' ,' <' <' <' <' <' <' <' <' <' !' <' <' <' <' <' <' <' <' <' <' <' <' <' <' <' <' <' <' <' <' <' !' '' '' '' '' '' '' '' '' '' '' '' '' '' '' '' '' '' '' '' '' y& y& y& y& y& y& y& y& y& y& !' !' <' <' <' <' <' <' <' <' <' <' y& y& y& y& y& y& y& y& y& y& y& y& y& y& y& y& y& y& y& y& y& y& y& y& y& y& y& y& y& y& y& y& '' '' '' '' '' '' '' '' '' '' '' '' '' '' '' '' '' '' '' '' '' '' :' :' '' '' [' ;' '' '' '' '' '' '' '' '' '' '' '' '' '' '' y& )' [& [& )' )' [& [& )' )' [& [& )' )' [& [& )' )' [& [& )' )' '' }' }' }' ,' >' ;' ;' >' >' '' :' :' |' $' 1' 2' 3' 4' 5' 6' >* 0, 7' 8' 9' 0' a' b' c' d' e' f' g' h' i' j'  * k' l' m' n' o' p' q' r' s' t' u' v' w' x' y'                                                 ",
"                                             z' A' B' C' D' E' F' G' H' I' J' K' L' M' N' O' P' Q' R' S' T' 0= U' V' A= W' X' Y' Z' `'  ) .) +) @) #) $) %) q+ &) &) &) &) m+ &) &) &) &) &) *) *) =) &) *) -) -) *) *) -) -) *) *) -) -) *) *) -) ;) >) *) -) ;) &) &) ;) &) ;) ;) ;) ;) ;) -) -) -) -) -) -) -) *) *) -) -) ,) ') -) -) *) >) )) )) >) >) )) )) >) !) )) >) ~) ~) ~) ~) ~) ~) ~) ~) ~) ~) ~) ~) ~) ~) ~) ~) {) {) {) {) {) ~) -) -) *) *) -) -) *) *) -) -) *) *) -) -) *) >) ;) ;) &) &) ]) ]) ]) ]) ]) ]) ]) ]) ]) ]) ]) ~) ~) ~) ~) ~) ~) ~) ~) ~) ~) ~) ]) ]) ]) ]) ]) ]) ]) ]) ]) ]) ]) ]) ]) ]) ]) ]) ]) ]) ]) ]) ]) ]) ]) ]) ]) ]) ]) ]) ]) ]) ]) ]) &) &) ;) ;) &) &) ;) ;) &) &) =) -) *) *) -) -) *) >) ;) ;) &) *) -) -) *) *) -) -) *) *) -) -) *) *) -) -) *) *) -) -) *) *) -) -) *) *) -) -) *) *) -) -) *) *) -) -) *) *) -) -) *) *) -) -) =) =) o+ =) q+ =) o+ o+ o+ o+ &) m+ &) ^) /) () _) :) <) [) }) |) 1) 2) 3) 4) 5) 4) 6) 7) 8) 9) 0) a) b) c) d) e) f) P- g) h) i) j) k) l) m) n) o) p) q) r) s)                                                 ",
"                                          t) u) v) w) x) y) z) A) B) C) D) E) F) G) H) I) J) K) L) M) N) .; O) i' P) Q) k> R) S) T) U) V) W) X) Y) Z) `)  ! .! +! +! +! @! @! @! #! $! $! %! %! &! *! =! -! ;! =! >! >! =! =! >! >! =! =! >! ;! ;! =! >! ;! ;! =! >! >! =! =! ,! ,! '! '! ,! ,! '! '! ,! ,! .! &! >! >! =! =! )! ;! =! =! >! !! !! !! !! !! !! !! !! !! !! !! ~! ~! ~! ~! ~! ~! ~! ~! ~! ~! ~! ~! ~! ~! ~! ~! ~! ~! ~! ~! ~! !! =! =! >! >! =! =! >! >! =! =! >! >! =! =! >! ;! ;! ;! ;! ;! ;! %! %! %! .! .!  ! %! %! %! %! ~! ~! ~! ~! ~! ~! ~! ~! ~! ~! ~! ~! %! %! %! %! %! .! .! %! %! .! .! %! %! .! .! %! %! .! .! %! %! %! %! %! %! %! %! %! %! %! %! >! >! =! =! >! >! =! =! >! >! =! =! >! >! =! =! ;! >! =! =! >! {! *! *! ]! ]! ^! =! ;! )! ;! ;! ;! ;! ;! ;! ;! >! =! =! >! >! =! =! >! >! =! =! >! >! =! =! >! >! =! =! >! >! =! =! >! >! =! =! ;! ;! =! =! ;! >! =! =! >! >! &! /! $! (! _! :! <! [! }! |! 1! 2! 3! 4! 5! 6! 7! 8! 9! 0! a! b! i* c! d! e! K> c; f! g! h! i! j! k! l! m! n! o! p! q! r! s! t! u!                                              ",
"                                          v! w! x! y! z! A! B! C! D! E! F! G! H! I! J! T- `& K! L! M! N! O! P! Q! R! S! T! U! V! W! X! Y! Z! `!  ~ .~ +~ @~ #~ $~ $~ $~ %~ &~ &~ *~ =~ =~ -~ ;~ >~ ,~ '~ '~ )~ ,~ !~ !~ ,~ ,~ !~ !~ ,~ ,~ !~ !~ ,~ ,~ !~ !~ ,~ ,~ !~ !~ ,~ ,~ ~~ {~ ]~ ]~ {~ {~ ]~ ]~ {~ {~ ^~ ,~ !~ !~ ,~ ,~ ;~ ;~ /~ ,~ !~ (~ _~ _~ _~ _~ _~ _~ _~ _~ _~ _~ _~ _~ _~ _~ _~ _~ _~ _~ _~ _~ _~ _~ _~ _~ _~ _~ _~ _~ _~ _~ :~ (~ ,~ ,~ !~ <~ /~ ,~ !~ !~ ,~ ,~ !~ !~ ,~ ,~ !~ !~ ,~ ,~ !~ !~ ,~ ^~ !~ [~ ,~ ,~ }~ }~ ^~ ^~ }~ :~ _~ _~ _~ _~ _~ _~ _~ _~ _~ :~ ^~ }~ ^~ ^~ }~ !~ /~ /~ <~ <~ /~ /~ <~ <~ /~ /~ <~ <~ /~ /~ <~ [~ ,~ ,~ !~ !~ ^~ ^~ }~ }~ ^~ ^~ !~ !~ ,~ ,~ ;~ !~ ,~ ,~ !~ !~ ,~ ,~ !~ !~ ,~ ,~ !~ !~ ,~ ,~ !~ !~ ,~ ,~ !~ !~ ,~ >~ !~ !~ ,~ ,~ }~ }~ ^~ ^~ }~ !~ ,~ ,~ !~ !~ ,~ ,~ !~ !~ ,~ ,~ !~ !~ ,~ ,~ !~ !~ ,~ ,~ !~ !~ ,~ ,~ !~ !~ ,~ ,~ |~ |~ 1~ 1~ |~ |~ 1~ 1~ |~ |~ ^~ 2~ /~ )~ 3~ 4~ 5~ 6~ 7~ 8~ 9~ 0~ a~ b~ c~ d~ e~ f~ g~ h~ i~ j~ k~ l~ m~ n~ o~ p~ q~ r~ s~ t~ u~ v~ w~ x~ y~ z~ A~ B~ C~ D~ E~ F~ G~                                           ",
"                                       H~ I~ J~ K~ L~ M~ N~ O~ P~ Q~ R~ S~ T~ U~ V~ W~ X~ Y~ Z~ `~  { .{ +{ @{ #{ ${ %{ &{ *{ ={ -{ ;{ >{ ,{ '{ ){ !{ ~{ {{ ]{ ^{ ^{ ^{ /{ ^{ ({ _{ _{ _{ _{ _{ ({ ({ :{ <{ [{ [{ <{ <{ [{ [{ <{ <{ [{ [{ <{ <{ [{ [{ <{ <{ [{ [{ <{ <{ [{ [{ }{ }{ |{ |{ }{ }{ |{ |{ }{ }{ 1{ _{ <{ <{ [{ [{ 2{ 3{ _{ ({ 4{ 5{ 6{ 6{ 5{ 5{ 6{ 6{ 5{ 5{ 6{ 6{ 7{ 8{ 9{ 9{ 8{ 8{ 9{ 9{ 8{ 8{ 9{ 9{ 8{ 8{ 9{ 9{ 8{ 8{ 9{ 9{ 8{ 0{ ({ ({ _{ <{ [{ [{ <{ <{ [{ [{ <{ <{ [{ [{ <{ <{ [{ [{ <{ <{ [{ a{ b{ c{ d{ a{ c{ c{ e{ e{ c{ f{ 9{ 9{ 8{ 8{ 9{ 9{ 8{ 8{ 9{ 8{ e{ c{ e{ e{ c{ b{ g{ g{ g{ g{ g{ g{ g{ g{ g{ g{ g{ g{ g{ g{ g{ h{ a{ a{ a{ a{ a{ e{ c{ c{ e{ e{ :{ :{ ({ _{ <{ <{ [{ [{ <{ <{ [{ [{ <{ <{ [{ [{ <{ <{ [{ [{ <{ <{ [{ [{ <{ <{ [{ [{ i{ :{ ({ ({ j{ j{ k{ k{ j{ 4{ ({ ({ :{ :{ _{ [{ <{ <{ [{ [{ <{ <{ [{ [{ <{ <{ [{ [{ <{ <{ [{ [{ <{ <{ [{ [{ <{ <{ [{ [{ <{ <{ [{ [{ <{ <{ l{ ]{ l{ k{ m{ n{ o{ p{ q{ '{ r{ s{ t{ u{ v{ w{ x{ y{ z{ A{ B{ C{ D{ E{ F{ G{ H{ I{ J{ K{ L{ M{ N{ O{ P{ Q{ R{ S{ T{ U{ V{ W{ X{ Y{ Z{ `{                                        ",
"                                     ] .] +] @] #] $] %] &] *] =] -] ;] >] M~ ,] '] )] !] m, m, ~] {] ]] ^] /] (] _] :] <] [] }] |] 1] 2] 3] 4] 5] 6] 7] 8] 9] 0] 0] 0] a] a] b] b] b] b] b] c] d] e] e] f] f] d] e] e] d] d] e] e] d] d] e] e] d] d] e] e] d] d] e] e] d] e] 8] g] g] g] g] g] g] g] g] g] 8] d] e] e] d] d] e] e] d] d] h] i] j] j] k] k] j] j] k] k] j] k] k] l] m] m] l] l] m] m] l] l] m] m] l] l] m] m] l] l] m] m] l] n] d] o] p] p] q] d] e] e] d] d] e] e] d] d] e] e] d] d] e] e] e] e] r] s] n] n] s] s] n] n] s] t] m] m] l] l] m] m] l] l] m] m] s] s] n] n] s] 8] u] u] 8] 8] u] u] 8] 8] u] u] 8] 8] u] u] 8] r] v] v] r] r] v] n] s] s] n] n] h] h] o] q] p] e] d] d] e] e] d] d] e] e] d] d] e] e] d] d] e] e] d] d] e] e] d] q] p] e] d] d] w] w] x] x] w] e] o] o] e] e] o] d] e] e] d] d] e] e] d] d] e] e] d] d] e] e] d] d] e] e] d] d] e] e] d] d] e] e] d] d] e] e] u] v] 9] u] y] r] z] A] B] C] D] E] F] G] H] I] J] K] L] M] N] O] P] Q] R] S] T] U] V] W] X] Y] Z] `]  ^ .^ +^ @^ #^ $^ %^ &^ *^ =^ -^ ;^ >^                                     ",
"                                 ,^ '^ )^ !^ ~^ {^ ]^ ^^ /^ (^ _^ :^ <^ [^ }^ |^ 1^ 2^ 3^ (> 4^ 5^ 6^ 7^ 8^ 9^ 0^ a^ b^ c^ d^ e^ f^ g^ h^ i^ j^ k^ l^ m^ n^ o^ p^ q^ q^ r^ p^ s^ t^ p^ p^ u^ v^ k^ w^ x^ y^ x^ w^ z^ z^ w^ w^ z^ z^ w^ w^ z^ z^ w^ w^ z^ z^ w^ w^ z^ z^ w^ w^ A^ B^ C^ C^ B^ B^ C^ C^ B^ B^ D^ w^ z^ z^ w^ w^ E^ z^ D^ F^ G^ G^ H^ H^ H^ H^ H^ H^ H^ H^ H^ H^ H^ I^ I^ I^ I^ I^ I^ I^ I^ I^ I^ I^ I^ I^ I^ I^ I^ I^ I^ I^ I^ J^ w^ w^ z^ J^ x^ w^ z^ z^ w^ w^ z^ z^ w^ w^ z^ z^ w^ w^ z^ z^ D^ F^ y^ A^ x^ K^ y^ y^ K^ K^ y^ I^ I^ I^ I^ I^ I^ I^ I^ I^ I^ I^ y^ y^ K^ K^ y^ y^ L^ L^ y^ y^ L^ L^ y^ y^ L^ L^ y^ y^ L^ L^ y^ A^ M^ M^ A^ A^ K^ K^ y^ y^ K^ K^ z^ z^ w^ w^ J^ z^ w^ w^ z^ z^ w^ w^ z^ z^ w^ w^ z^ z^ w^ w^ z^ z^ w^ w^ z^ z^ w^ x^ z^ z^ w^ w^ N^ N^ F^ F^ N^ x^ w^ w^ z^ z^ w^ w^ z^ z^ w^ w^ z^ z^ w^ w^ z^ z^ w^ w^ z^ z^ w^ w^ z^ z^ w^ w^ z^ z^ k^ k^ z^ z^ k^ k^ z^ z^ O^ F^ y^ P^ C^ Q^ R^ S^ T^ U^ p^ V^ W^ X^ Y^ Z^ `^  / ./ +/ @/ #/ $/ %/ &/ */ =/ -/ ;/ >/ ,/ '/ )/ !/ ^^ ~/ {/ ]/ ^/ // (/ _/ :/ </ [/ }/ |/ 1/                                  ",
"                                 2/ 3/ 4/ 5/ 6/ 7/ 8/ 9/ 0/ ]^ a/ b/ c/ d/ e/ f/ g/ h/ i/ j/ k/ l/ m/ n/ o/ p/ q/ r/ s/ t/ u/ v/ w/ x/ y/ z/ M^ A/ B/ C/ D/ E/ F/ z^ z^ z^ z^ E^ F/ E^ B^ G/ H/ H/ I/ J/ J/ J/ I/ K/ K/ I/ I/ K/ K/ I/ I/ K/ K/ I/ I/ K/ K/ I/ I/ K/ K/ I/ I/ L/ G/ M/ M/ G/ G/ M/ M/ G/ G/ I/ I/ N/ N/ O/ O/ P/ P/ Q/ Q/ N/ R/ R/ R/ R/ R/ R/ R/ R/ R/ R/ R/ R/ R/ R/ R/ R/ R/ R/ R/ R/ R/ R/ R/ R/ R/ R/ R/ R/ R/ R/ R/ R/ S/ J/ J/ Q/ Q/ Q/ I/ K/ K/ I/ I/ K/ N/ O/ O/ N/ N/ O/ O/ N/ N/ J/ J/ J/ Q/ Q/ J/ J/ J/ J/ J/ J/ T/ R/ R/ R/ R/ R/ R/ R/ R/ R/ U/ J/ J/ J/ J/ J/ O/ Q/ Q/ N/ N/ U/ U/ N/ N/ U/ U/ N/ N/ U/ U/ N/ N/ V/ V/ J/ J/ J/ J/ J/ J/ J/ J/ J/ J/ I/ Q/ Q/ U/ I/ I/ K/ K/ I/ I/ V/ V/ V/ V/ V/ V/ V/ V/ V/ V/ O/ O/ N/ N/ Q/ Q/ W/ N/ J/ J/ J/ J/ J/ J/ J/ J/ J/ J/ J/ J/ J/ I/ N/ N/ O/ O/ N/ N/ O/ O/ N/ N/ O/ O/ N/ N/ O/ O/ N/ N/ O/ O/ K/ K/ I/ I/ K/ K/ I/ I/ K/ K/ J/ J/ Q/ X/ Y/ Z/ `/ `/  ( B^ n^ .( +( k] @( #( $( %( &( *( =( -( ;( >( ,( '( )( n! !( ~( t~ {( {( ]( ^( !/ /( (( _( :( <( [( }( |( 1( 2( 3( 4(                                  ",
"                              5( 6( 7( 8( 9( 0( a( b( c( d( e( f( f( g( h( i( j( k( l( m( n( o( p( q( r( s( t( u( v( w( x( y( z( A( B( C( D( E( F( F( G( H( I( H( H( H( G( J( K( L( I( M( N( `/ O( P( Q( Q( R( R( Q( Q( R( R( Q( Q( R( R( Q( Q( R( R( Q( Q( R( R( Q( Q( R( R( P( P( S( S( P( P( S( S( P( T( U( Q( V( W( Q( X( Y( V( Q( Q( Y( P( P( P( P( P( P( P( P( P( Q( T( R( Z( `(  _ R( ._ +_  _ @_ #_ $_ T( T( T( Q( Q( %_ X( T( &_ &_ &_ R( U( P( *_ U( U( P( Q( U( R( Q( W( =_ R( -_ W( R( R( W( =_ #_ U( T( %_ Q( Q( P( T( X( Q( %_ &_ %_ ;_ %_ P( T( P( P( >_ X( Q( ,_ '_ )_ ,_ ,_ R( R( R( %_ !_ !_ &_ &_ &_ &_ &_ %_ %_ %_ &_ &_ &_ X( Q( X( ~_ T( U( Z( Z( Z( Z( @_ U( >_ U( P( P( R( R( Q( T( Z( R( {_ {_ R( R( {_ {_ `( R( ]_ {_ -_ -_ W( W( -_ Q( ^_ ^_ =_ Q( X( Q( *_ Q( Q( /_ *_ *_ P( P( R( Q( W( ^_ X( =_ W( W( -_ -_ W( =_ @_ #_ ^_ (_ #_ #_ ^_ ^_ #_ #_ T( U( O( U( T( T( __ __ T( T( :_ <_ [_ }_ |_ 1_ 2_ 3_ 4_ 5_ 6_ 7_ w^ 8_ 9_ 0_ a_ 2_ b_ c_ d_ e_ f_ g_ h_ i_ j_ k_ l_ m_ n_ o_ p_ q_ r_ s_ t_ D) u_ v_ w_ x_ y_ z_ A_ B_ C_ D_ E_                               ",
"                              F_ G_ H_ I_ I_ J_ K_ L_ M_ N_ O_ P_ Q_ R_ S_ T_ x) U_ V_ W_ X_ Y_ Z_ `_  : .: +: @: #: $: %: &: *: =: -: ;: >: ,: ': ): !: ~: ~: {: ~: ': ': ]: ^: /: (: _: :: <: [: [: }: }: |: 1: 2: 2: 1: 1: 2: 2: 1: 1: 2: 2: 1: 1: 2: 2: 1: 1: 2: 2: 1: 1: 2: 2: 1: 1: 2: 3: 4: 1: 2: 2: 5: }: }: }: 6: 6: |: 7: 8: }: 8: 9: 0: 0: 1: 1: 1: 1: 2: 2: 2: 2: a: b: c: d: a: e: f: d: g: b: d: c: g: g: c: f: c: h: c: 4: g: i: c: c: i: g: d: c: h: c: c: h: b: 2: a: a: 2: 2: 2: a: j: 2: k: l: 8: 8: [: [: m: 8: l: l: m: n: 2: 9: a: n: a: o: 2: 5: a: 1: 2: p: 4: q: 6: 6: r: s: t: u: v: w: 3: 3: 1: 1: 3: 3: 1: 1: n: }: m: x: y: |: |: [: |: 5: 1: 1: k: 3: 4: 4: 2: 2: 4: 1: 2: 2: 1: 1: 1: 1: 1: 1: 9: 1: 1: 1: 9: [: [: [: [: [: [: l: l: l: l: l: z: c: d: c: c: d: d: d: h: h: 9: |: A: l: l: l: [: [: [: [: [: 9: 1: 9: 9: z: o: 9: 9: 9: 9: 9: 4: g: d: 4: g: c: c: c: c: c: 4: B: C: D: E: F: G: '_ H: I: J: K: L: M: N: O: P: Q: R: S: T: U: V: W: X: Y: Z: `:  < .< +< @< #< x! ~/ q_ $< %< ., &< *< =< -< ;< >< ,< '< )< !< ~<                            ",
"                           {< ]< ^< /< (< _< _< :< << P_ [< }< |< 1< 2< 3< 4< 5< 6< 7< 8< 9< 0< a< b< c< d< e< f< g< h< i< j< k< l< m< n< o< p< q< q< r< s< t< u< v< s< v< w< x< y< x< z< A< B< A< C< C< C< D< E< D< D< E< E< F< F< G< G< F< F< G< G< F< F< G< G< F< F< G< G< F< F< G< G< F< F< G< G< F< F< F< B< H< H< A< H< I< F< J< K< F< p< A< A< B< D< G< G< D< L< E< M< N< O< O< P< P< P< O< P< P< Q< R< S< T< U< V< W< X< Y< V< Y< Y< W< G< V< Z< V< T< X< Y< G< G< X< V< D< A< A< H< H< A< A< H< `<  [ C< C< C< C< C< .[ F< C< F< C< +[ X< X< +[ R< T< C< C< @[ T< L< @[ #[ $[ N< Q< Q< 0: 0: %[ A: &[ L< L< L< L< L< L< L< L< L< L< O< L< *[ C< +[ @[ C< C< V< V< V< =[ F< G< G< F< F< G< G< F< F< -[ ;[ ;[ ;[ ;[ ;[ >[ >[ ,[ ,[ '[ p< )[ )[ p< p< x< ![ z< z< ![ z< ~[ G< X< G< G< V< V< X< X< X< -[ {[ z< p< y< ][ p< p< )[ )[ p< ^[ )[ )[ p< /[ ([ ([ z< z< ([ _[ :[ T< X< X< X< X< Y< Y< Y< Y< <[ [[ }[ }[ |[ 1[ ]: 2[ 3[ c: 4[ l] 5[ 6[ 7[ 8[ 9[ 0[ a[ b[ c[ d[ e[ f[ g[ h[ i[ j[ k[ l[ m[ n[ #< o[ q_ p[ q_ $< q[ +, l_ r[ 8> s[ t[ N~ u[ v[ w[ x[                            ",
"                        y[ z[ A[ B[ C[ D[ E[ F[ :< G[ H[ I[ Q_ J[ K[ L[ M[ N[ O[ P[ Q[ R[ S[ T[ U[ V[ W[ X[ Y[ Z[ `[ G(  } .} +} S^ @} #} $} %} &} *} =} *} -} ;} =} >} ,} n: #[ U< =[ '} )} !} ~} ~} ~} ~} Z< `< `< `< `< `< M< M< @[ @[ M< M< @[ @[ M< M< @[ @[ M< M< @[ @[ M< M< @[ @[ M< M< @[ @[ `< `< {} ]} ~[ -[ ^} >[ >[ '[ /} >[ (} p< B< B< B< D< `< `< L< _} L< D< :} <} <} [} }} }} }} [} |} 1} 2} L< R< R< +[ `< C< L< D< L< L< C< L< L< D< +[ R< #[ #[ 3} L< 4} 5} K< 6} ^[ K< B< B< B< 7} 6} J< !} !} !} !} !} 8} 8} 9} 0} Z< C< +[ D< `< D< C< D< D< `< +[ `< a} T< X< @[ @[ b} c} 3[ 2} [} }} d} d} d} d} d} d} d} d} d} e} M< =[ f} 0} Y< f} 0} g} g} g} g} X< `< h}  [ D< D< @[ @[ `< `< Z< i} i} i} j} j} i} i} k} k} l} l} l} l} ;[ ;[ l} l} m} n} m} >[ $[ L< R< L< L< L< L< $[ 4} 4} $[ o} p} q} r} s} ;[ ;[ l} l} ;[ y< x< t} u} u} v} w} w} w} w} x} y} z} R< R< R< R< .[ .[ .[ .[ A} ]: B} C} D} E} F} G} H} X< I} J} K} L} M} N} O} P} Q} R} S} T} U} V} W} X} Y} Z} &< `}  | .| +| @| #| $| r_ q_ %| &| +, *| =| -| ;| +| >| ,| '| )| !|                         ",
"                        ~| {| ]| ^| /| (| _| B[ :| <| [| }| || 1| 2| 3| 4| 5| 6| 7| 8| 9| 0| a| b| c| d| e| f| g| R}  ( h| i| 8] j| k| l| m| n| 3: 6: 6: |: |: 3: 5: |: 6: o| p| p| q| r| p| s| t| t|  [  [ u| v| w| w| w| w| x| x| x| x| x| x| x| x| x| x| x| x| x| x| x| x| x| x| x| x| x| x| x| x| x| x| v| y| .[ z| A| B| C| 4} B| B| z| u| v| v| v| D| D| x| E| E| F| G| H| H| I| I| J| J| K| I| I| I| $( w| x| x| x| x| D| E| L| x| x| M| E| x| x| w| x| F| F| w| w| N| O| N| P| P| Q| P| P| P| P| P| u| R| S| T| t| t| s| U| V| H| s| W| X| F| Y| M| F| F| F| x| M| Z| s| `|  1 .1 +1 k: @1 #1 ,} $1 <_ %1 %1 %1 %1 %1 %1 %1 %1 X( @_ 8:  1 s| &1  1 s| *1 I| I| I| I| =1 x| w| x| x| x| x| x| x| x| Z| -1 -1 -1 -1 -1 ;1 >1 B| B| B| u| u| u| ,1 ,1 ,1 '1  [  [ u| '1 =1 D| x| D| D| D| w| M| F| M| =1 y| )1 ,1 -1 ,1 ,1 ,1 u| u| ,1 !1 ~1 P| Q| E| {1 {1 {1 {1 {1 {1 X| M| x| x| x| E| M| M| M| M| +[ |} ]1 q: ^1 b: /1 (1 _1 :1 <1 [1 }1 |1 11 21 31 41 51 61 71 81 91 01 a1 b1 c1 d1 e1 f1 g1 h1 i1 j1 k1 l1 m1 l1 n1 o1 &| p1 (( t' y! $| $| q1 r1 s1 t1 u1                      ",
"                     v1 w1 x1 y1 z1 A1 B1 C1 D1 E1 F1 G1 H1 I1 J1 2| '/ K1 N[ L1 O~ M1 N1 O1 P1 Q1 R1 S1 T1 U1 V1 W1 X1 Y1 :1 Z1 /[ `1  2 .2 :_ +2 +2 @2 #2 #2 +2 +2 $2 %2 &2 *2 r] =2 t] e] w] -2 ;2 >2 ,2 >2 '2 )2 )2 )2 )2 )2 )2 )2 )2 )2 )2 )2 )2 )2 )2 )2 )2 )2 )2 )2 )2 )2 )2 )2 )2 )2 )2 )2 )2 )2 )2 !2 ~2 {2 ,2 ~2 ]2 ^2 {2 9_ /2 (2 _2 :2 :2 )2 )2 )2 )2 )2 <2 [2 }2 |2 |2 |2 |2 |2 12 '2 '2 '2 '2 )2 )2 )2 )2 22 22 )2 22 )2 )2 )2 32 22 22 22 )2 )2 22 )2 )2 )2 42 52 62 42 :2 :2 :2 42 42 :2 :2 _2 72 o] o] 72 72 o] 82 92 0] c] 02 32 32 22 22 32 32 22 )2 a2 a2 o] b2 72 c2 b2 o] b2 >2 02 02 C] d] d] d] d] d] d] d] !2 !2 !2 q] c] c] q] q] c] 72 72 72 72 72 d2 22 22 )2 a2 )2 )2 )2 )2 )2 '2 72 o] o] 72 72 82 82 e2 i] x] o] f2 72 o] 82 72 72 o] g2 0] h2 '2 )2 )2 )2 )2 )2 )2 )2 22 22 q] 72 e] g2 e2 72 o] o] 72 0] i2 i2 j2 12 12 12 [2 k2 k2 k2 k2 k2 22 )2 )2 22 22 )2 )2 )2 )2 )2 52 l2 m2 5[ ,2 W^ l| n2 o2 p2 q2 r2 s2 t2 u2 v2 w2 x2 y2 z2 A2 B2 C2 D2 E2 F2 G2 H2 I2 J2 K2 O{ L2 M2 k1 l1 N2 O2 q_ %| {/ {/ P2 Q2 R2 S2 T2 U2 j; V2 W2 X2                      ",
"                     Y2 Z2 `2  3 .3 +3 @3 #3 $3 %3 &3 G1 *3 Q~ =3 -3 #| ;3 >3 ,3 '3 )3 !3 ~3 {3 ]3 ^3 /3 (3 _3 :3 <3 [3 }3 |3 13 ]} 23 33 43 O( 53 53 <2 <2 53 }2 63 73 83 93 03 a3 b3 a3 l^ c3 c3 d3 d3 d3 e3 f3 g3 g3 h^ h^ f| f| h3 h3 f| f| h3 h3 f| f| h3 h3 f| f| h3 h3 f| f| h3 h3 f| f| h3 h3 f| f| i3 j3 d3 d3 j3 j3 k3 k3 l3 j3 d3 i3 Q} 7_ 7_ 7_ h3 h3 f| f| f| m^ m^ o^ U^ U^ o^ L: d3 d3 m3 m3 e3 e3 n3 n3 e3 o3 p3 p3 q3 q3 p3 p3 o3 o3 p3 n3 r3 h3 s3 s3 h3 h3 7_ 7_ Q} Q} 7_ 7_ Q} Q} 7_ 7_ i3 s^ L: L: m3 m3 t3 u3 p^ m3 u3 g3 v3 v3 g3 g3 v3 v3 g3 w3 t^ R} x3 y3 z3 z3 y3 A3 r^ B3 C3 D3 E3 F3 k| k| F3 F3 J: J: G3 G3 J: H3 t^ p^ I3 u3 J3 t3 K3 K3 K3 C3 w3 u^ t^ h3 L3 f| h3 h3 f| f| m^ I3 l^ l^ T^ c3 l^ l^ T^ T^ M3 M3 T^ N3 O3 l^ N3 N3 O3 M3 T^ T^ P3 Q3 t^ t^ Q3 r3 R3 R3 r3 r3 f| S3 O^ O^ T3 T3 l^ l^ T^ T^ w^ U3 V3 V3 V3 V3 U3 v^ v^ v^ v^ v^ w3 n3 q3 o3 p3 p3 q3 q3 p3 p3 h^ W3 03 X3 W3 Y3 Z3 A3 `3  4 .4 +4 @4 #4 $4 %4 r] &4 *4 =4 -4 ;4 >4 ,4 '4 )4 !4 ~4 {4 ]4 ^4 +| /4 j1 k1 m1 N2 F[ r_ (4 $< _4 :4 <4 [4 }4 |4 14 24 34 44 54 64                   ",
"                  74 84 94 04 a4 b4 c4 d4 y1 e4 f4 g4 h4 i4 j4 D1 k4 l4 F' D) m4 n4 o4 p4 q4 r4 s4 t4 u4 v4 w4 x4 y4 z4 A4 B4 C4 D4 E4 F4 G4 H4 I4 I4 J4 J4 K4 K4 I4 I4 J4 L4 M4 N4 O4 -4 a3 P4 W3 W3 u3 u3 Q4 R4 S4 S4 S4 S4 T4 T4 T4 T4 T4 T4 T4 T4 T4 T4 T4 T4 T4 T4 T4 T4 T4 T4 T4 T4 T4 T4 T4 T4 T4 T4 U4 V4 u3 u3 D3 D3 W4 W4 X4 D3 B3 Y4 Z4 `4 T4 T4 T4 T4 L4 L4 T4  5 .5 .5 .5 .5 .5 +5 +5 +5 +5 +5 S4 @5 #5 #5 Y4 $5 #5 #5 @5 @5 #5 #5 Y4 $5 #5 #5 %5 $5 U4 U4 $5 $5 &5 &5 `4 `4 &5 &5 `4 `4 &5 &5 U4 *5 N3 N3 =5 =5 N3 O3 W3 W3 =5 #5 &5 &5 L4 L4 &5 &5 L4 L4 T4 T4 $5 $5 $5 $5 $5 @5 @5 @5 $5 $5 U4 `[ Y3 Y3 `[ `[ U4 U4 U4 U4 -5 ;5 =5 =5 N3 >5 *5 S} S} S} ,5 @5 '5 )5 !5 T4 L4 L4 T4 T4 T4 T4 ~5 ;5 O3 O3 O4 {5 O3 O3 O4 O4 >5 O3 ]5 O4 O3 O3 O4 O4 O3 O3 ]5 ^5 ~5 ~5 /5 /5 ~5 U4 U4 U4 #5 #5 #5 ;5 >5 >5 =5 =5 O3 P4 ]5 ]5 P4 l2 ~2 ~2 ~2 ~2 ~2 (5 (5 (5 (5 (5 @5 #5 @5 Y4 #5 #5 @5 @5 #5 #5 #5 ,2 w] C] #5 ,2 C] ,2 _5 :5 <5 [5 }5 |5 15 25 35 45 55 65 C3 75 85 95 05 a5 b5 c5 d5 &| e5 f5 g5 h5 i5 m1 N2 N2 j5 k5 j5 l5 m5 ]^ n5 o5 p5 q5 r5 s5 t5 u5 v5                   ",
"                  w5 x5 y5 z5 A5 B5 C5 D5 E5 F5 G5 H5 I5 J5 K5 L5 _| z) n1 M5 `> N5 O5 P5 Q5 R5 S5 T5 U5 F3 V5 W5 22 X5 Y5 Z5 `5  6 .6 +6 @6 #6 $6 $6 %6 %6 &6 7] *6 7] $6 =6 -6 ;6 ,: ;6 ;6 ;6 >6 >6 >6 >6 ,6 '6 ^: ^: )6 )6 !6 !6 ~6 ~6 !6 !6 ~6 ~6 !6 !6 ~6 ~6 !6 !6 ~6 ~6 !6 !6 ~6 ~6 !6 !6 ~6 ~6 !6 !6 {6 >6 >6 >6 >6 >6 >6 ]6 ]6 ]6 >6 {6 {6 {6 {6 {6 ~6 ~6 !6 !6 ~6 ~6 !6 !6 ~6 ~6 !6 ^: )6 )6 ^: ^: )6 )6 ^: ^: )6 ^6 ^: ^: )6 )6 ^: /6 )6 )6 ^: /6 ~6 ~6 !6 !6 ~6 ~6 {6 {6 {6 {6 {6 {6 {6 {6 {6 {6 {6 ,6 (6 (6 _6 _6 ;6 ;6 :6 :6 ;6 (6 ~6 ~6 !6 !6 ~6 )6 ^: ^: )6 ^6 <6 <6 (6 (6 <6 ;6 >6 >6 ;6 |[ ,6 ;2 [6 [6 ;2 ;2 6[ 6[ 6[ 6[ 6[ /6 (6 (6 (6 ;6 23 23 }6 }6 ]: 23 ^: ^: )6 )6 ^: ~6 ~6 ~6 !6 !6 |6 ;6 <6 <6 ;6 ;6 ;6 ^: <6 <6 ^: <6 ;6 ;6 ;6 ,: ;6 ;6 ;6 ;6 ;6 ^: ^: ^: )6 )6 ^: ^: )6 )6 ^: ^: |6 <6 !6 !6 <6 <6 ;6 ;6 ;6 ;6 ^: 16 16 16 16 16 16 G: G: G: G: 26 !6 !6 ~6 )6 ^: ^: )6 )6 ^: ^: ^: 36 u} 46 46 56 66 23 76 ;6 86 96 06 a6 b6 c6 d6 e6 f6 2] P: g6 h6 i6 j6 k6 l6 m6 n6 o6 p6 y! q6 r6 s6 m1 N2 m1 k5 j5 t6 u6 v6 w6 x6 y6 z6 A6 B6 C6 D6 E6 F6 G6                ",
"               H6 I6 J6 K6 L6 M6 N6 O6 P6 Q6 R6 S6 T6 T6 U6 V6 W6 X6 ~/ q_ n1 {/ Y6 Z6 `6  7 .7 +7 @7 #7 $7 %7 L} J4 &7 *7 =7 -7 ;7 >7 ,7 '7 )7 !7 !7 ~7 ~7 !7 {7 ~7 ]7 ^7 ]7 /7 (7 _7 (7 :7 :7 <7 <7 <7 <7 <7 [7 (7 (7 [7 [7 :7 :7 }7 }7 :7 :7 }7 }7 :7 :7 }7 }7 :7 :7 }7 }7 :7 :7 }7 }7 :7 :7 }7 }7 :7 :7 :7 <7 <7 <7 <7 <7 (7 (7 (7 (7 (7 :7 }7 }7 :7 :7 }7 (7 :7 :7 (7 :7 |7 |7 |7 |7 |7 |7 |7 |7 |7 |7 17 [7 (7 (7 [7 27 (7 (7 [7 [7 (7 :7 }7 [7 /7 (7 }7 }7 :7 :7 }7 }7 :7 :7 (7 (7 :7 :7 (7 (7 :7 :7 (7 _7 _7 _7 _7 _7 (7 _7 _7 _7 (7 :7 (7 (7 :7 :7 [7 _7 /7 /7 _7 /7 37 37 17 17 17 47 57 67 67 57 57 :7 :7 :7 :7 :7 /7 /7 /7 /7 /7 /7 /7 /7 _7 _7 _7 (7 (7 77 77 77 87 /7 [7 [7 /7 :7 }7 }7 :7 :7 (7 97 ^7 ^7 (7 97 07 07 (7 (7 ^7 <7 a7 b7 b7 c7 }7 }7 (7 _7 [7 /7 (7 /7 [7 [7 /7 d7 e7 e7 d7 d7 d7 <7 <7 <7 <7 <7 b7 f7 g7 g7 f7 (7 [7 [7 /7 /7 [7 }7 :7 :7 }7 }7 :7 :7 }7 [7 /7 (7 [7 [7 (7 (7 (7 }7 g7 f7 g7 h7 i7 47 j7 67 k7 l7 m7 n7 $4 o7 p7 q7 r7 s7 03 t7 u7 v7 w7 x7 y7 z7 -| A7 B7 (4 C7 -3 D7 E7 E7 l1 l1 j5 F7 G7 H7 I7 J7 $3 K7 L7 b4 M7 s5 N7 O7 P7                ",
"               Q7 R7 S7 9/ T7 U7 V7 W7 X7 Y7 A5 Z7 `7  8 .8 +8 W6 n5 @8 #8 $8 %8 &8 *8 =8 -8 ;8 >8 ,8 '8 )8 !8 )6 ~8 {8 ]8 ^8 /8 (8 _8 :8 <8 [8 }8 |8 |8 }8 }8 }8 18 28 38 28 48 58 68 78 88 98 08 a8 b8 b8 |8 c8 c8 c8 c8 c8 d8 d8 d8 e8 d8 f8 d8 d8 d8 d8 d8 d8 f8 g8 g8 08 h8 i8 i8 i8 i8 i8 a8 b8 j8 k8 l8 08 98 98 m8 08 n8 n8 78 68 o8 |8 d8 d8 d8 d8 d8 08 08 08 08 08 n8 n8 n8 n8 n8 n8 n8 l8 l8 p8 q8 d8 d8 d8 d8 c8 d8 c8 |8 c8 c8 d8 d8 c8 c8 |8 e8 d8 d8 d8 d8 a8 m8 k8 j8 98 j8 r8 98 l8 r8 s8 98 t8 h8 i8 h8 d8 58 u8 t8 t8 q8 08 g8 g8 g8 08 78 78 78 78 78 78 v8 v8 w8 w8 w8 x8 x8 y8 z8 x8 o8 08 08 08 08 08 08 08 t8 d8 t8 i8 i8 i8 q8 q8 t8 58 n8 78 |8 |8 c8 c8 c8 c8 c8 d8 d8 d8 d8 d8 d8 A8 i8 i8 B8 u8 u8 u8 i8 i8 i8 b8 68 t8 q8 o8 t8 78 q8 q8 t8 |8 c8 c8 |8 c8 c8 c8 c8 C8 C8 C8 C8 78 88 o8 68 68 o8 58 c8 |8 t8 c8 c8 c8 c8 c8 |8 d8 d8 08 d8 d8 |8 c8 c8 c8 c8 c8 c8 |8 |8 c8 D8 E8 F8 G8 H8 I8 J8 K8 L8 M8 N8 O8 P8 Q8 R8 S8 T8 U8 V8 W8 X8 Y8 Z8 `8  9 .9 +9 I1 x! /| @9 x! #9 D7 E7 E7 D7 l1 -3 z) $9 %9 B7 7/ e4 &9 9( *9 =9 =9 -9 ;9 >9 ,9 '9             ",
"            )9 !9 ~9 {9 ]9 9/ ^9 /9 (9 _9 :9 <9 [9 }9 |9 19 29 39 n5 49 _< 59 69 79 89 99 09 a9 b9 c9 d9 e9 f9 g9 h9 i9 j9 k9 l9 m9 n9 o9 p9 q9 r9 s9 s9 t9 u9 v9 w9 x9 y9 z9 A9 B9 C9 D9 D9 E9 F9 G9 H9 I9 J9 K9 G9 G9 G9 G9 C9 G9 G9 K9 C9 H9 C9 L9 M9 N9 w9 O9 P9 Q9 E9 R9 S9 T9 U9 V9 W9 X9 Y9 Z9 `9 `9  0 .0 +0 D9 +0 @0 x9 x9 #0 #0 #0 #0 w9 $0 $0 $0 K9 K9 K9 C9 C9 K9 %0 %0 $0 &0 *0 @0 C9 =0 =0 Q9 -0 I9 I9 G9 G9 G9 ;0 C9 I9 #0 #0 O9 x9 >0 x9 C9 G9 G9 G9 C9 C9 ,0 '0 )0 !0 ~0 {0 {0 {0 ]0 {0 ^0 /0 K9 @0 &0 K9 O9 (0 C9 G9 G9 C9 F9 D9 D9 F9 +0 @0 O9 x9 w9 M9 M9 C9 +0 C9 C9 (0 y9 _0 y9 y9 :0 <0 G9 C9 C9 D9 +0 A9 [0 }0 |0 10 20 30 #0 30 C9 G9 ;0 +0 +0 +0 F9 C9 C9 C9 C9 C9 C9 A9 A9 $0 I9 $0 A9 K9 B9 B9 @0 ;0 =0 ;0 =0 =0 40 50 50 60 60 50 70 D9 Q9 Q9 F9 C9 K9 G9 C9 C9 ;0 G9 C9 C9 C9 C9 D9 80 50 90 00 20 20 x9 90 *0 K9 $0 G9 G9 K9 K9 O9 a0 b0 b0 a0 K9 G9 K9 K9 G9 G9 C9 G9 K9 x9 50 c0 d0 e0 f0 g0 h0 i0 j0 k0 l0 m0 n0 o0 p0 q0 r0 s0 t0 u0 v0 w0 x0 y0 z0 A0 B0 C0 X6 9/ 8/ %9 D0 E0 E0 F0 G0 D7 D7 H' j5 $9 F7 H0 I0 $3 J0 K0 L0 M0 N0 O0 P0 Q0 R0             ",
"            S0 T0 U0 V0 W0 &9 X0 U6 (9 Y0 Z0 `0  a .a .a +a @a K5 49 #a $a %a &a  8 *a =a -a ;a >a ,a 'a )a !a ~a {a ]a ^a /a (a _a :a <a [a }a |a 1a 1a 2a 3a 4a 5a 6a 7a 8a 9a 0a aa ba ba ca ba da ea fa 0a 0a fa fa fa fa ga ha ha ga ha ha ha ia ga ja ka la ha ma na oa pa qa ra sa sa sa ta ua va ta wa ba ba ba ha ga xa xa ya ya ya za za Aa Ba Ba 0a fa aa ba da Ca Da Ea Ea ha xa ga ha ma ma ma fa Fa Fa fa fa aa ha fa aa Ga ja Ga xa xa xa 0a fa fa fa aa aa Ha Ia ua Ja Ka va ta ta La ta Ia ua Ma aa ha 0a aa ia aa ha ha aa Na ba da ea Oa ha xa Ga ya ya la 0a Pa 0a 0a fa 0a Ba Ba Ba Ba Fa aa aa aa ba ba Pa Ma Ea Qa Ra ya ya ya xa 0a fa ha ma ma ba da ba ba ba aa aa ha Ba 9a Fa Fa Fa Sa ia ia ia Ta 0a Pa ha ma ma ya Ua Ua Ua Ua Ua Va Wa Xa Xa Ya ia ga fa ia aa Ma aa aa aa aa aa Za `a  b  b 6a 6a 6a 6a 6a Ua Aa Fa Da Ma Ma aa ia Ma Na Na Oa Pa aa ha la aa aa ha fa 0a la .b +b @b #b $b %b &b *b =b -b ;b >b ,b 'b )b !b ~b {b ]b ^b /b (b _b :b <b [b }b |b U6 1b y1 2b 3b 4b 4b _< _< 5b 5b F7 }4 }4 }4 6b 7b K5 8b 9b 0b ab bb cb db eb fb             ",
"         gb hb ib jb kb lb mb nb .8 @a ob pb .a qb rb +a 0( sb K5 $3 tb $a $a D1 R6 ub vb wb xb yb zb Ab Bb Cb Db Eb Fb Gb Hb Ib Jb Kb Lb Mb Nb Ob Pb Pb Qb Rb Sb Tb Ub Vb Wb Xb @, Yb q, k[ k[  < q, Zb `b  c  c .c .c .c .c Xb @, @, +c @c Yb Yb #c $c Nb %c &c *c =c -c ;c >c ,c 'c 'c )c !c )c ~c {c ~c ]c #c #c Zb @c Xb .c .c .c &c &c &c &c &c +,  c =c ^c #c /c /c (c Yb @c @c @c `b _c =c .c .c .c *c :c @, Yb q, Zb Yb q, <c .c Nb [c _c =c }c }c  c _c _c @, @c |c 1c )c 2c !c ~c 3c ~c 4c 3c ~c 5c #c 6c 7c q, 7c ^c Yb 7c 7c Zb 7c (c Zb Zb @, .c .c .c $c *c Nb  c  c  c  c .c 8c 9c q, q, 0c ac bc bc Zb 7c 7c #c cc  c &c &c &c dc dc ec }c  c }c .c @, Yb q, k[ k[  < q, q, +c .c +, *c &c Tb fc %c gc @c 9c +c @, @c @c  < Xb $c $c $c $c $c $c *c dc +, hc ic ^c q, jc ^c Zb 7c q, q, q, 7c  < +c $c Nb Tb Tb Tb &c $c $c .c =c .c Xb Yb 7c Zb Zb 7c (c 7c Yb .c  c  c _c kc kc  c  c  c lc mc nc &c oc pc qc rc `' sc tc uc vc wc xc yc zc Ac Bc Cc Dc Ec Fc Gc Hc Ic Jc Kc Lc Mc D0 Nc Oc Pc @a Qc W6 K5 K5 Rc &9 G5 f4 Sc Tc J0 Uc Vc Wc Xc Yc Zc `c  d .d +d          ",
"         @d #d $d %d kb &d *d =d -d @a ;d >d ,d Z7 Z7 'd )d f4 K5 R6 tb $a !d X6 ~d {d ]d ^d /d (d _d :d <d [d }d |d 1d 2d 3d $| 4d 5d 6d 7d 8d 9d 9d 0d 0d ad bd cd dd ed bd fd s~ gd x_ hd #, hd id jd s~ 0d =| kd kd ld ld md nd od od pd jd id fd qd rd rd sd ld ld l; fd td ud >c vd wd xd >c yd zd yd Ad gd gd gd Bd l; kd kd ld ld ld sd Cd =| ld kd 0d dd Dd Ed 3^ Fd jd H! gd pd md 9d rd ld ld ld l; Gd nd nd Hd x_ Fd hd 9d Id rd =| rd l; m_ m_ l; ld 9d md Jd Kd Ld Ld Md Nd Md yd yd Nd yd vd Od Pd S{ Dd Qd ad cd Dd Fd Rd id x_ gd Sd H! nd rd l; m_ l; Td Ud ld kd ld m_ m_ nd gd Qd Qd x_ Vd gd gd P- x_ x_ Wd fd qd rd =| =| =| Xd Xd m_ l; 9d m_ md pd id x_ Yd x_ x_ hd Zd rd =| =| sd `d  e e5 rd Td Ud nd Vd gd gd gd ad .e .e .e .e cd +e .e .e dd dd @e Hd id dd dd id id x_ x_ x_ #e $e %e &e *e =e 0d 0d .e .e .e fd 0d -e 0d Qd Dd ;e ;e ;e ;e s~ H! >e rd l; 9d kd l; rd 9d 9d ,e 'e )e q[ !e ~e {e ]e ^e /e -| (e B' _/ _e :e <e [e }e |e 1e 2e 3e 4e 5e 6e 7e 8e 9e 0e W0 ae (9 +a +a be G5 G5 I_ I_ T6 T6 ce Pc D0 de ee fe ge he ie je ke le me ne          ",
"         oe pe qe re X7 se te ue =d ve #3 Q6 we +a xe G5 W6 K5 u6 $a $a F[ F[ ye ze Ae Be Ce De Ee Fe Ge He Ie M7 Je b( 2d #| Ke '/ Le Me Ne Oe Pe Qe Re E, Se Te Ue rd Ve Qe We  e Xe ld =| Td ld ld ld `d o_ Ye Ze Ze Ye Ye Ze `e }( }(  f k) lc .f +f @f #f n_ $f #f @< Ze M2 %f &f *f =f %f &f -f Qb ;f q[ >f sd )e 5d {( @f @f ,f ,f @f 'f )f !f ~f +f o_ Pe {f kd kd ]f Xd ^f /f {e (f _f Ye Ye :f :f #f <f (f (f k) lc =| [f n[ o_ @f @f ,f <f @f {( #f ,f @f {( }f |f 1f 2f 3f 4f 2f 2f ;f 4f ;f 4f 5f Qe Qe {f {f Qe Qe  e Xe lc 6f 6f o! o! 7f 8f ,f @< Ze #f ,f <f @f @f ,f 9f i1 {e 0f  e  e af k) [f bf 6f ld ld ld `d n[ o_ #f @f ,f <f @f {( #f 9f +f +f >f cf rd rd df df ^f {e ef ,f )f )f Ye Ye @f @f <f <f `e {e /f ff /f Qe Te Te gf gf Ue .| Re gf Te Te  e {f ld  e e5 ld ld Xe =| ld hf if Pd jf Ue Te E, E, Te Te gf We o_ o_ (f kf Ve lc Td Td lc [f cf 8f ,f Ye lf @f {( {( @f @f mf x) nf of pf qf >] rf `e sf tf uf vf wf xf yf #9 5b zf Af 5/ Bf Cf Df Ef Ff Gf Hf If Jf Kf Lf Mf `7 .8 .8 0( Nf de U6 U6 Of Pf 'd 'd @3 Qf Rf Sf Tf Uf Vf Wf Xf Yf Zf          ",
"      `f  g .g +g @g #g $g %g &g *g Z7 =g -g G5 U6 ;g G5 %3 >g ie ,g }4 tb 'g )g !g Ae ~g {g ]g [9 ^g /g Xc (g +] _g :g <g k5 [g }g |g 1g 2g -| 3g 3g 3g 3g 3g +| (( 4g 5g Cd +^ +^ 6g 6g +^ 7g I2 sf sf 8g sf 9g -| -| 0g 0g o6 o6 P{ o6 o6 ag bg sf d5 -| 3g +| (( (( 3g cg dg eg fg W] gg hg ig ig jg jg kg lg o6 o6 P{ lg cg cg mg 0g -| cg +| +| -| -| P{ 6g ng og @e pg 8g ag ag ag o6 -| 0g >3 (( (( qg o6 o6 rg 8g sg sg 8g sf 0g lg 0g 0g 0g -| -| 0g 0g -| -| 0g -| W] W] W] W] W] eg eg W] W] eg tg sf d5 d5 sf sf ag ag ag ag rg rg o6 o6 o6 o6 P{ 9g cg 0g 0g 0g (( -| 0g 0g d5 ag I2 bg sg sg ug o6 o6 rg 8g sg vg ag sf sf -| cg +| +| cg cg mg lg 0g rg ag ag wg sg sg bg sf sf 0g 0g (( (( >3 >3 (( -| 0g 0g o6 o6 o6 ag sf xg +| +| (( (( >3 >3 (( (( 5| +| rg ag ag ag ag d5 sf sf ag ag rg F, -| -| 3g +| 5| 5| +| +| xg yg zg sf d5 ag I2 ag sg sg sg 8g d5 -| 0g 0g -| -| lg lg lg lg lg cg Ag eg Bg Cg Dg Eg Fg o6 Gg Hg Ig Jg Kg Lg Mg Ng Og Pg Qg Rg Sg Tg Ug Vg Wg Xg Yg Zg F7 `g  h I_ 7/ 7/ .h M_ @a +h `7 nb nb =d Mf @h #h $h %h &h *h J0 =h -h ;h >h          ",
"      ,h 'h )h !h ~h {h jb ]h ^h /h (h Of f4 ;g U6 G5 7/ _h :h %3 <h [h }h ^| |h 1h 2h 3h 4h 19 5h 6h g( 7h Kf 8h 9h 0h ah bh ch 4< L2 L2 +| 3g yf yf dh dh eh &f fh dh M2 gh hh hh hh tg tg tg tg |g ih hh jh |g tg tg tg tg tg Ag |g Ag tg jh hh kh tg yf yf yf yf tg tg |g rg I2 lh lh zg sf sf sf 0g 0g 0g yf gh gh Ag tg |g tg tg tg tg yf yf yf tg tg tg tg tg hh hh hh hh tg tg tg tg tg tg mh mh yf yf yf tg tg kh hh ih hh tg 2g mh dg tg tg tg tg tg tg tg tg tg d5 zg zg zg zg zg zg zg sf sf zg zg tg tg tg tg tg Lg Lg Lg Lg Lg tg yf yf yf tg tg |g tg tg tg tg yf yf yf tg tg Lg |g |g ih ih jh yf yf tg kh hh hh hh hh tg tg yf yf yf yf tg tg |g Ag tg tg hh hh hh kh kh |g tg tg tg yf yf yf yf yf yf yf tg tg tg tg tg |g <e j1 M2 dh dh M2 M2 dh dh M2 <e Ag Lg Lg Lg Lg Lg |g tg tg tg dg dg yf yf yf M2 ;3 ;3 ;3 dh yf tg tg Lg |g |g |g hh hh hh hh hh tg tg tg tg tg tg |g |g |g |g vg nh oh bg hh hh &f ph O{ (f qh rh sh th uh vh wh xh yh ze }e A6 sb K_ zh Ah Bh Y0 Ch 2< Dh Eh z1 7/ K5 Fh K7 d( Gh +a +a Z7 Hh Ih Jh Kh Lh Mh Nh Oh G5 .3 Ph Qh Rh Sh Th       ",
"      Uh Vh Wh Xh Yh Zh `h  i ^h .i +i Jh @i 'd U6 #i sb c( $i %3 {d %i %i &i *i =i -i ;i >i ,i J6 'i )i !i ~i $| {i ]i _f _f ^i /i /i /i (i 3g yf yf yf yf yf <e gh dh yf yf yf yf dh ;3 ;3 %f ;3 M2 dh yf fh _i M2 M2 M2 dh M2 dh _i dh M2 M2 dh ;3 ;3 :i :i :i ;3 M2 dh _i i1 <i <i [i n[ [i (i (i @< @< N[ }i :i |i ;3 &f _i _i dh dh dh ;3 ;3 ;3 dh dh 1i ;3 ;3 :i ;3 j1 ;3 M2 ;3 ;3 M2 M2 M2 }i }i ;3 ;3 ;3 ;3 M2 M2 M2 fh %f dh 1i 2i ;3 dh dh dh dh M2 M2 dh dh dh (( +f o_ [i [i o_ o_ [i ef (f n[ 3i dh dh dh dh M2 dh dh dh dh M2 ;3 ;3 ;3 ;3 ;3 dh _i j1 dh dh dh ;3 ;3 ;3 dh j1 j1 ;3 ;3 dh dh ;3 nf nf ;3 M2 M2 dh dh dh dh ;3 ;3 :i :i :i :i M2 M2 M2 M2 M2 M2 j1 M~ M~ M~ M2 j1 dh dh ;3 ;3 ;3 ;3 :i :i :i j1 M2 fh fh %f dh gh <e dh dh yf yf dh yf yf dh <e dh dh dh dh dh dh dh M2 %f fh fh tg yf yf dh M2 ;3 ;3 M2 dh dh j1 1i ;3 %f &f fh dh dh yf fh fh j1 dh dh dh M2 fh M2 M2 M2 M2 o6 4i <i [i n[ 5i f5 6i 7i y) 5i 8i 9i 0i ai bi ci di n1 T2 G' ei fi gi hi ii ji ki K_ #a !d li mi 7/ I_ a( ni ni oi .8 nb -d pi qi ri Kh si ti ui vi 9(  3 wi xi yi zi Ai       ",
"      Bi Ci Di $h Ei Fi Gi $g Hi Ii Ji Ki Li @i Mi +a Ni @a ni Oi Pi f( f( f( Qi Ri Si Ti Ui I, Vi Wi Xi Yi Zi `i  j $< .^ .j +j @j #j $j (i f5 lg lg cg cg (( D) /4 %< {/ %j &j &j _4 *j *j =j =j (4 -j wf .^ $< t_ t_ t_ t' $< -j _4 _4 $< $< $< =j =j ;j ;j -j t_ >j >j wf ,j 'j 'j )j 6i #< !j !j !j !j ~j {j ;j *j =j t' $< $< t_ >j >j >j t_ t_ $< $< ;j *j *j ~j ~j ~j =j =j =j =j =j t' t_ t_ >j >j t' =j =j ]j $< $< $< $< $< {j {j t' t' t' t' t' t_ t_ t' $< $< $< ^j )j )j )j )j /j )j )j )j )j (j $< $< $< t' t_ $< $< $< $< $< $< =j =j =j =j $< $< $< >j >j >j >j >j $< $< -j =j =j =j =j =j ;j _j :j =j =j $< $< $< $< t' t' =j =j =j -j -j $< $< $< wf $< $< *j :j :j =j =j =j $< $< $< >j t_ <j t' -j =j $< $< $< $< $< &j %j {/ %< %< M5 M5 %< M5 M5 %< {/ wf $< $< $< $< -j $< $< $< $< .^ uh g5 {/ %< >j wf wf .^ {/ {/ t_ <j {j =j $< -j _4 _4 $< $< $< $< $< $< t' t_ t' $< $< $< $< %< 3d [j }j |j +j 1j (j  ^ 2j 3j 4j 5j 6j 7j 7i 8j 9j 0j 'g aj }4 bj cj @8 ie $a dj ej fj E5 gj X6 de U6 hj 29 29 ij .a jj kj lj mj nj oj pj qj rj sj Of Of tj uj vj wj xj       ",
"   yj zj Aj Bj Cj Dj Ej Fj Gj Hj Ij Jj Kj Lj Mj Nj +a @i oi ni ni Oj Pj Pj Qj Rj Sj Tj Uj Vj Wj Xj Sj Yj Zj Q~ `j  k .k +k @k gh #k $k 7| ih >3 %k %k &k *k =k =k -k [j #< !/ ;k ;k !/ !/ !/ !/ !/ !/ ;k 0i ;k ;k ,j >k >k >k >k ;k ;k ;k ;k ;k !/ !/ !/ !/ !/ ,j >k ,k ,k .j 'k 'k xh xh xh l1 l1 l1 l1 l1 )k !/ !/ !/ 'j ;k >k >k >k ,k ,k !k !k >k ,j ;k !/ !/ !j !j !j !j !/ !/ !/ !/ !/ >k >k :f ~f .j 0i !/ !/ ~k ;k ;k ;k ;k !/ 'j !/ 'j >k >k >k >k >k >k >k ;k ;k _4 xh xh xh xh xh xh xh xh xh xh {k ~k ~k ,j >k >k ;k ;k ;k ;k ;k !/ !/ !/ !/ ~k ;k >k >k ,k ,k ,k 0i 0i >k ;k ~k (j ]k ^k /k /k [j 9j !j !/ !/ ~k ;k ;k ;k >k ,j >k (k (k ,j ,j ,j ,j ;k ]i ;k _k :k !j !j !j !/ !/ ;k ;k >k ,k >k ,j ,j ;k 'j ;k ;k ;k ;k ;k <k 'j /j /j ^j ^j ^j ^j ^j ^j /j !/ ;k ;k ;k ;k ;k ;k ~k ~k ;k ;k ;k ~k ~k /j #< #< `] [k #< #< #< ^j ^j ^j 'j ;k ;k _k _k ;k ;k ;k ;k ;k ;k ,j >k >k ,j ;k ;k ,j @| }k O2 |k 1k _f 2k 3k 4k 5k 6k 2| 7k 8k %< 9k ,k &j :4 m1 @8 0k J7 ak bk ck ^| dk ]^ V6 V6 <4 $3 U6 9( Of Of Z7 ek fk gk @g Ii mj hk ik Ij Gi jk kk @3 ij lk mk nk ok pk       ",
"   qk rk sk tk uk vk vk wk xk yk zk Ak Ak Bk Ck te qb (g Dk Ek Fk Gk Hk Ik }< Jk Kk Lk Mk Nk Ok Pk Qk Rk Sk ji Tk [g H' xh Uk 'k (4 {j )/ %j &j %| %| #| #| $< Vk Wk (4 q_ l1 )k )k )k q_ )k Xk Xk ^( 'j ^j 'j *j o[ Yk $< wf bh bh %| _4 Wk Zk P2 %| `k {k q_ ;j {j {j -j Yk  l i5 l1 H' m1 m1 m1 m1 l1 l1 l1 n1 {k {k *j *j n1 n1 _4 ^( /( $< -j _4 {k {k (4 ;j .l +l y! y! x! x! r_ q_ )k Yk -j wf F' F' %| @l @l {i {i {i n1 {k q_ q_ T2 Yk Yk Yk Yk #| /( /( &j ]i <k %| ~i &] m1 l1 #l $l $l $l l1 l1 l1 r_ )k )k n1 n1 F' )/ -j _4 %l l1 x! )k )k )k *j n1 n1 ;k 'j ,j 'j 'j !/ *j @l q_ q_ l1 l1 l1 l1 x! x! x! q_ q_ n1 n1 n1 !/ !/ Vk wf -j Yk )k q_ q_ (4 (4 *j *j {k )k q_ q_ )k )k *j n1 Wk &l %| $< Yk Yk -j -j q6 q6 {i {i q6 T2 q_ (4 Yk )/ -j -j )/ Yk (4 ;j !j !/ /j *j n1 n1 q_ )k l1 l1 o[ n1 )k x! r_ *l Dh =l -l {j  l Yk =j *j %| ;k ;k P2 P2 <k _k _k !/ !/ !/ *j n1 ^( ;j .l .l .l i5 r6 ;l O2 y! F' 2i >l s6 @] s6 -3 G' #l xh ,l {k m1 $9 'l Rc y1 y1 8/ ak z1 E5 R6 n5 [4 6/ )l 39 Of Of !l ~l {l fk lj Ck  i jb ]l ]l yk Gi  g ^l jb /l (l _l :l <l [l }l       ",
"   |l 1l 2l 3l 4l 5l 6l 7l 8l 9l 0l Xh al bl cl %g dl el jj fl @i +a ve Nf gl hl il jl B! kl ll ml Pj nl ol A6 pl ql  j ~/ ~/ ql  j r_ x!  j l1 xh xh 'k #9 #9 #| %l #l l1 m1 rl [g ~d j5 k5 $| $| p[ sl sl  j Ke l1 L[ i5 tl tl `k l4 l4 xh k1 ul 'k tl l1 m1 j5 j5 Ke m1 m1 l1 z) j5 t6 $9 F7 $9 j5 k5 k5 k5 xh xh l1 l1 l1  j q_ q_ n1 n1 .l &] l1 l1 l1 l1 k5 j5 j5 j5 j5 $9 $9 $9 j5 k5 H' l1 #l xh #9 Yk n1 n1 n1 n1 q_ ~i l1 l1 l1 l1 -3 -3 G' l4 xh xh {k {i _k _k @l t6 $9 t6 j5 cj T2 T2 l1 l1 l1 Ke N2 Ke H' l1 i5 xh xh xh xh #l H' E7 2< Ke H' l1 q_ q_ ai !j #< :k :k :k ql cj cj cj cj vl vl wl D7 2< m1 m1 l1 $| p[ p[ :k sl {k xh l1 l1 m1 t6 t6 t6 j5 j5 j5 l1 l1 l1 l1 l1 l1 l1 l1 xh xh xh #l #l #l #l l1 l1 l1 l1 l1 l1 vl k5 k5 l4 l4 l4 l4 l4 xl yl yl :k :k :k p[ $| )k l1 m1 D7 D7 D7 l1 l1 m1 Ke N2 Ke H' l1 o[ tl k4 yl k5 sl ~k %| _4 _4 Wk l4 l4 :k :k :k p[ $| z) H' m1 H' H' H' m1 H' l1 l1 #l xh l1 l1 l1 m1 H' G' wl wl wl @8 ]^ $3 8/ @9 @9 )d )d )d )d )d #i zl ob Gh ob ,d K0 Al Bl Cl Dl El Fl Gl jb jb Lj Hl Il Jl Jl Kl Lj Ll Fl Ml Nl Ol Pl Ql Rl    ",
"   Sl Tl Ul Vl Wl Xl Yl Zl `l Rf Kl  m .m +m @m  i dl nj Dl fk K0 .8 xe /9 H5 $3 %3 #m $m %m &m Nk *m =m -m {^ tb !d !d Q2 Q2 Q2 Q2 tb !d Q2 $9 t6 Ke H' H' =l =l Ke N2 ;m $a >m >m >m >m >m O2 O2 ,m +l +l Ke $9 t6 m1 l1 T2 xh xh k5 H' l1 i5 xh l1 l1 m1 N2 N2 N2 F[ >m ;l ;l O2 N2 $a $a $a $a N2 >m O2 &] D7 l1 m1 Ke Ke Ke ~/ r_ r_ q_ m1 m1 j5 j5 m1 m1 ;l ;l ;l ;l O2 $a $a $a N2 N2 j5 j5 j5 k5 l1 )k :k p[ p[  j z) ;l m1 Ke Ke D7 >m >m N2 Ke 2d O2 O2 Ke x!  j m1 'm 'm N2 m1 m1 m1 m1 m1 m1 m1 t6 N2 N2 N2 m1 ;l l1 l1 m1 m1 H' Ke N2 N2 N2 N2 Ke Ke )m x! *l !m Dh Dh *l )m m1 m1 Ke Ke m1 m1 N2 N2 N2 N2 Ke Ke m1 m1 ~/ ~/ )m m1 m1 m1 m1 t6 !d N2 N2 Ke m1 m1 l1 l1 m1 m1 m1 t6 N2 N2 m1 m1 H' j5 k5 k5 j5 j5 j5 j5 t6 t6 j5 $9 $a ;m Ke Ke Ke 2d Ke N2 @8 @8 ~m ~m {m ~m N2 m1 m1 m1 m1 m1 m1 Ke m1 N2 $a $a _| $9 j5 k5 k5 2< F[ ;m )m r_ ~j  j r_ x! t6 [g ~m ~m {m ~m N2 j5 j5 j5 j5 j5 j5 j5 j5 k5 k5 k5 l1 l1 m1 m1 m1 D7 2d 2d E7 E7 ]m $3 K5 de Of Of Pf Pf Pf ^m ^m nb `7 /m *d (m c4 (h _m gk gk pj  i jb :m :m Xh Xh <m fe [m }m Rf ti |m 1m 2m 3m 4m 5m 6m 7m    ",
"   8m 9m 0m am bm cm dm }m Jl em Rf fm gm Il hm im jm Fl El gk {| km Z7 nb /m ,d Gh lm mm nm om pm qm rm sm #a u6 %9 F5 F5 E5 E5 F5 F5 e4 E5 R6 }4 }4 F7 @8 @8 #a #a ej ej %9 tb $9 F7 tb tb Q2 X6 X6 y6 y6 X6 }4 $a N2 Ke Ke &] H' Ke N2 m1 Ke Ke N2 @8 tb }4 X6 X6 F7 $9 $9 F7 Q2 'l F5 F5 F5 F5 'l tb F7 $9 tm um 5b }4 }4 @8 @8 N2 N2 Ke N2 @8 $9 $9 $9 $9 $9 $9 $9 $9 $9 }4 u6 %9 }4 }4 F7 $9 @8 Ke Ke Ke N2 Ke Ke N2 N2 @8 @8 ]m ]m 5b }4 }4 'l 'l }4 }4 }4 F5 n5 e4 F5 F5 F5 }4 F7 $9 @8 N2 $9 F7 F7 }4 }4 #a $a @8 @8 Ke Ke N2 N2 @8 @8 N2 @8 $a $a $a tb F7 5b }4 }4 y6 y6 tb tb F7 F7 tb tb F7 F7 $9 N2 N2 @8 @8 tb F7 F7 }4 }4 _< @8 @8 $a #a #a u6 X6 X6 Q2 _| vm l1 m1 Ke N2 F7 }4 }4 }4 F7 F7 @8 N2 Ke Ke N2 N2 @8 @8 $a $a @8 F5 F5 F5 X6 'l X6 }4 }4 F5 F5 e4 }4 _< }4 }4 }4 !d @8 N2 N2 N2 !d }4 F7 }4 u6 u6 }4 #a N2 Ke Ke 49 .h %9 'l li wm 'g F7 _< _< _< _< _< }4 }4 }4 @8 N2 N2 N2 N2 N2 N2 N2 Ke m1 m1 m1 m1 Ke N2 N2 @8 #a #a dj ]m K_ K7 oi +a ^m M7 _m _m _m P6 P6 xm xm ym zm zm Am .i re Ck sj im Xh qj  m Bm Bm Yh Fj Cm Dm [m Em Fm Gm Hm {h Im Jm Km Lm Mm    ",
"   Nm Om Pm Qm Rm Sm Tm Ej Um oe Vm Wm  g Xm Ym Zm :m cl cl #g `m  n .n qb jj +n Dk @n Z7 #n $n %n %3 $a $9 }4 7/ 7/ 7/ G5 G5 7/ 7/ 7/ G5 G5 &9 e4 %9 %9 u6 %9 %9 %9 fj fj fj ^^ !d $a #a (^ <4 K5 K5 Fh Fh K5 K5 *h _< !g !g rl rl !g _< !g u6 u6 R6 F5 e4 F5 u6 u6 #a @8 $a !g &n K5 K5 K5 K5 K5 %9 .h 49 49 &n 0k *n Rc Rc n5 F5 <4 ]^ tb tb }4 R6 X6 X6 }4 tb tb tb tb tb %9 %9 1b %9 %9 $3 &n 49 !g !g _< ]^ tb tb ]^ _< 49 49 $3 $3 &n *h w6 u6 %9 ej ej H5 7/ 39 A5 7/ 7/ K5 .h 49 49 !g _< &n n5 #3 Rc K5 $3 &n 49 49 !g !g 49 &n &n X6 X6 X6 X6 R6 R6 $3 n5 a( Pc Pc Fh =n j4 .h 49 u6 %9 %9 u6 -n -n ^| tb R6 R6 E5 <4 .h ;n j4 j4 .h .h .h .h K5 1b .h .h 49 !g rl [g [g rl &n n5 W6 &9 W6 K5 K5 $3 _< !g !g _< _< 49 49 *h *h 49 K5 1b H5 .h .h %9 %9 %9 K5 7/ &9 6/ 6/ 6/ ;n $3 <4 R6 X6 X6 X6 X6 Rc #3 W6 W6 W6 K5 .h _< !g !g Pc 29 7/ G7 >n u6 e4 F5 K5 K5 39 6/ 6/ 6/ ;n $3 ]^ ]^ tb tb ,n ,n ]^ tb tb t6 t6 t6 t6 tb R6 X6 F5 e4 e4 n5 Fh ni 29 (m 'n X7 P6 )n )n )n ri !n !n !n 1m ~n ~n 1m cl cl yk Xh {n ]n ^l Rf jk ^n /n Cm dm (n (n _n :n <n [n }n |n 1n 2n 3n 4n    ",
"5n 6n 7n 8n 9n 0n an bn cn dn dm en fn }m gn hn ]n qj in @m @m jm jn gk gk Am /h {| pi (h km kn xe we F5 X6 ln 7/ Qc Qc Qc Qc mn 7/ 7/ sb G5 fj nn e4 %9 %9 %9 e4 e4 fj S6 S6 mi 'l F5 F5 e4 =g on pn Gh (9 zf I_ I_ sb n5 n5 &n &n n5 n5 L5 e4 S6 S6 &9 S6 S6 nn e4 F5 X6 R6 Rc W6 we ;g )d #i #i &9 W6 W6 L5 =n L5 W6 on ;g W6 W6 &9 e4 e4 F5 nn e4 e4 e4 e4 E5 E5 qn Q6 E5 =g #i #i #i #i sb sb sb L5 L5 $3 F5 e4 e4 e4 K5 K5 K5 Qc Qc sb e4 mi F5 e4 e4 e4 Qc G5 mb mb mb ;g =g W6 rn L5 ;n n5 K5 &9 &9 #i S6 &9 &9 Rc Rc L5 L5 sb G5 W6 e4 mi F5 F5 F5 K5 K5 a( zf ,d oi sn @a Pc W6 sb K5 e4 e4 e4 tn tn T7 %9 e4 y1 y1 =g #i ve .8 oi I_ I_ I_ I_ #i #i I_ K5 L5 n5 &n rl rl &n Rc &9 #i #i U6 #i #i G5 L5 L5 L5 K5 K5 sb sb I_ G5 &9 G5 G5 sb K5 K5 L5 K5 K5 7/ 7/ 7/ .8 .8 oi #i W6 sb F5 'l 'l un e4 G5 #i #i #i =g W6 sb sb sb L5 zf +a G5 G5 e4 e4 e4 e4 a( a( @a .8 .8 oi #i W6 sb F5 'l 'l un mi F5 F5 'l 'l 'l gj 'l F5 E5 y1 8/ J0 J0 =g oi vn Z7 wn ue xn xn  i @g Ii  i  i ~n im im jb jb jb yn zn `h  m Il gm Rf Jl gn Wm An dm (n Bn Cn (n Dn En Fj Fn Gn Hn In Jn Kn    ",
"Ln Mn Nn On Pn Qn Rn cm Sn Tm Tn Un [m [m }m Vn fm gm Gi .m in im im im  i  i Fl Fl Ck gk Cl km /m Qc G5 y1 K5 ob ob ob ob ob Pc Pc Pc Pc ob W6 y1 y1 E5 E5 E5 y1 y1 f4 J0 6h Wn y1 y1 &9 G5 @a @a .8 .8 vn .8 Mi xe #i &9 K5 W6 W6 W6 &9 G5 de @9 xe 6h xe L6 ak 8/ Wn E5 e4 7/ G5 U6 xe xe xe xe U6 G5 G5 Qc @a Gh Ni ij Xn de de G5 G5 W6 f4 6h 6h ;g ;g f4 y1 y1 y1 E5 y1 #i U6 U6 U6 U6 U6 6h 6h G5 G5 7/ G5 G5 G5 G5 G5 G5 29 .8 +a .8 =g E5 E5 #3 W6 a( Pc @a Gh (9 @a hj #i G5 G5 W6 W6 G5 6h 6h 6h xe xe ;g ;g ;g we Yn Yn Xn Xn Xn ;g we we f4 f4 G5 @a .8 +a +a (m Zn @a @a @a @a Qc G5 G5 8/ 8/ 8/ 8/ 8/ ;g ;g 6h +a +a +a Z7 'n .8 U6 U6 Of Of Of xe de G5 W6 #3 n5 *n rn f4 Xn U6 U6 9( 9( xe 6h G5 &9 7/ 7/ G5 G5 U6 U6 U6 xe )d Yn we W6 Rc n5 #3 W6 W6 we ij .8 nb nb .8 @a Qc &9 K5 e4 F5 &9 9( 9( U6 U6 xe G5 G5 G5 G5 ;g `n ij Gh W6 e4 F5 E5 #3  o ob Gh 19 nb nb .8 @a Qc &9 W6 e4 F5 e4 8/ Wn y1 E5 E5 F5 F5 e4 Wn J0 6h xe 'd mb (m .o qb ^h +o @o @o dl dl dl dl  i #o $o jb jb jb jb %o Kj  m Il fe wk Vm }m }m [m (n (n (n (n &o &o *o Cn =o -o ;o >o ,o 'o )o    ",
"!o ~o {o ]o ^o /o (o _o :o :o cm Tn <o [m }m [o }o |o |o gm  m `h hm hm jb jb 1o jb im 2o gk Mj rb 3o Xn )d ve 4o 4o 4o 4o 4o 4o 4o 4o 4o 4o Qc G5 W6 a( Fh K5 W6 a( pn 6h xe mn mn 7/ mn 5o .8 +a +a +a +a +a Z7 Z7 +a mb @a @a @a @a @a 29 Mi Of Of 6o Of Of 9( T6 7/ K5 Fh @a .8 .8 Z7 Z7 Z7 Z7 nb .8 Gh Gh Gh ,d +a Z7 Z7 Z7 Of xe U6 G5 6h Of Of Mi Mi U6 V6 mn mn 7/ mn +a Z7 Z7 Z7 Z7 Z7 Z7 Z7 @i `7 hj G5 #i U6 U6 .8 .8 +a Z7 Z7 Z7 39 K5 K5 Fh K7 ni @a Gh Gh Gh @a Gk Gk Gk ni ni ni ni .8 /m Z7 nb .8 .8 oi @a @a mb +a +a Z7 Z7 #i G5 G5 Qc 0( .8 .8 .8 +a +a +a Gk .8 .8 .8 Gk Gk Gk T6 H_ /< /< T6 T6 7o 7o nb Z7 Z7 Z7 Z7 Z7 .8 .8 nb Z7 M7 8o nb 9o Gk 0o ni Pc Pc oi mb /m nb nb nb nb nb +a Gh oi .8 .8 .8 .8 .8 nb nb nb mb Gh Pc Pc ao )l bo Pc Pc @a mb .8 nb nb nb .8 +a .8 G5 7/ sb A5 d4 d4 nb nb .8 +a .8 .8 /m +a Dk co Gh pn =g W6 W6 W6 Pc @a do .8 nb nb nb .8 .8 .8 G5 Qc sb I_ T6 T6 7/ 7/ 7/ sb sb I_ de U6 b4 Z7 .a .a .o .o ue el ]h eo eo dl dl dl dl  i #o yk jb jb jb hm  m Yh gm gm |o fo Cm Cm go go ho Dm io jo ko lo mo no oo po qo ro so to uo    ",
"vo wo xo yo zo Ao Bo Co Do an Sm Eo Tn go Cm Fo Fo Fo Cm |o fe Il  m  m {n Go hm {n :m im  i dl kj *g @n rb Dk Ho Ho Ho Ho Ho Io Io fl Ho Ho Jo +a mb Ko Lo Pc 29 Fk vn Z7 Z7 Af Gk 29 Fk .8 .8 .8 .8 .8 .8 .8 -d -d +a +a .8 @a @a @a .8 .8 .8 `7 Z7 'n Hh 8o Z7 Mo vn 29 Ko @a .8 .8 nb nb Z7 nb nb .8 mb +a co Jo .a Hh 8o No ^m Z7 hj T6 b4 M7 8o Hh 'n `7  8 Fk Fk 29 Ko .8 nb nb nb nb nb nb Z7 Z7 -d kn U6 hj hj .8 nb nb 'n 'n 'n 'n 19 29 29 Oo 29 29 .8 .8 .8 29 Fk .8 .8 29 @a @a @a @a +a Z7 8o /m .8 .8 .8 .8 .8 +a /m Z7 8o M7 nb  8 29 Fk .8 .8 .8 .8 .8 .8 .8 Gk .8 .8 .8 Gk Gk .8  8 Af Af `7 8o 'n 'n Z7 Z7 Z7 Z7 Z7 Z7 Z7  8 Gk .8 nb ~l M7 8o 8o Z7 /m mb 29 29 .8 nb Z7 -d Po nb .8 /m +a .8 .8 Af Af nb nb nb nb nb nb /m mb Gh @a @a @a ob @a @a mb +a +a +a +a +a +a .8 .8 Qo Ro Ro So M7 d4 -d nb .8 .8 Af Af nb -d To .o +a .8 U6 G5 f4 zf Ko 19 (m +a +a +a +a +a .8 .8 .8 Ro Ro Gk /m `7 .8 mb mb vn Fk .8 nb .o {l Uo X7  a X7 X7 ue nj Vo Vo Wo  i  i  i 1m im cl in {n Xh hm Xo Gi gm gm gm |o Fo Yo Zo `o  p .p +p }m vk @p #p $p %p &p *p =p -p ;p >p ,p    ",
"'p )p !p ~p {p ]p ^o ^p /p Rn (p Eo Eo Zo Cm go go Cm Cm fo |o gm ]n ]n Kl Bm  m  m  m hm im  i nj _p El /h /h lj /h /h lj lj Dl Dl `m lj /h To .o .o (m :p :p |9 :p <p [p [p .o .o .o (m +a `7 .8 +h hj hj /m d4 -d +a +a .8 @a @a oi .8 .8 vn :p .o .o =d =d To .o :p 19 4o .8 .8 `7 nb nb nb nb nb .8 +a +a (m (m .o c4 d4 M7 ^m nb `7 kn =d P6 P6 =d To .o .o (m (m (m (m nb nb nb nb nb nb nb Z7 ^m ~l 8o U6 .8 .8 .8 nb -d 'n .o .o To =d =d =d To Hh Z7 ^m @i /m hj  8 .8 .8 oi @a @a oi .8 Z7 Z7 M7 8o .8 .8 .8 .8 .8 +a Z7 ^m M7 _m Hh .o .o (m }p }p .8 +h hj hj hj hj hj hj .8 .8 .8 vn (m (m (m To X7 =d =d =d ^m Z7 Z7 Z7 3o 3o .8 29 .8 nb M7 M7 Bl M7 ^m ^m ^m `7 `7 nb nb -d 8o ~l nb `7 +a +a .8 .8 Af Af nb nb nb Z7 Z7 ^m ^m ^m @i `7 oi .8 +a oi .8 -d Z7 'd 'd +a +a +a .8 vn 19 :p :p c4 _m M7 -d nb .8 .8 .8 `7 nb M7 |p {| To ^m 3o Of xe /m 1p |9 19 +a 'd +a +a +a .8 vn :p :p :p 2p .o .o *d (m (m Jo *d *d .o To ue ue ^h ^h ^h ^h ^h nj $g Vo Vo !h !h im Hm zn 3p 4p 5p Yh Fj Fj gm gm gm gm |o Fo Zo Zo `o Eo 6p 7p Vm 8p 9p 0p ap bp cp dp ep fp gp hp ip    ",
"jp kp lp mp np op pp qp rp an Tm Tn sp Eo go tp up tp go Cm Cm |o wk Rf Rf Rf gm ]n vp Xh hm wp #o  i  i  i  i dl dl dl dl dl dl dl Fl Fl zm Li xp xp yp yp Mj *g /l Li gk lj te zp (l fl Ap .a @i Bp ij ij `n M7 Hh rb rb rb +h }p `7 `7 (m (m Dk .a .a *g *g Mj fl .a .a Ho rb rb rb rb rb 'n 'n 'n 'n Cp fl Ap fl fl qb =d |p |p ^m rb .a /h re gk gk kj jj fl fl Ap Ap Ap rb @n No No rb c4 (h Dp Dp Dp =9 Z7 +a +a Z7 'n .a .a jj jj /h _p nj nj kj kj kj Cl .n =9 M7 8o Z7 }p +a +a }p }p rb Wf .n kj Bl Z7 }p }p Z7 Z7 Ap fl km Ep kj xp zp zp fl fl fl rb Bp ij ij ij /m 3o Z7 +a (m (m Jo Ho zp zp te Fp ue *g Mj Mj |p 'n Z7 3o 3o +a +a @i rb .n Kh Kh kj kj Ep Ep fk Gp Wf Wf .n |p M7 Z7 Dk Cp Nj @i 'n 'n 'n ~l 'n 'n ^m No Dp .n Ep Wf .n jj Wf Wf .n .n Ep Wf 3o 3o Z7 +a }p (m .o .o Hp te yp Ip .n |p Z7 nb rb rb rb No .n gk re gk Ep Gp @h fk .n qb qb *g Z7 3o Z7 Z7 }p (m (m .a Hp zp te jj jj fl fl Ap fl fl qb qb *g Fp Jp Kp &g &g &g nj nj  i  i 1m Lp ~h Hm [n [n Mp Np Op |o fo |o |o gm Fj Zh Pp Qp `o Eo Eo Rp Sp fn Tp 8p Up Vp Wp Xp Yp Zp Zp `p  q .q +q    ",
"@q #q $q %q &q *q =q -q ;q >q ,q 'q )q Sm Sm cm Sn sp !q ~q Dm en 6l Zl 7l wk |o gm gm  m  m Xh :m :m #o @o Fl dl dl dl dl dl Li el nj nj vi nj nj nj +o +o el {q ]h ]h {q {q ]q ]q ^q dl dl dl `m lj /h (g {| Am Li ^h yp Li /q /q (g (g  a (q _q te ^h ^q ^q ^q ^q ^q ^q ^q ^q :q yp yp /l ue X7 X7 /l te ^h :q ^q %g nj <q Ih <q Am yp ^h ^h ^h ^q ^q ^h ^h ^q ^q ^q ]q ^q nj dl lj Ih Fp Li Am Am /l /l *g *g qb qb *g ue :q :q dl dl dl  i  i  i  i  i  i Ck dl El [q Ih /h Li /l (g Hp }q |q ik :q dl Dl /l (l (l /l /l ]q ^q ik ik ^q ]q ]q ^q :q dl dl `m :q jj 1q qb /l {| {| (g Hp Hp (q ^h ^h ^q :q dl dl dl dl dl Am Li *g {| {| (g (g xp yp ^q `m Gj #g dl Ii `m dl :q `m `m dl zm P6 Li /l zp xp /l ue ue /l Am Li Li lj Dl dl $g Ij Gj dl dl `m `m dl dl Ii `m P6 {| (g wn Hp C5 ue ue ^q $g #g `m nj Am Fp X7 Li Li yp Dl dl $g $g $g dl dl `m `m dl dl dl dl ym {| {| /l Hp C5 C5 (q ^h ^q 2q dl dl :q ^q ^q ^q ^q dl dl dl sj sj Fl nj nj nj dl  i !h @m @m @m :m Xh Xh  m  m Il gm |o }o Vn }m Jl }m [m Ej 3q Sn 4q 5q 6q tp Fi Bn 7q 8q 9q 0q aq bq cq dq eq fq gq hq    ",
"iq jq kq lq mq nq oq pq qq ;q rq >q 4l 4q :o an an sq Sn 'q Xl Dn Dm vk vk }m An |o |o |o Il  m {n Xh yk jb jb cl $g  i  i  i Fl  i  i Fl Fl @o @o @o @o @o @o @o @o @o @o +o ^h ^h nj Fl Fl 1m yk im  i nj nj nj Fl nj nj zm dl dl dl ^q ^q dl dl nj nj nj nj nj nj nj nj nj $g  i  i dl dl :q el nj nj nj dl nj nj nj nj $g $g dl nj zm zm nj dl dl dl dl nj nj nj nj nj nj  i Vo  i Fl Fl nj nj nj nj nj :q tq tq `m dl dl nj nj dl Fl @o Fl Fl Fl Fl Fl Fl  i Vo  i  i Fl  i  i dl nj te te ^h nj nj Fl Fl dl dl dl dl dl nj nj nj nj nj nj nj nj nj Fl ~n cl  i dl dl dl nj Fl Fl dl ^q ^q ^q nj nj Fl Fl Fl Fl Fl Fl Fl  i  i  i dl dl ^h ^h nj nj dl dl Fl Fl Fl Fl yn Fl Fl Fl Fl Fl Fl Fl Fl dl ^q ^q dl dl dl dl dl dl dl nj nj nj Fl Fl Fl Fl Fl Fl Fl Fl Fl Fl Fl uq zm nj nj ^q ^q ^q nj nj uq uq uq Fl dl  i $g  i  i Fl Fl Fl Fl Fl Fl Fl Fl Fl Fl Fl Fl Fl Fl uq uq Fl nj dl ik ^q ^q ^h nj nj Fl Fl Fl Fl Fl Fl Fl Fl Fl  i 1m im im  i  i  i  i Gl im Hm }n Zm Zm Zm vp ]n Yh Il Zh Zh fo Cm }m }m [m Dm !q Tm an an 5q vq Sn 'q wq xq yq zq Aq Bq Cq Dq Eq Fq Gq Hq Iq    ",
"Jq Kq Lq Mq Nq Oq Pq Qq Rq Sq Tq Uq Vq Wq sq an Rn Rn Sn Xq Yq 'q Cn 5l 5l Dm go Cm fo fo gm Yh ]n Ym Zm Xh <m }n }n }n in {h Hm Zq Hm Zq kk `q  r  r  r  r sj Lj Lj Lj Lj eo  i  i  i yk im zn zn jb ~n sj sj Gl Gl Fl nj uq nj nj nj ^h ^h zm .r Fl  i  i Vo  i  i  i  i  i Gl Gl Gl Gl  i $g dl Fl nj nj Fl dl dl Fl zm uq nj uq nj Fl #g dl  i  i  i  i  i  i  i  i  i  i Gl Gl Gl jm sj Fl Fl Fl Fl Fl lj Mj Mj nj nj nj dl $g Vo Vo Lj Gl Gl Gl Gl Gl Gl Gl Vo Gl Gl sj Gl Gl  i Fl nj ^q  i  i Gl Gl  i nj nj nj nj nj  i  i  i  i  i  i  i  i Gl zn im im im Gl  i  i !h Gl Gl Fl uq vi uq Fl Gl Gl Vo Gl Gl Gl Gl Gl  i  i  i  i  i  i  i dl dl Fl sj Gl Gl Gl Gl im Gl Gl im im zn Zq sj  i dl dl dl nj nj nj nj nj dl dl nj Fl Fl  i Gl Gl Gl Gl Gl Gl Gl Gl Gl Gl Gl jm sj nj uq Li nj Fl Gl Gl Gl Gl Gl sj Fl Fl .r Fl sj Gl Gl Gl Gl Gl Gl Gl Gl Gl Gl Gl Gl im zn Zq sj _p uq nj nj nj dl $g Vo Gl Gl Gl Gl Gl Gl Gl Gl Vo Wo im zn zn Gl Gl Gl im zn Hm .m .m Yh qj Yh Yh Yh gm fo fo +r Fo @r }m An #r dm !q Tn Sn Sm 6q $r %r &r *r =r -r ;r >r ,r 'r )r !r ~r {r ]r ^r    ",
"/r (r _r :r <r [r }r |r 1r 2r 3r 4r 5r 6r Wl sq :o :o 0n :o an an *o 7r Co Wl  p go go Cm fo |o |o gm gm ]n gm 8r 8r 8r 5p 5p .m .m .m .m [n Hm im im im im im im im im im im Hl Lj Hl hm hm hm `h `h hm hm zn im im 1m  i  i  i  i  i  i dl ~n jb jb jb 9r jb hm jb jb hm hm 1o hm hm hm jb :m yk 9r @o @o uq 0r Fl Vo  i Fl  i Fl Fl  i !h yk jb :m yk jb hm hm jb jb hm hm @m im im @m im im  i  i  i  i  i Ii dl  i  i  i Fl  i yk jb jb jb jb jb jb jb jb jb jb jb jb jb Hm Hm im yn yn  i yk im im zn zn 1m  i  i 1m 1m Gl Gl Gl Gl Gl yk hm hm hm hm hm 1o hm hm jb jb Bk zn im im 1m jm 1m im im kk Zq zn im im zn zn yn yn Ki Ki yn cl cl cl  i im im im im im yn yn im zn Hm {h {h Hm Hm im yn Fl Fl  i  i  i  i  i uq Fl  i Vo Vo yk jb jb jb ar jb jb jb jb jb hm zn zn zn 1m 1m jm 1m im im zn zn im im yn yn yn im im im yn im jb hm hm jb ar jb hm jb jb hm hm <m {h Hm im 1m jm !n !n yn ~n zn hm jb jb hm hm ar jb hm hm jb in in in in @m in }n in .m 8r 8r fm fm <n <n }o fo br Cm En En En cr Fo Zo Zo Zo Tn Rp 4q dr er fr gr hr ir jr kr lr mr nr or pr qr rr sr tr    ",
"ur vr wr xr yr zr Ar Br Cr Dr Er 2r 3r Sq Fr Gr !q cm sp Sn 3q cm cm cm cm cm Tn Tn Tn Hr go Cm Cm }o +r /n |o |o |o |o |o gm Il Il Ir Kj Kj Hm Hm Hm Hm Hm Hm Hm Hm Hm Hm Hm hm hm `h Kj Kj Jr Ir Ir Ir Ir [n Hm Hm Hm zn @m im im im im Gl hm %o Kj `h %o %o Kj `h `h Kj Kj Kj Kj Kj  m qj qj qj `h hm jb jb kk im @m @m @m im im Zq im im hm Kj  m qj `h Kj Kj `h `h Kj Kj `h Kr hm Xh hm hm hm hm jb jb im im Gl im im im jb hm hm hm hm hm `h `h hm hm `h Xh Xh Xh qj qj }n [n {h Hm Hm zn Hm {h {h [n {h in Bk Bk in in zn zn Hm Hm zn <m Kj Kj Kj Kj Kj Kj Kj Kj  m  m Kj Kj Kr 1o 1o jb hm hm `h Kj Kj Kj `h `h Kj Kj `h `h Xo  m qj qj Xh Xh Xh Xh Xh Xh <m hm `h `h `h Kj Jr Lr Jr  m  m `h `h hm jb zn im im im im kk im im im im :m <m <m hm hm `h `h hm hm `h `h .m .m }n {h Hm Bk in Hm {h Mr {h Hm Hm Hm Hm in Hm Hm Hm Hm Hm <m {n {n `h `h Kj Kj `h `h Kj Kj .m Nr Nr {h Hm Bk in Hm Ki Or %o Kj `h `h Kj Kj `h `h Kj Kj `h  m  m  m  m qj Yh gm hn gm /n |o +r +r Fo Fo Yo go go go Hr Tn Zo Fo Zo Zo Pr Tn sp Tn Sn Wq Qr Rr Sr Tr Ur Vr Wr Dr Xr Yr Zr `r  s .s +s @s    ",
"#s <r $s %s yr &s *s =s -s ;s >s ,s 's )s !s ~s {s ]s ^s /s cm Tn Tn Tm Tm sp (s 4l 'q Wq ho Dn Fi _n _n _s :s |o |o |o |o Il gm ]n ]n Zm Zm }n }n }n }n }n }n .m .m .m .m .m ]n ]n Gi Il Il gm gm |o Fj Fj Il {n {n Kj [n  m zn zn zn zn zn %o Lr Lr Il Il Il gm gm gm gm gm Gi hn Mp <n gm Il Il  m  m Xh Xh <m hm hm <m <m zn zn <m {n <m Kj Jr Il Il Il Il gm gm Il Il Il gm gm Gi ]n ]n <s  m Xo hm hm Xh zn zn zn zn {h hm Xo Xo  m  m vp Gi Gi ]n ]n Gi Gi ]n ]n ]n ]n Il Il Il  m  m [n [n Ir Ir Ir Ir {n {n {n {n {n [n [n [n  m  m Gi fe gm gm gm Gi Il Il Gi fe /n hn gm Gi  m {n %o %o Fn Il Il Il gm gm gm gm gm gm gm gm gm gm Yh Yh Gi ]n  m Yh ]n ]n ]n Gi Gi gm gm |o |o |o |o fe gm  m {n {n [n zn zn <m <m hm hm %o %o hm vp ]n ]n ]n ]n Gi Gi  m  m Yh Gi |o fe Gi Il {n {n {n Kj Kj Fn Fn [n [n [n [n [n %o %o Kj Kj [n [n Ir Ir Jr Jr Jr Il Il Gi gm gm <n <n /n gm vp  m  m {n  m Il Ir Jr Jr Jr Jr Jr Il hn hn gm Mp hn gm Fj Il fm <n fo |o |o Cm Cm cr Um Dn dm Dm Dm ho ho [s }s |s go go 1s 2s Tn 3s 6r 3s Fr 4s 5s 6s 7s 8s 9s [r 0s as bs cs cs ds es fs gs    ",
"hs is js ks ls &s &s ms -s Cr ns os ps qs rs ss ts us vs Fi up Ej Tn Tn Tm Tn Wl Wl ws (s xs Xl [s Dm Dm Dm #r [o ys ys /n fm gm ]n ]n Ym Ym ]n 4p 4p 4p 4p 4p Mp Mp Mp Mp 8r gm gm gm Fj Il gm /n |o fo fo |o /n ]n Yh Yh Yh Yh Yh qj qj qj Yh Fj Fj Fj Fj gm gm gm gm gm gm gm gm }o fo fo fo |o gm ]n Ym ]n  m Yh Yh Yh Yh Yh Yh Yh Yh Yh Il Il gm gm gm gm gm gm gm Fj Fj gm gm gm gm gm ]n ]n Yh Yh Yh Wc }n }n }n Gi Gi Yh Yh Yh Il Yh gm gm gm gm gm gm /n /n /n /n |o |o /n gm gm ]n ]n ]n gm gm |o |o ]n ]n ]n ]n ]n Yh Yh Yh Yh Yh |o fo fo gm gm gm gm gm |o fo +r fo /n zs Il  m  m Yh Yh Fj Fj |o gm gm gm gm gm gm gm gm gm gm As }o }o fm fm As gm gm gm gm gm gm |o fo fo fo Vn Vn /n gm ]n Yh Yh Yh Yh Yh Yh Gi Gi Gi Gi Gi gm gm gm gm gm gm gm Il Il Fj |o Cm fo |o gm ]n Yh Yh Yh Il Il Yh ]n ]n ]n ]n ]n Yh Yh Yh Yh Yh gm gm gm gm gm gm gm /n /n /n }o Cm fo |o gm ]n ]n ]n gm gm Fj Fj gm gm gm gm gm gm <n <n /n fm gm |o }o [o :s br Hr En En Cm go [m Dm (n (n (n Xl Xl Xl xs Xl [s cn cn Ej !q ,q Bs Cs Ds Es Fs Gs Hs Is Js Ks Ls Ms Ns Os Ps Qs Rs Ss Ts Us    ",
"Vs Ws Xs Ys Zs `s `s  t .t +t Nq @t #t $t %t &t *t =t -t ;t >t ,t +p Tn Tn sp (s 't )t (s (s ws dn (n (n !t Dm Dn #r #r #r cr wk Rf Rf Rf Bm gm gm gm gm gm gm gm gm gm gm /n |o |o |o |o gm }o }o fo Cm go En }o <n gm gm fm fm fm Mp ~t ~t <n }o }o }o }o }o |o |o |o |o |o fm |o {t Cm go Cm Cm |o gm ]n ]n gm gm gm gm gm gm gm gm gm gm fe |o }o }o |o |o |o |o |o |o |o wk wk wk wk wk ^n ^n Rf Rf ^n Mp ]t ]t fm fm fm fm fm }o }o gn |o |o |o |o |o |o }o }o }o }o }o Cm fo |o gm gm gm gm gm |o fo fo gm gm gm gm gm fm fm fm fm fm fo Cm Cm |o |o |o |o |o fo Cm Cm }m Jl wk Rf Rf ^n ^n ^n gn Wm Wm wk wk wk wk wk wk wk wk wk wk }m }m }m :n :n wk wk wk wk wk wk wk Vm }m }m }m }m :n wk Rf Rf ^l gm gm gm gm gm fm fm fm fm fm /n |o |o |o |o |o |o |o |o |o fo go Cm Cm |o gm gm gm gm fm fm fm gm gm gm gm gm gm gm gm gm gm |o |o |o |o |o |o |o |o }o }o +r Cm Cm Cm |o gm fm gm gm |o |o |o |o |o |o |o |o }o Zh |o ^t }o /t }m (t Um [m Dm _t :t Um Um Dn <t +p +p (n Xl Xl _t [t _t (n }t 6r (o /o Fr |t Sq 1t 1t 2t 's 3t 4t 5t 6t 7t 8t 9t 0t at bt ct dt et ft gt    ",
"   ht it jt kt lt mt nt ot pt qt rt st tt ut vt wt xt yt zt 1n At Bt Fr Vq (o Bn Ct Ct Wl Wl (s Wl Wl Bn 6r (o Wl Dt Et Xl ~q en Vm Jl Jl Rf wk wk wk wk wk wk wk wk wk wk wk Jl Jl wk wk Rf Ft wk }m _n 7p _n Fo Cm fo |o |o |o |o |o gm gm jk gn gn gn gn gn wk wk wk wk wk ^n wk Gt }m Dm [m [m Jl Rf Bm Bm |o |o |o |o |o |o |o |o |o |o  g gn gn gn wk wk wk wk wk wk gn }m }m }m }m }m gn gn wk wk wk |o 8r gm gm |o |o }o }o }o cr cr }m }m }m }m }m }m }m }m }m }m }m Cm fo |o |o gm fm fm }o }o +r +r |o |o |o |o |o }o }o }o }o }o An [m }m wk Rf Rf Rf wk Vm }m [m }m Jl wk wk Rf ^n ^n gn gn cr cr }m }m }m }m }m cr cr cr cr cr en Dm io io [m }m }m }m }m }m wk gn cr cr cr Um }m }m }m wk Rf Xm |o |o |o |o |o }o }o }o }o }o Ht }m }m }m }m }m }m }m }m }m }m Hr Hr go Cm |o gm gm gm fm fm fm }o }o }o }o }o |o |o |o |o |o Ht }m }m }m }m }m }m }m }m cr cr En Cm Cm |o gm gm gm gm |o |o {t }m }m }m }m }m cr It }m Jt cr }m }m [m Dm Xl Wl (s (s }s Xl Xl xs Wl Wl Wl (s dn _t [t <t Kt Lt Mt Nt Ot Pt 1n Qt lr Rt St @t Tt Ut Vt Wt Xt Yt Zt `t  u .u +u @u #u $u %u    ",
"   &u *u =u -u ;u >u =s  t <r <r tt tt ,u 'u )u ls !u ~u {u ]u ^u /u Sl (u _u :u <u [u Vq Vq (o Bn Bn Bn 6r }u |u 1u 1u /p Vq Bn (n [m [m }m 2u 2u 2u 2u 2u 2u 2u 2u 2u 2u 2u It }m Jl gn ^n Rf wk }m [m Dm Fi Fo Cm Cm Cm Cm }o }o }o }o }o  g wk wk wk wk wk wk wk wk wk wk ^n gn 3u cr Um [m [m }m Rf 9l Bm |o |o |o |o |o |o |o |o |o |o Ht gn gn wk wk em wk wk gn gn gn }m [m [m }m }m Wm Wm }m wk wk |o Op }o }o }o }o Cm An An }m }m }m }m }m }m }m }m cr cr cr cr cr Cm fo |o |o gm Il Fj Zh Zh br br |o |o |o |o |o |o |o |o |o fo An [m }m wk Rf Rf Rf wk Vm _n 7p }m Jl wk gn ^n Rf Rf wk wk :n }m }m }m }m }m }m cr cr cr cr cr Um (n +p +p [m Um [m }m }m }m }m cr cr cr cr Um _n It }m wk Rf jk |o |o |o |o |o |o |o |o |o |o An }m }m }m }m }m cr }m }m }m Um Hr Hr go Cm |o <n fm fm fm gm gm fo fo fo fo fo fo fo fo fo fo cr cr cr cr cr cr cr cr cr cr cr go Cm Cm |o gm fm fm gm |o |o fo cr cr cr cr cr }m cr cr }m cr #r Um (n 4u 5u 6u rp 7u (o 4u (n ws Bn (o Vq /o 8u Kt 9u 0u au bu cu du eu oq fu gu hu iu ju ku >u lu mu nu ou pu qu ru su tu uu vu wu xu yu    ",
"   zu Au Bu Cu Du Du Eu Fu Gu Hu Iu =s Ju Ku Lu Mu Nu Ou Pu Qu Ru Su Tu Uu Vu Wu Xu Yu Zu `u Bt Bs  v Vh .v .v +v @v +v ib Co Bn 4u (n Dm Dm Dj #v $v %v #v $v &v *v *v =v *v [m [m [m Um Wm Wm Wm #r [m Dm [s -v Yo Cm En Cm }o }o }o }o }o ;v Vm Vm Jl en }m }m en _n _n }m Jl >v Jt ,v Wh Wh Wh en Ht jk ^l /n /n fo ys br En An An fo fo An cr cr }m It It }m }m #r cr (t dm dm dm dm }m }m #r An wk  g fo }o +r }o Fo Fo 'v _n [m Fi [m [m [m [m _n _n [m Um (t #r Um Um )v En En @r fo Vn [o @r -v Pr Fo }o +r }o }o Fo !v An An En #r Dm Dm en en Vm Vm :n (t Um ~q Dm [m }m }m >v >v ;v Vm _n en [m Dm ~v Dm Dm Dm Dm en {v ]v Wh Wh [m ^v /v /v (v (n Dm _v ~v Dm io Dm Dm Um Um Um [m [m }m cr gn Ht Cm fo fo Cm Cm fo fo Cm Cm fo en Dm en }m }m }m #r _n Dm Dm Dn dn dm )v En @r :v +r }o +r fo fo Fo -v Fo Fo Fo Cm Cm go Hr En [m Um Dm [m en [m Um #r cr (t Um )v Hr En En fo fo +r +r -v Fo En [m _n Dm Dm Dm io Dm Dm Dm (t Xl (s (s Co <v [v /o .v ,t <t }v |v 1v 2v 3v 4v 5v 6v 7v 8v 9v 0v av bv cv dv dv ;s ev fv gv hv iv jv kv lv mv nv ov pv qv rv sv tv uv vv wv    ",
"   xv yv zv Av Bv Bv Cv Dv Ev Fv Gv 0t Ou Hv Iv Jv Kv Gv Gu Lv gv Lv Cr Mv Nv Tu Ov Pv Qv Rv Sv Tv 4v Uv Vv Wv Xv vs ,t /o Vq (o Vq Yv <t <t >q Zv `v rq  w .w `v .w rq  w Zv (o Yv +w 6r Vq 6r @w <t +p (n ho Zo Zo go En Cm Cm Cm Cm +r }o 'h #w Um [m +p <t <t io vs $w vs $w <t +p Zv rq %w %w &w oe }m Jl gn gn cr [m 7p (n Dm Dn Um }m :t :t Dm <t <t <t }v }v }v }v Yv *w =w *w !q 1s go Yo Cm Cm fo br Fo Fo Zo Zo go -w sp Tn *w w1 6p io <t }v 8u 8u <t Dm io Yv @w }t }t <t <t ;w [m [m (n xs xs Un >w Yo Yo En ,w Dn _t dn @w ^p <t <t <t Yv Yv Vq /o (o 4u Bn Wl Dn Um Um Um (n Xl _t Dt Cn }t rp 'w rq `v )w !w ~w %w  w  w .w %w %w !w !w {w rq rq ]w rq rq )w Vq /o @w 6r (o (n (n (n [m fn _n go go go go go Zo Zo Zo Zo Zo 4l 4u +p 7p ^w /w $w 8u @w 5u 5u (w _w :w <w 7p 7p ;w [w En Zo go -w }w go up go go ,w !q |w |w dn Wl 6r <t io ,t ,t vs vs ^w ^w Dn (n (n (n (n (n (n Xl Xl :t :t Dm <t }t (o 6r Lt 1w 1w <t +p Yq 2w 2w ib [v Fr 3w 4w 5w 6w 7w 8w 9w 0w aw bw cw dw ew fw gw hw iw jw kw lw kw mw nw ow pw qw rw sw tw uw vw lw ww xw yw zw Aw Bw Cw Dw       ",
"   Ew Fw Gw Hw Iw Jw Kw Kw Lw Ev Mw Nw Ow Pw Qw Rw Jw Ow Fu `t Sw Tw Uw Gu tt Vw Ww Xw Yw Zw `w  x Rv .x +x @x #x $x $x 4v %x &x *x =x -x Sq -x *x ;x ;x Ot >x Ot >x >x >x &x ,x 'x ,x )x !x Bt <u <u Fr 8u <t 8u 8u vs /w /w /w Xv {s /w {s $w ,t Kt ~x 9u <u {x ]x ]x !x _u !x ^x Ds >x /x (x _x Ao :x /w ;w It fn fn }v <t ,t <t +p ^w /w +p Vq Fr <u <u <u Bt Bt Bt Bt Bt Pm Pm <u [u <t <t 8u {s ;w Tp <x /w Xv $w ,t ~x 8u 8u [u [x <u :u :u ]x ]x ]x !x ^x :u :u 'x 'x 'x }x <u |x 1x ,t 8u 8u +p !t io 2x 3x 4x 5x ,t .v /o 6x 7x Nt 2v Bt ]x !x !x !x :u <u <u Vq 6r <t <t 8u 8u 8u /o /o /o /o 8x 9x 0x >x -x =x 4v Sq =x =x Ot Ot ax Uv =x Sq bx cx >x >x bx -x Sq ]x :u <u Bt <u +w 8u ,t ,t /w vs 8u ,t ,t ,t 8u Kt Kt Kt Kt Kt [u dx Bt ex 0u 0u ~s fx ]x 'x gx Tq Tq bx Tq 9u 1x 1x ~x 4x hx hx It It Tp ix ^w /w /w Xv {s $w /o [x <u Bt ]x ex 0u jx 1x 9u 1x Kt ,t 8u 8u 8u 8u 8u 8u 8u 8u Lt kx [x Bt !x lx )x mx !x !x !x nx ox ox px qx Pt rx rx sx tx ux vx wx xx yx Dr Dr zx Ax #t Bx fv gv gv Cx Dx Sw `t `t Tw Tw Ex Fx Gx Hx Ix Jx Kx Lx Mx Nx Ox Px Qx Rx Sx       ",
"      Tx Ux Ev Vx tw Wx Wx Xx iv 0t Mw Ow Pw Bv Yx Rw Iv 9t Zx Ix Fv Gv `x Hu  y .y +y +y @y #y $y %y av &y *y =y =y -y ;y >y ,y ;y oq 'y )y Rv 2t Rv !y ~y Rv 2t )s )s {y {y ]y /u ^y /y 1n (y (y (y rx #x _y :y :y :y <y <y [y }y |y 1y 2y 3y 4y 5y Tv Tv 1t 6y 7y 8y 6y 9y 0y ay 9y by eu cy dy ey fy :y :y gy hy -t bx Sq #x iy iy jy ky iy At ly (y (y ly (y (y (y (y (y my ny 5s oy py py qy [y [y ry [y sy ty uy uy vy wy xy xy xy xy t) yy yy yy /y 7y 9y 9y zy Ay By 9y /u Cy Dy Ey =t Fy $x Gy Tq |x Hy Iy Jy Ky Ly xy Cy My Ny Oy Py Qy Ry Sy t) *t ly Es Tv Sq =x iy _y =x ax 4v rx 1t Cy 5y Cy 8y Ty Ty 8y {y {y +x Tr  x Uy Uy Vy Vy  x Wy Ty By /u Xy Yy Sy {y Zy Tv `y  z `y 4v ax Uv Uv gy .z <y <y Ky Ky <y +z +z @z #z wy 5y $z Sy {y %z &z t) 7y 9y By By eu *z Ty Sv Tv Tv Es =z -z ts ts ;z >z ,z 'z 'z 'z -z )z !z ~z  z Cy !s 5y Sy (y `y Ey Ey Tv 4r {z ]z 4v iy iy =x =x =x =t 4r ^z Sl /z (z ay zy /u 9y /u 9y _z ;y :z xx :z <z [z }z -y |z 1z 2z {u qt 3z 4z rt rt Br 5z 6z 7z 8z 9z Hw Ex 0z az Ex Zx bz cz bz dz ez ez fz gz hz iz jz kz lz mz nz oz pz       ",
"      qz rz sz tz uz vz Wx wz xz Nw Ev Kv Iw tz tz tz Jw Iw yz zz Ex Lw bz Az Bz mv Cz Dz Ez Fz Gz Hz Hz Iz Jz $t Kz 4z Lz Mz Nz Oz Pz Pz ev Qz Rz Sz ps Sz ps Sz Tz Uz Vz Wz Xz Yz Zz ,s `z 8s qs `z 's  A .A +A @A #A $A %A &A *A =A -A ;A >A Uz Wz Uz ps ,A 'A 'A 'A #y vr )A !A ~A .t .t {A ]A ^A 3t /A $A (A _A  x :A <A [A }A 3t |A 1A Er 2A 3A &y &y 4A 8s 8s 8s 8s 5A 6A 7A =A =A 8A $A #A 9A 0A 0A aA ;A bA cA ;A dA eA eA fA gA gA hA ps ps hA iA iA vr jA vr kA lA mA nA oA [A 0v 0v 0v 3t pA .A  A qA rA sA ;A tA uA vA oA bv wA xA xA yA zA 4A qs &y AA 0v  A  A .A *y `w Er &y 4A BA cs ps ps ,A cv CA ps Sz Sz DA Rz EA FA GA HA IA JA CA KA LA MA NA yA qs qs OA AA 0v 8s &y PA 7s QA QA RA 3t %A cA &A &A &A &A SA TA UA VA 6A WA iA iA Uz Wz XA CA YA YA ZA [r vr nA CA `A  B 0v .B aA 'r /A +B @A @A @B #B $B .B %B &B *B =B >A 4A -B ,s 4A 8s 8s AA AA 0v AA 0v PA ;B pA 0v 0v }A &y >B cs Wz iA ,A 'A CA ,B 'B 'A ,B )B !B ~B 4z 4z 4z ~B Lz Br {B ]B ^B Hu Hu Gv Gv Hu Zx Lw Ex 0z /B Fv (B (B (B (B _B bz Cv :B sz <B [B }B |B 1B 2B 3B 4B 5B 6B 7B 8B 9B 0B aB       ",
"      bB ez tz cB cB dB eB fB wz gB hB hB uz iB iB cB vz dB uz uz wz wz hB gB hB gB wz wz jB _B kB Ix /B Tw Dx lB lB mB nB oB oB pB qB rB sB tB gv uB vB wB uB xB yB fv zB tB nw nw kw AB BB CB nv DB EB mu mu mu EB FB DB nv CB GB HB pu IB GB nw nw nw HB IB JB KB LB MB KB  y mv NB OB mB kt sB PB QB RB SB TB TB lw UB BB nv mu EB VB WB XB BB BB BB nv CB CB CB CB CB HB Iz lw Zt YB CB ZB XB `B EB EB  C HB nv CB HB IB GB nw Iz nw nw GB GB GB nw nw .C KB mv mv Dz jv +C MB @C Iz #C EB EB mu XB EB DB BB DB BB $C GB nw lw mw %C lu MB LB kw mw $C BB EB &C RB RB mu DB ZB BB BB ZB CB nv DB CB CB nw gv *C zB fv ru =C 7z Cx Sw ^B `t -C ^B 5z ;C Uw Iu xB *C >C yB EB ,C EB mu mu EB mu mu &C RB FB UB DB nv GB GB 'C CB GB GB CB IB nw nw )C IB LB .C .C nu nu mv Mw Gv !C `t Lv >C ~C {C ]C ^C XB `B ZB ZB /C `B BB BB HB (C _C nw IB :C nv <C DB [C }C EB mu mu |C 1C ZB #C mu XB XB `B SB XB BB MB 2C IB nw IB nw nw vw 3C nu -C pB kt kt pB oB Nu 4C 5C 6C 7C 8C hB hB 8C wz hB Kw Wx 9C 0C zz aC aC bC bC cC dC eC fC gC gC fC hC iC yz jC kC pw lC mC nC oC pC qC rC       ",
"      sC tC uC vC wC gC gC hC cC xC }B }B hC yC wC wC wC zC zC AC hC gC fC gC dB dB uz dB eB Wx Wx Wx Wx jB zz cC BC CC gC CC cC cC BC DC EC Hw 8z 8z FC FC FC FC FC FC FC FC Tw Hw FC GC HC IC JC KC LC =C =C MC MC MC KC FC FC Tw Tw Ex Hw Sw Dx Dx Dx Dx Sw NC Ev Ev Ev Ev Bz OC PC QC cC RC SC TC GC UC VC WC Tw Tw 1B IC XC XC =C LC YC ZC GC GC GC GC KC KC KC KC KC KC Av Tw `C HC 8z GC GC GC ZC MC KC Tw FC FC Hw Hw Dx Dx Dx Dx Dx Sw  D  D NC NC Lw Fv zz Kw Kw wz Lw .D Av KC +D @D XC #D $D $D 7z Av FC 8z Tw Av Hw Dx Tw %D 9z Hw Hw Hw Hw 1B IC &D *D =D -D -D MC KC FC FC KC KC KC KC KC KC FC Av Sw GC GC GC KC Tw NC Ev Dv Ev ;D Fv Ex Ex >D Ex Tw 8z ,D KC 'D XC &D XC &D =C =C =C )D YC MC FC FC FC FC FC FC FC FC FC FC Hw Hw /B Tw NC Ev Ev Lw Ex Ix _B fB hB cz Lw Tw Sw GC !D ~D {D MC Zx NC NC .D .D NC Ex zz PC Ex ]D WC 9z ^D KC GC GC GC ZC LC LC /D /D #D ,D #D (D ,D ZC ZC _D ^B az .D Tw Tw 7z GC FC .D .D Lw :D RC 4C RC QC QC CC CC fC <D [D eC }D |D }D eC eC gC gC fC fC }B fC hC hC 1D 1D eC 2D wC zC zC 3D yC 4D 5D 6D 7D Rw 8D 9D 0D aD bD cD dD       ",
"      eD fD gD hD iD AC jD fC kD iC gC 2D 2D fC fC gC zC AC AC AC jD hC lD mD nD hC oD fC fC pD kD kD kD qD hC xC fC AC rD nD kD sD tD tD uD vD wD wD wD wD wD wD wD wD wD wD ]D xD az `C yD zD AD %D +D BD JC CD DD DD DD wD vD wD wD Ux Ux Fv Fv Fv Fv Fv Fv Fv Az Az Az Az ED FD GD bC HD ID aC JD zD KD KD _B LD MD ND IC OD OD PD AD HC `C `C `C `C `C WC 1B WC `C `C `C QD RD SD SD wD DD vD vD TD DD wD vD wD wD UD UD RD DC DC DC DC ]D Az Az Fv Az jB VD VD WD WD XD kB Fv 0z %D YD YD ZD ND zD zD Ix BC 5C `D  E 5C .E +E kB >D @E %D %D %D +E yD OD IC #E $E %E %E WC WC ]D ]D WC WC `C `C `C `C Fx wD RD DC &E DC wD wD RD *E [B =E 5C =E `D aC -E (B TD ;E >E ,E +D IC IC 'E @D JC AD 1B HC )E WC wD wD wD wD wD wD wD wD wD wD DD ]D Ix Az Az wz yz vz !E ~E WD >D {E ]E BC vD wD wD ^E ^E /E DC *E |B |B *E *E |B iC jD nD kD GD >D >D (E _E %D 1B `C %D zD 1B 1B %D AD AD AD AD 1B %D %D WC az 9C jB %D %D HC ^D `C xD jB Kw dz QC cC :E HD <E 1D jD rD wC L- L- wC [E rD AC 2D [E [E rD }E yC mD lD lD |E lD [E wC AC rD wC 2D wC 1E 2E 3E 4E 5E 6E 7E 8E 9E 0E aE bE       ",
"         cE dE hD 4D rD eE yC mD hC fC AC wC hC fE hC rD rD rD gE hE mD iE iE |E mD hC hC 2D jD }E mD mD 1D jD 2D AC AC rD hE nD jE HD tD JD kE `D `D 5C 5C 5C 5C 5C 5C 5C 5C lE (B +E +E @E @E @E mE nE ND oE 5C JD JD 5C 5C 5C 5C `D `D `D  E  E  E  E  E  E  E pE pE pE pE >D qE rE HD sE tE jE uE -E @E (B (B @E YD vE 'E nE nE MD wE xE +E yE yE yE yE %D DD yE zD mE zE `D tD `D 5C bC tD tD `D `D `D 5C aC 5C `D `D `D `D .E AE AE AE pE pE pE pE pE pE BE BE WD BE GD CE  E xE oE zD xE wE DE -E EE FE 5C uE tD GE tD HD DE zE {E >D @E MD mE oE HE ND vE vE IE OD JE _B _B _B _B _B xE xE xE xE oE oE `D `D .E AE `D 5C aC hC AC rD KE bC bC HD bC bC tD LE ME NE OE IC nE ND wE vE mE MD  E xE vD (B 5C 5C 5C 5C 5C `D `D `D `D `D xE oE  E pE pE PE oD qD BE BE VD zE QE RE tD uE uE uE SE TE TE SE pD pD pD pD pD hC rD hE UE VE BE GD GD DE DE zE xE +E @E YD @E @E mE mE mE WE WE WE XE ZD WE zE !E pE .E MD YE YE HE  E pE pE ZE jE `E `E mD mD mD hE hE rD AC AC hE  F  F hE rD hE hE hE hE }E |E iE iE .F |E hE rD rD AC AC hC wC 1E +F @F #F $F :E %F &F *F =F -F          ",
"         ;F >F ,F 'F rD )F rD mD 1D }E hE hE <E !F ~F iE hE rD {F  F mD |E |E .F |E lD mD rD rD rD hE hE hE hE hE hE ]F gE hE hE nD `E GE `D `D tD GE GE GE GE tD tD tD tD tD HD GE GE GE RE ^F /F (F _F LE GE bC bC bC tD tD RE GE GE tD tD HD GE GE GE GE HD HD HD HD HD HD YD _F (F :F sE <F [F !F }F |F CE RE _F 1F 2F 3F 4F 5F (F ^F HD tD tD tD tD tD GE tD tD tD tD tD bC HD bC bC bC HD HD HD HD bC HD HD HD HD bC tD GE GE 6F LE 6F 7F }E mD mD `E bC bC GE GE ^F /F RE (F 8F 8F 9F tD 0F aF lD  F 1D :F bF bF cF RE }F dF eF fF fF gF _F _F _F _F _F (F 8F 8F 8F /F bC bC bC bC bC GE GE GE GE 6F hF bC tD tD tD bC `E 7F }E gE )F lD HD HD !F !F 0F RE _F 1F iF jF _F (F RE dF /] ^F 0F HD tD bC bC bC bC bC bC bC bC bC bC bC bC kF lF GE HD <E mD mD 1D jE HD 0F _F (F (F RE :F mF mF nF oF oF pF HD HD HD HD HD `E `E mD 1D 1D qF 0F 0F !F !F 0F GE tD RE ^F 0F RE RE ^F ^F ^F ^F ^F ^F ^F !F }F <F !F /F rF iF OE sF GE HD mD 1D 1D mD mD }E hE hE )F hE hE hE )F hE hE hE hE )F hE hE hE rD hE |E .F iE .F |E AC hE AC zC wC AC wC 'F tF uF vF wF xF yF zF AF BF CF          ",
"         DF EF FF vC GF hE hE UE HF UE jD AC `E 0F IF |E HF hE {F  F UE JF !F iE |E mD mD )F hE  F  F KF KF  F hE gE {F {F {F KF |E ~F dF RE 0F 0F 0F !F !F !F !F !F !F !F !F }F }F }F }F dF dF ^F ^F RE ^F ^F LF MF MF MF MF NF OF PF PF QF RE RE RE RE 0F 0F !F !F !F !F ^F RF SF TF OF MF UF VF VF |E iE WF XF TF YF 3F ZF `F TF  G .G .G IF }F }F }F }F }F }F }F !F 0F 0F +G @G #G +G $G $G $G %G %G %G VF MF MF +G @G bF bF QF QF QF QF |E &G KF KF |E JF }F dF gF *G =G 8F -G -G =G dF ^F .G ~F iE ;G >G ,G 'G )G !G OF ~G dF dF ~G {G /] RF _F (F 8F ]G _F 8F /] dF dF }F iE iE iE }F }F dF ^F ^F RE RE 0F 0F 0F 0F 0F JF |E  F )F ^G HF }F }F .G .G dF .G _F RF 3F 3F /F ^F ^F }F .G .G .F iE ~F ~F ~F +G +G +G +G +G +G +G +G +G +G /F QE RE 0F |E |E KF /G IF !F RE (G 5F 8F 8F OF _G :G <G [G [G }G bF QF PF PF PF PF PF +G +G +G |G .F iE }F .G }F }F }F dF dF dF ~G ~G ~G ~G ~G ~G ~G ^F RE ^F .G LF .G  G 8F 1G 1G 2G RE !F lD 3G hE hE hE KF ;G KF KF hE rD  F )F hE  F  F KF KF hE hE hE rD VE 4G 5G 5G 6G 7G 8G cB iB tz iB 9G iD xC 0G aG bG cG dG eG fG gG hG iG          ",
"            jG kG iD lG mG |E @G nG oG VE pG  F |E <F .F /G UE 3G HF |E iE LF iE |E lD /G /G /G /G iE iE iE iE /G /G /G ;G iE qG .F rG LF !F HD RE }F .G .G .G ~G ~G ~G ~G ~G ~G .G ~G ~G ~G dF dF ~G ~G ~G ~G .G }F }F MF .G sG sG sG sG  G dF dF dF dF }F dF .G .G .G .G ~G =G =G =G  G ~G ~G .G .G tG .G WF uG ~G ~G /] gF =G uG uG WF WF .G .G .G .G .G .G .G .G .G .G .G .G tG .G .G tG tG tG tG tG tG tG }F .G .G .G vG wG wG }F sG sG tG qG qG tG tG tG WF xG WF WF ~G uG yG uG ~G dF .G ~G .G zG zG AG .G BG .G .G .G .G .G .G ~G ~G /] gF QE ^F ]G dF *G uG uG uG uG }F }F }F }F }F .G .G .G .G dF }F .G .G .G .G .G }F IF /G /G /G ~F ~G ~G ~G .G .G ~G  G dF SF RF ~G uG ~G uG uG ~G .G .G .G .G .G .G .G .G .G .G .G .G .G .G .G .G dF dF }F CG tG AG zG WF WF .G DG ~G dF /] ~G .G .G .G NF NF tG IF <F iE iE iE sG sG vG WF WF EG AG ^F dF ~G dF ~G ~G dF dF dF }F }F }F }F }F .G .G .G }F .G .G }F }F }F dF ]G ]G dF .G tG IF iE /G >G /G iE /G FG .F |E UE lD mD aF /G iE /G KF hE hE gE GF VE GG GG HG HG lD 3D IG JG KG LG MG NG JD OG PG QG IG CC RG SG TG UG             ",
"            VG WG GF XG YG /G PF ZG `G %G  H .H |E iE iE |E |E |E |E iE iE iE |E mD mD |E iE iE iE iE iE iE iE iE iE iE iE iE .F rG +H .F |E @H RE dF ~G ~G dF uG uG uG uG uG WF WF WF WF WF ~G uG xG EG uG WF .G tG tG tG zG tG tG tG tG .G ~G ~G dF dF ~G ~G uG uG uG uG uG  G 8F ]G  G uG ~G ~G ~G .G .G .G ~G ~G ~G ~G dF ~G ~G ~G ~G ~G .G .G .G .G .G .G .G .G .G .G .G .G .G .G .G .G .G .G .G .G .G .G .G .G .G .G .G }F }F .G .G .G .G .G .G .G .G .G zG WF WF zG }F .G ~G ~G ~G dF .G ~G ~G ~G ~G ~G }F }F }F }F }F .G .G .G .G .G ~G ~G dF dF ~G ~G ~G ~G ~G ~G ~G .G .G .G .G .G .G .G }F IF 0F qF }F }F }F }F }F }F }F !F }F }F .G ~G ~G ~G ~G .G dF dF dF dF dF ~G ~G ~G ~G ~G dF ~G ~G ~G ~G .G }F }F }F }F }F .G .G .G .G .G .G .G .G .G .G .G .G WF WF WF WF EG ~G dF dF ~G ~G ~G ~G ~G ~G .G #H $H $H $H .F iE tG WF WF uG %H EG ~G ~G WF uG WF ~G ~G ~G .G .G .G .G .G .G tG tG tG tG tG tG .G .G .G .G .G tG tG tG IF qF JF iE |E |E iE iE rG .F lD 1D 1D HD qF IF iE iE KF hE hE ]F &H VE IF tG iE .F |E wC wC wC 'F 'F *H =H -H ;H >H Jv ,H 'H )H !H ~H {H             ",
"               ]H ^H /H (H _H sG :H PF <H [H >G iE |E lD /G .F |E |E iE /G lD 1D hC mD iE .F iE iE iE iE iE iE iE iE iE iE iE rG rG rG .F iE qF !F }F dF dF }F dF dF dF dF dF }F }F }F }F }F }F .G .G .G .G .G iE iE iE iE iE iE iE iE iE iE }F dF ^F ^F dF dF dF dF dF dF dF dF ^F ^F dF ~G }F !F !F !F JF <F }F dF .G .G .G .G .G .G .G .G .G .G .G .G .G .G .G .G .G .G .G .G .G .G .G .G .G .G .G .G .G .G .G .G .G .G .G .G .G .G WF WF .G .G .G .G .G .G .G .G .G .G }F }F .G WF WF WF .G .G .G .G .G .G WF WF WF WF WF .G .G .G .G .G WF .G .G ~G ~G WF .G ~G ~G .G .G }F }F }F }F }F .G .G .G }F }F }F .G .G .G .G .G .G .G .G .G .G .G .G .G .G .G .G .G .G .G WF WF .G .G .G .G .G .G .G dF dF dF dF .G .G .G .G .G .G .G .G .G .G .G .G .G .G .G .G .G WF }H xG xG %H uG ~G .G ~G ~G .G .G ~G ~G tG iE iE iE iE iE iE .F rG +H xG xG xG WF }F }F .G }F }F }F }F }F ~F iE iE iE iE iE |E |E |E |E iE iE iE iE iE iE |E iE .F iE |E iE iE lD |E iE rG rG .F |E |E iE 0F |E iE iE iE KF hE hE hE GF hE qF iE |E iE lD wC wC wC wC 'F |H iD fC 6C :D Bz 1H 2H 3H 4H 5H                ",
"               6H 7H 8H 9H 0H }F aH sG KF bH GG iE |E lD /G .F |E HF |E /G mD mD mD iE .F iE iE iE iE iE iE iE |E |E |E |E |E rG rG .F iE |E |E JF iE ~F tG .F ~F CG CG ~F ~F iE iE iE iE iE iE iE iE iE .F .F iE iE iE iE iE .F .F .F .F .F .F ~F ~F CG CG .F ~F CG CG ~F CG WF }F !F !F }F }F iE iE iE iE iE iE ~F tG .F .F IF IF iE iE IF .G .G .G .G .G .G .G .G .G .G .G .G .G .G .G .G .G .G .G .G .G .G }F }F .G WF WF WF WF zG .G .G .G .G .G .G .G .G .G .G .G }F }F .F rG +H +H +H rG rG .F .F .F .F .G .G .G .G .G .G .G .G .G .G tG .F iE ~F tG .F ~F CG CG ~F CG }F }F }F }F }F .G .G .G .G .G tG .G .G .G .G .G .G .G }F }F .G iE iE iE iE iE iE iE iE .F .F .F iE IF iE iE IF tG cH .F tG IF }F .G .G .G .G .G .G .G .G .G .G .G .G .G .G .G .G .G .G xG xG xG dH }H eH cH cH tG .F .F tG tG .F iE iE iE iE iE iE .F rG fH +H gH +H rG .F iE rG iE iE iE iE iE iE iE iE iE iE iE iE iE iE iE iE iE iE iE iE iE iE iE .F iE iE iE iE |E iE .F rG .F iE iE iE iE |E |E iE iE iE KF hE hE hE rD hE |E iE |E iE lD wC wC wC wC wC AC 4D hH iH kv jH kH lH mH nH oH                ",
"                  pH qH rH sH |E =G }F KF tH ~F iE |E |E iE iE lD 1D HF iE |E iE |E |E iE iE iE iE iE iE iE iE iE iE iE iE iE rG rG .F iE /G KF KF ;G $H uH vH gH gH gH gH gH gH gH gH gH gH vH uH $H uH wH gH vH uH uH vH vH uH uH uH uH uH wH gH vH vH gH gH gH gH gH gH gH eH cH iE <F iE .F uH uH uH uH uH uH uH uH uH $H ;G ;G ;G ;G ;G .F .F .F .F .F .F .F .F .F .F .F iE iE iE iE iE LF .F .F .F .F cH cH .F .F .F ~F cH .F .F ~F ~F .F .F .F .F .F .F .F .F ~F ~F .F rG gH fH xH fH fH gH vH uH $H qG LF LF LF LF LF .F .F .F .F .F .F ;G ;G ;G ;G qG /G /G /G /G /G rG rG rG rG rG yH yH rG .F ~F iE LF LF LF LF LF LF iE <F iE iE iE ;G ;G ;G ;G ;G /G /G ;G ;G ;G ;G ;G ;G ;G ;G vH vH vH $H $H qG LF LF LF LF LF .F .F .F .F .F .F .F .F .F .F LF ~F cH yH +H +H wH fH fH fH gH #H $H $H $H $H .F cH tG .F .F .F $H vH fH zH AH fH fH fH fH fH fH vH vH vH uH uH uH uH uH uH uH uH uH uH uH uH uH uH uH uH uH uH vH vH uH $H >G /G iE .F rG rG rG +H rG .F iE lD iE iE iE iE iE KF hE hE hE rD hE |E |E |E |E lD wC wC wC wC wC BH CH DH EH FH GH HH IH JH KH LH                ",
"                  MH NH lD OH PH }F 0F QH RH FG |E |E iE >G HF lD 1D VE >G >G |E mD nD /G +H uH FG iE qG qG FG .F .F .F .F .F +H rG rG .F /G KF KF ;G vH vH fH fH fH fH fH fH zH zH zH zH zH SH SH TH $H vH vH vH $H $H $H vH vH vH vH vH vH vH vH vH vH vH vH vH vH vH vH vH uH .F iE qG .F vH vH vH vH vH vH fH vH vH SH $H $H $H $H $H $H .F .F .F .F .F .F .F .F .F .F .F iE iE iE iE iE .F .F .F .F .F uH +H rG .F iE |E .F .F .F .F .F .F .F .F .F .F .F .F .F .F .F .F vH zH zH zH zH fH zH zH vH vH uH rG rG rG rG rG .F .F .F .F .F $H $H ;G ;G $H $H vH vH vH vH vH rG rG rG rG rG +H +H +H +H +H +H +H +H +H +H +H rG rG rG rG rG $H ;G ;G ;G ;G TH SH SH $H $H $H $H $H $H $H $H zH fH vH vH $H vH +H +H +H +H +H .F .F .F .F .F .F .F .F .F .F .F iE .F gH +H +H vH fH fH UH fH SH $H $H $H $H #H }F }F ~F iE iE vH vH vH VH VH vH $H vH fH fH $H vH vH $H $H $H vH vH vH vH vH vH vH vH vH vH vH vH vH vH vH vH $H SH vH vH $H FG qG wH +H gH wH +H +H WH WH rG FG iE iE iE iE /G VE hE }E rD nD mD mD }E mD nD 3D wC 2D wC <D XH YH ZH `H  I .I +I @I #I $I                   ",
"                     %I &I *I =I nD -E -I ;I >I ;G ;G KF  F hE rD rD hE  F rD rD hE hE KF TH $H $H vH $H vH vH vH vH vH vH $H fH vH fH TH KF ;G KF $H fH vH fH fH fH fH fH fH AH AH AH AH AH VH VH VH VH VH VH vH vH vH vH vH fH fH fH fH fH fH fH fH fH fH fH vH vH vH vH vH vH vH vH vH vH vH vH vH vH vH vH vH vH vH vH $H $H $H $H $H $H uH rG rG rG rG rG rG rG rG rG rG +H +H rG rG rG rG rG rG rG rG rG +H +H +H +H +H +H +H +H +H +H .F iE iE iE qG .F rG rG rG rG uH VH VH VH VH VH ,I ,I VH VH AH zH rG rG rG rG rG .F .F .F uH rG vH vH vH vH vH vH vH vH vH fH fH +H rG +H WH +H +H +H +H +H rG rG rG rG +H .F rG rG rG rG rG rG SH VH VH VH VH VH VH VH VH VH VH vH vH vH vH vH fH fH vH vH fH fH +H +H +H +H +H +H rG .F rG rG rG rG rG rG rG rG rG rG rG rG rG fH fH fH vH vH vH vH vH vH vH vH 'I }H )I +H rG vH vH SH VH VH SH vH vH vH vH vH vH vH $H vH vH vH vH vH vH vH vH vH vH SH $H $H vH vH vH vH vH $H $H $H $H $H vH vH vH SH $H vH fH fH fH fH fH vH vH $H ;G ;G qG iE lD mD mD VE hE  F hE hE  F gC fC fC fC *E !I ~I {I ]I ^I /I (I _I :I <I                   ",
"                     [I }I |I 1I 2I aC JF 3I 4I rD rD hE hE hE AC hE &G hE AC wC hE KF KF hE hE $H fH ;G TH UH fH fH vH vH $H vH $H zH ;G KF vH vH vH $H ;G vH fH fH fH fH fH AH AH AH AH AH AH AH AH AH AH AH fH fH fH fH fH fH fH fH fH fH fH fH fH fH fH fH fH fH fH fH fH AH AH AH AH fH fH fH fH fH +H +H fH fH vH vH vH vH vH vH vH vH vH vH vH vH vH vH fH fH fH fH fH vH vH vH fH fH vH vH vH vH vH vH fH fH UH xH xH fH fH fH fH fH vH $H $H $H vH vH $H $H $H $H $H VH VH VH VH VH ,I ,I VH VH VH SH vH vH vH vH vH vH vH vH vH vH vH vH vH vH vH vH $H $H vH vH vH vH fH fH fH fH fH fH fH vH vH $H $H $H vH $H vH vH vH vH vH vH VH VH VH VH VH VH VH VH VH VH VH vH vH vH vH vH zH vH vH vH vH zH vH vH vH vH vH fH vH $H vH vH vH vH vH vH vH vH fH fH fH fH fH fH fH fH vH vH vH vH vH vH vH vH rG +H gH zH vH fH fH fH fH fH vH vH vH vH vH vH fH vH $H vH xH fH fH fH fH fH fH fH vH vH vH vH fH fH fH fH fH vH vH vH vH vH vH vH xH fH vH $H zH fH fH fH vH fH fH vH $H ;G qG qG |E |E |E HF hE hE  F )F AC |D gC hC fC *E 5I 6I 7I 8I 9I }/ 0I aI bI                      ",
"                        cI dI eI fI *E (F gI hI rD rD hE  F KF  F hE hE rD zC wC hE  F  F hE hE TH vH $H $H vH vH vH fH fH fH vH $H vH ;G ;G vH fH fH ;G KF $H fH fH fH fH fH zH zH zH zH zH zH zH zH zH zH fH fH fH fH fH fH fH fH fH fH fH fH fH fH fH fH fH fH fH fH fH fH AH AH AH zH fH fH fH +H +H +H +H fH fH fH fH fH fH fH fH fH fH fH fH fH fH fH fH fH fH fH fH vH $H $H $H vH vH vH vH vH vH vH vH fH fH fH vH vH fH fH fH fH fH vH vH vH vH zH fH vH vH vH vH vH zH zH zH zH zH zH zH zH zH zH fH vH vH vH vH vH vH vH vH vH vH $H $H $H $H $H $H $H $H $H $H $H vH xH fH vH fH fH fH vH vH $H $H $H $H vH $H vH vH vH vH vH vH zH zH zH zH zH zH zH zH zH zH zH fH fH fH fH fH vH vH vH vH vH vH fH fH fH fH fH fH vH $H vH vH vH vH vH vH vH vH fH fH fH fH fH fH fH fH vH vH vH vH vH vH vH vH zH iI fH fH fH fH fH fH fH fH gH gH gH gH gH +H +H gH gH gH +H fH fH fH fH fH fH fH fH fH fH fH fH fH fH fH fH fH fH fH fH fH UH UH fH vH fH fH fH UH xH fH fH zH vH vH ;G ;G iE iE iE iE IF iE &G hE hE  F hE }B fC eC }D jI kI lI mI nI oI pI qI rI                         ",
"                        sI tI uI +F vI wI xI &H rD rD hE )F  F KF hE rD AC zC wC wC AC rD hE KF KF ;G ;G ;G ;G $H vH zH fH fH fH $H vH $H $H fH vH vH SH ;G vH fH fH fH fH fH fH fH fH fH fH vH vH vH vH vH vH vH vH vH vH vH fH fH fH fH fH fH fH fH fH fH fH xH xH xH xH xH yI yI yI xH xH gH wH rG rG eH wH fH fH fH fH fH fH fH fH fH fH fH fH fH fH fH fH fH fH vH vH vH vH vH vH fH fH vH vH vH vH vH vH $H vH fH fH xH fH fH fH fH fH vH vH vH vH fH fH fH fH fH fH fH fH fH fH fH fH fH fH fH fH fH fH vH vH vH vH vH vH vH vH vH vH vH vH vH vH vH vH $H $H vH vH vH vH fH fH fH fH fH fH fH vH vH vH vH vH vH $H vH vH vH vH vH vH fH fH fH fH fH fH fH fH fH fH fH fH fH fH fH fH fH vH vH vH vH fH fH fH fH fH fH fH vH $H vH vH vH vH vH vH vH vH fH fH fH fH fH fH fH fH vH vH vH vH vH vH vH vH zI VH vH zH fH vH vH vH vH vH +H +H +H +H +H +H +H +H WH +H rG gH gH gH gH gH gH gH fH fH fH fH vH vH vH vH vH fH fH fH fH fH AI UH vH vH fH fH vH vH vH vH vH VH SH $H $H $H iE iE iE iE }F /G ^G gE rD hE hE 1D gC BI CI DI EI FI GI HI II JI KI                            ",
"                           LI MI NI OI PI [D fC AC GF {F hE 1D nD hE gE GF zC L- L- zC AC rD  F  F  F hE  F ;G vH vH vH $H $H fH vH +H rG rG rG iE qG gH vH vH fH fH fH fH fH fH fH fH fH fH fH fH gH +H +H +H +H +H +H +H +H +H +H +H +H +H +H +H +H fH fH fH SH vH vH vH vH VH VH SH vH vH gH +H +H +H }H }H fH fH vH vH vH fH fH fH fH fH fH fH fH fH fH fH fH fH fH fH fH vH vH vH $H $H vH fH fH fH fH fH vH fH fH xH xH fH fH fH fH fH vH vH vH vH vH fH fH fH fH fH fH fH fH fH fH fH gH fH fH fH vH vH vH vH vH vH vH xH xH AI fH gH fH fH fH fH fH fH fH fH fH fH fH fH vH fH xH fH fH fH fH fH fH fH vH vH fH vH vH vH vH vH vH vH fH fH fH fH fH fH fH gH gH fH +H +H +H +H fH gH gH fH fH fH fH fH vH vH vH vH vH fH vH $H vH vH $H $H UH UH $H $H vH vH vH vH vH fH fH fH vH vH vH vH vH vH vH vH zI VH SH vH fH fH +H +H }H }H +H +H +H +H +H +H +H rG .F rG AI rG rG rG rG rG rG rG rG +H +H +H +H +H +H +H +H +H +H +H +H }H wH vH UH fH vH SH vH vH vH vH vH VH VH VH AH fH .F .F .F LF iE lD QI RI SI 3D 3D AC TI UI VI WI FI XI YI ZI `I  J .J                            ",
"                              +J @J #J $J Pw DE %J &J *J eE TE =J xI -J ;J dB iB iB tz iB >J >J XG lG vz lG ,J 'J )J !J !J ~J {J ]J ^J ^J /J WF .G ~G (J WH +H rG $H TH VH VH AH AH AH fH +H +H +H xG xG xG xG xG xG WF WF WF xG xG xG xG xG uG uG WF rG vH VH _J ,I ,I TH $H VH VH VH AH fH +H +H +H xG xG xG +H +H +H +H +H +H +H +H +H +H $H ;G vH vH vH vH fH fH fH vH vH vH vH vH vH vH fH fH fH fH fH :J <J <J <J <J <J <J ]J ]J ]J ]J <J {J {J {J {J {J ]J ]J ]J ]J ]J fH +H +H +H +H xG +H +H +H fH [J ~J ~J !J !J {J ]J ]J }J }J ^J <J <J <J <J <J <J <J <J <J <J <J <J <J <J <J <J {J {J |J |J |J 1J fH fH fH fH fH +H +H +H +H +H ]J ]J ]J ]J ]J }J }J ^J ^J }J ^J xG xG xG )I xG xG +H +H +H rG .F $H $H $H $H $H $H $H $H vH vH fH fH fH fH fH zH $H $H $H $H $H $H xH vH fH vH vH vH vH vH vH vH vH vH rG vH vH +H }H xG EG EG xG xG xG xG xG xG xG xG xG xG xG WF rG rG rG vH vH vH rG rG zG WF ^J ^J ^J ^J ^J ^J ^J ^J ^J /J 2J +H +H +H fH zH vH VH VH VH VH VH 3J 3J _J TH rG .F .F 4J 5J 6J 7J 8J Vx 6E BC 9J 0J aJ bJ cJ dJ eJ fJ gJ hJ iJ                               ",
"                              jJ kJ lJ mJ nJ %D KE oJ pJ hE AE kE iD qJ 1E oD rJ sJ <D IG AC tJ rD rD nD nD jD tJ uJ vJ vH wJ vH 2J xG EG xJ uG ~G ~G xG +H rG rG vH vH SH AH AH zH fH fH +H +H +H xG xG EG EG xG }H WF WF WF xG xG xG xG xG DG DG WF zG vH VH 3J VH SH vH vH SH SH SH zH +H }H }H }H EG EG xG xG }H }H }H }H }H }H }H }H }H #H vH vH fH fH fH fH vH fH fH $H rG rG rG gH gH +H +H +H +H +H fH wJ :J :J :J :J :J :J :J :J :J :J :J vH vH :J :J yJ yJ yJ yJ yJ fH +H +H +H xG xG }H +H +H wH SH zJ AJ [J BJ BJ yJ yJ 2J CJ CJ yJ yJ yJ yJ yJ yJ yJ yJ yJ yJ yJ BJ $H $H $H $H $H $H $H $H $H #H fH fH fH fH +H +H +H +H +H }H +H yJ yJ yJ yJ 2J CJ CJ CJ CJ CJ EG xG xG xG xG )I +H +H +H rG .F vH vH vH vH vH fH vH vH $H $H vH fH fH fH fH fH vH vH vH vH vH rG +H rG +H gH wH gH gH gH gH gH rG rG rG rG zH +H }H xG EG EG WF WF WF WF WF WF xG xG xG xG xG xG eH rG rG vH vH vH rG rG zG WF CJ CJ CJ CJ CJ CJ CJ CJ DJ DJ WF zG rG rG rG uH vH SH SH SH $H SH VH 3J 3J VH qG IF iE ;G EJ FJ GJ HJ hD IJ rz JJ KJ LJ ;D MJ NJ OJ PJ QJ RJ                                  ",
"                                 SJ TJ UJ VJ WJ -E pG XJ }E aC aC &H YJ 'F ZJ *E `J fC <D wC wC AC rD hE rD rD hE KF ;G $H $H uH zG xG EG DG EG xG xG xG yH +H +H fH vH vH AH AH zH fH fH +H +H +H xG xG xG xG CJ CJ CJ CJ CJ CJ CJ CJ CJ CJ EG EG uG rG vH VH VH SH vH rG rG rG vH uH yH )I xG xG EG EG EG EG xG xG xG xG xG xG xG xG xG xG eH wH fH fH fH fH wH $H iI iI FG  K rG rG +H +H +H +H +H +H +H fH AH zH zH zH zH zH zH zH zH zH fH fH fH fH fH AI +H +H +H +H +H fH +H +H +H xG xG }H +H +H vH SH VH VH SH vH vH +H +H +H xG xG xG )I )I xG xG )I )I xG xG )I )I vH $H $H $H $H vH vH vH vH vH vH fH fH fH fH +H +H +H +H +H xG +H +H +H +H +H +H xG xG xG xG xG EG xG xG xG xG +H +H +H +H rG .F vH vH vH vH vH vH vH vH vH .K gH fH fH fH fH +K $H $H $H $H $H rG yH +H +H yH yH +H +H +H +H +H +H rG rG rG fH +H }H xG EG EG WF WF WF WF xG xG xG xG xG xG xG xG +H rG rG vH vH vH rG rG WF WF xG xG xG xG xG xG xG xG EG EG WF WF +H +H eH rG wH vH vH uH $H vH vH ,I ,I qG zG .G }F |E gE ;J @K #K vC JD $K Jv %K &K *K =K -K ;K >K ,K 'K                                  ",
"                                    )K !K LJ ~K ]D cB rD hC aC fC {K ]K KG ^K cC aC /K xC fC yC hE hE wC KG xI wC AC hE KF ;G iE tG .G ~G ~G ~G .G .G }F ~F uH rG $H $H $H $H ;G ;G ;G ;G iE .F cH .G .G .G .G tH (K (K (K (K ^J ^J ^J ^J ^J DJ EG xG +H vH vH uH rG zG uG uG zG zG WF xG EG EG EG -G -G -G DG xG xG xG xG xG xG xG xG xG xG xG +H +H +H +H +H rG rG +H +H .F _K _K :K :K :K :K :K :K :K :K <K AH AH AH AH AH AH AH AH AH AH vH vH vH fH fH AI +H +H +H +H +H <K :K :K :K [K }K }H :K _K |K |K VH VH SH vH fH +H +H +H xG xG xG EG EG EG EG EG EG EG EG EG xG gH fH vH vH vH vH fH fH fH fH fH +H +H +H +H +H +H }H xG xG xG +H +H +H +H +H +H xG xG xG xG xG [K [K [K [K [K :K :K :K :K _K  K |K |K |K |K |K 1K |K |K 2K <K <K <K <K <K <K <K <K <K <K <K <K }H WF xG WF WF xG xG xG xG xG xG xG }H rG +H +H +H }H xG EG EG [K [K [K [K [K [K [K [K [K [K [K xG +H +H +H vH fH fH +H +H }H xG xG xG xG xG xG xG xG xG xG xG xG xG xG xG xG }H +H +H rG rG .F iE iE ;G PH iE dF gF (F !F mD 3K 4D 4K 5K 6K 7K 8K 9K wB 0K aK bK cK dK eK                                     ",
"                                    fK gK hK iK `t jB WD Kw fB dB iD jK kK lK kE `D 5C cC IJ 7F }E rD AC xI xI fC hC 1D mD <H }F .G .G ~G ~G eF mK nK (K (K nK |J oK 5G 5G 5G iE iE iE iE ~F .G .G .G .G ~G ~G tH (K (K (K nK ^J ^J ^J ^J ^J ^J ^J ^J ]J ]J ]J nK pK qK rK sK qK qK qK tK uK uK uK vK vK vK uK /J /J /J /J /J /J /J /J /J /J ^J ^J ^J ^J nK nK ^J ^J ^J }J wK [K [K [K [K [K [K [K [K [K [K :K fH fH fH fH AH AH AH AH AH AH SH uH rG rG +H AI +H xG xG xG )I :K :K :K [K [K }K }K }K _K _K 1K vH vH gH +H +H +H }H xG xG xG xG xG xG xG xG xG xG xG xG xG xG +H +H rG rG vH vH vH vH vH vH vH +H +H +H +H xG xG xG xG xG xG )I +H +H +H }H xG xG xG xG xG xG [K [K [K [K [K [K [K [K [K }K |G _K _K _K _K _K _K _K _K <K :K :K :K :K :K :K :K :K :K :K :K :K uG qK xK qK yK qK qK qK qK qK qK ^J ^J ^J ^J ]J ]J }J ^J /J /J zK }K AK [K [K [K [K [K [K [K [K CJ ^J ^J ]J ]J ]J ]J ]J ^J ^J ^J xG xG xG xG EG xG xG }H +H +H WF WF xG xG WF WF xG xG WF .G }F }F ~F iE iE ~F (F BK vE YD 9C CK DK EK FK GK HK IK JK KK LK MK NK OK PK j9                                     ",
"                                       QK RK SK TK lE UK VK WK XK dB iC /K YK ZK `K uD 5C `D HD IJ fC hC }E nD jE `E  L HD RE ^F ~G uG uG uG .L /J /J +L +L /J ^J +L }J }J }J }J }J }J }J +L /J /J /J .L .L .L +L qK qK pK /J /J /J /J /J /J ^J ^J ^J }J }J /J @L #L $L vK vK %L %L vK $L &L $L vK *L *L *L vK =L %L %L =L =L $L $L uK -L sK /J +L ;L mK ;L +L /J /J /J +L qK uG TF uG EG -G DG zK EG DG DG WF +H +H +H +H fH UH vH zH UH AH uH zG 'I }H }H 'I }H EG EG EG xG xG WF dH >L xG XF xG xG xG }H }H +H }H }H }H }H }H xG xG %H %H xG +H +H +H +H +H +H +H +H +H +H }H }H }H +H +H rG gH gH fH fH wH ,L 'L 'L 'L 'L 'L .L /J /J +L xG dH xG WF xG %H EG uG EG %H uG WF xG xG xG uG xG EG EG EG xG }K WF WF WF WF WF WF WF WF zG zG WF }H }H dH dH dH }H zG zG WF xG )L rK !L rK ~L {L rK rK rK rK rK ]L {L qK ^J ^J }J +L /J /J tK DJ xG xG xG xG xG EG EG EG EG EG /J /J ^J ^J }J }J }J }J /J /J +L xG EG EG EG EG EG uG }H +H vH AG WF xG xG xG WF uG ~G .G dF .G .G .G tG tG .G ^L IE /L vE (L _L :L <L [L iw }L |L 1L 2L 3L 4L 5L 6L 7L                                        ",
"                                          8L 9L 0L aL bL cL dL eL fL (B uD uD NE gL ,E hL AE iL ]E jL ]E =E =E 5C =E QE 9F gF (F kL gF gF lL qK mL mL mL mL mL mL mL mL mK mK qK qK {L {L {L qK qK qK qK qK qK {L {L qK qK /J /J /J /J /J /J /J nL nL oL oL oL -L -L pL qL rL sL tL qL &L uL tL sL *L vL vL sL qL qL qL qL qL vK qL qL qL qL wL oL !L xL -L )L )L xL xL !L $L yL (G zL yL xJ AL AL xJ xJ AL TF CJ CJ CJ 2J 2J yJ 1J vH iI wH eH CJ BL BL CJ CJ yG DJ DJ DJ DJ BL WF .L CL xJ yL yL yG DJ CJ WF CJ DJ DJ CJ CJ DJ DJ DJ DJ DJ CJ yJ yJ yJ yJ yJ yJ yJ yJ yJ CJ CJ DJ CJ CJ CJ eH yJ yJ yJ :J yJ ^J ^J ^J ^J +L DL +L /J xK /J CJ CJ CJ WF CJ DJ DJ uG yG yG yG uG CJ CJ CJ uG yG DJ DJ yG uG .L wK lL lL ~G wK lL lL EL EL lL lL ~G wK uG DJ CJ CJ .L .L uG DJ uK sK sK $L xL xL sK sK sK sK xL FL GL xL oL nL oL oL oL oL -L xJ DJ DJ DJ DJ DJ DJ DJ DJ DJ /J uK -L oL nL nL nL nL oL oL -L uK CJ DJ DJ xJ xJ xJ uG CJ yJ BJ tG .G WF WF WF WF uG ~G dF dF dF dF .G .G }F gF HL bL IL PD JL KL LL ML %s NL OL PL QL RL SL TL UL VL                                           ",
"                                             WL XL YL ZL `L  M .M +M #E BD @M XC XC &D HC IC ND zD %D AD %D xE @E MD ND IC yD HL #M $M %M &M *M =M =M =M =M -M ;M >M ,M =M 'M )M )M ~L ~L )M )M ~L ~L rK rK rK ~L )M )M rK uK sK sK sK sK sK !M ;M ;M ;M ;M ~M ~M ~M {M {M ]M {M {M {M ^M /M (M (M (M (M (M _M (M (M (M (M (M (M (M (M (M (M :M <M ~M ~M ~M [M }M ~M |M ~M [M vK &L &L &L vK vK vK vK vK vK $L uK $L uK tK qK mK 1M 2M ]J }J +L /J /J uK uK tK rK rK sK sK uK uK rK rK &L vK 3M &L &L $L rK rK rK rK rK rK rK rK tK uK uK uK /J ^J ^J +L +L ^J ^J +L +L ^J /J uK uK uK /J /J /J ^J nK 2M |J ]J (K (K (K (K yK yK qK qK qK qK /J qK qK uK uK rK tK #L rK GL $L tK /J /J tK uK uK uK rK sK sK sK rK )M )M ~L rK sK sK rK rK sK )M rK rK sK sK rK xL )M sK rK %L <M ~M ~M 4M [M ~M ~M ~M ~M ~M {M 5M {M {M >M ;M 6M 6M 6M <M [M pL uK uK $L $L uK sK sK sK sK &L [M [M <M 6M 7M 7M 6M 6M [M [M <M /J uK $L vK vK vK uK DL ^J oK iE }F }F }F .G WF WF ~G ^F ^F RE RE .G }F HD MD 8M 9M 0M aM bM cM dM eM fM gM hM iM jM kM lM mM nM                                              ",
"                                                oM pM qM rM sM tM uM vM wM BD xM BD =C =C XC yM IC IC XC PD JC IC @D XC yM yM zM AM $/ )M )M BM |M |M |M |M CM ~M {M {M 5M CM DM DM $/ $/ DM DM GL GL &L &L uL |M ]M ]M ~M ~M ]M ]M CM CM ]M |M |M |M |M |M ]M {M 5M ]M ]M |M {M {M /M /M /M /M /M (M (M (M EM /M /M /M /M /M ]M ]M ]M ]M ]M 5M {M ]M ]M ]M ]M ]M {M /M /M {M 4M [M [M [M 4M [M [M [M [M [M [M vK *L vK FM sK ~L rK qK ;L /J /J uK rK &L &L sK GL GM GM &L &L ~M [M [M /M {M HM IM [M [M [M [M &L &L &L &L &L vK vK vK vK JM $L )L )L uK uK )L )L uK uK )L uK $L vK vK $L uK /J /J nK nK nK nK ^J /J /J /J /J yK )L uK ~L uK uK rK ~L vK vK &L vK JM qL 3M sL 6M 6M 6M [M [M [M [M [M /M {M {M [M {M {M KM [M {M {M KM KM {M /M :M :M /M /M ^M CM ]M ]M KM EM {M {M {M (M (M {M {M {M {M {M LM HM HM {M {M ~M [M [M [M /M /M {M ~M ~M {M {M 5M |M ]M ]M |M ]M MM /M [M [M [M [M [M [M /M /M ^M uK vK *L *L *L NM $L xK ^J 5G >G |E |E |E tG .G .G }F !F GE tD mF 0F HD aC 1B 'D -D OM PM QM RM SM TM UM VM WM XM YM ZM `M  N                                                 ",
"                                                   .N +N @N #N $N %N &N *N =N -N wM ;N >N ,N 'N )N !N ~N ~N {N ]N ^N !N /N (N _N :N /M ^M ~M ^M ^M ^M ^M /M IM LM LM LM <N <N [N [N [N [N [N 3M 3M 3M 3M 3M 3M /M ^M {M {M {M {M {M {M {M {M ~M ~M {M {M {M {M {M 5M |M |M |M {M {M {M {M {M {M {M {M {M KM {M <N <N <N <N <N }N }N }N }N LM LM LM LM LM |N |N 1N }N 2N 3N /M 4N 5N 6N 6N 7N 6N 6N 7N 7N 6N 6N 2N 8N 9N /M {M 5M <M 0N ;M 6M <M uL 5M ]M ]M 5M ]M ]M |N :N aN ]M bN cN dN eN eN eN cN cN cN 6N <N <N ^M ^M ^M /M /M rL rL rL rL /M /M /M /M /M /M /M /M /M /M /M /M ^M [M <M fN 7M gN gN hN iN yK yK yK yK yK jN ~L ~L ~L ~L kN BM ~M lN ^M EM EM rL EM (M /M [M mN nN nN cN oN 7N pN pN qN qN qN eN rN eN qN qN qN qN qN qN sN sN sN sN eN eN rN tN tN dN eN LM uN HM vN <N LM LM LM LM LM HM wN wN HM LM {M {M {M {M {M HM xN yN yN yN yN yN yN yN yN yN yN HM HM /M EM (M /M /M /M <N vN /M [M /M <N vN vN 2N EM zN nL AN 3G KF /G iE iE ~F !F !F HD :E BC mF cC QC QC 8z :C ,C &C BN CN DN EN FN GN HN IN JN KN LN MN                                                    ",
"                                                      NN ON Tz PN QN RN SN TN UN VN WN XN OM YN ZN `N  O vM .O +O _N @O #O $O %O %O uN &O *O IM vN =O =O vN =O :N -O =O ;O =O >O >O ,O 'O >O ,O ,O 'O )O !O !O 8N 9N :N ~O -O {O ]O ^O ]O ]O /O (O ^O ^O ^O ^O HM HM aN _O aN uN -O -O -O -O uN {O {O {O |N |N ~O wN wN =O -O :O <O -O -O =O HM -O -O -O -O -O HM ~O vN 9N (M [O 7N 6N oN oN oN bN oN oN 6N 5N 8N 8N 3N 6N {M /M /M [M CM KM :M }O IM 1N |O 1N aN uN %O 1O %O HM HM |O dN HM HM |O |O HM HM ~O =O <O =O =O <N HM MM {M MM MM <N vN vN vN vN vN vN vN vN vN vN 2O vN 3O }O /M :M 0N ;M 4O =M 5O sK sK sK sK rK -L 6O )M $L uL GL >M uL ]M {M (M 5N /M (M _M /M cN oN nN nN cN 7N pN 7O 7O pN 8O 9O wN wN |O 0O wN wN |O |O wN eN eN eN aO dN 9O aO dN dN dN aO HM HM HM vN HM HM HM HM HM HM wN bO cO dO |O |O #O #O #O #O #O %O |O |O HM HM |O |O HM HM |O HM HM HM vN eO eO eO /M /M vN 3N /M MM MM <N <N <N }O /M fO 0N gO 1! QE RE hO iO iO jO kO IC lO mO nO .D gB 8C 7z oO pO qO rO fA sO tO uO vO wO xO yO zO AO                                                       ",
"                                                         BO CO DO EO FO Kx GO HO IO JO OM VN KO LO MO LO NO NO OO PO QO QO NO RO RO SO TO UO VO WO XO XO WO XO YO XO WO ZO ZO YO XO XO XO XO WO WO XO XO XO ZO ZO WO `O WO YO `O XO XO YO XO  P .P  P .P .P +P .P  P  P @P <O XO YO YO YO XO `O YO YO YO YO XO #P #P WO $P >O #P $P %P XO XO `O `O `O XO &P &P XO ZO *P NM sL (M (M (M (M =P (M KM EM EM KM 5N bN cN 7N cN qN 7O rN qN UO -P ;P >P >P >P >P >P >P >P >P >P ,P %O 'P ZO ZO ZO )P !P !P >O >O WO XO XO XO XO `O `O !O ~P !O !O =O :O :O :O :O wN {P {P wN {P :O ]P ^P /P (P :O vN <N /M /M ~M ~M {M KM /M {M {M {M {M {M {M {M GM _P GM {M /M 3N qN 2N 2N (M (M 7N pN 7N qN qN pN 7N qN pN qN aO :P #P WO WO #P WO #P !P <P #P :O :O :O :O :O :O wN wN wN wN wN wN wN wN :O :O :O wN %O %O %O wN [P }P ]P |P [P |P |P |P |P 1P 2P XO XO XO XO XO XO XO XO XO XO %O %O wN vN vN 2N /M /M {M /M MM vN vN <N /M /M {M ^M /M 1N 3P 4P 5P IL 6P 7P 8P 9P 0P aP bP cP dP eP fP gP XB WB XA hP iP jP kP lP mP nP oP pP qP rP                                                          ",
"                                                            sP tP uP 3A vP wP xP yP zP bP AP BP CP RN CP BP AP DP EP FP KO QO AP NO NO GP TO HP IP +P  P .P IP +P IP JP JP IP IP  P +P .P  P JP +P +P +P +P +P JP JP KP .P LP MP  P  P +P +P JP NP OP PP }P OP 1P NP }P NP }P +P +P +P +P +P +P +P +P +P +P +P  P .P IP IP  P IP  P  P QP +P HP HP +P RP RP SP JP HP ^O _O _O uN uN uN uN uN TP #O uN -O wN 1O tN UP aO VP WP >P XP |P YP NP PP NP NP NP OP OP [P ]P [P ]P NP +P IP IP IP IP  P  P  P  P  P ZP RP +P +P +P +P LP TP TP uN %O %O #O #O wN wN #O wN :O ^O #O %O ]P 1P `P >P WP uN |N  Q  Q .Q .Q .Q .Q .Q .Q .Q +Q +Q +Q +Q +Q @Q #Q $Q ^O uN @P PP WP ,P ^O ^O 9O >P %Q UP TO >P -P &Q WP WP PP IP  P  P IP  P IP  P .P  P IP IP }P }P }P }P }P }P }P }P }P }P [P NP NP [P }P }P }P NP NP }P }P NP 1P ]P [P NP NP NP NP NP NP *Q +P +P +P +P +P +P +P +P +P +P =Q TP %O wN :O vN <N HM HM aN |N #O #O ^O /N -Q -Q -Q ^O =Q ;Q >Q ,Q UN 'Q )Q !Q ~Q {Q ]Q ^Q /Q (Q _Q :Q <Q VB [Q zA }Q Uy |Q 1Q 2Q 3Q 4Q 5Q 6Q 7Q                                                             ",
"                                                               8Q 9Q 0Q aQ bQ cQ dQ eQ fQ gQ hQ iQ jQ kQ lQ kQ mQ nQ cP oQ FP pQ DP qQ rQ sQ 'Q 8P tQ KO uQ vQ wQ xQ wQ OO vQ yQ OO zQ vQ yQ wQ wQ aP aP BP xQ AQ yQ OO BQ AQ wQ tQ BP aP aP 8P pQ aP aP 8P BP 8P FP 8P oQ oQ aP aP aP aP aP xQ BP BP BP BP xQ aP tQ wQ 8P wQ 8P 8P BP 8P CQ DQ rQ aP oQ oQ oQ rQ AP AP EQ EQ FQ GQ UN UN GQ HQ IQ JQ `N KQ LQ rQ qQ QO MQ aP 8P NQ oQ oQ OQ rQ rQ rQ rQ rQ AP OP }P QO }P rQ AP PQ rQ rQ rQ rQ rQ rQ rQ rQ rQ QQ aP aP aP rQ DQ RQ AP SQ PQ 0M VN VN =Q +O ~N VN +O ;Q VN +O OP rQ QO TQ uM VN UQ !N wM VQ WQ wM wM XQ wM wM YQ YQ YQ YQ YQ ZQ `Q  R FQ 'Q aP aP .R +R vM vM rQ aP rQ NO 8P aP NO NO BP aP KO aP aP aP aP xQ aP xQ xQ 'Q 8P aP rQ rQ rQ rQ NO rQ rQ rQ rQ rQ NO AP AP rQ AP qQ qQ PQ NO OP NP KO PO vQ MQ oQ BP BP BP BP BP aP aP aP wQ 8P wQ aP aP aP aP rQ AP PQ ZN @R NP PP TO UP -P WP #R $R IQ VN VN VN VN VN 0M FQ %R 2B HQ mQ &R *R =R -R ;R >R ,R 'R )R !R ~R #N {R ]R ^R /R (R _R :R <R [R }R |R                                                                   ",
"                                                                     1R 2R 3R 4R 5R 6R 7R 8R 9R 0R aR bR cR iQ dR eR mQ cP fR cP zP gR bP hR fR eR iR jR kR oQ eR eR lR kR mR nR oR LO pR qR nR rR fR fR eR rR FP oQ fR sR tR uR yP vR wR tR tR tR xR yR kQ yP nQ vR nQ kQ xR fR fR fR fR fR fR fR fR fR fR nQ 8R zR nQ tR fR AR BR CR BR sR wR DR fR fR fR fR fR DR ER bP FR GR GR GR HR IR JR KR LR MR GR NR OR PR fR oR QR CP RR QR dR dR dP DR DR DR DR hR bP FR SR FR hR TR ER ER ER ER DR DR DR DR DR DR fR fR fR fR fR ER TR DR UR VR WR GO GO XR YR &C GO ZR `R ZR  S .S gR +S @S #S $S %S WN XN &S ,N *S *S WN *S *S *S *S *S *S *S =S -S ;S GR sR oR dR sR >S >S ,S sR sR sR cP cP fR cP 'S cP cP sR cP fR cP %N nQ cP fR fR %N uR ER TR ER SR bP )S DR DR DR DR DR DR ER DR !S ~S ER DR DR DR )S {S oQ sR nQ cP fR fR fR fR fR fR fR fR fR fR %N %N fR fR fR fR fR DR DR bP ]S FR ]S SR ^S /S qQ (S  O  O UN vM vM vM vM $R DQ _S HR :S <S [S }S |S |S 1S 2S 3S 4S 5S 6S 7S #B 8S 9S 0S aS bS cS dS eS fS gS                                                                      ",
"                                                                        hS iS jS kS lS mS nS oS pS qS rS sS tS uS vS wS yP yP OR xP xS OR OR yS ^Q zS AS ~Q iQ BS jQ jQ jQ ~Q jQ CS ~Q iQ iQ iQ ^Q DS ^Q iQ ES FS GS GS FS cR cR HS HS HS HS cR cR IS HS FS JS FS HS KS FS HS FS FS cR FS FS FS cR cR cR cR cR IS cR FS HS lQ KS LS FS LS KS cR cR cR cR MS ^Q FS cR cR cR FS wS NS NS vS vS NS OS PS NS uS NS QS QS uS uS PS OS PS RS PR SS yP OR OR OR OR yP OR OR yP OR yP HS HS cR cR cR cR cR cR cR cR cR cR cR cR cR cR cR HS KS IS eQ TS US US VS VS VS WS US XS VS XS pS YS #N US ZS `S ZS ZR &C mu ,C  T  T .T  T  T ,C ,C ,C ,C ,C +T @T Kx xS zR 8R #T $T $T %T US zR xP OR yP yP yP zP yR cP nQ OR FS cR FS cR HS FS &T cR HS *T IS HS HS cR &T FS cR cR cR cR cR FS gQ KS HS FS KS FS &T cR cR FS nQ nQ yR fR yP OR OR OR OR OR cR cR cR cR cR cR cR cR cR cR cR OR OR OR OR OR yP OR yR sR cP fR 'S 'S =T qQ qQ =T =T qQ 'S nQ -T ;T )R >T ,T ,T 'T )T !T 3S ~T {T ]T ^T uA /T (T _T :T <T [T }T |T 1T                                                                         ",
"                                                                           2T 3T 4T 5T 6T 7T [A &A 8T 9T ~R 0T aT 7R 7R eQ 7R 7R eQ rS bT cT dT eT aR aR DS aR DS DS fT eT DS eT aR DS bT cT cT bT cT eT gT hT 7R *T IS *T qS iT qS eQ eQ 7R qS 7R 7R qS 7R eQ eQ *T eQ 7R eQ eQ qS iT qS 7R 7R 7R 7R 7R 7R 7R 7R eQ 7R eQ HS *T eQ 7R qS qS 7R eQ eQ eQ eQ 7R qS eQ jT bT dQ kT kT kT kT kT kT lT mT $T $T nT 7R eQ qS *T qS oT pT qT pS rT rT 7R 7R 7R qS iT 7R 7R 7R 7R 7R sT iT qS qS qS 7R eQ eQ eQ 7R 7R 7R 7R 7R qS qS fT cT eT cT tT uT US #N VS vT #N XS wT xT yT wT zT zT zT zT yT yT wT AT &B BT CT `S DT DT DT `S `S `S `S `S `S ET FT GT `S HT zT zT IT zT JT KT zT JT LT LT LT MT LT MT NT OT PT eQ eQ 7R iT QT iT qS 7R iT QT iT QT iT 7R qS 7R 7R 7R qS qS qS eQ eQ eQ eQ eQ eQ eQ eQ 7R 7R qS eQ *T qS HS qS 7R eQ 7R eQ eQ eQ 7R 7R eQ eQ 7R 7R 7R 7R 7R 7R RT ST RT TT OS PS OS QS uS UT NS uS zR yP $T VT WS zP zR yP PS WT !R !R XT YT ZT `T  U .U +U @U #U $U %U &U *U =U -U ;U >U ,U 'U                                                                               ",
"                                                                                 )U !U ~U {U ]U ^U /U .x (U _U :U <U 4R [U }U }U |U |U 1U 2U 3U 3U 4U 4U 5U 2U 5U 4U 4U 5U 5U 3U 3U 6U 4U 5U 2U Zp Zp Zp Zp Zp 7U 7U 7U 8U }U |U 8U |U 9U |U |U |U |U |U |U |U 8U |U |U |U |U |U 8U 8U 8U 8U 8U 7U 7U 7U 7U 7U 8U |U 8U 8U 8U 7U 8U |U |U |U |U |U |U |U 0U 4R }U |U aU aU bU [U 4R cU dU dU cU dU eU 4R fU gU 9U cU cU hU <U cU iU jU kU kU lU |U 8U |U }U 9U }U }U }U }U }U |U |U |U |U |U |U |U |U |U |U |U |U |U 8U }U }U mU 2U 2U Zp Zp nU oU lU pU qU rU rU [U qU qU nU cU cU cU cU 4R sU tU uU uU vU wU xU xU xU xU yU yU yU yU yU yU ;B pA zU xU AU iU cU BU BU cU CU iU iU cU cU cU kU cU AU cU iU dU 8U |U |U 8U 8U |U 8U 8U |U }U 8U |U |U 8U |U |U |U |U |U |U |U |U |U 8U |U |U |U |U |U |U |U }U |U |U }U |U }U 8U 7U 8U 7U 7U 8U |U |U 8U 7U 7U 8U 8U 8U 8U 8U {T DU EU FU GU FU HU FU IU JU KU 6U LU QT MU zT NU OU sT PU QU RU SU TU UU VU WU XU YU ZU `U (z  V .V +V @V #V $V %V &V *V =V                                                                                  ",
"                                                                                    -V ;V >V ,V 'V )V !V ~V {V ]V ^V /V ^V (V (V (V _V :V <V [V }V YU |V 1V 2V 2V 3V 4V 5V 5V 6V 7V [V 6V 6V 8V 9V _U 0V 0V aV _V bV (V (V (V cV dV eV fV bV eV gV gV eV hV iV (V jV _V :V fV (V bV fV aV aV aV aV aV aV aV aV aV kV aV (V fV (V (V (V (V (V :V :V (V (V lV mV cV :V 9V nV oV :V :V (V pV (V qV pV dp rV :V sV tV hV _V uV pV vV ^V wV xV mV yV zV AV qV :V BV :V :V :V :V :V (V :V cV :V :V :V :V :V :V bV bV (V (V hV (V cV aV 8V CV CV 6V DV BV _V BV qV BV (V :V :V :V :V xV xV xV xV dp EV FV GV HV EV IV 6s JV JV JV KV JV JV JV JV JV LV MV NV OV lV gV iV gV _V vV PV dp :V rV dp hV _V (V (V _V :V cV cV (V (V (V bV hV cV (V cV hV BV _V :V BV :V :V :V :V :V :V :V (V :V :V :V :V :V BV BV BV BV BV :V 9V :V QV :V RV BV 9V tV tV :V (V fV cV hV (V (V (V (V (V (V SV TV UV VV WV 7V XV }V YV ZV `V 2V 9U 8U 8U iU fU  W 7U 9U .W +W @W #W $W %W &W *W =W IV -W ;W >W ,W 'W )W !W ~W {W ]W                                                                                        ",
"                                                                                          ^W /W (W _W :W <W [W }W |W 1W 2W 3W 3W 4W 5W 6W 6W 7W 8W 9W 8W 0W aW 9W 0W bW cW dW eW fW fW ~z ~z cW gW cW cW cW hW iW #z )z jW jW )z kW kW iW jW lW mW mW 3W 2W nW nW oW nW nW oW )z }y au [y au au au au au au au au au pW jW )z iW iW iW )z jW cW cW jW jW qW qW jW cW rW rW sW tW uW uW po vW po wW xW wW yW po po zW uW yW tW AW BW CW DW oW EW FW GW HW AW IW AW AW AW AW AW cW cW fW fW fW eW eW eW eW eW )z jW jW jW JW fW eW eW fW KW rW AW IW AW LW AW MW MW MW MW AW AW 2W 2W 2W 2W AW NW OW PW QW gW RW jW iW !z iW jW )z )z )z )z )z jW dW hW SW SW TW UW VW WW uW yW *p XW uW uW zW XW uW wW zW XW vW JW )z YW iW )z )z )z )z )z )z NW 5W AW IW IW IW MW MW MW MW AW AW AW AW AW AW MW MW MW AW MW MW vW uW wW uW uW xW wW po wW wW Om )z jW )z )z )z jW jW jW jW jW MW AW zV zV ZW yW 0V `W `W  X .X +X @X ep eV #X $X %X ep BV yW &X *X =X WW AW -X nW uy hr ;X >X ,X 'X )X !X ~X {X ]X                                                                                           ",
"                                                                                             ^X /X (X _X :X <X [X Mt }X Pm |X 1X 2X 3X 4X 5X 6X gW QW 'z 'z 'z 'z 7X 8X ;z 'z 9X ;z 5w PW 9X ,z ,z ,z 0X 0X ,z 0u aX aX 0u jx jx 0u aX jx 9u 1x 0u 0u jx 9u 9u 9u jx jx 9u 9u 1x 1x 1x 1x 1x 1x 1x 1x 1x 1x 9u 9u 1x 9u 1x 0u aX aX aX 0u jx 4w 0X 9u bX bX <u 1x 5w cX dX eX fX gX hX iX hX jX kX jX lX iX lX jX mX kX nX oX pX pX qX rX sX tX uX uX uX 3X 3X 3X 3X 3X 3X 3X 1x jx 0u aX aX aX aX 0u 0u 0u 0u vX <u |x 9u jx 'z ;z 'z ;z wX xX EW yX EW EW GW GW FW yX zX zX 3X 3X 3X zX zX zX AX 0X BX ,z 4w 1x 1x jx jx 1x 1x 1x 1x 1x 1x 4w CX DX hX lX EX FX GX HX IX lX kX JX kX KX KX |n LX lX |n |n MX NX aX aX aX aX 0u aX aX 0u 1x 1x 9u jx aX 0u aX 0u 0u 0u 0u 0u 0u aX aX aX aX 0u jx 1x 9u 1x OX pX PX PX QX pX pX pX RX SX qX ,z 9u 9u jx aX 0u :y :y :y :y :y GW EW EW HW TX UX QX oX VX WX XX zV YX ZX `X  Y .Y ZX ZX AW EW 5w 5w 5w +Y @Y #Y $Y %Y &Y *Y =Y -Y ;Y >Y ,Y 'Y                                                                                                 ",
"                                                                                                   )Y !Y ~Y {Y ]Y ^Y /Y (Y _Y :Y <Y [Y }Y |Y 1Y 2Y 3Y 4Y 4Y 5Y 6Y 7Y 8Y 9Y 0Y aY aY bY cY dY &v =v eY eY eY eY io 7p 7p 7p 7p io io io io [m 5l fY fY 5l jo 5l fY _w (v fY fY Xl Xl (n (n (n (n (n (n (n (n (n (n (n Xl Xl (n +p +p +p +p (n [m [m [m Dm Dm (n [m 7p oe oe oe Tp }m _n oe _s _s oe oe _s Tp gY hY gY gY ;w oe [m [m _n iY [m Dm 4u .p 4u (n [s (n (n (n (n (n [m io io 7p 7p io io io io io (n Xl dn (n Xl (n +p +p io io +p [m 5x ~q 7p 5x 7p 7p iY [m Fi Fi 4u 4u .p Dm Dm [s [s Dn Xl (n (n Xl Xl Xl Xl (n (n (n (n (n (n Dm #r Wm Vm Vm Fo fo Wm An An An Vm @r Vm Wm Wm gY gY _s gY gY 5x io +p +p +p +p +p +p +p +p (n Dm Dm [m io io 7p 7p 7p 7p 7p 7p 7p 7p 7p 7p 7p io [m [m [m Dm [m [m 7p iY oe _n [m [m #r [m _n [m Dm [m io 7p 7p io io io io 7p oe jY It s5 kY lY mY nY :l oY pY qY rY sY ,z tY uY vY wY xY yY Xv us )w zY AY BY CY DY EY FY GY HY IY JY                                                                                                       ",
"                                                                                                      KY LY MY NY OY PY QY RY SY TY UY VY WY XY YY YY XY ZY `Y  Z .Z +Z +Z +Z @Z @Z #Z $Z %Z &Z *Z =Z -Z -Z =Z ;Z ;Z ;Z ;Z ;Z ;Z ;Z ;Z ;Z ;Z >Z ,Z ,Z ,Z ,Z ,Z ,Z ,Z ,Z ,Z -Z 'Z 'Z 'Z 'Z 'Z 'Z 'Z 'Z 'Z 'Z 'Z 'Z 'Z 'Z 'Z 'Z 'Z 'Z 'Z 'Z 'Z *Z ;Z ;Z ;Z ;Z ;Z ;Z ;Z ;Z ;Z ;Z ;Z ;Z ;Z ;Z ;Z ;Z ;Z ;Z )Z )Z !Z ;Z ;Z ;Z ;Z ;Z ;Z ;Z ;Z ;Z ;Z =Z 'Z 'Z 'Z 'Z 'Z 'Z 'Z 'Z 'Z 'Z ;Z ;Z ;Z ;Z ;Z ;Z ;Z ;Z ;Z ;Z *Z 'Z 'Z 'Z 'Z 'Z 'Z 'Z 'Z 'Z 'Z *Z ;Z ;Z ;Z ;Z ;Z ;Z ;Z ;Z ;Z ;Z 'Z 'Z 'Z 'Z 'Z 'Z 'Z 'Z 'Z 'Z 'Z 'Z 'Z 'Z 'Z 'Z 'Z 'Z 'Z 'Z 'Z *Z ;Z ;Z ;Z ;Z *Z )Z )Z )Z )Z )Z )Z )Z )Z )Z )Z ;Z ;Z ;Z ;Z ;Z *Z 'Z 'Z 'Z 'Z 'Z 'Z 'Z 'Z 'Z 'Z *Z ;Z ;Z ;Z ;Z ;Z ;Z ;Z ;Z ;Z ;Z ;Z ;Z ;Z ;Z ;Z ;Z ;Z ;Z ;Z ;Z ;Z ;Z ;Z ;Z ;Z ;Z ;Z ;Z ;Z ;Z ;Z ;Z ;Z ;Z ;Z ;Z ;Z ;Z ;Z ;Z ;Z ;Z !Z ~Z {Z ]Z .Z ^Z /Z /Z %Z %Z (Z ZY ZY _Z :Z <Z YY [Z }Z |Z 1Z 2Z 3Z 4Z 5Z 6Z 7Z 8Z 9Z 0Z aZ bZ                                                                                                                ",
"                                                                                                            cZ dZ eZ fZ gZ hZ iZ jZ kZ lZ mZ nZ oZ pZ pZ pZ qZ rZ sZ sZ tZ uZ sZ sZ vZ wZ wZ rZ xZ xZ yZ yZ yZ xZ xZ xZ xZ xZ xZ xZ xZ xZ xZ zZ AZ AZ AZ AZ AZ AZ AZ AZ AZ AZ BZ CZ CZ CZ CZ CZ CZ CZ CZ CZ CZ CZ CZ CZ CZ CZ yZ yZ yZ yZ yZ DZ xZ xZ xZ xZ xZ xZ xZ xZ xZ xZ xZ xZ EZ FZ xZ FZ xZ xZ xZ xZ xZ FZ FZ FZ FZ FZ xZ xZ xZ xZ xZ yZ yZ yZ yZ yZ yZ yZ yZ yZ yZ yZ xZ xZ xZ xZ xZ xZ xZ xZ xZ xZ DZ CZ CZ CZ CZ CZ yZ yZ yZ yZ yZ DZ xZ xZ xZ xZ xZ xZ xZ xZ xZ xZ yZ yZ yZ yZ yZ CZ CZ CZ CZ CZ CZ CZ CZ CZ CZ CZ CZ CZ CZ CZ CZ qZ qZ qZ qZ qZ qZ FZ FZ FZ FZ FZ FZ FZ FZ FZ FZ FZ FZ FZ FZ FZ DZ yZ yZ yZ yZ yZ yZ yZ yZ yZ yZ DZ xZ xZ xZ xZ xZ xZ xZ xZ xZ xZ xZ xZ xZ xZ xZ xZ xZ xZ xZ xZ xZ xZ xZ xZ xZ xZ xZ xZ xZ xZ xZ xZ xZ xZ xZ xZ xZ xZ xZ xZ xZ yZ GZ HZ IZ JZ KZ KZ KZ KZ KZ KZ LZ MZ NZ OZ OZ PZ QZ RZ SZ TZ UZ VZ WZ XZ YZ ZZ `Z  ` .` +`                                                                                                                      ",
"                                                                                                                  @` #` $` %` &` *` =` -` ;` >` ,` '` )` !` !` ~` {` ]` ^` /` (` _` _` _` _` :` <` [` [` [` [` [` [` [` [` [` [` [` [` [` [` }` }` }` }` }` }` }` }` }` }` }` |` |` |` |` |` |` |` |` |` |` |` |` |` |` |` |` [` [` [` [` [` <` <` <` <` <` <` 1` 2` 2` 1` 1` [` 3` |` |` 3` 3` |` |` 3` 3` [` [` [` [` [` [` [` [` [` [` [` [` [` [` [` [` [` [` [` [` [` [` <` <` <` <` <` <` <` <` <` <` <` |` |` |` |` |` [` [` [` [` [` <` <` <` <` <` <` <` <` <` <` <` [` [` [` [` [` 4` |` |` |` |` |` |` |` |` |` |` |` |` |` |` |` 1` 1` 1` 1` 1` <` 5` 5` 5` 5` 5` 6` 6` 6` 6` 6` [` [` [` [` [` [` [` [` [` [` [` [` [` [` [` [` <` <` <` <` <` <` <` <` <` <` <` [` [` [` [` [` [` [` [` [` [` [` [` [` [` [` [` [` [` [` [` [` [` [` [` [` [` [` [` [` [` [` [` 7` 8` 9` 9` 0` a` a` a` a` a` 0` ^` b` c` d` c` e` f` g` h` i` j` k` l` m` n` o` p`                                                                                                                            ",
"                                                                                                                        q` r` s` t` u` v` w` x` y` y` z` z` z` z` A` B` m` C` D` E` E` E` E` F` G` H` I` H` H` H` J` J` J` J` J` J` J` J` K` K` K` K` L` L` K` K` L` L` K` K` M` M` J` J` M` M` J` J` M` M` J` J` M` M` J` J` N` N` J` J` O` O` O` O` O` O` F` P` P` P` P` Q` Q` K` R` J` S` J` R` R` J` J` J` R` R` R` R` R` J` J` J` J` J` J` J` J` N` N` J` J` N` N` J` O` O` O` O` O` O` O` O` O` O` O` O` J` M` M` J` J` N` N` J` J` O` O` O` O` O` O` O` O` O` O` O` O` N` N` J` J` N` M` J` J` M` M` J` J` M` M` J` J` M` M` J` J` M` M` M` M` M` M` T` T` M` M` T` U` V` R` W` W` R` R` R` R` R` R` J` J` N` N` J` J` N` N` J` J` O` O` O` O` O` O` O` O` O` O` O` N` J` J` J` J` J` J` J` J` J` J` J` J` J` J` J` J` J` J` J` J` J` J` J` J` J` J` J` J` J` J` J` N` X` Y` Z` ``   .. .+ .+ .@ .@ .# .$ .% .& .m` $ .C` x` * .= .- .N` ; .> ., .' .) .                                                                                                                              ",
"                                                                                                                              ! .~ .{ .] .^ ./ .( ._ .: .< ./ ./ .[ .} .| .1 .} .2 .3 .4 .4 .5 .6 .6 .5 .5 .7 .8 .8 .9 .8 .0 .8 .0 .0 .8 .0 .a .b .c .b .b .d .b .d .c .d .b .e .e .e .e .e .e .e .e .e .e .f .f .f .f .f .f .c .c .d .d .b .b .d .d .d .d .b .e .e .e .e .e .e .a .a .a .a .a .0 .0 .a .^ .^ .^ .^ .^ .^ .^ .0 .0 .0 .0 .0 .d .d .d .d .d .d .d .d .d .d .d .d .d .d .d .d .d .d .d .d .d .b .e .e .f .g .e .b .b .d .d .d .d .d .d .d .d .d .d .d .d .d .d .d .d .d .d .d .e .e .e .e .e .e .e .e .e .e .e .f .f .f .f .f .f .f .f .f .f .f .f .f .f .f .f .f .h .h .h .h .h .h .h .h .h .^ .d .d .d .d .d .d .d .b .b .b .b .b .b .b .b .b .b .b .b .d .i .a .9 .0 .0 .a .0 .0 .0 .0 .0 .0 .0 .a .j .a .9 .a .a .a .0 .0 .a .j .e .k .a .a .a .e .j .a .c .l .m .n .o .p .q .l .l .p .p .r .s .| .t .} .u .l .2 .v .v .w .x .y .z .                                                                                                                                       ",
"                                                                                                                                             A .B .C .D .E .F .G .H .I .J .K .L .M .N .O .O .P .Q .R .S .T .U .V .W .X .Y .Z .V .` . ..Y ....+..F .F .@..#..#..#..@..@..$..%..&..*..=..-..;..>..;..E .E .,..'..S .S .S .'..&..-..-..)..'..&..!..>..H .H .H .>..>..H .>..>..>..~..~..{..~..~..{..]..]..]..>..]..]..>..]..>..]..>..]..]..>..]..-..-..-..>..-..E .;..>..>..>..>..;..E .;..E .-..E .E .-..;..;..>..=..-..S .~..S .~..{..]..]..]..>..]..>..>..>..>..;..>..>..>..>..>..]..]..]..]..]..>..>..]..]..]..>..>..>..;..-..^..S .~..S .~..~..~..S .S .~..~..~..S .S .S .S .~../../../../../..!..!..$..(.._..)..)..)..)..)..)..)..*..D .D .:..D .D .<..<..<..[..[..[..<..               }..}..|..|..|..1..                                                               <..                                                                                                                                                                                                               "};
