/* XPM */
static char * signc_xpm[] = {
"100 100 4 1",
" 	c None",
".	c #ECECEC",
"+	c #EBEBEB",
"@	c #EAEAEA",
"                                                                                                    ",
"                                                                                                    ",
"                                                                                                    ",
"                                                                                                    ",
"                                        .+@  +++    .+                                              ",
"                                        .+@  +++    .+                                              ",
"                                        .+@ ++++++  .+   @+++                                       ",
"                                        .+@  +++    .+  ++   @                                      ",
"                                        .+@  +++        ++                                          ",
"                                        .+@  +++        ++++.+                                      ",
"                                        .+@  +++         +++++                                      ",
"                                        .+@  +++            ++@                                     ",
"                                        .+@   ++        .   ++                                      ",
"                                        .+@   ++++       ++++                                       ",
"                                                                                                    ",
"                                                                                                    ",
"                                                                                                    ",
"                                                                                                    ",
"                                                                                                    ",
"                                                                                                    ",
"                +++                                                                                 ",
"                +++                                                                                 ",
"                +++                                                                                 ",
"            +++..++  ++++++   ++@++++    +++..++    ++++   +++.++   ++++    +++  +++   @+++         ",
"           .++  +++      +++  +++  .++  .++  +++  +++  ++  +++    @++  ++   +++  +++  ++   @        ",
"           ++   +++       ++  ++@  @++  ++   +++  ++   .++ +++    ++   .+.  +++  +++  ++            ",
"           ++   +++   .+++++  +++  +++  ++   +++  ++++++++ +++    ++   @++  +++  +++  ++++.+        ",
"           ++   +++  ++   ++  ++@  +++  ++   +++  ++       ++@    ++   @++  +++  .++   +++++        ",
"           ++   +++  ++   ++  ++@  +++  ++   +++  ++       ++@    ++   .+.  +++  +++      ++@       ",
"           .++  +++  ++  +++  ++@  +++  .++  +++  .++   .  ++@    @++  ++   +++  +++  .   ++        ",
"            +++@.++   ++@ ++  ++@  +++   +++@++@    .++.   ++@      ++++     +++@+++   ++++         ",
"                                             @+@                                                    ",
"                                             ++                                                     ",
"                                         .+++.                                                      ",
"                                                                                                    ",
"                                                                                                    ",
"                                                                                                    ",
"                                                               ++@                                  ",
"       +++                                                     ++@                                  ",
"       +++                                                     ++@                                  ",
"      ++++++    ++++          +++..++    ++++         ++++++   ++@    ++++    ++@++++     ++++      ",
"       +++    @++  ++        .++  +++  @++  ++            +++  ++@  @++  ++   +++  .++  +++  ++     ",
"       +++    ++   .+.       ++   +++  ++   .+.            ++  ++@  ++   .+.  ++@  @++  ++   .++    ",
"       +++    ++   @++       ++   +++  ++   @++        .+++++  ++@  ++   @++  +++  +++  ++++++++    ",
"       +++    ++   @++       ++   +++  ++   @++       ++   ++  ++@  ++   @++  ++@  +++  ++          ",
"       +++    ++   .+.       ++   +++  ++   .+.       ++   ++  ++@  ++   .+.  ++@  +++  ++          ",
"        ++    @++  ++        .++  +++  @++  ++        ++  +++  ++@  @++  ++   ++@  +++  .++   .     ",
"        ++++    ++++          +++@++@    ++++          ++@ ++  ++@    ++++    ++@  +++    .++.      ",
"                                  @+@                                                               ",
"                                  ++                                                                ",
"                              .+++.                                                                 ",
"                                                                                                    ",
"                                                                                                    ",
"                                                                                                    ",
"                                                                                                    ",
"                                                                                                    ",
"                                                                                                    ",
"                                                                                                    ",
"                                                                                                    ",
"                                                                                                    ",
"                                                                                                    ",
"                                                                                                    ",
"                                                                                                    ",
"                                                                                                    ",
"                                                                                                    ",
"                                                                                                    ",
"                                                                                                    ",
"                                                                                                    ",
"                        ++                                           ++             ++              ",
"++                      ++                                  ++       ++             ++              ",
"++                      ++                                  ++       ++             ++              ",
"++                      ++                                  ++       ++                             ",
"++                      ++                                  ++       ++                             ",
"+++++++    .+++++       ++      +++     ++++@              ++++++++  ++  ++++.      ++       +++++  ",
"+++++++  +++++++++      ++     @++    .+++++++@            ++++++++  ++.+++++++     ++     ++++++++@",
"++       @+     +++     ++    +++     +++    +++            ++       ++++    +++    ++     ++     ++",
"++               ++     ++   ++@     ++       ++            ++       +++      ++    ++    @+.       ",
"++               ++     ++  ++       ++       @+            ++       +++      ++    ++     ++       ",
"++         +++++++++    +++++       ++++++++++++            ++       ++       ++    ++     ++++     ",
"++       ++++++++++@    +++++       ++++++++++++            ++       ++       ++    ++      ++++++  ",
"++       +++     ++@    ++ @++      +++                     ++       ++       ++    ++          +++.",
"++      +++      ++@    ++  +++      ++                     ++       ++       ++    ++            ++",
".+      @++      ++@    ++   +++     +++                    .+       ++       ++    ++            ++",
".++      ++    .+++@    ++    +++     +++     .@            .++      ++       ++    ++    ..     +++",
" ++++++  ++++++++++@    ++     +++    ++++++++++             ++++++  ++       ++    ++    +++++++++ ",
"  +++++   +++++  @+@    ++      .++     ++++++                +++++  ++       ++    ++      @+++.+  ",
"                                                                                                    ",
"                                                                                                    ",
"                                                                                                    ",
"                                                                                                    ",
"                                                                                                    ",
"                                                                                                    ",
"                                                                                                    ",
"                                                                                                    ",
"                                                                                                    ",
"                                                                                                    ",
"                                                                                                    ",
"                                                                                                    ",
"                                                                                                    ",
"                                                                                                    "};
