/* XPM */
static char * smith_xpm[] = {
"51 118 634 2",
"  	c None",
". 	c #4A4848",
"+ 	c #2D2B2A",
"@ 	c #131111",
"# 	c #2E2B2C",
"$ 	c #32302F",
"% 	c #170F0E",
"& 	c #231918",
"* 	c #322623",
"= 	c #362B26",
"- 	c #2E2B29",
"; 	c #31302F",
"> 	c #403732",
", 	c #8F7970",
"' 	c #AF9287",
") 	c #B9988A",
"! 	c #BA9888",
"~ 	c #9F8477",
"{ 	c #5D504B",
"] 	c #343131",
"^ 	c #463C35",
"/ 	c #AE9183",
"( 	c #BC9889",
"_ 	c #C1A292",
": 	c #C6A898",
"< 	c #C3A08F",
"[ 	c #BD9884",
"} 	c #B99888",
"| 	c #735D54",
"1 	c #41423F",
"2 	c #373332",
"3 	c #86705E",
"4 	c #BB9884",
"5 	c #C2A495",
"6 	c #CDB8A7",
"7 	c #CDB9A8",
"8 	c #CEB7A7",
"9 	c #C3A597",
"0 	c #BD9886",
"a 	c #A88975",
"b 	c #4A4538",
"c 	c #1C1816",
"d 	c #876B54",
"e 	c #BD9986",
"f 	c #CFB4A7",
"g 	c #CCB9A9",
"h 	c #CCBAA9",
"i 	c #C9B0A2",
"j 	c #BD9888",
"k 	c #9F7D68",
"l 	c #382D24",
"m 	c #534F51",
"n 	c #3E3A33",
"o 	c #846750",
"p 	c #BA9984",
"q 	c #CCB3A6",
"r 	c #CEB8AA",
"s 	c #CCB9AA",
"t 	c #CDB5A7",
"u 	c #C4A793",
"v 	c #997D64",
"w 	c #31221B",
"x 	c #535354",
"y 	c #26201B",
"z 	c #7E6755",
"A 	c #8A705F",
"B 	c #A79589",
"C 	c #BCAA9C",
"D 	c #C7B3A2",
"E 	c #C4AE9D",
"F 	c #A68C82",
"G 	c #92776B",
"H 	c #7A6051",
"I 	c #3C302B",
"J 	c #5D5049",
"K 	c #4E3F37",
"L 	c #180F0A",
"M 	c #1C1312",
"N 	c #352825",
"O 	c #AF9890",
"P 	c #6F5D56",
"Q 	c #302728",
"R 	c #1A100D",
"S 	c #291C13",
"T 	c #574A44",
"U 	c #8A6C54",
"V 	c #745845",
"W 	c #3A2219",
"X 	c #574748",
"Y 	c #63504F",
"Z 	c #BEA199",
"` 	c #8D756F",
" .	c #5E4E50",
"..	c #4D3832",
"+.	c #614837",
"@.	c #876A5D",
"#.	c #A9968C",
"$.	c #A88D75",
"%.	c #8A6A54",
"&.	c #AA8C7E",
"*.	c #A28271",
"=.	c #AD8B7B",
"-.	c #C8A89F",
";.	c #B8988C",
">.	c #A88776",
",.	c #B38E7B",
"'.	c #A38067",
").	c #AE8D80",
"!.	c #B6A08C",
"~.	c #9B785F",
"{.	c #C29F8D",
"].	c #C6A99A",
"^.	c #B59787",
"/.	c #A37E6F",
"(.	c #A38274",
"_.	c #CAAC9F",
":.	c #CAAB9C",
"<.	c #A1826D",
"[.	c #AC8C7F",
"}.	c #9D806C",
"|.	c #BD9784",
"1.	c #C2A296",
"2.	c #C6A89B",
"3.	c #C4A79B",
"4.	c #C6AA9F",
"5.	c #9A7B65",
"6.	c #A99185",
"7.	c #A28A7D",
"8.	c #B7927F",
"9.	c #C4A799",
"0.	c #B79788",
"a.	c #B58E7E",
"b.	c #B58E7B",
"c.	c #B89A89",
"d.	c #B39A88",
"e.	c #9A806B",
"f.	c #9F7F6A",
"g.	c #B4947F",
"h.	c #AE8C77",
"i.	c #AC8675",
"j.	c #AB8673",
"k.	c #AF8C74",
"l.	c #9A7F69",
"m.	c #998675",
"n.	c #7F6450",
"o.	c #A3806A",
"p.	c #AB8A78",
"q.	c #C8AA9E",
"r.	c #C6A99E",
"s.	c #A78672",
"t.	c #8A6B55",
"u.	c #98847A",
"v.	c #8B7365",
"w.	c #74553E",
"x.	c #997B6B",
"y.	c #B29387",
"z.	c #AC8A7D",
"A.	c #8E7054",
"B.	c #866550",
"C.	c #998274",
"D.	c #977761",
"E.	c #6E4F38",
"F.	c #71533B",
"G.	c #826147",
"H.	c #7E5D44",
"I.	c #A88778",
"J.	c #C1BAB0",
"K.	c #C3BAB6",
"L.	c #BCA79A",
"M.	c #987C66",
"N.	c #A07C62",
"O.	c #A7816C",
"P.	c #B5A798",
"Q.	c #CCC4C1",
"R.	c #C2C1C3",
"S.	c #8D8C90",
"T.	c #C2C2C4",
"U.	c #CBCBC8",
"V.	c #C6C1BC",
"W.	c #92857A",
"X.	c #ABA39C",
"Y.	c #CCCBC6",
"Z.	c #CBCAC7",
"`.	c #C7C6C4",
" +	c #6C6C6D",
".+	c #3B3C38",
"++	c #ABABAC",
"@+	c #C3C3C2",
"#+	c #CACBC9",
"$+	c #939494",
"%+	c #171A19",
"&+	c #2F302F",
"*+	c #B7B7B4",
"=+	c #CACAC8",
"-+	c #C9C9C8",
";+	c #838384",
">+	c #3D3E3B",
",+	c #434440",
"'+	c #40403D",
")+	c #12130E",
"!+	c #11120A",
"~+	c #A5A5A5",
"{+	c #C9C9C6",
"]+	c #1F201E",
"^+	c #858786",
"/+	c #B2B4B3",
"(+	c #C8CAC9",
"_+	c #C6C7C8",
":+	c #939394",
"<+	c #101109",
"[+	c #11120B",
"}+	c #343431",
"|+	c #575854",
"1+	c #444341",
"2+	c #1E1E1B",
"3+	c #11100B",
"4+	c #11110C",
"5+	c #12110C",
"6+	c #9B9B9A",
"7+	c #C6C8C9",
"8+	c #B6B9B8",
"9+	c #222421",
"0+	c #A8A9A9",
"a+	c #C6C7C9",
"b+	c #939393",
"c+	c #11100A",
"d+	c #12100C",
"e+	c #13130F",
"f+	c #42413F",
"g+	c #646360",
"h+	c #3A3A37",
"i+	c #90908F",
"j+	c #C6C8C8",
"k+	c #717372",
"l+	c #191B16",
"m+	c #727373",
"n+	c #7E7E7D",
"o+	c #12110A",
"p+	c #130F0C",
"q+	c #11110B",
"r+	c #2F302D",
"s+	c #4C4C4B",
"t+	c #12120E",
"u+	c #10110B",
"v+	c #11100C",
"w+	c #7D7D7C",
"x+	c #BCBDBE",
"y+	c #222322",
"z+	c #171914",
"A+	c #1F2020",
"B+	c #BFBFC1",
"C+	c #C7C7C9",
"D+	c #616161",
"E+	c #3B3B38",
"F+	c #464543",
"G+	c #5D5D5B",
"H+	c #BEC0BF",
"I+	c #9FA19E",
"J+	c #999B98",
"K+	c #909191",
"L+	c #BDBEC0",
"M+	c #C3C4C5",
"N+	c #333331",
"O+	c #12100B",
"P+	c #434340",
"Q+	c #595855",
"R+	c #111109",
"S+	c #282824",
"T+	c #C1C3C3",
"U+	c #A7A9A9",
"V+	c #171917",
"W+	c #232523",
"X+	c #323434",
"Y+	c #AFB0B2",
"Z+	c #B2B3B3",
"`+	c #13100A",
" @	c #3C3B38",
".@	c #3E3E3A",
"+@	c #10110A",
"@@	c #A8A9AA",
"#@	c #A6A7A9",
"$@	c #1C1D1E",
"%@	c #17191A",
"&@	c #161719",
"*@	c #ADAEAF",
"=@	c #939395",
"-@	c #393835",
";@	c #161511",
">@	c #11110A",
",@	c #808180",
"'@	c #A5A5A7",
")@	c #1C1C1E",
"!@	c #1C1E20",
"~@	c #1B1E1F",
"{@	c #A4A6A8",
"]@	c #555556",
"^@	c #12100A",
"/@	c #292824",
"(@	c #12110D",
"_@	c #3D3C39",
":@	c #A09F9E",
"<@	c #161718",
"[@	c #1B1D1E",
"}@	c #1A1E1D",
"|@	c #A3A5A7",
"1@	c #B5B5B6",
"2@	c #171713",
"3@	c #2C2B29",
"4@	c #40413F",
"5@	c #161715",
"6@	c #A4A4A5",
"7@	c #878686",
"8@	c #12110B",
"9@	c #121410",
"0@	c #1A1E1B",
"a@	c #171612",
"b@	c #9C9B9A",
"c@	c #363533",
"d@	c #121009",
"e@	c #656462",
"f@	c #171D1C",
"g@	c #161C19",
"h@	c #171613",
"i@	c #32312E",
"j@	c #5A5956",
"k@	c #40403F",
"l@	c #121611",
"m@	c #1B1E1D",
"n@	c #171716",
"o@	c #13120E",
"p@	c #4F4E4C",
"q@	c #10100D",
"r@	c #10120B",
"s@	c #181B1B",
"t@	c #2A2927",
"u@	c #757572",
"v@	c #11110D",
"w@	c #494947",
"x@	c #242823",
"y@	c #2F322D",
"z@	c #696967",
"A@	c #151511",
"B@	c #10100B",
"C@	c #1E201C",
"D@	c #292A27",
"E@	c #2D2C2B",
"F@	c #787876",
"G@	c #100F0B",
"H@	c #10100C",
"I@	c #222220",
"J@	c #5B5A59",
"K@	c #3B3A37",
"L@	c #23231F",
"M@	c #373735",
"N@	c #201F1D",
"O@	c #1F1E1A",
"P@	c #403F3C",
"Q@	c #181713",
"R@	c #2F2F2D",
"S@	c #343331",
"T@	c #13130D",
"U@	c #12120D",
"V@	c #908F8D",
"W@	c #32322F",
"X@	c #1A1916",
"Y@	c #1A1B16",
"Z@	c #555552",
"`@	c #454542",
" #	c #494846",
".#	c #191815",
"+#	c #4C4C4A",
"@#	c #898885",
"##	c #13120D",
"$#	c #838281",
"%#	c #2B2B28",
"&#	c #393936",
"*#	c #141611",
"=#	c #161813",
"-#	c #22211D",
";#	c #90908D",
">#	c #494845",
",#	c #908F8E",
"'#	c #2E2D2B",
")#	c #11120C",
"!#	c #292D28",
"~#	c #343733",
"{#	c #898A86",
"]#	c #474645",
"^#	c #7D7C7B",
"/#	c #A6A7A2",
"(#	c #14130E",
"_#	c #252523",
":#	c #474744",
"<#	c #151612",
"[#	c #424240",
"}#	c #90918D",
"|#	c #3B3B39",
"1#	c #181914",
"2#	c #272624",
"3#	c #72736F",
"4#	c #4E4E4B",
"5#	c #262723",
"6#	c #605F5F",
"7#	c #6C6C69",
"8#	c #676763",
"9#	c #100F0A",
"0#	c #232320",
"a#	c #1A1915",
"b#	c #171814",
"c#	c #393A36",
"d#	c #70706D",
"e#	c #10110C",
"f#	c #282724",
"g#	c #13140F",
"h#	c #5B5A57",
"i#	c #171611",
"j#	c #292926",
"k#	c #11120D",
"l#	c #121310",
"m#	c #71706D",
"n#	c #3E3F3A",
"o#	c #10100A",
"p#	c #555554",
"q#	c #52524E",
"r#	c #161512",
"s#	c #10110D",
"t#	c #0F110C",
"u#	c #292A26",
"v#	c #0F110B",
"w#	c #515250",
"x#	c #11100D",
"y#	c #14100A",
"z#	c #160F06",
"A#	c #160F08",
"B#	c #14100D",
"C#	c #62635F",
"D#	c #433D3A",
"E#	c #84726E",
"F#	c #A18C83",
"G#	c #856F65",
"H#	c #4D4135",
"I#	c #1D1D19",
"J#	c #4C473D",
"K#	c #957E71",
"L#	c #9D847A",
"M#	c #917A6F",
"N#	c #63564E",
"O#	c #5E5E5B",
"P#	c #3F3E3C",
"Q#	c #AC9894",
"R#	c #BB9D96",
"S#	c #BD9D94",
"T#	c #A38275",
"U#	c #7F6452",
"V#	c #18140B",
"W#	c #565655",
"X#	c #67574C",
"Y#	c #B19182",
"Z#	c #BBA093",
"`#	c #BCA090",
" $	c #AE998D",
".$	c #3D3C3A",
"+$	c #B99F9B",
"@$	c #BC9C93",
"#$	c #B7978D",
"$$	c #977663",
"%$	c #B5B4B3",
"&$	c #8C756A",
"*$	c #B99A8C",
"=$	c #BBA191",
"-$	c #BD9F90",
";$	c #BDA191",
">$	c #B4A297",
",$	c #1B1A17",
"'$	c #BC9C97",
")$	c #A6847A",
"!$	c #9D7C70",
"~$	c #BD9B92",
"{$	c #A07C68",
"]$	c #A39188",
"^$	c #8B7163",
"/$	c #BB9D8F",
"($	c #B39585",
"_$	c #826456",
":$	c #A98875",
"<$	c #B8A094",
"[$	c #BAAAA3",
"}$	c #BF9B94",
"|$	c #B39084",
"1$	c #B79688",
"2$	c #AD8C83",
"3$	c #906D59",
"4$	c #8E776D",
"5$	c #7E6658",
"6$	c #997F71",
"7$	c #BC9E8D",
"8$	c #B09180",
"9$	c #A5836F",
"0$	c #B59C8D",
"a$	c #656463",
"b$	c #B4A6A0",
"c$	c #A6887B",
"d$	c #AB887A",
"e$	c #AF8C7F",
"f$	c #8A6856",
"g$	c #82685A",
"h$	c #59483E",
"i$	c #664F40",
"j$	c #A18473",
"k$	c #8B7467",
"l$	c #636260",
"m$	c #8C7E72",
"n$	c #9C8477",
"o$	c #8D6E61",
"p$	c #896A5A",
"q$	c #7C706D",
"r$	c #A09893",
"s$	c #6C5C52",
"t$	c #442E20",
"u$	c #292927",
"v$	c #2F2E2B",
"w$	c #B1A29F",
"x$	c #786B65",
"y$	c #13130E",
"z$	c #777673",
"A$	c #5D5C59",
"B$	c #343532",
"C$	c #50504C",
"D$	c #1F1E1D",
"E$	c #30302C",
"F$	c #1A1914",
"G$	c #1E1D1A",
"H$	c #444442",
"I$	c #484845",
"J$	c #62615E",
"K$	c #545350",
"L$	c #70706C",
"M$	c #262623",
"N$	c #373734",
"O$	c #1E1D1B",
"P$	c #191A15",
"Q$	c #383835",
"R$	c #1D1C1A",
"S$	c #262522",
"T$	c #14130F",
"U$	c #1B1A16",
"V$	c #3F3F3E",
"W$	c #242321",
"X$	c #3F3E3B",
"Y$	c #151411",
"Z$	c #343332",
"`$	c #20201D",
" %	c #1B1B19",
".%	c #43423F",
"+%	c #393939",
"@%	c #181715",
"#%	c #595957",
"$%	c #242521",
"%%	c #8B8B8B",
"&%	c #2E2E2C",
"*%	c #444342",
"=%	c #464743",
"-%	c #3C3C3A",
";%	c #21211E",
">%	c #5B5B5A",
",%	c #4D4C4A",
"'%	c #9F9F9D",
")%	c #575754",
"!%	c #91918F",
"~%	c #575654",
"{%	c #81817F",
"]%	c #797876",
"^%	c #535350",
"/%	c #262523",
"(%	c #31312E",
"_%	c #656563",
":%	c #4F4E4B",
"<%	c #6C6B68",
"[%	c #13100C",
"}%	c #201F1C",
"|%	c #30312D",
"1%	c #141510",
"2%	c #1C1C1A",
"3%	c #14140F",
"4%	c #393836",
"5%	c #3B3A38",
"6%	c #1C1B18",
"7%	c #404040",
"8%	c #1D1C18",
"9%	c #545552",
"0%	c #1C1B19",
"a%	c #363633",
"b%	c #131410",
"c%	c #12130F",
"d%	c #0F100B",
"e%	c #666662",
"f%	c #4E4F4B",
"g%	c #0C0C07",
"h%	c #1A1A16",
"i%	c #070505",
"j%	c #130F0B",
"k%	c #575653",
"l%	c #030101",
"m%	c #020101",
"n%	c #13100B",
"o%	c #525350",
"p%	c #020100",
"q%	c #0F0E09",
"r%	c #41413F",
"s%	c #030201",
"t%	c #060403",
"u%	c #0F120C",
"v%	c #252524",
"w%	c #6B6D6A",
"x%	c #080708",
"y%	c #0A0906",
"z%	c #414341",
"A%	c #828986",
"B%	c #31302E",
"C%	c #4D4E4B",
"D%	c #131312",
"E%	c #0D0E07",
"F%	c #111209",
"G%	c #10120A",
"H%	c #3F3F3D",
"I%	c #3E3E3B",
"J%	c #737471",
"K%	c #252522",
"L%	c #585756",
"M%	c #6A6A68",
"N%	c #807F7E",
"O%	c #979695",
"P%	c #A3A3A2",
"Q%	c #21201E",
"                                                . + @ #                                               ",
"                                              $ % & * = -                                             ",
"                                            ; > , ' ) ! ~ { ]                                         ",
"                                            ^ / ( _ : < [ } | 1                                       ",
"                                          2 3 4 5 6 7 8 9 0 a b                                       ",
"                                          c d e f g h h i j k l m                                     ",
"                                          n o p q r g s t u v w x                                     ",
"                                          y z A B C D E F G H I                                       ",
"                                          J K L M N O P Q R S T                                       ",
"                                          U V W X Y Z `  ...+.@.#.                                    ",
"                                          $.%.&.*.=.-.;.>.,.'.).                                      ",
"                                          !.~.{.].^./.(._.:.<.[.                                      ",
"                                            }.|.1.2.3.2.4.: 5.6.                                      ",
"                                            7.8.9.0.a.b.c.d.e.                                        ",
"                                              f.g.h.i.j.k.l.m.                                        ",
"                                              n.o.p.q.r.s.t.u.                                        ",
"                                              v.w.x.y.z.A.B.                                          ",
"                                              C.D.E.F.G.H.I.J.                                        ",
"                                              K.L.M.N.O.P.Q.R.                                        ",
"                                            S.T.U.V.W.X.Y.Z.`. +                                      ",
"                                          .+++@+#+$+%+&+*+=+-+;+>+                                    ",
"                                    ,+'+)+!+~+{+{+$+]+^+/+(+_+:+<+[+)+}+|+                            ",
"                                1+2+3+3+4+5+6+_+7+8+9+0+a+7+a+b+c+d+3+3+3+e+f+g+                      ",
"                            h+5+3+3+3+3+3+3+i+a+j+k+l+m+a+a+a+n+o+p+3+3+3+q+3+3+r+                    ",
"                        s+t+u+3+3+3+3+3+3+v+w+a+x+y+z+A+B+a+C+D+o+p+3+3+3+3+3+3+u+E+                  ",
"                        F+q+3+3+3+3+3+3+3+3+G+_+H+I+J+K+L+a+M+N+3+O+3+3+3+3+3+3+c+P+                  ",
"                        Q+R+3+3+3+3+3+3+3+3+S+T+U+V+W+X+Y+a+Z+5+3+3+3+3+3+3+3+3+`+ @                  ",
"                        .@R+3+3+3+3+3+3+3+3++@@@#@$@%@&@*@a+=@3+3+3+3+3+3+3+3+3+`+-@                  ",
"                        ;@>@3+3+3+3+3+3+3+3+q+,@'@)@!@~@{@a+]@3+3+3+3+3+3+3+3+3+^@/@                  ",
"                        (@3+>@3+3+3+3+3+3+3+5+_@:@<@[@}@|@1@2@3+3+3+3+3+3+3+3+3+3+3@                  ",
"                        (@3+>@3+3+3+3+3+3+3+3+3+4@V+5@5@6@7@8@3+3+3+3+3+3+3+3+3+3+v+                  ",
"                        3+3+>@3+3+3+3+3+3+3+3+3+9@0@5@a@b@c@d@3+3+3+3+3+3+3+3+3+3+v+e@                ",
"                      N+3+3+3+3+3+3+3+3+3+3+3+3+p+f@g@h@i@3+>@3+3+3+3+3+3+3+3+3+>@3+j@                ",
"                      k@3+3+3+3+3+3+3+3+3+3+3+3+d+l@m@n@o@3+>@3+3+3+3+3+3+3+3+3+>@3+p@                ",
"                      q@3+3+3+3+3+3+3+3+3+3+3+3+u+r@s@&@v+3+>@3+3+3+3+3+3+3+3+3+>@3+t@                ",
"                    u@4+3+3+3+3+3+3+3+3+3+3+3+3++@u+)+v@5+3+3+3+3+3+3+3+3+3+3+3+3+3+3+                ",
"                    w@4+3+3+3+3+3+3+3+3+3+3+3+3+`+8@x@y@3+3+3+3+3+3+3+3+3+3+3+3+3+3+3+z@              ",
"                    A@B@3+3+3+3+3+3+3+3+3+3+3+3+>@u+C@D@3+3+3+3+3+3+3+3+3+3+3+3+3+3+3+E@              ",
"                  F@v+3+3+3+3+3+5+3+3+3+3+3+3+3+3+3+3+G@3+3+3+3+3+3+3+3+3+3+3+3+3+3+3+H@I@            ",
"                  J@v+3+3+3+3+3+K@3+3+3+3+3+3+3+3+3+3+3+3+3+3+3+3+3+3+3+3+L@3+3+3+3+3+4+M@            ",
"                  N@v+3+3+3+3+O@  5+3+3+3+3+3+3+3+3+3+3+3+3+3+3+3+3+3+3+3+P@Q@3+3+3+3+4+R@            ",
"                3@(@3+3+3+3+3+S@  T@3+3+3+3+3+3+3+3+3+3+3+3+3+3+3+3+3+3+3+  h+8@c+3+3+3+U@V@          ",
"                W@3+3+3+3+3+X@    Y@3+3+3+3+3+3+3+3+3+3+3+3+3+3+3+3+3+3+3+    8@c+3+3+>@c+Z@          ",
"                v+3+3+3+3+3+`@    T@3+3+3+3+3+3+3+3+3+3+3+3+3+3+3+3+3+3+3+     #3+3+3+>@c+.#          ",
"              +#4+3+3+3+3+3+@#    u+3+3+3+3+3+3+>@q+v+v+3+3+3+3+3+3+3+3+##    $#3+3+3+c+3+v+          ",
"              %#3+3+3+>@3+&#      u+3+3+3+3+3+3+c+u+*#=#3+3+3+3+3+3+3+3+-#    ;#c+3+3+3+3+3+>#        ",
"            ,#(@3+3+3+>@3+'#      )#3+3+3+3+3+3+`+3+!#~#3+3+3+3+3+3+3+3+3+    {#3+3+3+3+3+3+]#        ",
"            ^#v+3+3+3+q+3+      )+u+3+3+3+3+3+3++@u+4+4+3+3+3+3+3+3+3+3+3+    /#(#3+3+3+3+3+_#        ",
"            :#>@3+3+3+4+<#      3+R+3+3+3+3+3+3+3+3+3+3+3+3+3+3+3+3+3+3+3+)+    [#o+3+3+3+3+3+}#      ",
"            (@>@3+3+3+4+|#      3+R+3+3+3+3+3+3+3+3+3+3+3+3+3+3+3+3+3+3+3+1#      2#3+c+3+3+3+3#      ",
"          4#5+>@3+3+3+4+      (@3+R+3+3+3+3+3+3+3+3+3+3+3+3+3+3+3+3+3+3+3+5#      6#3+>@3+3+3+7#      ",
"          8#9#3+3+3+3+0#      a#3+3+3+3+3+3+3+3+3+3+3+3+3+3+3+3+3+3+3+3+3+b#        v+3+3+3+3+c#      ",
"          d#5+3+3+3+3+        3+3+3+3+3+3+3+3+3+3+3+3+3+3+3+3+3+3+3+3+3+3+e#        f#3+3+3+4+g#      ",
"          h#3+3+3+3+i#      j#3+3+3+3+3+3+3+3+3+3+3+3+3+3+3+3+3+3+3+3+3+3+k#l#      m#5+3+3+3+e#      ",
"          n#o#O++@e#p#      )+3+3+3+3+3+3+3+3+3+3+3+3+3+3+3+3+3+3+3+3+3+3+3+v+        5+c+3+u+!+q#    ",
"          r#s#t#>@v+        4+3+3+3+3+3+3+3+3+3+3+3+3+3+3+3+3+3+3+3+3+3+3+3+v+        u#v+O+^@v#w#    ",
"          x#y#z#A#B#      C#e#3+3+3+3+3+3+3+3+3+3+3+3+3+3+3+3+3+3+3+3+3+3+3+v+        D#E#F#G#H#I#    ",
"          J#K#L#M#N#      O#q+3+3+3+3+3+3+3+3+3+3+3+3+3+3+3+3+3+3+3+3+3+3+c+v+P#      Q#R#S#T#U#V#    ",
"        W#X#Y#Z#`# $       @>@3+3+3+3+3+3+3+3+3+3+3+3+3+3+3+3+3+3+3+3+3+3+R+v+.$      +$@$@$#$$$      ",
"        %$&$*$=$-$;$>$    5+>@3+3+3+3+3+3+3+3+3+3+3+3+3+3+3+3+3+3+3+3+3+3+R+3+,$      '$)$!$~${$]$    ",
"          ^$/$($_$:$<$    3+c+3+3+3+3+3+3+3+3+3+3+3+3+3+3+3+3+3+3+3+3+3+3+>@3+(@    [$}$|$1$2$3$4$    ",
"          5$6$7$8$9$0$  a$v+3+3+3+3+3+3+3+3+3+3+3+3+3+3+3+3+3+3+3+3+3+3+3+3+3+3+    b$c$d$e$f$g$      ",
"            h$i$j$k$    l$v+3+3+3+3+3+3+3+3+3+3+3+3+3+3+3+3+3+3+3+3+3+3+3+3+3+3+      m$n$o$p$q$      ",
"            r$s$t$      u$v+3+3+3+3+3+3+3+3+3+3+3+3+3+3+3+3+3+3+3+3+3+3+3+3+3+3+v$        w$x$        ",
"                        T@R+3+3+3+3+3+3+3+3+3+3+>@3+(@v+3+3+3+3+3+3+3+3+3+3+3+3+y$                    ",
"                        z$R+3+3+3+3+3+3+3+3+3+3+3+,$  ]#3+3+3+3+3+3+3+3+3+3+3+3+e#                    ",
"                        A$R+3+3+3+3+3+3+3+3+3+3+(@      3+3+3+3+3+3+3+3+3+3+3+3+B$                    ",
"                        C$R+3+3+3+3+3+3+3+3+3+3+D$      (@3+>@3+3+3+3+3+3+3+3+3+4+                    ",
"                        E$R+3+3+3+3+3+3+3+3+3+3+          3+>@3+3+3+3+3+3+3+3+3+4+                    ",
"                        F$R+3+3+3+3+3+3+3+3+3+G$          3+>@3+3+3+3+3+3+3+3+3+e#H$                  ",
"                        5+3+3+3+3+3+3+3+3+>@3+I$          v+3+3+3+3+3+3+3+3+3+3+3+0#                  ",
"                        5+3+3+3+3+3+3+3+3+R+5+J$          2+v+3+3+3+3+3+3+3+3+3+3+v+                  ",
"                      K$5+3+3+3+3+3+3+3+3+R+5+L$            v+3+3+3+3+3+3+3+3+3+3+v+                  ",
"                      M$3+3+3+3+3+3+3+3+3+c+U@              4+3+3+3+3+3+3+3+3+3+3+v+                  ",
"                      U@3+3+3+3+3+3+3+3+3+3+N$              4+3+3+3+3+3+3+3+3+3+3+v+O$                ",
"                    P$3+3+3+3+3+3+3+3+3+3+3+Q$                3+3+3+3+3+3+3+3+3+3+v+R$                ",
"                    S$3+3+3+3+3+3+3+3+3+3+T$                  5+3+3+3+3+3+3+3+3+3+v+2#                ",
"                    U$3+3+3+3+3+3+3+3+3+3+V$                  v+3+R+3+3+3+3+3+3+>@3+W$                ",
"                    v+3+3+3+3+3+3+3+3+3+(#                      3+R+3+3+3+3+3+3+>@3+G$                ",
"                    v+3+3+3+3+3+3+3+3+3+X$                      3+>@3+3+3+3+3+3+>@3+v+                ",
"                  v+c+c+3+3+3+3+3+3+3+x#                        v+3+3+3+3+3+3+3+3+3+3+                ",
"                  G@c+c+3+3+3+3+3+3+3+Y$                        v+3+3+3+3+3+3+3+3+3+3+Z$              ",
"                  G@c+c+3+3+3+3+3+3+3+`$                          3+3+3+3+3+3+3+3+3+3+ %              ",
"                .%3+3+3+3+3+3+3+3+3+e#                            +%3+3+3+3+3+3+3+3+3+@%              ",
"                #%3+3+3+3+3+3+3+3+3+$%                            %%3+3+3+3+3+3+3+3+3+&%              ",
"                *%3+3+3+3+3+3+3+3+4+=%                              M$3+3+3+3+3+3+3+3+-%              ",
"                ;%3+3+3+3+3+3+3+3+v+>%                              ,%3+>@3+3+3+3+3+3+%#              ",
"              '%v+3+3+3+3+3+3+3+3+h@                                )%v+>@3+3+3+3+3+3+t+              ",
"              !%3+3+3+3+3+3+3+3+3+~%                                  3+>@3+3+3+3+3+3+4+              ",
"              {%3+3+3+3+3+3+3+3+v+]%                                  r#c+3+3+3+3+3+3+B@              ",
"              ^%4+3+3+3+3+3+3+v+/%                                    (%3+3+3+3+3+3+3+B@              ",
"              )+B@3+3+3+3+3+3+3+_%                                    :%3+3+3+3+3+3+3+B@k#            ",
"              e#3+3+3+3+3+3+3+(@<%                                      4+3+3+3+3+3+3+v+v@            ",
"              3+5+3+3+3+3+3+3+M$                                        k#3+3+3+3+3+3+O+[%            ",
"            }%v+3+3+3+3+3+3+3+|%                                        1%3+3+3+3+3+3+O+d+            ",
"            o@3+3+3+3+3+3+3+A@                                          g#3+3+3+3+3+3+O+d+            ",
"            v+>@3+3+3+>@3+(@2%                                            3+3+3+3+3+3+3+v+            ",
"            v+>@3+3+3+>@3+v+                                              3+3+3+3+3+3+3+v+G@          ",
"            5+>@3+3+3+>@3+,$                                                3+3+3+3+3+3+v+o@          ",
"          3%3+3+3+3+3+3+v+4%                                                (@3+3+3+3+c+3+v+          ",
"          v+3+3+3+3+3+3+v+5%                                                6%3+3+3+3+>@c+v+          ",
"        7%3+3+3+3+3+3+3+v+                                                  8%v+3+3+3+>@c+v+          ",
"        9%3+3+3+3+3+3+B@t+                                                  0%4+3+3+3+3+3+3+          ",
"        a%3+3+3+3+3+3+e#b%                                                    t+3+3+3+3+3+3+          ",
"        )#3+3+3+3+3+3+4+c%                                                    e#3+3+3+3+3+3+3+        ",
"        k#3+3+3+3+3+3+4+                                                      e#3+3+3+3+3+3+r#        ",
"        k#3+3+3+3+3+3+x#                                                      d%3+3+3+3+3+3+3+e%      ",
"        k#3+3+3+3+3+3+v@                                                        3+3+3+3+3+3+3+f%      ",
"      `$e#3+3+3+3+3+3+                                                          g%3+3+3+3+3+3+h%      ",
"      R+3+3+3+3+3+3+3+                                                          i%o#>@3+3+3+O+j%      ",
"    k%R+3+3+3+3+3+3+3+                                                          l%o#>@3+3+3+3+[%      ",
"      o+3+3+3+3+3+3+3+                                                          m%o#>@3+3+3+O+n%      ",
"    o%u+>@3+3+3+3+v+x#                                                          p%q%c+>@v+3+O+>@(@    ",
"  r%9%e#R+3+3+3+3+v+                                                            s%t%G@u+^@v+u%>@5+    ",
"  v%w%)#R+3+3+3+3+G@                                                            x%m%y%<+d@z%A%>@v+B%  ",
"C%+@x#v+v+3+3+3+R+A@                                                              D%E%F%R+>@G%R+R+I#  ",
"H%B@q+c+c+v+v+o@I%J%                                                                K%4+v+3+3+3+3+v+  ",
"      p@L%M%N%O%P%                                                                        (@v+v+v+Q%  "};
