/* XPM */
static char * smith2_xpm[] = {
"188 440 4561 2",
"  	c None",
". 	c #3D3B3C",
"+ 	c #323030",
"@ 	c #2F2D2C",
"# 	c #363433",
"$ 	c #3E3B38",
"% 	c #272422",
"& 	c #1E1D1C",
"* 	c #202020",
"= 	c #100F10",
"- 	c #131213",
"; 	c #0F0C0F",
"> 	c #131113",
", 	c #151413",
"' 	c #12100F",
") 	c #1F1E1B",
"! 	c #1B1817",
"~ 	c #1A1615",
"{ 	c #252322",
"] 	c #3B3837",
"^ 	c #191714",
"/ 	c #14100D",
"( 	c #0D0B09",
"_ 	c #151311",
": 	c #131010",
"< 	c #120F12",
"[ 	c #110F12",
"} 	c #110F11",
"| 	c #121011",
"1 	c #141212",
"2 	c #131211",
"3 	c #110F0E",
"4 	c #121110",
"5 	c #131111",
"6 	c #100E0E",
"7 	c #1D1B1B",
"8 	c #3C3C3A",
"9 	c #211F1D",
"0 	c #15120F",
"a 	c #140F0D",
"b 	c #140F0C",
"c 	c #1A1511",
"d 	c #17120F",
"e 	c #16110F",
"f 	c #140F0E",
"g 	c #110D0E",
"h 	c #130F12",
"i 	c #141013",
"j 	c #151213",
"k 	c #100E0F",
"l 	c #131112",
"m 	c #221F1E",
"n 	c #484848",
"o 	c #393938",
"p 	c #141210",
"q 	c #110D0B",
"r 	c #120E0A",
"s 	c #17110E",
"t 	c #140E0A",
"u 	c #17100A",
"v 	c #170F0A",
"w 	c #170E0B",
"x 	c #19100E",
"y 	c #150D0D",
"z 	c #171011",
"A 	c #191214",
"B 	c #160F11",
"C 	c #161112",
"D 	c #141011",
"E 	c #120F10",
"F 	c #121111",
"G 	c #191617",
"H 	c #2E2D2C",
"I 	c #11100D",
"J 	c #120F0C",
"K 	c #150F0A",
"L 	c #160F0A",
"M 	c #150E09",
"N 	c #18110B",
"O 	c #170D07",
"P 	c #180B07",
"Q 	c #1C0E0C",
"R 	c #190C0A",
"S 	c #150908",
"T 	c #170D0D",
"U 	c #170F0E",
"V 	c #171010",
"W 	c #150F10",
"X 	c #140F10",
"Y 	c #130F10",
"Z 	c #141112",
"` 	c #141214",
" .	c #111012",
"..	c #353331",
"+.	c #181614",
"@.	c #14110E",
"#.	c #15110D",
"$.	c #1B130E",
"%.	c #1B120C",
"&.	c #211812",
"*.	c #241D18",
"=.	c #2C231D",
"-.	c #2D1D16",
";.	c #3C2A25",
">.	c #331F1A",
",.	c #3D2B27",
"'.	c #342521",
").	c #241410",
"!.	c #271915",
"~.	c #1E110F",
"{.	c #180C0A",
"].	c #180E0D",
"^.	c #181110",
"/.	c #15100E",
"(.	c #120E0E",
"_.	c #121213",
":.	c #151516",
"<.	c #171618",
"[.	c #363231",
"}.	c #1A1714",
"|.	c #15120C",
"1.	c #16110C",
"2.	c #19110A",
"3.	c #160C05",
"4.	c #2A1B13",
"5.	c #503F36",
"6.	c #726057",
"7.	c #796961",
"8.	c #807169",
"9.	c #86726A",
"0.	c #90766D",
"a.	c #9A8179",
"b.	c #8D756E",
"c.	c #8B736C",
"d.	c #7C6760",
"e.	c #614D48",
"f.	c #46332E",
"g.	c #35231E",
"h.	c #241612",
"i.	c #160806",
"j.	c #190E0C",
"k.	c #111010",
"l.	c #111111",
"m.	c #433F3E",
"n.	c #18110E",
"o.	c #150E08",
"p.	c #171009",
"q.	c #1F160F",
"r.	c #392E26",
"s.	c #5E4E45",
"t.	c #79655A",
"u.	c #9F8679",
"v.	c #AC9184",
"w.	c #B4998D",
"x.	c #B1958B",
"y.	c #B79A8F",
"z.	c #B99B90",
"A.	c #BA9D92",
"B.	c #B79B90",
"C.	c #B3978D",
"D.	c #AF9389",
"E.	c #A88D84",
"F.	c #9B837A",
"G.	c #816A61",
"H.	c #5F4B43",
"I.	c #4A3730",
"J.	c #362621",
"K.	c #1E100C",
"L.	c #140C08",
"M.	c #161514",
"N.	c #262322",
"O.	c #19130F",
"P.	c #170E08",
"Q.	c #180D04",
"R.	c #2D2116",
"S.	c #55463C",
"T.	c #847266",
"U.	c #A48F82",
"V.	c #B0978A",
"W.	c #B8998C",
"X.	c #B69486",
"Y.	c #C29D8E",
"Z.	c #BC968A",
"`.	c #BC988B",
" +	c #BC988C",
".+	c #BA998D",
"++	c #B7988B",
"@+	c #B99A8E",
"#+	c #BA9B8E",
"$+	c #B6978A",
"%+	c #B7998D",
"&+	c #B99C90",
"*+	c #AC9085",
"=+	c #947A6F",
"-+	c #796258",
";+	c #59453E",
">+	c #382B24",
",+	c #1F1511",
"'+	c #16110E",
")+	c #15110F",
"!+	c #201E1D",
"~+	c #232122",
"{+	c #110D0A",
"]+	c #271D15",
"^+	c #42352A",
"/+	c #665648",
"(+	c #836E60",
"_+	c #A68E7F",
":+	c #B4998A",
"<+	c #B89B8B",
"[+	c #BC9B8B",
"}+	c #BC9888",
"|+	c #BC9686",
"1+	c #BD9587",
"2+	c #BE978B",
"3+	c #BB998B",
"4+	c #BA9A8B",
"5+	c #BB9A8A",
"6+	c #BD9B8B",
"7+	c #BB9889",
"8+	c #B89586",
"9+	c #B99788",
"0+	c #BA9A8C",
"a+	c #B39588",
"b+	c #9C8377",
"c+	c #746056",
"d+	c #41322B",
"e+	c #180C05",
"f+	c #110A05",
"g+	c #181411",
"h+	c #262627",
"i+	c #151515",
"j+	c #1E130A",
"k+	c #5E5045",
"l+	c #796757",
"m+	c #846F5D",
"n+	c #937A67",
"o+	c #AD917E",
"p+	c #B79886",
"q+	c #BD9C89",
"r+	c #B69280",
"s+	c #BF9A88",
"t+	c #BD9787",
"u+	c #BD988A",
"v+	c #BD988B",
"w+	c #BC988A",
"x+	c #B99688",
"y+	c #B79787",
"z+	c #B99889",
"A+	c #B89888",
"B+	c #BA9889",
"C+	c #BB9685",
"D+	c #BC9786",
"E+	c #BE9A88",
"F+	c #BD9C8A",
"G+	c #BA9B8B",
"H+	c #AC9185",
"I+	c #887268",
"J+	c #493831",
"K+	c #1F120B",
"L+	c #1B140E",
"M+	c #2A2B2C",
"N+	c #131316",
"O+	c #141314",
"P+	c #150F0B",
"Q+	c #2D2118",
"R+	c #7B6A5C",
"S+	c #8D7664",
"T+	c #8C715D",
"U+	c #A88A73",
"V+	c #B69680",
"W+	c #BA9883",
"X+	c #BA9783",
"Y+	c #BA9582",
"Z+	c #C29D8B",
"`+	c #BA9787",
" @	c #BA998A",
".@	c #BC9B8C",
"+@	c #BD9D8D",
"@@	c #BD9E8E",
"#@	c #BC9E8E",
"$@	c #BB9C8C",
"%@	c #BB9989",
"&@	c #BC9887",
"*@	c #BE9886",
"=@	c #BF9886",
"-@	c #BD9785",
";@	c #BB9786",
">@	c #BB9B8C",
",@	c #AA8E82",
"'@	c #79645A",
")@	c #32221A",
"!@	c #1A0D06",
"~@	c #1A1C1F",
"{@	c #0F1115",
"]@	c #131212",
"^@	c #170F09",
"/@	c #291B12",
"(@	c #675242",
"_@	c #8C715C",
":@	c #96765F",
"<@	c #B8967E",
"[@	c #BA9780",
"}@	c #BD9984",
"|@	c #BC9783",
"1@	c #BD9784",
"2@	c #BB9787",
"3@	c #B9998A",
"4@	c #B99B8C",
"5@	c #BD9F90",
"6@	c #C4A797",
"7@	c #C9AD9D",
"8@	c #CBB09F",
"9@	c #C9AC9C",
"0@	c #C3A696",
"a@	c #BFA191",
"b@	c #BD9D8E",
"c@	c #BD9A8B",
"d@	c #BD9888",
"e@	c #BD9583",
"f@	c #BC9583",
"g@	c #BD9A89",
"h@	c #B7998A",
"i@	c #AC9286",
"j@	c #725E55",
"k@	c #26150E",
"l@	c #281D19",
"m@	c #2F2725",
"n@	c #323334",
"o@	c #121618",
"p@	c #13151A",
"q@	c #171514",
"r@	c #20160F",
"s@	c #1E0A00",
"t@	c #6D5441",
"u@	c #8C6D55",
"v@	c #A6856C",
"w@	c #BD9981",
"x@	c #BD9982",
"y@	c #BE9985",
"z@	c #BB9583",
"A@	c #BE9988",
"B@	c #BEA193",
"C@	c #C5A99B",
"D@	c #CAAFA0",
"E@	c #CEB5A5",
"F@	c #D2B9A8",
"G@	c #D1B8A7",
"H@	c #D1B6A5",
"I@	c #CCB09F",
"J@	c #C6A798",
"K@	c #C1A092",
"L@	c #BE9B8C",
"M@	c #BD9786",
"N@	c #BE9682",
"O@	c #BE9683",
"P@	c #BE9684",
"Q@	c #BB9887",
"R@	c #B99B8D",
"S@	c #9A8278",
"T@	c #53433C",
"U@	c #241712",
"V@	c #170F0C",
"W@	c #171210",
"X@	c #1A1815",
"Y@	c #3D3F3D",
"Z@	c #222523",
"`@	c #292928",
" #	c #39342E",
".#	c #44392E",
"+#	c #544131",
"@#	c #876C56",
"##	c #927258",
"$#	c #AD8B70",
"%#	c #BC9780",
"&#	c #BF9985",
"*#	c #BD9886",
"=#	c #BE9989",
"-#	c #C4A293",
";#	c #C6A999",
">#	c #C9AFA0",
",#	c #CFB6A7",
"'#	c #D0B9A9",
")#	c #CFB9A8",
"!#	c #CEB9A8",
"~#	c #CFB9A7",
"{#	c #D0B9A7",
"]#	c #D2B8A7",
"^#	c #D2B5A5",
"/#	c #CEAF9F",
"(#	c #C6A595",
"_#	c #BF9A89",
":#	c #BE9783",
"<#	c #C09784",
"[#	c #BE9784",
"}#	c #BB9987",
"|#	c #B09285",
"1#	c #877168",
"2#	c #4A3A35",
"3#	c #1C1210",
"4#	c #17110F",
"5#	c #1A1616",
"6#	c #494A46",
"7#	c #4E4F49",
"8#	c #4E4C44",
"9#	c #564E43",
"0#	c #594A3B",
"a#	c #77604B",
"b#	c #91745C",
"c#	c #96755A",
"d#	c #AC886E",
"e#	c #BE9882",
"f#	c #BF9A87",
"g#	c #BE9B8A",
"h#	c #C29F92",
"i#	c #CFB1A3",
"j#	c #D0B4A6",
"k#	c #CFB7A7",
"l#	c #CFB9A9",
"m#	c #CDB8A8",
"n#	c #CBB8A6",
"o#	c #CBB8A7",
"p#	c #CBB9A7",
"q#	c #CDB9A8",
"r#	c #D1B8A8",
"s#	c #D2B7A6",
"t#	c #D1B5A5",
"u#	c #CFB0A0",
"v#	c #C4A392",
"w#	c #BD9987",
"x#	c #BE9885",
"y#	c #BF9884",
"z#	c #BE9782",
"A#	c #BD9884",
"B#	c #BC9A89",
"C#	c #B3968A",
"D#	c #8F7A71",
"E#	c #463732",
"F#	c #19100F",
"G#	c #191515",
"H#	c #393936",
"I#	c #35352F",
"J#	c #403E35",
"K#	c #433D33",
"L#	c #473A2C",
"M#	c #4F3C2A",
"N#	c #856C54",
"O#	c #92745A",
"P#	c #947257",
"Q#	c #AF8C73",
"R#	c #BD9B89",
"S#	c #BD9D8F",
"T#	c #C6A79C",
"U#	c #D2B6A9",
"V#	c #D0B7A9",
"W#	c #CFB8A8",
"X#	c #CEB8A7",
"Y#	c #CAB9A7",
"Z#	c #CBBAA8",
"`#	c #CCBAA8",
" $	c #D0B8A7",
".$	c #D0B7A6",
"+$	c #D1B6A6",
"@$	c #CAAD9C",
"#$	c #BC9C8B",
"$$	c #BA9784",
"%$	c #BD9885",
"&$	c #BE9884",
"*$	c #BC9683",
"=$	c #BC9986",
"-$	c #B39283",
";$	c #A98C81",
">$	c #6F5A51",
",$	c #22120E",
"'$	c #170C0C",
")$	c #151012",
"!$	c #1A1819",
"~$	c #201E1B",
"{$	c #120F09",
"]$	c #1F190F",
"^$	c #1F1407",
"/$	c #32210F",
"($	c #644E3A",
"_$	c #90735A",
":$	c #957459",
"<$	c #947258",
"[$	c #AF8C75",
"}$	c #BC9B87",
"|$	c #BB9B8B",
"1$	c #BE9E92",
"2$	c #CAADA2",
"3$	c #D0B5A8",
"4$	c #CFB6A8",
"5$	c #CFB7A9",
"6$	c #CEB9A9",
"7$	c #CBB9A8",
"8$	c #CABAA8",
"9$	c #CCB9A8",
"0$	c #CEB7A7",
"a$	c #CFB7A8",
"b$	c #CDB3A4",
"c$	c #C1A495",
"d$	c #BB9A88",
"e$	c #BE9987",
"f$	c #B5978A",
"g$	c #8A7167",
"h$	c #3E2A23",
"i$	c #1C0A08",
"j$	c #1B0F12",
"k$	c #171114",
"l$	c #32302F",
"m$	c #151310",
"n$	c #120D06",
"o$	c #1C1308",
"p$	c #25180B",
"q$	c #5C4835",
"r$	c #846A52",
"s$	c #917157",
"t$	c #906D52",
"u$	c #9A775D",
"v$	c #AB8972",
"w$	c #B69683",
"x$	c #BDA195",
"y$	c #CBB0A4",
"z$	c #D0B6A9",
"A$	c #CFB8AA",
"B$	c #CFB9AB",
"C$	c #CCB9A9",
"D$	c #CAB9A8",
"E$	c #CCB8A8",
"F$	c #CCB8AA",
"G$	c #CEB7A9",
"H$	c #C8AD9F",
"I$	c #BA9886",
"J$	c #BB9784",
"K$	c #BB9886",
"L$	c #BA9B8D",
"M$	c #AA8E83",
"N$	c #6C554D",
"O$	c #261310",
"P$	c #18080B",
"Q$	c #11090C",
"R$	c #191619",
"S$	c #282728",
"T$	c #0E0C09",
"U$	c #140F09",
"V$	c #1C1207",
"W$	c #504235",
"X$	c #826C58",
"Y$	c #8E7159",
"Z$	c #927056",
"`$	c #9C775D",
" %	c #B49076",
".%	c #C19E88",
"+%	c #BB9B88",
"@%	c #B79A8A",
"#%	c #C0A699",
"$%	c #CCB3A7",
"%%	c #CEB5A9",
"&%	c #CEB6A9",
"*%	c #CEB7AA",
"=%	c #CDB8AA",
"-%	c #CCB9AA",
";%	c #CAB9A9",
">%	c #CBBAAA",
",%	c #CBBAA9",
"'%	c #CBB9A9",
")%	c #CBB8A9",
"!%	c #CDB7A9",
"~%	c #CBB1A3",
"{%	c #BFA193",
"]%	c #BB9888",
"^%	c #BD9988",
"/%	c #B09284",
"(%	c #7E655B",
"_%	c #33211D",
":%	c #1D1011",
"<%	c #170F10",
"[%	c #141312",
"}%	c #181514",
"|%	c #18130D",
"1%	c #322820",
"2%	c #736356",
"3%	c #8A7462",
"4%	c #8F725C",
"5%	c #906E55",
"6%	c #A07C62",
"7%	c #C4A088",
"8%	c #D2AF99",
"9%	c #C9A793",
"0%	c #C2A493",
"a%	c #C6AC9F",
"b%	c #CFB7AB",
"c%	c #D3BBAF",
"d%	c #D1B9AD",
"e%	c #CEB8AB",
"f%	c #CDBAAB",
"g%	c #CBB9AA",
"h%	c #CEB8A9",
"i%	c #CCBAA9",
"j%	c #CAB7A8",
"k%	c #CEB8AA",
"l%	c #CCB2A5",
"m%	c #C0A194",
"n%	c #BC9785",
"o%	c #B79786",
"p%	c #896F63",
"q%	c #46362E",
"r%	c #1D120E",
"s%	c #16120D",
"t%	c #191914",
"u%	c #191311",
"v%	c #2A2321",
"w%	c #584E47",
"x%	c #817267",
"y%	c #826E60",
"z%	c #7D6351",
"A%	c #735541",
"B%	c #7F5F49",
"C%	c #AD8C76",
"D%	c #CDAC96",
"E%	c #D3B29F",
"F%	c #D1B3A3",
"G%	c #CEB6A8",
"H%	c #CDB7AA",
"I%	c #CFB8AB",
"J%	c #CCB6A8",
"K%	c #CCB8A9",
"L%	c #CCBAAA",
"M%	c #CDB9A9",
"N%	c #CCBBA9",
"O%	c #CABBA9",
"P%	c #C9B7A7",
"Q%	c #CFB9AA",
"R%	c #CCB1A5",
"S%	c #BE9F91",
"T%	c #BC9782",
"U%	c #BD9985",
"V%	c #B08F7D",
"W%	c #8B7264",
"X%	c #605246",
"Y%	c #51483F",
"Z%	c #3A3830",
"`%	c #35362F",
" &	c #5A504A",
".&	c #241B16",
"+&	c #281E1A",
"@&	c #574C47",
"#&	c #6C5F56",
"$&	c #5C4B41",
"%&	c #493527",
"&&	c #41291A",
"*&	c #462B1A",
"=&	c #694E3C",
"-&	c #A08371",
";&	c #C5A895",
">&	c #CFB6A6",
",&	c #CEB9AB",
"'&	c #CCB8AB",
")&	c #CDB8AB",
"!&	c #CBB7A9",
"~&	c #CDB9AB",
"{&	c #CEBAAB",
"]&	c #CCBCAA",
"^&	c #CABAA7",
"/&	c #D1B9AB",
"(&	c #CAAEA2",
"_&	c #BD9D90",
":&	c #BC9989",
"<&	c #BD9887",
"[&	c #BC957F",
"}&	c #C19C85",
"|&	c #A58671",
"1&	c #877261",
"2&	c #675A4B",
"3&	c #5A5547",
"4&	c #555449",
"5&	c #575950",
"6&	c #6E5B51",
"7&	c #271810",
"8&	c #31221A",
"9&	c #3E3029",
"0&	c #352822",
"a&	c #2C1E16",
"b&	c #241409",
"c&	c #221005",
"d&	c #271409",
"e&	c #3A2619",
"f&	c #624C40",
"g&	c #937D6F",
"h&	c #B6A294",
"i&	c #C6B4A7",
"j&	c #C9B6A8",
"k&	c #CBB8AA",
"l&	c #CEBAAC",
"m&	c #CBB8A8",
"n&	c #CDBDAB",
"o&	c #C4A79B",
"p&	c #BB9A8E",
"q&	c #BE9887",
"r&	c #BF9885",
"s&	c #BF9883",
"t&	c #BF9680",
"u&	c #B7937A",
"v&	c #957962",
"w&	c #7F6D5A",
"x&	c #615645",
"y&	c #4E4A3A",
"z&	c #3D3D30",
"A&	c #3D3F35",
"B&	c #847063",
"C&	c #967A68",
"D&	c #785E4E",
"E&	c #392114",
"F&	c #4A362B",
"G&	c #645248",
"H&	c #56473E",
"I&	c #23150E",
"J&	c #1A0D05",
"K&	c #190D07",
"L&	c #1B0E08",
"M&	c #1D1009",
"N&	c #27160E",
"O&	c #43342A",
"P&	c #74655A",
"Q&	c #A8988C",
"R&	c #CCBAAC",
"S&	c #CCB9A7",
"T&	c #CAB8A8",
"U&	c #CBB9AB",
"V&	c #CCBBAC",
"W&	c #CBB1A5",
"X&	c #BEA094",
"Y&	c #B9988C",
"Z&	c #BD998B",
"`&	c #BE9888",
" *	c #C09984",
".*	c #B68F77",
"+*	c #A17F67",
"@*	c #876E59",
"#*	c #6F5E4C",
"$*	c #4D4332",
"%*	c #2D2919",
"&*	c #18180B",
"**	c #1B1C13",
"=*	c #A49182",
"-*	c #816651",
";*	c #84644C",
">*	c #856650",
",*	c #5C3F2D",
"'*	c #583E2F",
")*	c #755F53",
"!*	c #56453B",
"~*	c #24130A",
"{*	c #1C0F0A",
"]*	c #190F0B",
"^*	c #170F0B",
"/*	c #160E0B",
"(*	c #150C08",
"_*	c #1F140D",
":*	c #34281F",
"<*	c #605249",
"[*	c #8F8074",
"}*	c #B09F91",
"|*	c #C4B2A3",
"1*	c #CDBBAC",
"2*	c #CAB7A6",
"3*	c #CDBAA8",
"4*	c #CCBAA7",
"5*	c #CAB8A5",
"6*	c #CCB8A7",
"7*	c #CEBAAD",
"8*	c #CDBAAC",
"9*	c #C7B0A2",
"0*	c #BA9E91",
"a*	c #B8988A",
"b*	c #BC998A",
"c*	c #BA947D",
"d*	c #A37E65",
"e*	c #8F705A",
"f*	c #796351",
"g*	c #615141",
"h*	c #32291C",
"i*	c #161306",
"j*	c #0F0F05",
"k*	c #11110A",
"l*	c #B09782",
"m*	c #9F8065",
"n*	c #8D6A4D",
"o*	c #85634A",
"p*	c #62422C",
"q*	c #5F4332",
"r*	c #7C6253",
"s*	c #483327",
"t*	c #241208",
"u*	c #180E0B",
"v*	c #150F0C",
"w*	c #150E0D",
"x*	c #170D09",
"y*	c #170A04",
"z*	c #433830",
"A*	c #726358",
"B*	c #9D8C7E",
"C*	c #C0AE9F",
"D*	c #C7B4A5",
"E*	c #C8B4A3",
"F*	c #CAB6A4",
"G*	c #C7B5A1",
"H*	c #C9B6A2",
"I*	c #CEB9A6",
"J*	c #D0B8A8",
"K*	c #CDB6A9",
"L*	c #C9B2A3",
"M*	c #BBA292",
"N*	c #B69A89",
"O*	c #B99B87",
"P*	c #BC9A85",
"Q*	c #AA856D",
"R*	c #94725A",
"S*	c #826653",
"T*	c #6F5A4C",
"U*	c #58493D",
"V*	c #191206",
"W*	c #141008",
"X*	c #13120E",
"Y*	c #13110E",
"Z*	c #B0967E",
"`*	c #B09071",
" =	c #967355",
".=	c #6C4B30",
"+=	c #5D3B22",
"@=	c #7A5C48",
"#=	c #7E624F",
"$=	c #4F3829",
"%=	c #230E03",
"&=	c #1B0C05",
"*=	c #190E0A",
"==	c #150E0B",
"-=	c #130E0C",
";=	c #140D0D",
">=	c #160D0C",
",=	c #170C08",
"'=	c #1A0D08",
")=	c #190902",
"!=	c #1E0C01",
"~=	c #534339",
"{=	c #99877A",
"]=	c #BDAA9B",
"^=	c #C2AD9D",
"/=	c #C5B09F",
"(=	c #C1AD9A",
"_=	c #C9B5A1",
":=	c #D3B9A8",
"<=	c #D1B5A7",
"[=	c #D3B7AA",
"}=	c #D1B5A9",
"|=	c #D2B8A9",
"1=	c #C7AD9C",
"2=	c #BCA28D",
"3=	c #BA9F88",
"4=	c #B69A80",
"5=	c #B19376",
"6=	c #97765B",
"7=	c #90715B",
"8=	c #7A6052",
"9=	c #6B574D",
"0=	c #43362E",
"a=	c #110B03",
"b=	c #16130E",
"c=	c #141311",
"d=	c #161312",
"e=	c #B6A290",
"f=	c #B1957D",
"g=	c #B08F71",
"h=	c #906F53",
"i=	c #68472D",
"j=	c #805F47",
"k=	c #90715A",
"l=	c #856752",
"m=	c #563C2C",
"n=	c #2F1609",
"o=	c #210D04",
"p=	c #1C0D07",
"q=	c #1B100D",
"r=	c #191312",
"s=	c #1C1616",
"t=	c #201818",
"u=	c #241A19",
"v=	c #201513",
"w=	c #1A0C07",
"x=	c #1E0D05",
"y=	c #2F1E16",
"z=	c #715F54",
"A=	c #B29D90",
"B=	c #C8B2A3",
"C=	c #C6B0A0",
"D=	c #BFAA98",
"E=	c #C8B3A1",
"F=	c #CCB6A4",
"G=	c #CEB5A4",
"H=	c #CEB2A4",
"I=	c #D1B4A7",
"J=	c #D6B9AD",
"K=	c #D3B5A9",
"L=	c #D3B5A7",
"M=	c #CFB2A1",
"N=	c #C7AA96",
"O=	c #C3A78F",
"P=	c #B79B7E",
"Q=	c #9E8363",
"R=	c #8E7254",
"S=	c #8B705A",
"T=	c #765E51",
"U=	c #5E4B41",
"V=	c #251A14",
"W=	c #16100C",
"X=	c #130F0D",
"Y=	c #110E0F",
"Z=	c #1F1A1D",
"`=	c #BBA591",
" -	c #BA9D84",
".-	c #AF9073",
"+-	c #826349",
"@-	c #6F4E33",
"#-	c #89684F",
"$-	c #8C6C56",
"%-	c #795A46",
"&-	c #553726",
"*-	c #412518",
"=-	c #280E05",
"--	c #281108",
";-	c #35231D",
">-	c #3C3232",
",-	c #3D3739",
"'-	c #463E40",
")-	c #473D3E",
"!-	c #433937",
"~-	c #3D312F",
"{-	c #30211E",
"]-	c #2A1810",
"^-	c #67554D",
"/-	c #B8A297",
"(-	c #CCB4A7",
"_-	c #CBB3A4",
":-	c #BBA494",
"<-	c #B5A190",
"[-	c #AB9888",
"}-	c #9F8A7A",
"|-	c #AA9285",
"1-	c #BA9F93",
"2-	c #C6A99E",
"3-	c #D1B2A7",
"4-	c #D8B8AC",
"5-	c #D7B6A7",
"6-	c #D6B6A3",
"7-	c #D4B49E",
"8-	c #C6A78C",
"9-	c #9F8264",
"0-	c #8E7356",
"a-	c #876D58",
"b-	c #664D41",
"c-	c #402D24",
"d-	c #190C06",
"e-	c #150E0C",
"f-	c #100D0E",
"g-	c #130F13",
"h-	c #1C161A",
"i-	c #C0AA95",
"j-	c #BEA188",
"k-	c #A7896E",
"l-	c #6E5036",
"m-	c #67472D",
"n-	c #886850",
"o-	c #91715C",
"p-	c #7C5D4A",
"q-	c #5C3E2E",
"r-	c #513427",
"s-	c #472C21",
"t-	c #492E25",
"u-	c #59413B",
"v-	c #5A4B4D",
"w-	c #584F55",
"x-	c #584F54",
"y-	c #5D5154",
"z-	c #5D5151",
"A-	c #594949",
"B-	c #52403E",
"C-	c #43302B",
"D-	c #87736D",
"E-	c #BAA19A",
"F-	c #CCB2A8",
"G-	c #C3A99D",
"H-	c #978073",
"I-	c #6F5D50",
"J-	c #4C3D30",
"K-	c #513F32",
"L-	c #69554A",
"M-	c #887066",
"N-	c #967A71",
"O-	c #A6887E",
"P-	c #C3A292",
"Q-	c #BF9E8A",
"R-	c #B6947E",
"S-	c #9A795F",
"T-	c #8B7059",
"U-	c #7A6251",
"V-	c #3C281D",
"W-	c #231107",
"X-	c #1A0E08",
"Y-	c #160F0D",
"Z-	c #131011",
"`-	c #131013",
" ;	c #BDA792",
".;	c #BDA28A",
"+;	c #AD9077",
"@;	c #795C43",
"#;	c #6F4F38",
"$;	c #906F57",
"%;	c #91705C",
"&;	c #8D6D5B",
"*;	c #806151",
"=;	c #5E4134",
"-;	c #533428",
";;	c #56392F",
">;	c #5B413A",
",;	c #604D4E",
"';	c #5D4F54",
");	c #5A4E52",
"!;	c #5C4F53",
"~;	c #5D4E50",
"{;	c #5F4E4D",
"];	c #5F4B49",
"^;	c #685350",
"/;	c #AF9792",
"(;	c #C3A9A3",
"_;	c #C6ACA4",
":;	c #634E46",
"<;	c #1E0F01",
"[;	c #1A1206",
"};	c #180D02",
"|;	c #201308",
"1;	c #2C1C12",
"2;	c #3D2A21",
"3;	c #4F3830",
"4;	c #5F453B",
"5;	c #6E5147",
"6;	c #826355",
"7;	c #8D6B59",
"8;	c #886551",
"9;	c #8C6C57",
"0;	c #8C7160",
"a;	c #675348",
"b;	c #1A0600",
"c;	c #1F0F09",
"d;	c #170E0A",
"e;	c #141313",
"f;	c #151315",
"g;	c #BDAC9C",
"h;	c #BAA48E",
"i;	c #BCA38C",
"j;	c #8E7057",
"k;	c #88674F",
"l;	c #927058",
"m;	c #977662",
"n;	c #A78775",
"o;	c #B39382",
"p;	c #9E7F71",
"q;	c #7A5B50",
"r;	c #5A3C32",
"s;	c #54372C",
"t;	c #5B433D",
"u;	c #604A47",
"v;	c #5D4A4A",
"w;	c #604F50",
"x;	c #604E4E",
"y;	c #5F4B48",
"z;	c #6C5550",
"A;	c #9A827D",
"B;	c #C6ABA6",
"C;	c #C7ACA7",
"D;	c #BB9F99",
"E;	c #967973",
"F;	c #503D39",
"G;	c #342B28",
"H;	c #221A17",
"I;	c #1B100A",
"J;	c #1D0F08",
"K;	c #24140C",
"L;	c #2F1C13",
"M;	c #3D261C",
"N;	c #4D3227",
"O;	c #644739",
"P;	c #755745",
"Q;	c #876C5B",
"R;	c #887265",
"S;	c #4D3C33",
"T;	c #1B0B03",
"U;	c #180D07",
"V;	c #191210",
"W;	c #121113",
"X;	c #B6A693",
"Y;	c #B29E88",
"Z;	c #B8A089",
"`;	c #A98D75",
" >	c #927259",
".>	c #927057",
"+>	c #95725A",
"@>	c #B4917C",
"#>	c #C8A794",
"$>	c #CFAF9F",
"%>	c #CAAA9C",
"&>	c #AB8C80",
"*>	c #846557",
"=>	c #654230",
"->	c #593727",
";>	c #583A30",
">>	c #583E37",
",>	c #5B423D",
"'>	c #614945",
")>	c #765D58",
"!>	c #9E837B",
"~>	c #BFA29B",
"{>	c #C9ABA3",
"]>	c #CAABA3",
"^>	c #B6978F",
"/>	c #886D68",
"(>	c #5A4A49",
"_>	c #554A4C",
":>	c #4B4143",
"<>	c #372F30",
"[>	c #221A1A",
"}>	c #180F0C",
"|>	c #160D08",
"1>	c #180E07",
"2>	c #200F05",
"3>	c #261206",
"4>	c #301A0C",
"5>	c #4F392B",
"6>	c #776254",
"7>	c #7D6A5F",
"8>	c #1C1009",
"9>	c #19100C",
"0>	c #151313",
"a>	c #B3A28F",
"b>	c #AB9682",
"c>	c #AD947E",
"d>	c #A2856D",
"e>	c #96755B",
"f>	c #926F56",
"g>	c #A07C64",
"h>	c #BE9B84",
"i>	c #CFAD9A",
"j>	c #CCAB9A",
"k>	c #D0AFA0",
"l>	c #C9A89B",
"m>	c #C6A392",
"n>	c #B48F7A",
"o>	c #8C6955",
"p>	c #755240",
"q>	c #6D4B3D",
"r>	c #6E5045",
"s>	c #856860",
"t>	c #A2867F",
"u>	c #BEA29A",
"v>	c #CAACA2",
"w>	c #CAA99D",
"x>	c #CCAA9E",
"y>	c #B59388",
"z>	c #7B625E",
"A>	c #5F5153",
"B>	c #5A4E53",
"C>	c #584C52",
"D>	c #53484D",
"E>	c #453B3F",
"F>	c #2D2326",
"G>	c #18100F",
"H>	c #18100C",
"I>	c #190F09",
"J>	c #190E06",
"K>	c #1A0D03",
"L>	c #1C0E02",
"M>	c #322116",
"N>	c #614F45",
"O>	c #726158",
"P>	c #4A3C36",
"Q>	c #160A05",
"R>	c #150D0A",
"S>	c #B9A796",
"T>	c #A6917C",
"U>	c #A99079",
"V>	c #A08369",
"W>	c #937258",
"X>	c #946F55",
"Y>	c #A9836A",
"Z>	c #BD9882",
"`>	c #C5A18E",
" ,	c #C9A797",
".,	c #CCAB9D",
"+,	c #CDAC9E",
"@,	c #D0AD9A",
"#,	c #D4AF97",
"$,	c #CFAB93",
"%,	c #C09B87",
"&,	c #AC8876",
"*,	c #A78576",
"=,	c #B09085",
"-,	c #BEA097",
";,	c #C5A8A0",
">,	c #C8ABA2",
",,	c #C9AAA0",
"',	c #C9A89D",
"),	c #B39388",
"!,	c #7A645F",
"~,	c #5E5254",
"{,	c #5C4F56",
"],	c #5C5056",
"^,	c #54474E",
"/,	c #41363B",
"(,	c #231A1D",
"_,	c #170E0D",
":,	c #160E07",
"<,	c #180F06",
"[,	c #180E04",
"},	c #221309",
"|,	c #3C2B22",
"1,	c #46352E",
"2,	c #261914",
"3,	c #211B19",
"4,	c #AB9581",
"5,	c #A98E76",
"6,	c #9E7E65",
"7,	c #916D54",
"8,	c #99735A",
"9,	c #B18A71",
"0,	c #C19E8E",
"a,	c #C6A597",
"b,	c #C9AA9C",
"c,	c #CBAD9C",
"d,	c #CBAB97",
"e,	c #CEAC97",
"f,	c #D2AE9A",
"g,	c #C9A492",
"h,	c #B69281",
"i,	c #BB998C",
"j,	c #C7A79E",
"k,	c #C7A9A2",
"l,	c #C6A9A3",
"m,	c #C7AAA4",
"n,	c #C5A7A1",
"o,	c #AD928A",
"p,	c #7E6B65",
"q,	c #605251",
"r,	c #5B4E4F",
"s,	c #5C4F51",
"t,	c #5D5053",
"u,	c #5C4E52",
"v,	c #514449",
"w,	c #33272A",
"x,	c #190F10",
"y,	c #170F0D",
"z,	c #160F09",
"A,	c #170F08",
"B,	c #1D1107",
"C,	c #2B1A10",
"D,	c #382821",
"E,	c #291913",
"F,	c #1F110A",
"G,	c #1F1410",
"H,	c #AA9786",
"I,	c #A48B76",
"J,	c #9B7C64",
"K,	c #946F56",
"L,	c #A27B62",
"M,	c #B68E77",
"N,	c #BE9883",
"O,	c #BD9A8A",
"P,	c #BE9E90",
"Q,	c #C3A699",
"R,	c #CAB0A1",
"S,	c #CBAF9E",
"T,	c #CEAF9D",
"U,	c #CDAB98",
"V,	c #C19D8A",
"W,	c #BA9584",
"X,	c #BF9B8D",
"Y,	c #C9A79C",
"Z,	c #C8A8A0",
"`,	c #C7A8A3",
" '	c #C8ABA7",
".'	c #C1A5A0",
"+'	c #AC9188",
"@'	c #846D63",
"#'	c #624D46",
"$'	c #604D4A",
"%'	c #5F4D4B",
"&'	c #5E4D4B",
"*'	c #61504E",
"='	c #5C4A4A",
"-'	c #3F2F2E",
";'	c #1B0D0A",
">'	c #1A0F0C",
",'	c #180F08",
"''	c #2A1C13",
")'	c #4C382D",
"!'	c #5F4B41",
"~'	c #32231B",
"{'	c #2B1B13",
"]'	c #977C69",
"^'	c #95745D",
"/'	c #AB846C",
"('	c #BB937E",
"_'	c #C0A597",
":'	c #C7AEA1",
"<'	c #C9AEA0",
"['	c #CAAE9E",
"}'	c #C6A695",
"|'	c #AC8A79",
"1'	c #9C7867",
"2'	c #AE887A",
"3'	c #CCA597",
"4'	c #CDA99E",
"5'	c #CBA8A0",
"6'	c #C9A9A3",
"7'	c #BE9F97",
"8'	c #B19284",
"9'	c #977868",
"0'	c #6E5144",
"a'	c #61463C",
"b'	c #614941",
"c'	c #614942",
"d'	c #624A43",
"e'	c #624942",
"f'	c #462F27",
"g'	c #29130A",
"h'	c #231006",
"i'	c #211108",
"j'	c #29190F",
"k'	c #4F3D32",
"l'	c #654F42",
"m'	c #574238",
"n'	c #31211A",
"o'	c #55453D",
"p'	c #957D6F",
"q'	c #997A66",
"r'	c #B18B75",
"s'	c #BF9782",
"t'	c #C09A86",
"u'	c #BA9788",
"v'	c #BB9A8B",
"w'	c #C2A495",
"x'	c #C8AB9D",
"y'	c #C8AC9E",
"z'	c #C9AD9E",
"A'	c #B59888",
"B'	c #886859",
"C'	c #603D2C",
"D'	c #775242",
"E'	c #B38A7A",
"F'	c #CAA092",
"G'	c #C9A095",
"H'	c #C49D94",
"I'	c #BA9688",
"J'	c #BD9A86",
"K'	c #BA9683",
"L'	c #9D7B6A",
"M'	c #826050",
"N'	c #715142",
"O'	c #65473A",
"P'	c #614236",
"Q'	c #614336",
"R'	c #593C2E",
"S'	c #4B2F1F",
"T'	c #462B19",
"U'	c #4C3222",
"V'	c #573F30",
"W'	c #735B4A",
"X'	c #6A5143",
"Y'	c #584235",
"Z'	c #6E5C53",
"`'	c #837168",
" )	c #907568",
".)	c #9F7D6B",
"+)	c #B7917C",
"@)	c #BF9988",
"#)	c #BB9788",
"$)	c #B99588",
"%)	c #BF9C8D",
"&)	c #C9A696",
"*)	c #CCAB9C",
"=)	c #CAAB9D",
"-)	c #C6A99B",
";)	c #AF9283",
">)	c #8A6A5B",
",)	c #68483A",
"')	c #664132",
"))	c #8D6353",
"!)	c #AE8171",
"~)	c #A77B6C",
"{)	c #A2796B",
"])	c #B48F7E",
"^)	c #C29F8A",
"/)	c #CFAB96",
"()	c #CDA895",
"_)	c #BA9684",
":)	c #A4806F",
"<)	c #977261",
"[)	c #8B6856",
"})	c #64412D",
"|)	c #64422C",
"1)	c #6F4F3A",
"2)	c #81644F",
"3)	c #806350",
"4)	c #664737",
"5)	c #6F5245",
"6)	c #8B7367",
"7)	c #8B786E",
"8)	c #84756B",
"9)	c #947769",
"0)	c #A88471",
"a)	c #BC9681",
"b)	c #BD9683",
"c)	c #BC9787",
"d)	c #B69386",
"e)	c #BB9B8F",
"f)	c #C3A297",
"g)	c #CBA99C",
"h)	c #CBA99B",
"i)	c #C9A89A",
"j)	c #C7A99B",
"k)	c #BDA193",
"l)	c #AD9082",
"m)	c #A18274",
"n)	c #9E7B6B",
"o)	c #966F5D",
"p)	c #8E6350",
"q)	c #663D2F",
"r)	c #734C3D",
"s)	c #A58471",
"t)	c #C2A28E",
"u)	c #CCA996",
"v)	c #CEAA98",
"w)	c #D0AB99",
"x)	c #CEA896",
"y)	c #C7A08E",
"z)	c #B8907A",
"A)	c #A37C65",
"B)	c #866048",
"C)	c #7A553B",
"D)	c #85634B",
"E)	c #8A6B54",
"F)	c #71533F",
"G)	c #7A5746",
"H)	c #916E60",
"I)	c #96776B",
"J)	c #927B70",
"K)	c #958378",
"L)	c #957D72",
"M)	c #9D7E6F",
"N)	c #B38F7B",
"O)	c #B69282",
"P)	c #B69488",
"Q)	c #BFA198",
"R)	c #C6A9A1",
"S)	c #C5A79E",
"T)	c #C5A59A",
"U)	c #C6A79A",
"V)	c #C7A99C",
"W)	c #C4A89C",
"X)	c #BBA194",
"Y)	c #BDA296",
"Z)	c #C5A89B",
"`)	c #BD9C8E",
" !	c #AE8A79",
".!	c #916C5B",
"+!	c #7C5C4E",
"@!	c #A18474",
"#!	c #C4A696",
"$!	c #CDAE9E",
"%!	c #CEAD9D",
"&!	c #CFAC9C",
"*!	c #CEAA99",
"=!	c #D0AA98",
"-!	c #D3AB97",
";!	c #CFA790",
">!	c #C9A187",
",!	c #B68E72",
"'!	c #997257",
")!	c #906E54",
"!!	c #846650",
"~!	c #694938",
"{!	c #9A7665",
"]!	c #AE8A7D",
"^!	c #A58478",
"/!	c #AC9187",
"(!	c #947C70",
"_!	c #A38474",
":!	c #B99581",
"<!	c #BF9A86",
"[!	c #B6917F",
"}!	c #B59283",
"|!	c #C1A296",
"1!	c #C4A89E",
"2!	c #CBAFA6",
"3!	c #CAADA4",
"4!	c #C5A89E",
"5!	c #C7AA9F",
"6!	c #C6A89D",
"7!	c #C1A499",
"8!	c #C0A599",
"9!	c #BEA69A",
"0!	c #C0AA9F",
"a!	c #C2A99E",
"b!	c #C1A498",
"c!	c #B39587",
"d!	c #A68A7C",
"e!	c #B4988B",
"f!	c #C5A99D",
"g!	c #C9ACA0",
"h!	c #CAABA0",
"i!	c #CBAB9F",
"j!	c #CDAC9D",
"k!	c #CEAB9B",
"l!	c #D0AD99",
"m!	c #CEA992",
"n!	c #D4AE94",
"o!	c #C8A286",
"p!	c #A78368",
"q!	c #917158",
"r!	c #7C5E48",
"s!	c #856454",
"t!	c #B39081",
"u!	c #BD9A8E",
"v!	c #A98A80",
"w!	c #AF948C",
"x!	c #937A6B",
"y!	c #A48573",
"z!	c #B6937E",
"A!	c #B6937F",
"B!	c #AC8977",
"C!	c #B59484",
"D!	c #C8AA9C",
"E!	c #C7AB9F",
"F!	c #C3A79C",
"G!	c #C4A69C",
"H!	c #C4A59B",
"I!	c #C7A89D",
"J!	c #C5A699",
"K!	c #C5A799",
"L!	c #C6AB9E",
"M!	c #C2A99F",
"N!	c #BFA9A0",
"O!	c #C4AEA4",
"P!	c #C4AB9F",
"Q!	c #C5AA9F",
"R!	c #C6ABA0",
"S!	c #C8ACA1",
"T!	c #C9ADA2",
"U!	c #C8ABA0",
"V!	c #C9AB9E",
"W!	c #C9AB9C",
"X!	c #CBAC99",
"Y!	c #CDAC97",
"Z!	c #CDAA93",
"`!	c #9C7A61",
" ~	c #91735A",
".~	c #81614D",
"+~	c #A68374",
"@~	c #C3A093",
"#~	c #BB9B90",
"$~	c #A88C82",
"%~	c #957A6B",
"&~	c #A58673",
"*~	c #AF8B77",
"=~	c #A78370",
"-~	c #A4826F",
";~	c #BA9A89",
">~	c #C6A998",
",~	c #C6AA9A",
"'~	c #BFA394",
")~	c #B89B8D",
"!~	c #BC9D91",
"~~	c #B69689",
"{~	c #BF9E8F",
"]~	c #BF9D8E",
"^~	c #C5A394",
"/~	c #C8AA9D",
"(~	c #C6AA9F",
"_~	c #C6A99C",
":~	c #C6AB9F",
"<~	c #C9ACA1",
"[~	c #C8AB9F",
"}~	c #C9ABA0",
"|~	c #C6A89B",
"1~	c #C8AA9B",
"2~	c #B59681",
"3~	c #9C7D66",
"4~	c #92735A",
"5~	c #8F7059",
"6~	c #987665",
"7~	c #C6A499",
"8~	c #B79A91",
"9~	c #A28A82",
"0~	c #957C6A",
"a~	c #A2846E",
"b~	c #A3816B",
"c~	c #9B7864",
"d~	c #A1816D",
"e~	c #C5A591",
"f~	c #C4A793",
"g~	c #BC9F8D",
"h~	c #B79988",
"i~	c #AD8E7D",
"j~	c #A1806F",
"k~	c #9E7B6C",
"l~	c #947061",
"m~	c #A07C6D",
"n~	c #A88272",
"o~	c #B18C7C",
"p~	c #C09C8B",
"q~	c #CAA797",
"r~	c #C9A899",
"s~	c #C5A89D",
"t~	c #C8A99F",
"u~	c #C9AA9F",
"v~	c #C9AA9E",
"w~	c #C8A99A",
"x~	c #C7A998",
"y~	c #B69986",
"z~	c #977965",
"A~	c #92735D",
"B~	c #8F7159",
"C~	c #8F6D58",
"D~	c #AA8777",
"E~	c #C2A094",
"F~	c #C8AAA1",
"G~	c #BEA59C",
"H~	c #947A68",
"I~	c #9D7F69",
"J~	c #93725D",
"K~	c #A3836F",
"L~	c #C3A48E",
"M~	c #BFA18B",
"N~	c #B99C87",
"O~	c #B79784",
"P~	c #C6A390",
"Q~	c #B38E7D",
"R~	c #AF8878",
"S~	c #A37B6B",
"T~	c #966E5E",
"U~	c #956D5B",
"V~	c #9F7967",
"W~	c #B5917F",
"X~	c #C8A595",
"Y~	c #C8A89B",
"Z~	c #C6AAA0",
"`~	c #C6A99F",
" {	c #C9A99C",
".{	c #CBAB9B",
"+{	c #CDAB9A",
"@{	c #BD9D8A",
"#{	c #9F816D",
"${	c #8C6E58",
"%{	c #93745D",
"&{	c #977760",
"*{	c #9D7A67",
"={	c #AE8C7E",
"-{	c #B9998F",
";{	c #BFA49D",
">{	c #806450",
",{	c #9C7C66",
"'{	c #A4826B",
"){	c #8E6D57",
"!{	c #9D7E67",
"~{	c #B8977F",
"{{	c #B5957E",
"]{	c #AF8F7A",
"^{	c #B0907B",
"/{	c #B08F7B",
"({	c #B79480",
"_{	c #C49F8C",
":{	c #CAA391",
"<{	c #C9A08F",
"[{	c #C79D8C",
"}{	c #BF9584",
"|{	c #AA806F",
"1{	c #976F5D",
"2{	c #997462",
"3{	c #B99786",
"4{	c #CAAA9B",
"5{	c #C3A69B",
"6{	c #C6ABA1",
"7{	c #C6AEA4",
"8{	c #C5ABA0",
"9{	c #C8AB9C",
"0{	c #CCAC9B",
"a{	c #C9A691",
"b{	c #AA8871",
"c{	c #8F6F57",
"d{	c #96765E",
"e{	c #A78771",
"f{	c #AC8B79",
"g{	c #AB8A7E",
"h{	c #A88A83",
"i{	c #A98F8B",
"j{	c #806B5C",
"k{	c #745842",
"l{	c #9B7A62",
"m{	c #97765F",
"n{	c #99775F",
"o{	c #AF8D75",
"p{	c #B4917B",
"q{	c #AF8C76",
"r{	c #AF8D78",
"s{	c #B18F7B",
"t{	c #B3907C",
"u{	c #B7917E",
"v{	c #C59C8A",
"w{	c #CCA08F",
"x{	c #D2A595",
"y{	c #BC937F",
"z{	c #A57F69",
"A{	c #9A7662",
"B{	c #B29383",
"C{	c #C0A395",
"D{	c #BDA498",
"E{	c #C3ABA0",
"F{	c #C4ACA0",
"G{	c #C6AB9C",
"H{	c #C4A592",
"I{	c #B5937D",
"J{	c #9D7960",
"K{	c #96735A",
"L{	c #93735A",
"M{	c #B3937E",
"N{	c #B09080",
"O{	c #A8897F",
"P{	c #A38881",
"Q{	c #66503F",
"R{	c #684C37",
"S{	c #83634B",
"T{	c #997961",
"U{	c #9E7B64",
"V{	c #A27E67",
"W{	c #B08C75",
"X{	c #B38F7A",
"Y{	c #AE8B75",
"Z{	c #AD8B75",
"`{	c #AF8C78",
" ]	c #AF8B78",
".]	c #AF8976",
"+]	c #AC8573",
"@]	c #B38A79",
"#]	c #BE9282",
"$]	c #C69989",
"%]	c #CFA390",
"&]	c #CEA68F",
"*]	c #BF9982",
"=]	c #A37F6B",
"-]	c #9B7B69",
";]	c #B89B8C",
">]	c #C3A99C",
",]	c #C2AA9D",
"']	c #C3AB9C",
")]	c #C1A695",
"!]	c #B2947F",
"~]	c #9E7B63",
"{]	c #977156",
"]]	c #957258",
"^]	c #947762",
"/]	c #A08370",
"(]	c #AC8C7B",
"_]	c #A98A7D",
":]	c #A88A82",
"<]	c #715D4F",
"[]	c #5E4330",
"}]	c #76553F",
"|]	c #8F6D55",
"1]	c #A17D66",
"2]	c #AE8873",
"3]	c #B08C78",
"4]	c #AC8874",
"5]	c #A5836F",
"6]	c #9D7C68",
"7]	c #9F7D6A",
"8]	c #A07C6B",
"9]	c #987363",
"0]	c #9D7666",
"a]	c #A57C6C",
"b]	c #AC8171",
"c]	c #B58C78",
"d]	c #BC947D",
"e]	c #C09A83",
"f]	c #C39F89",
"g]	c #B79781",
"h]	c #B19381",
"i]	c #BFA494",
"j]	c #C5AB9B",
"k]	c #C6AC9B",
"l]	c #B89E8B",
"m]	c #9C7E67",
"n]	c #946F54",
"o]	c #9B8377",
"p]	c #9D8A7D",
"q]	c #7A6354",
"r]	c #5D402E",
"s]	c #6C4A35",
"t]	c #84624B",
"u]	c #97765E",
"v]	c #A98770",
"w]	c #B18D78",
"x]	c #AD8A76",
"y]	c #A1806E",
"z]	c #AB8C7B",
"A]	c #AC8B7B",
"B]	c #A38171",
"C]	c #9A7565",
"D]	c #997262",
"E]	c #A9836F",
"F]	c #B68F79",
"G]	c #B58F78",
"H]	c #B59079",
"I]	c #B89680",
"J]	c #BA9B86",
"K]	c #BFA28E",
"L]	c #C6AC98",
"M]	c #BFA691",
"N]	c #9A816C",
"O]	c #896C55",
"P]	c #937359",
"Q]	c #95735A",
"R]	c #978173",
"S]	c #795D4C",
"T]	c #6A4835",
"U]	c #643E28",
"V]	c #795840",
"W]	c #86694F",
"X]	c #9D7F68",
"Y]	c #AA8B76",
"Z]	c #AB8B78",
"`]	c #AE8E7D",
" ^	c #B69787",
".^	c #CEB1A2",
"+^	c #BFA192",
"@^	c #B49385",
"#^	c #A68474",
"$^	c #9F7C69",
"%^	c #AE8975",
"&^	c #B28D76",
"*^	c #B18C74",
"=^	c #B18F77",
"-^	c #BC9C85",
";^	c #C5A892",
">^	c #BFA48E",
",^	c #9F8771",
"'^	c #7D634D",
")^	c #876C54",
"!^	c #93755D",
"~^	c #897060",
"{^	c #7F5F4B",
"]^	c #7A553F",
"^^	c #623C24",
"/^	c #6B4C33",
"(^	c #7B5F45",
"_^	c #8E725B",
":^	c #A48874",
"<^	c #A88B7A",
"[^	c #A98A7C",
"}^	c #B29285",
"|^	c #C4A598",
"1^	c #C9AD9F",
"2^	c #CAAFA1",
"3^	c #CAB0A2",
"4^	c #C8AB9E",
"5^	c #BE9F92",
"6^	c #A18171",
"7^	c #9C7967",
"8^	c #A6826C",
"9^	c #AE8A72",
"0^	c #B28F76",
"a^	c #B9977F",
"b^	c #BEA18A",
"c^	c #9F846F",
"d^	c #7D644E",
"e^	c #7C654E",
"f^	c #8A715A",
"g^	c #90775F",
"h^	c #A48E7F",
"i^	c #806351",
"j^	c #7F5D46",
"k^	c #815B43",
"l^	c #6A462D",
"m^	c #62432A",
"n^	c #795B43",
"o^	c #846751",
"p^	c #997C6B",
"q^	c #A88B7C",
"r^	c #A98B7F",
"s^	c #B39389",
"t^	c #C8A89F",
"u^	c #C2A59B",
"v^	c #C8AEA2",
"w^	c #C8B0A3",
"x^	c #C9AFA3",
"y^	c #9B7969",
"z^	c #997460",
"A^	c #A8836C",
"B^	c #B38F76",
"C^	c #AC8B72",
"D^	c #9D8069",
"E^	c #7C644F",
"F^	c #846F59",
"G^	c #8A745D",
"H^	c #927C6F",
"I^	c #85614A",
"J^	c #977058",
"K^	c #8A664E",
"L^	c #62422A",
"M^	c #684932",
"N^	c #7A5D47",
"O^	c #8F715F",
"P^	c #A68878",
"Q^	c #C9A9A0",
"R^	c #CAA9A2",
"S^	c #C0A098",
"T^	c #C7A99F",
"U^	c #CBAEA3",
"V^	c #C3A398",
"W^	c #A98778",
"X^	c #9F7B68",
"Y^	c #AD8772",
"Z^	c #B28D75",
"`^	c #9F7D65",
" /	c #84654F",
"./	c #7E644F",
"+/	c #87705B",
"@/	c #8A7562",
"#/	c #7F685A",
"$/	c #7E604D",
"%/	c #9B7861",
"&/	c #A8836B",
"*/	c #98755D",
"=/	c #6B4B34",
"-/	c #563721",
";/	c #71523C",
">/	c #836450",
",/	c #967866",
"'/	c #A8887D",
")/	c #C2A298",
"!/	c #CDACA3",
"~/	c #C7A79D",
"{/	c #C8A69D",
"]/	c #C7A49C",
"^/	c #C29F98",
"//	c #BA9A91",
"(/	c #AE8C7C",
"_/	c #AC8770",
":/	c #9B7962",
"</	c #896A55",
"[/	c #89705C",
"}/	c #7C6654",
"|/	c #846F5E",
"1/	c #B1A199",
"2/	c #806B5F",
"3/	c #A58977",
"4/	c #A78874",
"5/	c #957661",
"6/	c #7D5F48",
"7/	c #7D6046",
"8/	c #7A5B41",
"9/	c #705135",
"0/	c #6C4D31",
"a/	c #66472A",
"b/	c #614226",
"c/	c #67452B",
"d/	c #75543A",
"e/	c #866248",
"f/	c #99755B",
"g/	c #906E53",
"h/	c #7C5D43",
"i/	c #8A6C53",
"j/	c #9E7D68",
"k/	c #A68673",
"l/	c #A38477",
"m/	c #B2968D",
"n/	c #C8B4AB",
"o/	c #D1C7BF",
"p/	c #C2C0B8",
"q/	c #776A60",
"r/	c #C7C0C0",
"s/	c #C5BAB6",
"t/	c #AB9B93",
"u/	c #978577",
"v/	c #A28D7E",
"w/	c #9D8373",
"x/	c #A18370",
"y/	c #856651",
"z/	c #755740",
"A/	c #78583F",
"B/	c #795A3D",
"C/	c #7C5B3F",
"D/	c #825F43",
"E/	c #866348",
"F/	c #8E694F",
"G/	c #99745B",
"H/	c #A58066",
"I/	c #A47E67",
"J/	c #8A6950",
"K/	c #81654E",
"L/	c #98826C",
"M/	c #A38E7B",
"N/	c #A38D80",
"O/	c #B9A49A",
"P/	c #D7C4BE",
"Q/	c #DACCC8",
"R/	c #CEC7C4",
"S/	c #C0C1BE",
"T/	c #8C8780",
"U/	c #BDB7B9",
"V/	c #BDB5B4",
"W/	c #CABFBA",
"X/	c #CBBEB4",
"Y/	c #C5B5AA",
"Z/	c #AF998C",
"`/	c #A68B7B",
" (	c #A18573",
".(	c #977B67",
"+(	c #8C6E57",
"@(	c #8E6D55",
"#(	c #947358",
"$(	c #99765B",
"%(	c #A07B60",
"&(	c #A58065",
"*(	c #A88269",
"=(	c #AD856F",
"-(	c #AF8670",
";(	c #99715C",
">(	c #9E8670",
",(	c #A29280",
"'(	c #B3A697",
")(	c #C7BCB2",
"!(	c #D2C6C0",
"~(	c #D5C9C7",
"{(	c #CDC5C4",
"](	c #D0CCCD",
"^(	c #CACACC",
"/(	c #ADABA9",
"((	c #BFBBBF",
"_(	c #BEB9B9",
":(	c #C9C1BF",
"<(	c #CCC3BE",
"[(	c #D3C7C0",
"}(	c #D8C5BA",
"|(	c #CEB4A7",
"1(	c #B89E8E",
"2(	c #A98E7A",
"3(	c #A0846E",
"4(	c #A5866E",
"5(	c #A8886C",
"6(	c #A9866B",
"7(	c #AA846A",
"8(	c #AC836A",
"9(	c #AD836B",
"0(	c #AF856F",
"a(	c #B28671",
"b(	c #A77D6B",
"c(	c #A38370",
"d(	c #B09B87",
"e(	c #C4BAA8",
"f(	c #D7D3C4",
"g(	c #CECAC1",
"h(	c #CAC5C1",
"i(	c #D0CBCC",
"j(	c #CDC9CD",
"k(	c #C9C7CC",
"l(	c #C3C4C8",
"m(	c #B9B8BD",
"n(	c #BDBBC0",
"o(	c #BDBABD",
"p(	c #CDC9C9",
"q(	c #D1CDCB",
"r(	c #CDC6C2",
"s(	c #D1C5BE",
"t(	c #DACABF",
"u(	c #D8C6B9",
"v(	c #C1AD9E",
"w(	c #AF9787",
"x(	c #A68C78",
"y(	c #A38771",
"z(	c #A5876F",
"A(	c #A8876F",
"B(	c #A8856F",
"C(	c #AA8571",
"D(	c #A88675",
"E(	c #A6897C",
"F(	c #C1AA9E",
"G(	c #D6C8BB",
"H(	c #D2CBBF",
"I(	c #CDCBC0",
"J(	c #CACBC4",
"K(	c #C9C9C6",
"L(	c #C8C6C7",
"M(	c #CDCBCD",
"N(	c #C8C8CB",
"O(	c #C4C5C8",
"P(	c #BCBCBF",
"Q(	c #8D8D8E",
"R(	c #97959B",
"S(	c #B8B7BC",
"T(	c #BFBEC2",
"U(	c #C7C6C9",
"V(	c #CCCBCD",
"W(	c #CCCBC9",
"X(	c #CFCBC7",
"Y(	c #CAC5BF",
"Z(	c #CFC8C1",
"`(	c #D3CAC1",
" _	c #CBC0B6",
"._	c #C3B6AA",
"+_	c #AD9E91",
"@_	c #A79686",
"#_	c #A69381",
"$_	c #A99382",
"%_	c #A48D7A",
"&_	c #AA9381",
"*_	c #AE9E91",
"=_	c #C0B9B3",
"-_	c #D2CDC7",
";_	c #CCC8C2",
">_	c #D2D0CB",
",_	c #C8C7C2",
"'_	c #CDCCC8",
")_	c #CBCAC6",
"!_	c #CAC9C6",
"~_	c #CCCBC8",
"{_	c #CBCAC7",
"]_	c #C3C3C0",
"^_	c #BFBFBE",
"/_	c #B2B2B4",
"(_	c #353535",
"__	c #1B1A20",
":_	c #8F8E93",
"<_	c #BCBBC0",
"[_	c #C5C4C7",
"}_	c #C8C8C8",
"|_	c #C8C8C6",
"1_	c #CBCBC8",
"2_	c #CECCC9",
"3_	c #C8C5C0",
"4_	c #CECAC4",
"5_	c #D6D0C9",
"6_	c #D0C7BE",
"7_	c #C3B8AE",
"8_	c #C9BEB3",
"9_	c #CCBFB2",
"0_	c #CDBEB0",
"a_	c #C6B7AA",
"b_	c #D4CAC1",
"c_	c #CFCDC9",
"d_	c #C9C8C4",
"e_	c #CAC9C5",
"f_	c #CCCBC7",
"g_	c #C7C6C2",
"h_	c #C8C7C6",
"i_	c #B8B8B9",
"j_	c #9C9C9C",
"k_	c #0D0D0D",
"l_	c #0F0F0F",
"m_	c #444346",
"n_	c #ADACB1",
"o_	c #B7B6BB",
"p_	c #B7B6BA",
"q_	c #BEBEC0",
"r_	c #CBCBCB",
"s_	c #CACBCB",
"t_	c #C8CAC9",
"u_	c #CDCFCE",
"v_	c #C7C8C7",
"w_	c #D4D4D3",
"x_	c #BABAB6",
"y_	c #C5C3BF",
"z_	c #85817B",
"A_	c #45403B",
"B_	c #150F09",
"C_	c #1F1912",
"D_	c #393129",
"E_	c #858079",
"F_	c #C8C6C2",
"G_	c #C5C4C0",
"H_	c #D2D1CD",
"I_	c #C6C5C1",
"J_	c #C7C7C8",
"K_	c #CBCBCD",
"L_	c #171716",
"M_	c #151513",
"N_	c #212120",
"O_	c #7D7D80",
"P_	c #C2C2C6",
"Q_	c #C0BFC4",
"R_	c #BABABC",
"S_	c #B9B9BB",
"T_	c #C0C0C0",
"U_	c #C8C9C8",
"V_	c #CBCECF",
"W_	c #C4C9CB",
"X_	c #C6CBCC",
"Y_	c #CBCED0",
"Z_	c #C2C4C7",
"`_	c #C8CBCB",
" :	c #6B6D6D",
".:	c #171818",
"+:	c #1B1B1B",
"@:	c #161715",
"#:	c #1A1A18",
"$:	c #0D0B0B",
"%:	c #23221F",
"&:	c #6C6B67",
"*:	c #CECDC9",
"=:	c #CDCCCC",
"-:	c #C5C5C8",
";:	c #C4C4C6",
">:	c #3F3F3F",
",:	c #0F0F0D",
"':	c #10110C",
"):	c #4A4A46",
"!:	c #181815",
"~:	c #121212",
"{:	c #A2A2A4",
"]:	c #CAC9CC",
"^:	c #C3C3C5",
"/:	c #BABABB",
"(:	c #BABABA",
"_:	c #C2C3C1",
"::	c #C6C9C9",
"<:	c #CBCFD1",
"[:	c #C4C9CA",
"}:	c #C7CBCC",
"|:	c #C9CDCF",
"1:	c #999D9E",
"2:	c #26292B",
"3:	c #111416",
"4:	c #15191A",
"5:	c #171C1D",
"6:	c #1A1E1F",
"7:	c #131719",
"8:	c #181A19",
"9:	c #171714",
"0:	c #939391",
"a:	c #CACAC7",
"b:	c #CDCDCA",
"c:	c #CBCAC8",
"d:	c #CACAC8",
"e:	c #CFCED2",
"f:	c #515151",
"g:	c #0D0D0C",
"h:	c #20211D",
"i:	c #0D0F09",
"j:	c #161612",
"k:	c #0A0B07",
"l:	c #10100E",
"m:	c #BBBBBB",
"n:	c #C8C8CA",
"o:	c #CCCCCE",
"p:	c #C9C9CA",
"q:	c #BEBEBE",
"r:	c #BABAB8",
"s:	c #C2C2C0",
"t:	c #CBCCCA",
"u:	c #C9CAC9",
"v:	c #CACCCB",
"w:	c #CCCDCC",
"x:	c #C1C3C1",
"y:	c #343635",
"z:	c #141514",
"A:	c #181C1C",
"B:	c #141819",
"C:	c #161A1B",
"D:	c #151B1B",
"E:	c #171B1E",
"F:	c #121515",
"G:	c #181816",
"H:	c #1D1D1B",
"I:	c #A6A6A4",
"J:	c #C6C6C4",
"K:	c #C9C9C7",
"L:	c #CBCBC9",
"M:	c #CACACB",
"N:	c #6C6C6C",
"O:	c #121211",
"P:	c #040502",
"Q:	c #0F100B",
"R:	c #0F100A",
"S:	c #14140F",
"T:	c #3A3C36",
"U:	c #0C0D06",
"V:	c #10110B",
"W:	c #0E0E0A",
"X:	c #C9C9C9",
"Y:	c #CCCCCC",
"Z:	c #C6C6C5",
"`:	c #C1C1BF",
" <	c #C5C5C1",
".<	c #CDCBC7",
"+<	c #CCCAC6",
"@<	c #7C7C79",
"#<	c #161513",
"$<	c #1C1E1B",
"%<	c #121312",
"&<	c #1B1C1A",
"*<	c #171A18",
"=<	c #161617",
"-<	c #181917",
";<	c #121210",
"><	c #525250",
",<	c #B9B9B7",
"'<	c #C3C2C6",
")<	c #CDCDCF",
"!<	c #7A7A7A",
"~<	c #11110F",
"{<	c #141510",
"]<	c #0E0F09",
"^<	c #11120C",
"/<	c #13140D",
"(<	c #12130E",
"_<	c #262624",
":<	c #0C0E0C",
"<<	c #12130F",
"[<	c #0A0B09",
"}<	c #10110A",
"|<	c #161711",
"1<	c #C1C1C1",
"2<	c #C8C8C9",
"3<	c #C9C9C8",
"4<	c #CCCCC7",
"5<	c #CCCAC5",
"6<	c #D0CBC6",
"7<	c #CBC7C1",
"8<	c #B5B0AB",
"9<	c #2A2723",
"0<	c #221F1A",
"a<	c #171510",
"b<	c #171611",
"c<	c #14110F",
"d<	c #1C1B18",
"e<	c #1B1B17",
"f<	c #131311",
"g<	c #131412",
"h<	c #2F312F",
"i<	c #3F403F",
"j<	c #8B8D8B",
"k<	c #CACBCA",
"l<	c #C9CBC9",
"m<	c #C9CBCA",
"n<	c #C7C9C7",
"o<	c #C5C6C6",
"p<	c #C7C6CA",
"q<	c #898989",
"r<	c #131312",
"s<	c #0C0D08",
"t<	c #12130D",
"u<	c #0D0E07",
"v<	c #12130C",
"w<	c #13140F",
"x<	c #11120D",
"y<	c #0F100C",
"z<	c #11110D",
"A<	c #131410",
"B<	c #11130E",
"C<	c #1F211C",
"D<	c #10120D",
"E<	c #171813",
"F<	c #191A15",
"G<	c #14150D",
"H<	c #0C0D07",
"I<	c #ABABA9",
"J<	c #C5C5C5",
"K<	c #CCCCCA",
"L<	c #CCCDC8",
"M<	c #D4D1CC",
"N<	c #C4C1BC",
"O<	c #8D8A85",
"P<	c #4A4742",
"Q<	c #33302C",
"R<	c #171511",
"S<	c #1A1814",
"T<	c #1B1815",
"U<	c #11100C",
"V<	c #1C1B17",
"W<	c #2B2C29",
"X<	c #545554",
"Y<	c #6A6C6B",
"Z<	c #696B6A",
"`<	c #535554",
" [	c #ADAFAE",
".[	c #C7C9C8",
"+[	c #C6C8C7",
"@[	c #C8C7CC",
"#[	c #10110E",
"$[	c #090A05",
"%[	c #101109",
"&[	c #0F1008",
"*[	c #0F1009",
"=[	c #151611",
"-[	c #161611",
";[	c #0B0B06",
">[	c #070803",
",[	c #10120C",
"'[	c #23251F",
")[	c #343630",
"![	c #181914",
"~[	c #0D0F0A",
"{[	c #0D0E09",
"][	c #0B0D02",
"^[	c #0E0F08",
"/[	c #14150F",
"([	c #A4A4A2",
"_[	c #C7C7C6",
":[	c #C6C6C6",
"<[	c #CACBC6",
"[[	c #C9CAC5",
"}[	c #C9CAC6",
"|[	c #CECECB",
"1[	c #CACBC8",
"2[	c #AEAEAB",
"3[	c #A0A09D",
"4[	c #999A98",
"5[	c #555653",
"6[	c #1A1B18",
"7[	c #161614",
"8[	c #201F1C",
"9[	c #878785",
"0[	c #C5C7C6",
"a[	c #BBBDBC",
"b[	c #C4C6C5",
"c[	c #C6C7CA",
"d[	c #CACACD",
"e[	c #939393",
"f[	c #1B1B18",
"g[	c #12130B",
"h[	c #11120A",
"i[	c #0E0F0A",
"j[	c #161712",
"k[	c #0F0F0A",
"l[	c #191B14",
"m[	c #1A1B16",
"n[	c #13150A",
"o[	c #0B0C06",
"p[	c #9B9B9A",
"q[	c #C8C8C7",
"r[	c #C8C9C5",
"s[	c #C8C9C4",
"t[	c #C9CAC4",
"u[	c #C5C8C6",
"v[	c #CCD0D2",
"w[	c #C1C5C7",
"x[	c #C8CCCE",
"y[	c #C0C4C6",
"z[	c #C7CBCB",
"A[	c #AAAEAE",
"B[	c #2E3132",
"C[	c #141516",
"D[	c #151717",
"E[	c #111211",
"F[	c #4B4B4A",
"G[	c #C0C1C0",
"H[	c #CFD1D0",
"I[	c #C3C5C4",
"J[	c #C4C3C8",
"K[	c #CAC9CE",
"L[	c #9B9B9B",
"M[	c #20201D",
"N[	c #0D0E04",
"O[	c #0A0C03",
"P[	c #11120E",
"Q[	c #0D0E0A",
"R[	c #191916",
"S[	c #171811",
"T[	c #0F0F08",
"U[	c #8A8A88",
"V[	c #C5C5C4",
"W[	c #C7C7C5",
"X[	c #C9CCCB",
"Y[	c #C1C6C9",
"Z[	c #C5CACD",
"`[	c #C6CBCE",
" }	c #C3C8CB",
".}	c #C4C8C9",
"+}	c #2A2E2F",
"@}	c #121516",
"#}	c #151817",
"$}	c #6D6F6E",
"%}	c #CDCFCF",
"&}	c #BFC1C0",
"*}	c #C7C9C9",
"=}	c #C7C6CB",
"-}	c #C6C6C8",
";}	c #9A9A99",
">}	c #1E1E1A",
",}	c #11120B",
"'}	c #0D0E06",
")}	c #15160E",
"!}	c #12110C",
"~}	c #141610",
"{}	c #131310",
"]}	c #141412",
"^}	c #161410",
"/}	c #11100B",
"(}	c #0E0D09",
"_}	c #100F0B",
":}	c #0F0E09",
"<}	c #0F0E0A",
"[}	c #C7C7C7",
"}}	c #C6C8C8",
"|}	c #C6C7C9",
"1}	c #C5C6C8",
"2}	c #C5C9C9",
"3}	c #C3C7C7",
"4}	c #C5C9C8",
"5}	c #C5C8C7",
"6}	c #9D9F9D",
"7}	c #252725",
"8}	c #161814",
"9}	c #191B17",
"0}	c #131511",
"a}	c #585A56",
"b}	c #C2C4C2",
"c}	c #CFD0D1",
"d}	c #C0C1C3",
"e}	c #C9CACC",
"f}	c #C3C4C6",
"g}	c #C7C8CA",
"h}	c #8B8B8A",
"i}	c #0E0F0B",
"j}	c #15140F",
"k}	c #0F0E08",
"l}	c #111109",
"m}	c #12110A",
"n}	c #12100B",
"o}	c #12100C",
"p}	c #0E0D08",
"q}	c #141310",
"r}	c #1B1B15",
"s}	c #202019",
"t}	c #0D0C07",
"u}	c #100F0A",
"v}	c #0C0B06",
"w}	c #13120D",
"x}	c #777775",
"y}	c #C3C5C2",
"z}	c #5E605D",
"A}	c #191B16",
"B}	c #171914",
"C}	c #292B27",
"D}	c #B2B4B2",
"E}	c #C1C2C3",
"F}	c #CBCCCE",
"G}	c #C8C9CB",
"H}	c #C7C7C9",
"I}	c #8E8E8C",
"J}	c #13100B",
"K}	c #130F0C",
"L}	c #130F0E",
"M}	c #0A0A07",
"N}	c #1A1A15",
"O}	c #11100A",
"P}	c #13110D",
"Q}	c #161510",
"R}	c #14130E",
"S}	c #14130F",
"T}	c #0D0C08",
"U}	c #656563",
"V}	c #9D9F9C",
"W}	c #262825",
"X}	c #111310",
"Y}	c #1A1C17",
"Z}	c #1B1D18",
"`}	c #131510",
" |	c #828482",
".|	c #C2C3C4",
"+|	c #C1C2C4",
"@|	c #C5C5C7",
"#|	c #10100C",
"$|	c #100F09",
"%|	c #080703",
"&|	c #14140E",
"*|	c #191812",
"=|	c #13120C",
"-|	c #0A0905",
";|	c #0C0B07",
">|	c #575755",
",|	c #CBCDCC",
"'|	c #B4B6B5",
")|	c #454744",
"!|	c #131512",
"~|	c #0D0F0C",
"{|	c #20221D",
"]|	c #181A15",
"^|	c #4F514F",
"/|	c #C4C6C7",
"(|	c #11110B",
"_|	c #0F0D08",
":|	c #0E0C07",
"<|	c #16150F",
"[|	c #151612",
"}|	c #474745",
"||	c #C4C5C7",
"1|	c #C7C8C8",
"2|	c #6B6D6C",
"3|	c #141613",
"4|	c #181A17",
"5|	c #191B18",
"6|	c #161813",
"7|	c #151712",
"8|	c #272927",
"9|	c #999A9C",
"0|	c #CDCED0",
"a|	c #60605E",
"b|	c #141512",
"c|	c #0A0C09",
"d|	c #050503",
"e|	c #151711",
"f|	c #0A0904",
"g|	c #171612",
"h|	c #393937",
"i|	c #BABAB9",
"j|	c #CCCDCF",
"k|	c #B9BBBA",
"l|	c #B3B5B4",
"m|	c #272928",
"n|	c #1E201D",
"o|	c #1A1C19",
"p|	c #151714",
"q|	c #121412",
"r|	c #5B5C5D",
"s|	c #C2C3C5",
"t|	c #4E4E4C",
"u|	c #0A0A08",
"v|	c #10110D",
"w|	c #0B0C07",
"x|	c #10100B",
"y|	c #373735",
"z|	c #ACACAB",
"A|	c #CACBCD",
"B|	c #858786",
"C|	c #1F2120",
"D|	c #1B1D1A",
"E|	c #161816",
"F|	c #111213",
"G|	c #B0B1B3",
"H|	c #40403E",
"I|	c #151510",
"J|	c #090B07",
"K|	c #1C1C1B",
"L|	c #0B0C08",
"M|	c #12110D",
"N|	c #2B2B29",
"O|	c #A1A1A0",
"P|	c #C4C4C4",
"Q|	c #C7C8CC",
"R|	c #555756",
"S|	c #0F1110",
"T|	c #151715",
"U|	c #131416",
"V|	c #5D5D5F",
"W|	c #C2C2C2",
"X|	c #282826",
"Y|	c #0F0F0B",
"Z|	c #0F110C",
"`|	c #0E0E0D",
" 1	c #0E0E0C",
".1	c #0A0B06",
"+1	c #171812",
"@1	c #1C1C1A",
"#1	c #969695",
"$1	c #C9CACE",
"%1	c #B1B3B2",
"&1	c #353736",
"*1	c #191B1A",
"=1	c #141612",
"-1	c #17181A",
";1	c #252628",
">1	c #B6B6B6",
",1	c #10100A",
"'1	c #0D0E08",
")1	c #13140E",
"!1	c #585856",
"~1	c #0F0F0C",
"{1	c #858584",
"]1	c #C8C9CC",
"^1	c #CBCDCD",
"/1	c #989A99",
"(1	c #1C1E1D",
"_1	c #151716",
":1	c #161815",
"<1	c #141611",
"[1	c #161718",
"}1	c #27282A",
"|1	c #B4B5B7",
"11	c #969696",
"21	c #0C0C0A",
"31	c #080903",
"41	c #2F2F2E",
"51	c #11120F",
"61	c #676766",
"71	c #C7C8CB",
"81	c #7B7D7C",
"91	c #161817",
"01	c #171918",
"a1	c #171916",
"b1	c #121314",
"c1	c #292A2C",
"d1	c #9D9EA0",
"e1	c #636363",
"f1	c #12120C",
"g1	c #171713",
"h1	c #3F3F3E",
"i1	c #0F100D",
"j1	c #4D4E4B",
"k1	c #CBCCCD",
"l1	c #777978",
"m1	c #3B3D3C",
"n1	c #444645",
"o1	c #272926",
"p1	c #171917",
"q1	c #111314",
"r1	c #1C1D1F",
"s1	c #919294",
"t1	c #C8C9CA",
"u1	c #C5C5C6",
"v1	c #3A3A38",
"w1	c #11110E",
"x1	c #0E0E08",
"y1	c #0C0C07",
"z1	c #181714",
"A1	c #2D2E28",
"B1	c #C7C8C3",
"C1	c #C4C6C4",
"D1	c #C6C7C8",
"E1	c #CACCCE",
"F1	c #C4C5C9",
"G1	c #C8CACA",
"H1	c #C2C4C1",
"I1	c #C6C8C5",
"J1	c #C9CBC8",
"K1	c #C1C3C0",
"L1	c #C7C9C6",
"M1	c #C8CAC7",
"N1	c #BCBEBB",
"O1	c #A7A9A6",
"P1	c #A6A8A5",
"Q1	c #A0A2A0",
"R1	c #858788",
"S1	c #88898B",
"T1	c #A7A8AA",
"U1	c #C6C8C6",
"V1	c #BBBAB6",
"W1	c #100F07",
"X1	c #14120B",
"Y1	c #0F0E06",
"Z1	c #13110C",
"`1	c #0F0F07",
" 2	c #15160F",
".2	c #BDBEB8",
"+2	c #C5C7C4",
"@2	c #C5C6C9",
"#2	c #C5C7C7",
"$2	c #CED0CE",
"%2	c #C4C6C3",
"&2	c #C3C4C3",
"*2	c #C7C8C6",
"=2	c #969590",
"-2	c #131009",
";2	c #100D06",
">2	c #15120D",
",2	c #9A9B95",
"'2	c #C6C8CB",
")2	c #575956",
"!2	c #232522",
"~2	c #383A37",
"{2	c #444643",
"]2	c #4A4C49",
"^2	c #50524F",
"/2	c #595B58",
"(2	c #686A67",
"_2	c #717272",
":2	c #707173",
"<2	c #97989A",
"[2	c #C8C9C7",
"}2	c #6B6A65",
"|2	c #15120B",
"12	c #14110C",
"22	c #12120A",
"32	c #5F605A",
"42	c #C3C5C5",
"52	c #C7C8C9",
"62	c #3E403D",
"72	c #121411",
"82	c #0E100D",
"92	c #191A1C",
"02	c #646567",
"a2	c #BFC0BE",
"b2	c #4C4B46",
"c2	c #14110A",
"d2	c #0F0C08",
"e2	c #151410",
"f2	c #292B25",
"g2	c #C6C7C7",
"h2	c #363836",
"i2	c #131513",
"j2	c #101210",
"k2	c #141614",
"l2	c #131515",
"m2	c #161719",
"n2	c #141517",
"o2	c #616264",
"p2	c #A9AAA8",
"q2	c #32312C",
"r2	c #110E07",
"s2	c #0D0D08",
"t2	c #12110B",
"u2	c #101008",
"v2	c #C8C9CD",
"w2	c #383A39",
"x2	c #141615",
"y2	c #131514",
"z2	c #141616",
"A2	c #939492",
"B2	c #1D1C17",
"C2	c #110E09",
"D2	c #15120E",
"E2	c #161511",
"F2	c #13130B",
"G2	c #7A7C79",
"H2	c #CCCDCD",
"I2	c #1A1C1B",
"J2	c #171819",
"K2	c #656668",
"L2	c #727371",
"M2	c #090A04",
"N2	c #525451",
"O2	c #C0C1C1",
"P2	c #CACBCC",
"Q2	c #2F3131",
"R2	c #1A1B1C",
"S2	c #1E1F20",
"T2	c #1D1E1F",
"U2	c #1B1D1E",
"V2	c #191B1B",
"W2	c #151617",
"X2	c #141617",
"Y2	c #151618",
"Z2	c #434441",
"`2	c #0A0B05",
" 3	c #343633",
".3	c #B3B4B4",
"+3	c #212224",
"@3	c #1B1C1E",
"#3	c #1E1F21",
"$3	c #18191B",
"%3	c #B7B8BA",
"&3	c #191A18",
"*3	c #120F08",
"=3	c #16130C",
"-3	c #20221F",
";3	c #98999A",
">3	c #C6C7CB",
",3	c #1A1B1D",
"'3	c #1D1E20",
")3	c #5D5E60",
"!3	c #BFC0C1",
"~3	c #737475",
"{3	c #0F100E",
"]3	c #2E2C28",
"^3	c #10120F",
"/3	c #6B6C6C",
"(3	c #CACBCF",
"_3	c #1F2022",
":3	c #58595B",
"<3	c #BABBBD",
"[3	c #BFC0C2",
"}3	c #313234",
"|3	c #10110F",
"13	c #120F0A",
"23	c #14120E",
"33	c #1A1A16",
"43	c #111009",
"53	c #0F110D",
"63	c #434443",
"73	c #131315",
"83	c #202123",
"93	c #555658",
"03	c #BCBDBF",
"a3	c #A6A8A8",
"b3	c #0D0D0A",
"c3	c #22201C",
"d3	c #1A1914",
"e3	c #151511",
"f3	c #B5B6B1",
"g3	c #C8C8C4",
"h3	c #C6C5C5",
"i3	c #131214",
"j3	c #18181A",
"k3	c #19191B",
"l3	c #1D1D1F",
"m3	c #1F1F21",
"n3	c #191D1E",
"o3	c #1B1F20",
"p3	c #1D2122",
"q3	c #1A1E1E",
"r3	c #1B1F1E",
"s3	c #525658",
"t3	c #B8BCBF",
"u3	c #C7C9CA",
"v3	c #201E1C",
"w3	c #5D5C57",
"x3	c #C9C7C6",
"y3	c #A6A4A7",
"z3	c #171518",
"A3	c #161517",
"B3	c #141416",
"C3	c #1C2021",
"D3	c #1A2020",
"E3	c #1B2020",
"F3	c #1C201F",
"G3	c #B7B8B7",
"H3	c #3A3B37",
"I3	c #1F1E1A",
"J3	c #25241F",
"K3	c #BEBDB8",
"L3	c #CCCBCA",
"M3	c #ABA9AC",
"N3	c #1D1B1E",
"O3	c #181719",
"P3	c #1C2121",
"Q3	c #B9BDC0",
"R3	c #CACBCE",
"S3	c #C3C3C3",
"T3	c #9C9C9A",
"U3	c #13130D",
"V3	c #1B1A16",
"W3	c #858480",
"X3	c #121214",
"Y3	c #161618",
"Z3	c #1C1F20",
"`3	c #1C2020",
" 4	c #191E1A",
".4	c #181C1B",
"+4	c #515454",
"@4	c #BBBCBE",
"#4	c #676765",
"$4	c #171814",
"%4	c #0B0A05",
"&4	c #171613",
"*4	c #474641",
"=4	c #BFBEBC",
"-4	c #CCCCCD",
";4	c #151616",
">4	c #191A1B",
",4	c #1B1E1E",
"'4	c #1A1D1D",
")4	c #191C1A",
"!4	c #161A16",
"~4	c #151918",
"{4	c #505252",
"]4	c #BFBFBF",
"^4	c #343431",
"/4	c #141410",
"(4	c #1B1A15",
"_4	c #1E1D19",
":4	c #9C9C99",
"<4	c #A5A5A5",
"[4	c #121413",
"}4	c #1D1F1E",
"|4	c #1B1D1C",
"14	c #4F5051",
"24	c #959593",
"34	c #131210",
"44	c #21201D",
"54	c #0B0A06",
"64	c #242320",
"74	c #212321",
"84	c #171816",
"94	c #515250",
"04	c #C6C6C7",
"a4	c #41403E",
"b4	c #12110E",
"c4	c #131411",
"d4	c #131714",
"e4	c #141715",
"f4	c #151514",
"g4	c #4C4C4B",
"h4	c #BDBDBD",
"i4	c #9F9E9E",
"j4	c #12110F",
"k4	c #110F0A",
"l4	c #16150D",
"m4	c #0D0F0B",
"n4	c #141815",
"o4	c #1D221E",
"p4	c #1D201D",
"q4	c #1D1F1C",
"r4	c #171715",
"s4	c #4F4F4E",
"t4	c #C5C4C4",
"u4	c #595757",
"v4	c #13120F",
"w4	c #0E0C08",
"x4	c #16130D",
"y4	c #13110B",
"z4	c #373532",
"A4	c #0D100B",
"B4	c #121814",
"C4	c #1A1F1B",
"D4	c #1C211D",
"E4	c #181715",
"F4	c #51514E",
"G4	c #B8B8B6",
"H4	c #C5C3C4",
"I4	c #ACABAA",
"J4	c #252423",
"K4	c #211D1A",
"L4	c #110D09",
"M4	c #120F07",
"N4	c #12100A",
"O4	c #1C1B19",
"P4	c #0E110D",
"Q4	c #0E130F",
"R4	c #131814",
"S4	c #171614",
"T4	c #151512",
"U4	c #535350",
"V4	c #B8B7B5",
"W4	c #D0CECF",
"X4	c #838282",
"Y4	c #1A1917",
"Z4	c #0C0805",
"`4	c #181510",
" 5	c #100D07",
".5	c #19160D",
"+5	c #110F0C",
"@5	c #0D100D",
"#5	c #131613",
"$5	c #1A1E1A",
"%5	c #171C18",
"&5	c #1A1D1C",
"*5	c #161714",
"=5	c #181713",
"-5	c #151610",
";5	c #50504C",
">5	c #BDBCBA",
",5	c #BCBBBA",
"'5	c #494746",
")5	c #120F06",
"!5	c #13110A",
"~5	c #11100E",
"{5	c #171817",
"]5	c #1C211F",
"^5	c #1A2120",
"/5	c #17201F",
"(5	c #161D1B",
"_5	c #121816",
":5	c #141714",
"<5	c #191814",
"[5	c #484744",
"}5	c #C4C3BF",
"|5	c #969591",
"15	c #13130F",
"25	c #130E0D",
"35	c #161615",
"45	c #1A1F1D",
"55	c #192221",
"65	c #172121",
"75	c #151F1E",
"85	c #141917",
"95	c #141814",
"05	c #383834",
"a5	c #5E5D59",
"b5	c #353430",
"c5	c #0C0B08",
"d5	c #100E0A",
"e5	c #14100C",
"f5	c #130E0B",
"g5	c #110E0D",
"h5	c #161B19",
"i5	c #1A2121",
"j5	c #16201F",
"k5	c #161916",
"l5	c #3D3D3B",
"m5	c #120E0B",
"n5	c #131615",
"o5	c #191F1D",
"p5	c #19221F",
"q5	c #18211E",
"r5	c #181D1C",
"s5	c #151412",
"t5	c #1D1C18",
"u5	c #3B3B3B",
"v5	c #120F0B",
"w5	c #11110C",
"x5	c #0F1311",
"y5	c #161C19",
"z5	c #19211E",
"A5	c #1B201E",
"B5	c #0B0A08",
"C5	c #1E1E1D",
"D5	c #110E0B",
"E5	c #141915",
"F5	c #191F1C",
"G5	c #1B211F",
"H5	c #1D2120",
"I5	c #111110",
"J5	c #0E130D",
"K5	c #171C17",
"L5	c #1D1F20",
"M5	c #343434",
"N5	c #10130D",
"O5	c #141913",
"P5	c #191D1A",
"Q5	c #1A1E1D",
"R5	c #1C1F1F",
"S5	c #1B1C1F",
"T5	c #17181B",
"U5	c #171718",
"V5	c #0D0B07",
"W5	c #2A2A2A",
"X5	c #10130C",
"Y5	c #12140F",
"Z5	c #191D20",
"`5	c #191C20",
" 6	c #212121",
".6	c #0F0F0E",
"+6	c #1B1E1D",
"@6	c #1D2021",
"#6	c #1B1F22",
"$6	c #1A1D22",
"%6	c #1A1A1D",
"&6	c #141414",
"*6	c #191A1A",
"=6	c #1C1E21",
"-6	c #1B1E23",
";6	c #191C23",
">6	c #16171A",
",6	c #0F110B",
"'6	c #1A1C1D",
")6	c #1C1D22",
"!6	c #15191E",
"~6	c #121315",
"{6	c #0F1209",
"]6	c #0F120A",
"^6	c #0F120B",
"/6	c #1A1A19",
"(6	c #141415",
"_6	c #13130E",
":6	c #0E0D0B",
"<6	c #121009",
"[6	c #0E100B",
"}6	c #0C100B",
"|6	c #0B0D0A",
"16	c #14130D",
"26	c #13100A",
"36	c #0A0D08",
"46	c #0F140E",
"56	c #171C16",
"66	c #131813",
"76	c #141511",
"86	c #0B0F09",
"96	c #232822",
"06	c #3C433C",
"a6	c #3D433F",
"b6	c #333631",
"c6	c #31312D",
"d6	c #130F0A",
"e6	c #090E08",
"f6	c #363C36",
"g6	c #353C35",
"h6	c #2B312D",
"i6	c #51544E",
"j6	c #272722",
"k6	c #30302D",
"l6	c #3E433D",
"m6	c #454C45",
"n6	c #333935",
"o6	c #474944",
"p6	c #282823",
"q6	c #1C1C18",
"r6	c #060702",
"s6	c #11140F",
"t6	c #292D27",
"u6	c #494D47",
"v6	c #4F524E",
"w6	c #3B3D38",
"x6	c #12120F",
"y6	c #1E201B",
"z6	c #232321",
"A6	c #31312F",
"B6	c #0E0E0B",
"C6	c #10100D",
"D6	c #1E1D1A",
"E6	c #0E100A",
"F6	c #2F2D28",
"G6	c #2A2A27",
"H6	c #13150F",
"I6	c #4E4D49",
"J6	c #11130D",
"K6	c #0D0C0A",
"L6	c #1F1F19",
"M6	c #2F2F2A",
"N6	c #191913",
"O6	c #2D2D27",
"P6	c #292926",
"Q6	c #100F0C",
"R6	c #4E4D47",
"S6	c #1B1B16",
"T6	c #2D2D28",
"U6	c #090A07",
"V6	c #2D2D2A",
"W6	c #100F0D",
"X6	c #0C0A05",
"Y6	c #0E0D07",
"Z6	c #1B1914",
"`6	c #0F0E0C",
" 7	c #090806",
".7	c #15130F",
"+7	c #22211D",
"@7	c #3E3E3B",
"#7	c #101006",
"$7	c #121208",
"%7	c #0E0E09",
"&7	c #090907",
"*7	c #1D1D1D",
"=7	c #15150F",
"-7	c #0E0E05",
";7	c #141409",
">7	c #181712",
",7	c #1B1C18",
"'7	c #575753",
")7	c #0B0A07",
"!7	c #111108",
"~7	c #111107",
"{7	c #14120F",
"]7	c #2E2E2A",
"^7	c #171913",
"/7	c #21201E",
"(7	c #15150D",
"_7	c #0C0C04",
":7	c #13140C",
"<7	c #15130D",
"[7	c #3E3C3A",
"}7	c #15150C",
"|7	c #0D0D03",
"17	c #191713",
"27	c #1B1A17",
"37	c #13130A",
"47	c #101007",
"57	c #0F0E0B",
"67	c #2C2C2B",
"77	c #0E0F07",
"87	c #31312C",
"97	c #0D0D05",
"07	c #16160E",
"a7	c #12100D",
"b7	c #1F1F1C",
"c7	c #12120E",
"d7	c #0B0B07",
"e7	c #34322E",
"f7	c #2C2E29",
"g7	c #12120B",
"h7	c #252524",
"i7	c #2C2C29",
"j7	c #0A0A02",
"k7	c #0D0D0B",
"l7	c #1F1F1B",
"m7	c #3D3B37",
"n7	c #0F0D09",
"o7	c #21221D",
"p7	c #1A1915",
"q7	c #31322C",
"r7	c #0A0A05",
"s7	c #3B3C37",
"t7	c #171711",
"u7	c #121109",
"v7	c #0D110B",
"w7	c #0D0E0B",
"x7	c #40413B",
"y7	c #282825",
"z7	c #0A0C07",
"A7	c #121711",
"B7	c #0E120E",
"C7	c #0C0B05",
"D7	c #42443D",
"E7	c #272522",
"F7	c #0D0C09",
"G7	c #0B0E09",
"H7	c #3E443E",
"I7	c #383E3A",
"J7	c #2C2F2A",
"K7	c #434540",
"L7	c #1A1916",
"M7	c #0C0D09",
"N7	c #0B100A",
"O7	c #343A33",
"P7	c #404740",
"Q7	c #353B37",
"R7	c #41453F",
"S7	c #1E1E19",
"T7	c #3E3F39",
"U7	c #393F38",
"V7	c #434943",
"W7	c #3A403C",
"X7	c #474A44",
"Y7	c #3A3B36",
"Z7	c #272823",
"`7	c #252A24",
" 8	c #454A44",
".8	c #454945",
"+8	c #30322D",
"@8	c #3F413B",
"#8	c #171512",
"$8	c #1E211B",
"%8	c #21221F",
"&8	c #40423C",
"*8	c #0F0E0D",
"=8	c #0C0C08",
"-8	c #090B08",
";8	c #1E1F17",
">8	c #32322F",
",8	c #20201B",
"'8	c #26271F",
")8	c #110F0B",
"!8	c #0F0F09",
"~8	c #12120D",
"{8	c #141411",
"]8	c #0E0E07",
"^8	c #383832",
"/8	c #101009",
"(8	c #0B0B0A",
"_8	c #121209",
":8	c #181810",
"<8	c #14140C",
"[8	c #22221D",
"}8	c #343330",
"|8	c #20201C",
"18	c #090903",
"28	c #171710",
"38	c #13130C",
"48	c #262621",
"58	c #0A0907",
"68	c #484644",
"78	c #0E0D0A",
"88	c #292825",
"98	c #090904",
"08	c #3B3B38",
"a8	c #1A1817",
"b8	c #373535",
"c8	c #181814",
"d8	c #1C1E18",
"e8	c #282623",
"f8	c #262420",
"g8	c #12140D",
"h8	c #1C1C17",
"i8	c #201F1B",
"j8	c #0D0D09",
"k8	c #161512",
"l8	c #201E1A",
"m8	c #292822",
"n8	c #51514C",
"o8	c #23231F",
"p8	c #161713",
"q8	c #272622",
"r8	c #3A3A36",
"s8	c #20201A",
"t8	c #080A07",
"u8	c #2B2A25",
"v8	c #21211E",
"w8	c #15130E",
"x8	c #383634",
"y8	c #15140E",
"z8	c #373734",
"A8	c #292924",
"B8	c #11130A",
"C8	c #090A02",
"D8	c #474742",
"E8	c #121007",
"F8	c #121106",
"G8	c #3D3F36",
"H8	c #0B0C04",
"I8	c #101207",
"J8	c #34342E",
"K8	c #141413",
"L8	c #161411",
"M8	c #1D1E18",
"N8	c #101208",
"O8	c #211F1C",
"P8	c #3C3E37",
"Q8	c #21211C",
"R8	c #0D120C",
"S8	c #1F201B",
"T8	c #242620",
"U8	c #0E110C",
"V8	c #0F110A",
"W8	c #11100F",
"X8	c #272824",
"Y8	c #130F0B",
"Z8	c #15110C",
"`8	c #140F07",
" 9	c #140F08",
".9	c #171815",
"+9	c #393939",
"@9	c #0E0D06",
"#9	c #130F09",
"$9	c #130F08",
"%9	c #14110D",
"&9	c #3B3D37",
"*9	c #130D09",
"=9	c #15100B",
"-9	c #0F0705",
";9	c #19120D",
">9	c #140D07",
",9	c #160D09",
"'9	c #231A12",
")9	c #2D231B",
"!9	c #251A12",
"~9	c #1A0F07",
"{9	c #180E05",
"]9	c #150C04",
"^9	c #150F08",
"/9	c #1C1C1C",
"(9	c #110F06",
"_9	c #151108",
":9	c #151209",
"<9	c #1C150F",
"[9	c #17110B",
"}9	c #15100A",
"|9	c #17120E",
"19	c #0E0B08",
"29	c #1A100D",
"39	c #180C08",
"49	c #211510",
"59	c #1C0E0B",
"69	c #4D403B",
"79	c #756861",
"89	c #9B8B85",
"99	c #9D8D85",
"09	c #9D8C82",
"a9	c #9B8A80",
"b9	c #87756B",
"c9	c #635148",
"d9	c #4A3D32",
"e9	c #3B3126",
"f9	c #30281E",
"g9	c #272319",
"h9	c #191810",
"i9	c #0D0F08",
"j9	c #0C0E09",
"k9	c #0E0E0E",
"l9	c #19130C",
"m9	c #19120A",
"n9	c #181006",
"o9	c #150C03",
"p9	c #150B02",
"q9	c #120B03",
"r9	c #15110E",
"s9	c #1D1F1A",
"t9	c #1B1813",
"u9	c #1D100C",
"v9	c #20100D",
"w9	c #4F3D37",
"x9	c #A99692",
"y9	c #B19E97",
"z9	c #B9A59E",
"A9	c #B49F97",
"B9	c #B69F96",
"C9	c #B59E93",
"D9	c #B39A90",
"E9	c #B2998D",
"F9	c #B1988C",
"G9	c #A59183",
"H9	c #847164",
"I9	c #5E5144",
"J9	c #4E453A",
"K9	c #3B392E",
"L9	c #1A1B12",
"M9	c #0F120D",
"N9	c #16110A",
"O9	c #150D05",
"P9	c #140B03",
"Q9	c #1A0E04",
"R9	c #1A0C02",
"S9	c #1B0C02",
"T9	c #1B0F05",
"U9	c #1B110B",
"V9	c #120A06",
"W9	c #130C07",
"X9	c #18100D",
"Y9	c #20221C",
"Z9	c #2C1916",
"`9	c #7A635E",
" 0	c #B39D97",
".0	c #B49A95",
"+0	c #BAA09A",
"@0	c #BA9F97",
"#0	c #BA9E94",
"$0	c #BC9F94",
"%0	c #BEA095",
"&0	c #A5867B",
"*0	c #8B6B5F",
"=0	c #8E6F61",
"-0	c #8E7262",
";0	c #876F5E",
">0	c #6A5747",
",0	c #544638",
"'0	c #423B2E",
")0	c #1E1C11",
"!0	c #0F120C",
"~0	c #27271F",
"{0	c #333029",
"]0	c #3E3930",
"^0	c #473E36",
"/0	c #62574E",
"(0	c #65584F",
"_0	c #64544A",
":0	c #5B4B40",
"<0	c #544337",
"[0	c #524137",
"}0	c #2C221C",
"|0	c #1E1511",
"10	c #1B120D",
"20	c #1A120F",
"30	c #140D0A",
"40	c #1F1F1D",
"50	c #1B1C16",
"60	c #1D1613",
"70	c #705A56",
"80	c #B69A96",
"90	c #B89E97",
"00	c #C0A39D",
"a0	c #BB9E96",
"b0	c #B89A91",
"c0	c #BC9B92",
"d0	c #BD9A91",
"e0	c #C29F93",
"f0	c #B28D82",
"g0	c #967164",
"h0	c #8F6B5C",
"i0	c #876853",
"j0	c #8E725D",
"k0	c #856D5B",
"l0	c #655545",
"m0	c #3D3325",
"n0	c #1A150A",
"o0	c #141513",
"p0	c #1B1E16",
"q0	c #3B3C32",
"r0	c #5A564C",
"s0	c #73685F",
"t0	c #8E8075",
"u0	c #A59388",
"v0	c #9B897B",
"w0	c #A28E82",
"x0	c #A48F84",
"y0	c #A18C81",
"z0	c #A18A80",
"A0	c #A29087",
"B0	c #928379",
"C0	c #76685F",
"D0	c #463A34",
"E0	c #211610",
"F0	c #191310",
"G0	c #392E29",
"H0	c #B19792",
"I0	c #BC9F99",
"J0	c #BA9D95",
"K0	c #B99B92",
"L0	c #BA9B92",
"M0	c #C0A097",
"N0	c #BE9D94",
"O0	c #BF9C93",
"P0	c #C39F94",
"Q0	c #C19B91",
"R0	c #AC887B",
"S0	c #906C5E",
"T0	c #95735F",
"U0	c #8B6B55",
"V0	c #8E715E",
"W0	c #796350",
"X0	c #433425",
"Y0	c #141108",
"Z0	c #0C0E0B",
"`0	c #262626",
" a	c #32372D",
".a	c #535347",
"+a	c #645A4D",
"@a	c #836E61",
"#a	c #A5897C",
"$a	c #AD8E80",
"%a	c #A98B7B",
"&a	c #A88D80",
"*a	c #A98D83",
"=a	c #AB8C86",
"-a	c #AB8B84",
";a	c #AA8C7E",
">a	c #A48A7A",
",a	c #A48C7D",
"'a	c #736258",
")a	c #2E2118",
"!a	c #3D3D37",
"~a	c #100F08",
"{a	c #A28F8C",
"]a	c #B99D96",
"^a	c #BB9D94",
"/a	c #BC9E95",
"(a	c #BC9E96",
"_a	c #BB9D95",
":a	c #BC9C94",
"<a	c #BE9E95",
"[a	c #BD9E94",
"}a	c #B8998E",
"|a	c #9E7D72",
"1a	c #906E5E",
"2a	c #8E6C58",
"3a	c #90705C",
"4a	c #876A56",
"5a	c #513C2C",
"6a	c #190C01",
"7a	c #151109",
"8a	c #10120E",
"9a	c #0E1111",
"0a	c #393C32",
"aa	c #565448",
"ba	c #65584B",
"ca	c #8A7063",
"da	c #AC8D7E",
"ea	c #AB8777",
"fa	c #A88776",
"ga	c #AF9181",
"ha	c #B6998B",
"ia	c #B79B8F",
"ja	c #B89992",
"ka	c #B99890",
"la	c #B29283",
"ma	c #AD907D",
"na	c #A38877",
"oa	c #A99384",
"pa	c #A08E81",
"qa	c #78685F",
"ra	c #B49F9C",
"sa	c #B99E96",
"ta	c #BB9D93",
"ua	c #BA9C94",
"va	c #B99B93",
"wa	c #B89A90",
"xa	c #BC9E94",
"ya	c #B49489",
"za	c #8E6C5D",
"Aa	c #94715E",
"Ba	c #8A6A55",
"Ca	c #977863",
"Da	c #654E3B",
"Ea	c #251608",
"Fa	c #0D0705",
"Ga	c #1E1E1E",
"Ha	c #222318",
"Ia	c #575245",
"Ja	c #69594C",
"Ka	c #90776B",
"La	c #AA8A7C",
"Ma	c #AB8778",
"Na	c #AF8E7D",
"Oa	c #B89A89",
"Pa	c #BFA395",
"Qa	c #BFA397",
"Ra	c #BEA197",
"Sa	c #C1A198",
"Ta	c #BFA091",
"Ua	c #BB9F8D",
"Va	c #B49988",
"Wa	c #A48D7D",
"Xa	c #9C897B",
"Ya	c #A39388",
"Za	c #0E0E06",
"`a	c #B6A5A5",
" b	c #B79F9E",
".b	c #BA9D96",
"+b	c #BC9D94",
"@b	c #BB9C94",
"#b	c #BD9E96",
"$b	c #B7998F",
"%b	c #BD9F95",
"&b	c #BB9B91",
"*b	c #AC8B7C",
"=b	c #8C6958",
"-b	c #926F5B",
";b	c #90705B",
">b	c #7B634F",
",b	c #342515",
"'b	c #211911",
")b	c #1A180D",
"!b	c #534A3E",
"~b	c #645246",
"{b	c #9B7E73",
"]b	c #AA897B",
"^b	c #AB887A",
"/b	c #BA9E8D",
"(b	c #BBA191",
"_b	c #B89E91",
":b	c #B99D92",
"<b	c #BDA090",
"[b	c #BDA190",
"}b	c #BCA190",
"|b	c #B79F8F",
"1b	c #AD988B",
"2b	c #A18F84",
"3b	c #A1948B",
"4b	c #B19E9E",
"5b	c #B89E9D",
"6b	c #BA9C96",
"7b	c #BF9E95",
"8b	c #BA9990",
"9b	c #BD9C93",
"0b	c #C09F97",
"ab	c #B9988F",
"bb	c #A3826F",
"cb	c #906D59",
"db	c #8E6D58",
"eb	c #8E7360",
"fb	c #534030",
"gb	c #1C1109",
"hb	c #383838",
"ib	c #3E3D39",
"jb	c #241F14",
"kb	c #574A3F",
"lb	c #756055",
"mb	c #A4867B",
"nb	c #AD8B7E",
"ob	c #B18F81",
"pb	c #C0A191",
"qb	c #BDA291",
"rb	c #BAA291",
"sb	c #B9A193",
"tb	c #BBA094",
"ub	c #BCA094",
"vb	c #BB9E8E",
"wb	c #C1A593",
"xb	c #BA9F8E",
"yb	c #B79B8D",
"zb	c #BBA395",
"Ab	c #B6A395",
"Bb	c #AD9D93",
"Cb	c #B9ACA3",
"Db	c #090804",
"Eb	c #B59F9E",
"Fb	c #BCA09E",
"Gb	c #BB9C96",
"Hb	c #BD9C94",
"Ib	c #BD9C92",
"Jb	c #BA9A90",
"Kb	c #C0A096",
"Lb	c #BC9B91",
"Mb	c #BF9F94",
"Nb	c #BC9B93",
"Ob	c #B39289",
"Pb	c #A38375",
"Qb	c #B99886",
"Rb	c #A6826F",
"Sb	c #906C57",
"Tb	c #8C6E5A",
"Ub	c #7F6859",
"Vb	c #251D12",
"Wb	c #655549",
"Xb	c #988074",
"Yb	c #A8897E",
"Zb	c #AE8B80",
"`b	c #BD9C8D",
" c	c #BFA090",
".c	c #BBA08F",
"+c	c #B8A18F",
"@c	c #B9A292",
"#c	c #BB9F93",
"$c	c #C0A393",
"%c	c #BB9E8D",
"&c	c #B69C8E",
"*c	c #B8A193",
"=c	c #B9A59A",
"-c	c #B4A49B",
";c	c #191813",
">c	c #0B0B03",
",c	c #BCACA9",
"'c	c #B69E9B",
")c	c #BB9D9B",
"!c	c #BE9D98",
"~c	c #BA9A8F",
"{c	c #B5958A",
"]c	c #B49487",
"^c	c #B6968B",
"/c	c #B7978C",
"(c	c #BF9E96",
"_c	c #BC9A92",
":c	c #A78779",
"<c	c #9E7A64",
"[c	c #906F5C",
"}c	c #8C7162",
"|c	c #281C11",
"1c	c #705D51",
"2c	c #A1877B",
"3c	c #A8877C",
"4c	c #B18E82",
"5c	c #B99D8D",
"6c	c #BEA493",
"7c	c #B8A08E",
"8c	c #BAA393",
"9c	c #BCA293",
"0c	c #BEA091",
"ac	c #BC9F8F",
"bc	c #BEA192",
"cc	c #BCA294",
"dc	c #BAA497",
"ec	c #B8A69B",
"fc	c #B9AAA5",
"gc	c #B69D9B",
"hc	c #BC9D9A",
"ic	c #BE9C97",
"jc	c #BE9C94",
"kc	c #BC9A91",
"lc	c #B7958A",
"mc	c #A07E71",
"nc	c #A38272",
"oc	c #98776A",
"pc	c #A9877A",
"qc	c #B9978C",
"rc	c #BF9D94",
"sc	c #BB9B8E",
"tc	c #AF8E7B",
"uc	c #997561",
"vc	c #AD8871",
"wc	c #8C705D",
"xc	c #7A6658",
"yc	c #A48A7D",
"zc	c #AE8D82",
"Ac	c #B59387",
"Bc	c #BB9A8D",
"Cc	c #C3A796",
"Dc	c #BDA392",
"Ec	c #B9A18F",
"Fc	c #BBA291",
"Gc	c #BB9F8F",
"Hc	c #BB9E8F",
"Ic	c #BFA294",
"Jc	c #C1A394",
"Kc	c #BE9F8F",
"Lc	c #BEA08E",
"Mc	c #BFA08F",
"Nc	c #BAA193",
"Oc	c #B7A396",
"Pc	c #AC9A90",
"Qc	c #BAA9A3",
"Rc	c #B99D9A",
"Sc	c #BE9B98",
"Tc	c #BB9893",
"Uc	c #BE9B94",
"Vc	c #C19F95",
"Wc	c #B08E84",
"Xc	c #937264",
"Yc	c #7A5949",
"Zc	c #725241",
"`c	c #8D6B5D",
" d	c #A78579",
".d	c #B6948B",
"+d	c #BF9C95",
"@d	c #C0A094",
"#d	c #BC9B8A",
"$d	c #95705C",
"%d	c #9B735D",
"&d	c #946D58",
"*d	c #8C6C59",
"=d	c #866F63",
"-d	c #665243",
";d	c #987E71",
">d	c #A9897C",
",d	c #BB998D",
"'d	c #BE9E91",
")d	c #B89C8B",
"!d	c #B39988",
"~d	c #B99F8E",
"{d	c #C0A192",
"]d	c #C4A495",
"^d	c #B99C8E",
"/d	c #B99A8C",
"(d	c #C7A896",
"_d	c #BA9B89",
":d	c #C2A391",
"<d	c #B9A293",
"[d	c #B09D92",
"}d	c #BAA5A0",
"|d	c #BA9C97",
"1d	c #BE9B97",
"2d	c #BF9C97",
"3d	c #BA9791",
"4d	c #C2A097",
"5d	c #906E62",
"6d	c #644333",
"7d	c #583726",
"8d	c #553423",
"9d	c #826151",
"0d	c #AA887B",
"ad	c #B9978D",
"bd	c #BC9993",
"cd	c #BD9A95",
"dd	c #BFA195",
"ed	c #B89685",
"fd	c #9C7762",
"gd	c #956B55",
"hd	c #946B56",
"id	c #8D6B57",
"jd	c #816459",
"kd	c #6D594A",
"ld	c #9D8476",
"md	c #A88A7C",
"nd	c #BC9C8F",
"od	c #C1A496",
"pd	c #BCA192",
"qd	c #BFA493",
"rd	c #B19583",
"sd	c #B0907E",
"td	c #A88777",
"ud	c #AE8F81",
"vd	c #A58778",
"wd	c #997869",
"xd	c #B29280",
"yd	c #C3A28F",
"zd	c #BF9F8D",
"Ad	c #BCA395",
"Bd	c #B9A499",
"Cd	c #B8A49E",
"Dd	c #BB9D98",
"Ed	c #C09A97",
"Fd	c #BE9894",
"Gd	c #C39E98",
"Hd	c #B9948C",
"Id	c #906C5F",
"Jd	c #926D5D",
"Kd	c #A88571",
"Ld	c #967361",
"Md	c #A3806F",
"Nd	c #AF8B7E",
"Od	c #BD978F",
"Pd	c #C49E99",
"Qd	c #BE9A95",
"Rd	c #B89A8E",
"Sd	c #B29382",
"Td	c #916B57",
"Ud	c #794F39",
"Vd	c #946A54",
"Wd	c #A27D6A",
"Xd	c #917468",
"Yd	c #807465",
"Zd	c #6E5D4D",
"`d	c #927A6B",
" e	c #AC8E81",
".e	c #BA998C",
"+e	c #BDA092",
"@e	c #BA9F8F",
"#e	c #AD8E7C",
"$e	c #AA8876",
"%e	c #8D695B",
"&e	c #5D3D30",
"*e	c #604234",
"=e	c #5C3C2B",
"-e	c #765544",
";e	c #AF8D79",
">e	c #C09E8B",
",e	c #BD9E8D",
"'e	c #BEA394",
")e	c #B7A196",
"!e	c #AE9E96",
"~e	c #1D1C1A",
"{e	c #BDB5AF",
"]e	c #B7A19C",
"^e	c #BC9C98",
"/e	c #C09A95",
"(e	c #C09A96",
"_e	c #C09B95",
":e	c #AB867D",
"<e	c #B08C80",
"[e	c #A98772",
"}e	c #AA8773",
"|e	c #C09C8F",
"1e	c #BC978F",
"2e	c #BE9993",
"3e	c #BD9994",
"4e	c #AF9286",
"5e	c #90705F",
"6e	c #6D4733",
"7e	c #835640",
"8e	c #A97D66",
"9e	c #A8816E",
"0e	c #957569",
"ae	c #6E6050",
"be	c #665341",
"ce	c #876D5E",
"de	c #AF9183",
"ee	c #B8988B",
"fe	c #C5A89A",
"ge	c #BCA092",
"he	c #BB9F90",
"ie	c #C1A594",
"je	c #BB9988",
"ke	c #553628",
"le	c #644537",
"me	c #735242",
"ne	c #603D2A",
"oe	c #7C5845",
"pe	c #B99682",
"qe	c #BF9E8B",
"re	c #C0A292",
"se	c #B29B8E",
"te	c #B09E94",
"ue	c #181613",
"ve	c #BFB3AB",
"we	c #B6A099",
"xe	c #BC9C96",
"ye	c #BF9A94",
"ze	c #C09B93",
"Ae	c #AA857D",
"Be	c #B49184",
"Ce	c #AF8D7D",
"De	c #B49382",
"Ee	c #BF9D93",
"Fe	c #B18F87",
"Ge	c #907060",
"He	c #69442F",
"Ie	c #A47B65",
"Je	c #A9826D",
"Ke	c #A68575",
"Le	c #765B51",
"Me	c #6C5647",
"Ne	c #6E5342",
"Oe	c #8C705F",
"Pe	c #A98C7C",
"Qe	c #C2A595",
"Re	c #BFA292",
"Se	c #A68979",
"Te	c #997A6B",
"Ue	c #997A6A",
"Ve	c #7E6153",
"We	c #826253",
"Xe	c #A58472",
"Ye	c #B08C77",
"Ze	c #6B4731",
"`e	c #B18A74",
" f	c #C09D87",
".f	c #C3A390",
"+f	c #BA9E90",
"@f	c #B59F93",
"#f	c #1D1B18",
"$f	c #BFB3AD",
"%f	c #B6A29C",
"&f	c #B99F98",
"*f	c #C09C92",
"=f	c #C09C91",
"-f	c #BE9D90",
";f	c #A18074",
">f	c #BD9C91",
",f	c #BC9C92",
"'f	c #BD9F94",
")f	c #8D6E60",
"!f	c #724D37",
"~f	c #6E4931",
"{f	c #97745E",
"]f	c #A48571",
"^f	c #99806F",
"/f	c #644E42",
"(f	c #715B4D",
"_f	c #826555",
":f	c #7C5F4F",
"<f	c #A58978",
"[f	c #C1A595",
"}f	c #BEA191",
"|f	c #A98A7A",
"1f	c #614131",
"2f	c #6D4C3A",
"3f	c #AC8773",
"4f	c #936D57",
"5f	c #A68068",
"6f	c #C8A48E",
"7f	c #C0A08D",
"8f	c #BA9E8F",
"9f	c #BCA699",
"0f	c #A28F86",
"af	c #C0B8B6",
"bf	c #C2B6B2",
"cf	c #B5A29C",
"df	c #B8A099",
"ef	c #BD9B91",
"ff	c #B99686",
"gf	c #A07D6F",
"hf	c #BF9C91",
"if	c #C1A096",
"jf	c #BB9A90",
"kf	c #C2A297",
"lf	c #907263",
"mf	c #6B4B39",
"nf	c #6A452D",
"of	c #906C53",
"pf	c #A4846E",
"qf	c #A18675",
"rf	c #745E50",
"sf	c #402F26",
"tf	c #67625C",
"uf	c #6B5647",
"vf	c #977C6B",
"wf	c #492D1D",
"xf	c #5A3D2D",
"yf	c #9D8170",
"zf	c #B79A89",
"Af	c #B89B8A",
"Bf	c #BA9D8D",
"Cf	c #AE8E7E",
"Df	c #9B7A69",
"Ef	c #997865",
"Ff	c #B08D78",
"Gf	c #825E48",
"Hf	c #B79581",
"If	c #BD9E8C",
"Jf	c #BCA69A",
"Kf	c #9F8D83",
"Lf	c #C7C1BF",
"Mf	c #CCC1BE",
"Nf	c #B4A59E",
"Of	c #AF9992",
"Pf	c #B79B94",
"Qf	c #C1A196",
"Rf	c #BF9E8D",
"Sf	c #AD8A77",
"Tf	c #947060",
"Uf	c #B69284",
"Vf	c #C19D91",
"Wf	c #C09D91",
"Xf	c #AD8C7D",
"Yf	c #987767",
"Zf	c #6E4D3C",
"`f	c #6E4E39",
" g	c #936E59",
".g	c #A98771",
"+g	c #9F826E",
"@g	c #8E7366",
"#g	c #392419",
"$g	c #66615A",
"%g	c #796458",
"&g	c #998171",
"*g	c #6C5143",
"=g	c #3C2112",
"-g	c #432819",
";g	c #7A5F4F",
">g	c #AB8E7D",
",g	c #C1A493",
"'g	c #C0A391",
")g	c #C0A18F",
"!g	c #C2A390",
"~g	c #C1A08E",
"{g	c #C19F8B",
"]g	c #A68470",
"^g	c #72503C",
"/g	c #AD8D79",
"(g	c #BCA08D",
"_g	c #B9A192",
":g	c #B19F92",
"<g	c #A29187",
"[g	c #393735",
"}g	c #8E7D76",
"|g	c #9D8980",
"1g	c #9E8477",
"2g	c #957360",
"3g	c #8B6652",
"4g	c #7A5542",
"5g	c #A88371",
"6g	c #C09B8C",
"7g	c #C29E8F",
"8g	c #BE998A",
"9g	c #977360",
"0g	c #775441",
"ag	c #6B4833",
"bg	c #8F6B57",
"cg	c #A2816D",
"dg	c #A38472",
"eg	c #7C6153",
"fg	c #3F261A",
"gg	c #6D594F",
"hg	c #8A7366",
"ig	c #71594A",
"jg	c #3D2215",
"kg	c #32180A",
"lg	c #553929",
"mg	c #7B5F4E",
"ng	c #AA8D7B",
"og	c #BFA08C",
"pg	c #BD9E8A",
"qg	c #C5A492",
"rg	c #C1A08D",
"sg	c #745542",
"tg	c #8B6F5E",
"ug	c #A08879",
"vg	c #AF9A8D",
"wg	c #A39187",
"xg	c #2B2A27",
"yg	c #706057",
"zg	c #594538",
"Ag	c #805F4B",
"Bg	c #87634E",
"Cg	c #704C39",
"Dg	c #8B6755",
"Eg	c #A27D6B",
"Fg	c #A07B6A",
"Gg	c #A37C6C",
"Hg	c #906A59",
"Ig	c #855F4C",
"Jg	c #724C37",
"Kg	c #916A54",
"Lg	c #A8836D",
"Mg	c #A38373",
"Ng	c #83675A",
"Og	c #432A21",
"Pg	c #321B15",
"Qg	c #746256",
"Rg	c #816D5F",
"Sg	c #978174",
"Tg	c #654E40",
"Ug	c #3E2416",
"Vg	c #341A0A",
"Wg	c #361A09",
"Xg	c #4C2F1E",
"Yg	c #8E705E",
"Zg	c #BD9E89",
"`g	c #C0A190",
" h	c #9E8171",
".h	c #553B2C",
"+h	c #351D0F",
"@h	c #331F11",
"#h	c #625145",
"$h	c #624532",
"%h	c #81604B",
"&h	c #6C4B38",
"*h	c #795745",
"=h	c #906F5E",
"-h	c #926E5E",
";h	c #8E6959",
">h	c #8F6A58",
",h	c #704B38",
"'h	c #8D6752",
")h	c #AB826D",
"!h	c #A47E6B",
"~h	c #95786C",
"{h	c #412A21",
"]h	c #341F18",
"^h	c #67574D",
"/h	c #5E4E43",
"(h	c #67554A",
"_h	c #644F42",
":h	c #493224",
"<h	c #3F2616",
"[h	c #331806",
"}h	c #442715",
"|h	c #604431",
"1h	c #957662",
"2h	c #B49480",
"3h	c #BC9D8A",
"4h	c #BC9E8C",
"5h	c #B99E8E",
"6h	c #7D6557",
"7h	c #341E12",
"8h	c #1C0C0C",
"9h	c #533E2C",
"0h	c #7D634F",
"ah	c #654936",
"bh	c #715241",
"ch	c #8E6D5F",
"dh	c #866758",
"eh	c #836052",
"fh	c #724F3F",
"gh	c #876351",
"hh	c #AC8774",
"ih	c #A5806A",
"jh	c #9A7663",
"kh	c #452C22",
"lh	c #39261F",
"mh	c #50433C",
"nh	c #42342B",
"oh	c #604C40",
"ph	c #5E493A",
"qh	c #4B3324",
"rh	c #3F2414",
"sh	c #381D0B",
"th	c #452A17",
"uh	c #664733",
"vh	c #886957",
"wh	c #A68B7A",
"xh	c #8C7568",
"yh	c #464645",
"zh	c #5D4F3F",
"Ah	c #715D4D",
"Bh	c #7C6257",
"Ch	c #806155",
"Dh	c #A38576",
"Eh	c #A28270",
"Fh	c #9B7967",
"Gh	c #593A2A",
"Hh	c #331F17",
"Ih	c #3A2E26",
"Jh	c #423027",
"Kh	c #584538",
"Lh	c #6D5749",
"Mh	c #664F41",
"Nh	c #452E1E",
"Oh	c #301606",
"Ph	c #3E210F",
"Qh	c #482D1C",
"Rh	c #473023",
"Sh	c #99817A",
"Th	c #AC9289",
"Uh	c #987D72",
"Vh	c #6D5144",
"Wh	c #30190A",
"Xh	c #2E1F19",
"Yh	c #3E2F28",
"Zh	c #3C2D22",
"`h	c #4F3D30",
" i	c #604D3D",
".i	c #594534",
"+i	c #493322",
"@i	c #361B0F",
"#i	c #3B2213",
"$i	c #372317",
"%i	c #9A8881",
"&i	c #947E75",
"*i	c #38261B",
"=i	c #4F4034",
"-i	c #5E4E40",
";i	c #675546",
">i	c #55402F",
",i	c #54392A",
"'i	c #3F2819",
")i	c #0C0B09",
"!i	c #2B2929",
"~i	c #0B0D07",
"{i	c #23221E",
"]i	c #232220",
"^i	c #413F39",
"/i	c #464443",
"(i	c #2C2C25",
"_i	c #0A0906",
":i	c #13110F",
"<i	c #181710",
"[i	c #14160F",
"}i	c #0D0C06",
"|i	c #242321",
"1i	c #454341",
"2i	c #2D2D2B",
"3i	c #3A3835",
"4i	c #0B0B09",
"5i	c #42413D",
"6i	c #161616",
"7i	c #2F2E2B",
"8i	c #3F3D39",
"9i	c #272723",
"0i	c #353332",
"ai	c #0A0C06",
"bi	c #191715",
"ci	c #1C1A17",
"di	c #1E1C18",
"ei	c #2D2B27",
"fi	c #22211E",
"gi	c #1F1E18",
"hi	c #454542",
"ii	c #211F1E",
"ji	c #262522",
"ki	c #32302B",
"li	c #100E0B",
"mi	c #24231E",
"ni	c #393934",
"oi	c #363631",
"pi	c #1D1D1A",
"qi	c #1E1F1A",
"ri	c #1A1B17",
"si	c #080905",
"ti	c #0C0E08",
"ui	c #2B2B27",
"vi	c #181A14",
"wi	c #040401",
"xi	c #262722",
"yi	c #3B3B36",
"zi	c #1C1B16",
"Ai	c #312F2B",
"Bi	c #191716",
"Ci	c #2E2C27",
"Di	c #363632",
"Ei	c #403F3A",
"Fi	c #2B2926",
"Gi	c #0B0905",
"Hi	c #3A3936",
"Ii	c #252321",
"Ji	c #0D0D07",
"Ki	c #23221D",
"Li	c #2C2C28",
"Mi	c #151411",
"Ni	c #20201E",
"Oi	c #282725",
"Pi	c #41413C",
"Qi	c #32312D",
"Ri	c #24221E",
"Si	c #040302",
"Ti	c #1F1F1A",
"Ui	c #33312E",
"Vi	c #0F0D0A",
"Wi	c #0C0C0C",
"Xi	c #0B0B08",
"Yi	c #171712",
"Zi	c #191918",
"`i	c #292929",
" j	c #1A1A1A",
".j	c #363633",
"+j	c #080904",
"@j	c #11130C",
"#j	c #262520",
"$j	c #121310",
"%j	c #0E0F0C",
"&j	c #2F2F2B",
"*j	c #1A1A14",
"=j	c #262421",
"-j	c #514F4C",
";j	c #3D3C39",
">j	c #21211F",
",j	c #0B0D08",
"'j	c #252523",
")j	c #24231F",
"!j	c #252522",
"~j	c #282622",
"{j	c #32302D",
"]j	c #191A14",
"^j	c #34342F",
"/j	c #23231E",
"(j	c #282722",
"_j	c #24241F",
":j	c #161610",
"<j	c #21211D",
"[j	c #100D08",
"}j	c #181915",
"|j	c #171310",
"1j	c #16120F",
"2j	c #282A24",
"3j	c #1C1D18",
"4j	c #1F1D18",
"5j	c #232520",
"6j	c #171717",
"7j	c #101010",
"8j	c #2B2925",
"9j	c #131313",
"0j	c #110F0D",
"aj	c #292824",
"bj	c #333331",
"cj	c #292724",
"dj	c #191817",
"ej	c #3B3B3A",
"fj	c #1C1A16",
"gj	c #232323",
"hj	c #1B1C17",
"ij	c #191B15",
"jj	c #0C0C0B",
"kj	c #121410",
"lj	c #0E1009",
"mj	c #222221",
"nj	c #1D1E19",
"oj	c #2E2E28",
"pj	c #0B0A09",
"qj	c #14120D",
"rj	c #0D0D06",
"sj	c #0F0E07",
"tj	c #110C0A",
"uj	c #080704",
"vj	c #040200",
"wj	c #13100C",
"xj	c #13120B",
"yj	c #14140D",
"zj	c #0F0D0B",
"Aj	c #100E0C",
"Bj	c #252923",
"Cj	c #0C0A09",
"Dj	c #0C0C06",
"Ej	c #131611",
"Fj	c #0C0E0A",
"Gj	c #0E120C",
"Hj	c #080603",
"Ij	c #0F1310",
"Jj	c #0B100B",
"Kj	c #090909",
"Lj	c #5A5C58",
"Mj	c #E9EBE6",
"Nj	c #B1B3AE",
"Oj	c #060503",
"Pj	c #070502",
"Qj	c #101209",
"Rj	c #080D09",
"Sj	c #0C1410",
"Tj	c #070F08",
"Uj	c #222220",
"Vj	c #5A5C57",
"Wj	c #E8EAE5",
"Xj	c #B5B7B2",
"Yj	c #030200",
"Zj	c #140F0A",
"`j	c #140F0B",
" k	c #2A2D2A",
".k	c #757B77",
"+k	c #727D78",
"@k	c #29322D",
"#k	c #151713",
"$k	c #42443F",
"%k	c #32342F",
"&k	c #020100",
"*k	c #686C68",
"=k	c #F1F8F6",
"-k	c #E5F1ED",
";k	c #4F5A54",
">k	c #2D2D2D",
",k	c #030202",
"'k	c #0F1208",
")k	c #0F1207",
"!k	c #4A4E4A",
"~k	c #838C89",
"{k	c #B9C6C1",
"]k	c #919D97",
"^k	c #161613",
"/k	c #060603",
"(k	c #0C1411",
"_k	c #0A1611",
":k	c #121E17",
"<k	c #0E0F06",
"[k	c #0D120B",
"}k	c #171810",
"|k	c #0F1107",
"1k	c #111308",
"2k	c #0A0B04",
"3k	c #0E1006",
"4k	c #0A0B03",
"5k	c #121409",
"6k	c #16180E",
"7k	c #0B0C05",
"8k	c #111309",
"9k	c #12140A",
"0k	c #14150E",
"ak	c #0B0D05",
"bk	c #080806",
"ck	c #282824",
"dk	c #0C0D05",
"ek	c #070802",
"fk	c #161710",
"gk	c #000200",
"hk	c #272924",
"ik	c #191816",
"jk	c #22221F",
"kk	c #1A1A17",
"lk	c #12100E",
"mk	c #080808",
"nk	c #060401",
"                                                                                                                                                                                                                                                                                                                                                                                        ",
"                                                                                                                                                                                                                                                                                                                                                                                        ",
"                                                                                                                                                                                                                                                                                                                                                                                        ",
"                                                                                                                                                                                                                                      . + @ #                                                                                                                                           ",
"                                                                                                                                                                                                                            $ % & * = - ; > , ' ) ! ~ {                                                                                                                                 ",
"                                                                                                                                                                                                                        ] ^ / / ( _ : < [ } | 1 2 3 4 5 6 7                                                                                                                             ",
"                                                                                                                                                                                                                    8 9 0 a b c d e f g h h i j k | l l | | m                                                                                                                           ",
"                                                                                                                                                                                                                n o p q r s t u v w x y z A B C D E l F l l l G                                                                                                                         ",
"                                                                                                                                                                                                              H , I J d K L M N O P Q R S T T U V W X Y E Z `  .                                                                                                                        ",
"                                                                                                                                                                                                            ..+.@.#.L $.%.&.*.=.-.;.>.,.'.).!.~.{.].U ^./.(._.:.<.                                                                                                                      ",
"                                                                                                                                                                                                          [.}.|.1.2.3.4.5.6.7.8.9.0.a.b.c.d.e.f.g.h.i.j.x f k.l._.                                                                                                                      ",
"                                                                                                                                                                                                        m.n.o.p.q.r.s.t.u.v.w.x.y.z.A.B.C.D.E.F.G.H.I.J.K.L.J _ M.                                                                                                                      ",
"                                                                                                                                                                                                      N.O.P.Q.R.S.T.U.V.W.X.Y.Z.`. +.+++@+#+$+%+&+*+=+-+;+>+,+'+)+!+                                                                                                                    ",
"                                                                                                                                                                                                    ~+{+N ]+^+/+(+_+:+<+[+}+|+1+2+2+`.3+4+5+6+7+8+9+0+a+b+c+d+e+f+g+                                                                                                                    ",
"                                                                                                                                                                                                  h+i+b j+k+l+m+n+o+p+q+r+s+t+u+v+w+x+y+z+A+B+}+C+D+E+F+G+H+I+J+K+L+                                                                                                                    ",
"                                                                                                                                                                                                M+N+O+P+Q+R+S+T+U+V+W+X+Y+Z+`+B+ @.@+@@@#@$@4+%@&@*@=@-@;@>@,@'@)@!@                                                                                                                    ",
"                                                                                                                                                                                                ~@{@]@^@/@(@_@:@<@[@}@|@1@2@3@4@5@6@7@8@9@0@a@b@c@d@=@e@f@g@h@i@j@k@l@m@                                                                                                                ",
"                                                                                                                                                                                              n@o@p@q@r@s@t@u@v@w@x@y@z@A@[+B@C@D@E@F@F@G@H@I@J@K@L@M@N@O@P@Q@R@S@T@U@V@W@X@                                                                                                            ",
"                                                                                                                                                                                              Y@Z@`@ #.#+#@###$#%#&#*#=#-#;#>#,#'#)#)#!#~#{#]#^#/#(#_#:#<#<#[#}#|#1#2#3#4#5#                                                                                                            ",
"                                                                                                                                                                                              6#7#8#9#0#a#b#c#d#e#f#g#h#i#j#k#l#m#n#o#p#q#)#r#s#t#u#v#w#x#y#z#A#B#C#D#E#F#G#G                                                                                                           ",
"                                                                                                                                                                                            H#I#J#K#L#M#N#O#P#Q#}@R#S#T#U#V#W#X#o#Y#Z#Z#`#q#)# $.$+$@$#$$$%$&$*$=$-$;$>$,$'$)$!$                                                                                                        ",
"                                                                                                                                                                                            ~${$]$^$/$($_$:$<$[$}$|$1$2$3$4$5$6$7$Y#8$Z#Z#9$q#!#0$a$b$c$d$=$e$e$g# @f$g$h$i$j$k$                                                                                                        ",
"                                                                                                                                                                                          l$m$n$o$p$q$r$s$t$u$v$w$h@x$y$z$V#A$B$C$D$8$Z#Z#7$q#q#E$F$G$H$#@I$J$e$K$9+L$M$N$O$P$Q$R$                                                                                                      ",
"                                                                                                                                                                                          S$T$U$V$W$X$Y$Z$`$ %.%+%@%#%$%%%&%*%=%-%;%>%,%'%9$q#9$'%)%!%~%{%]%^%e$E+]%.@/%(%_%:%<%[%                                                                                                      ",
"                                                                                                                                                                                            }%|%1%2%3%4%5%6%7%8%9%0%a%b%c%d%e%B$f%>%>%>%g%C$h%i%>%j%k%l%m%7+d@*#n%E+g@o%p%q%r%s%t%                                                                                                      ",
"                                                                                                                                                                                            u%v%w%x%y%z%A%B%C%D%E%F%G%H%H%I%*%J%K%L%g%=%=%=%M%N%O%P%Q%R%S% @&@*@[#T%U%V%W%X%Y%Z%`%                                                                                                      ",
"                                                                                                                                                                                           &.&+&@&#&$&%&&&*&=&-&;&>&,&'&)&!%k%k%!&-%)%~&{&=%C$]&^&E$/&(&_&:&<&*@z#[&}&|&1&2&3&4&5&                                                                                                      ",
"                                                                                                                                                                                          6&7&8&9&0&a&b&c&d&e&f&g&h&i&j&k&l&{&{&{&m&j%-%-%m&>%n&Z#6$z$o&p&u+q&r&s&t&u&v&w&x&y&z&A&                                                                                                      ",
"                                                                                                                                                                                      B&C&D&E&F&G&H&I&J&K&L&M&N&O&P&Q&i&R&f%f%C$C$9$S&o#m&T&U&V&T&!%W&X&Y&Z&`&&# *.*+*@*#*$*%*&***                                                                                                      ",
"                                                                                                                                                                                    =*-*;*>*,*'*)*!*~*{*]*^*/*(*_*:*<*[*}*|*1*m&2*3*4*5*6*6$F$7*8*l&9*0*a*b*<&&#c*d*e*f*g*h*i*j*k*                                                                                                      ",
"                                                                                                                                                                                    l*m*n*o*p*q*r*s*t*L&u*v*/.w*x*y*M&z*A*B*C*D*E*F*G*H*I*J*4$5$K*,&L*M*N*O*P*x@Q*R*S*T*U*V*W*X*Y*                                                                                                      ",
"                                                                                                                                                                                    Z*`* =.=+=@=#=$=%=&=*===-=;=>=,='=)=!=~={=]=^=/=(=_={#:=<=[=}=3$|=1=2=3=4=5=6=7=8=9=0=a=b=c=d=                                                                                                      ",
"                                                                                                                                                                                  e=f=g=h=i=j=k=l=m=n=o=p=q=r=s=t=u=v=w=x=y=z=A=B=C=D=E=F=G=H=I=J=K=L=M=N=O=P=Q=R=S=T=U=V=W=X=Y=Z=                                                                                                      ",
"                                                                                                                                                                                  `= -.-+-@-#-$-%-&-*-=---;->-,-'-)-!-~-{-]-^-/-(-_-:-<-[-}-|-1-2-3-4-5-6-7-8-9-0-a-b-c-d-e-f-g-h-                                                                                                      ",
"                                                                                                                                                                                  i-j-k-l-m-n-o-p-q-r-s-t-u-v-w-x-y-z-A-B-C-D-E-F-G-H-I-W$J-K-L-M-N-O-_&P-Q-R-S-T-U-V-W-X-Y-Z-`-                                                                                                        ",
"                                                                                                                                                                                   ;.;+;@;#;$;%;&;*;=;-;;;>;,;';);!;~;{;];^;/;(;_;E.:;<;[;};|;1;2;3;4;5;6;7;8;9;0;a;b;c;d;g+e;f;                                                                                                        ",
"                                                                                                                                                                                g;h;i;f=j;k;l;m;n;o;p;q;r;s;t;u;v;w;x;y;z;A;B;C;D;E;F;G;H;^@^@I;J;K;L;M;N;O;P;Q;R;S;T;U;V;d=W;                                                                                                          ",
"                                                                                                                                                                                X;Y;Z;`; >.>+>@>#>$>%>&>*>=>->;>>>,>'>)>!>~>{>]>^>/>(>_>:><>[>}>|>1>J&2>3>4>5>6>7>S;8>9>f 0>                                                                                                            ",
"                                                                                                                                                                                a>b>c>d>e>f>g>h>i>j>k>l>m>n>o>p>q>r>s>t>u>v>w>x>y>z>A>B>C>D>E>F>G>H>I>J>K>L>M>N>O>P>Q>R>E                                                                                                               ",
"                                                                                                                                                                                S>T>U>V>W>X>Y>Z>`> ,.,+,@,#,$,%,&,*,=,-,;,>,,,',),!,~,B>{,],^,/,(,_,w :,<,[,},|,1,2,*=3,                                                                                                                ",
"                                                                                                                                                                                  4,5,6,7,8,9,z#*#0,a,b,c,d,e,f,g,h,i,j,k,l,m,n,o,p,q,r,s,t,u,v,w,x,y,z,A,B,C,D,E,F,G,                                                                                                                  ",
"                                                                                                                                                                                  H,I,J,K,L,M,N,*#O,P,Q,R,S,T,U,V,W,X,Y,Z,`, '.'+'@'#'$'%'&'*'='-';'>']*,''')'!'~'{'                                                                                                                    ",
"                                                                                                                                                                                      ]'^'/'('&#f#]%0+_':'<'['}'|'1'2'3'4'5'6'7'8'9'0'a'b'c'd'e'f'g'h'i'j'k'l'm'n'o'                                                                                                                    ",
"                                                                                                                                                                                      p'q'r's't'w#u'v'w'x'y'z'A'B'C'D'E'F'G'H'I'J'K'L'M'N'O'P'Q'R'S'T'U'V'W'X'Y'Z'`'                                                                                                                    ",
"                                                                                                                                                                                       ).)+):#@)#)$)%)&)*)=)-);)>),)')))!)~){)])^)/)()_):)<)[)p>})|)|)1)2)3)4)5)6)7)8)                                                                                                                  ",
"                                                                                                                                                                                      9)0)a)b)c)d)e)f)g)h)i)j)k)l)m)n)o)p)q)r)s)t)u)v)w)x)y)s&z)A)B)C)D)E)F)G)H)I)J)K)                                                                                                                  ",
"                                                                                                                                                                                    L)M)N)&#*$O)P)Q)R)S)T)U)V)W)X)Y)Z)`) !.!+!@!#!$!%!&!*!=!-!;!>!,!'!)!!!~!{!]!^!/!                                                                                                                    ",
"                                                                                                                                                                                    (!_!:!<![!}!|!1!2!3!4!5!6!7!8!9!0!a!b!c!d!e!f!g!h!i!j!k!l!m!n!o!p!q!r!s!t!u!v!w!                                                                                                                    ",
"                                                                                                                                                                                    x!y!z!A!B!C!D!E!F!5!G!H!I!J!K!L!M!N!O!P!#%Q!R!S!T!U!V!W!X!Y!Z!u&`! ~.~+~@~#~$~                                                                                                                      ",
"                                                                                                                                                                                    %~&~*~=~-~;~>~,~'~)~!~~~a*{~]~^~i)/~(~L!_~f!:~<~2$[~}~|~1~N=2~3~4~5~6~w+7~8~9~                                                                                                                      ",
"                                                                                                                                                                                    0~a~b~c~d~e~f~g~h~i~j~k~l~l~m~n~o~p~q~r~J!o&s~s~t~u~v~w~x~y~z~A~B~C~D~E~F~G~                                                                                                                        ",
"                                                                                                                                                                                    H~I~b~J~K~L~M~N~O~q+P~&@Q~R~S~T~U~V~W~X~Y~s~Z~`~t~ {.{+{@{#{${%{&{*{={-{;{                                                                                                                          ",
"                                                                                                                                                                                    >{,{'{){!{~{{{]{^{/{({_{:{<{[{}{|{1{2{3{4{5{6{7{8{9{0{a{b{^'c{d{e{f{g{h{i{                                                                                                                          ",
"                                                                                                                                                                                  j{k{c{l{m{n{o{p{q{r{s{t{u{P@v{w{x{w{y{z{A{B{C{D{E{F{G{H{I{J{K{L{!{M{N{O{P{                                                                                                                            ",
"                                                                                                                                                                                  Q{R{S{T{U{V{W{X{Y{Z{`{ ].]+]@]#]$]%]&]*]=]-];]>],]'])]!]~]{]]]^]/](]_]:]                                                                                                                              ",
"                                                                                                                                                                                  <][]}]|]1]2]n>3]4]5]6]7]8]9]0]a]b]c]d]e]f]g]h]i]j]k]l]m]f>n]4~    o]                                                                                                                                  ",
"                                                                                                                                                                                p]q]r]s]t]u]v]w]3]x]s)y]z]N{A]B]C]D]E]F]G]H]I]J]K]L]M]N]O]P]Q]                                                                                                                                          ",
"                                                                                                                                                                                R]S]T]U]V]W]X]Y]Z]f{`] ^6@.^W!+^@^#^$^%^&^*^=^-^;^>^,^'^)^!^                                                                                                                                            ",
"                                                                                                                                                                                ~^{^]^^^/^(^_^:^<^[^}^|^1^2^3^2^4^5^6^7^8^9^0^a^b^c^d^e^f^g^                                                                                                                                            ",
"                                                                                                                                                                              h^i^j^k^l^m^n^o^p^q^r^s^t^t~u^v^w^x^v>$+y^z^A^B^C^D^'^E^F^G^                                                                                                                                              ",
"                                                                                                                                                                              H^@=I^J^K^L^M^N^O^P^r^s^Q^R^S^T^U^3!3!V^W^X^Y^Z^`^ /./+/@/                                                                                                                                                ",
"                                                                                                                                                                              #/$/%/&/*/=/-/;/>/,/m)'/)/!/~/{/]/^///}^(/ ]r'_/:/</[/}/|/                                                                                                                                                ",
"                                                                                                                                                                            1/2/r*3/&~4/5/6/7/8/9/0/a/b/c/d/e/f/g/h/i/j/k/l/m/n/o/p/q/                                                                                                                                                  ",
"                                                                                                                                                                          r/s/t/u/v/w/<^x/y/z/A/B/C/D/E/F/G/H/I/J/K/L/M/N/O/P/Q/R/S/T/                                                                                                                                                  ",
"                                                                                                                                                                          U/V/W/X/Y/Z/`/ (.(+(@(#($(%(&(*(=(-(;(){>(,('()(!(~({(](^(/(                                                                                                                                                  ",
"                                                                                                                                                                          ((_(:(<([(}(|(1(2(3(4(5(6(7(8(9(0(a(b(c(d(e(f(g(h(i(j(k(l(m(                                                                                                                                                  ",
"                                                                                                                                                                          n(o(p(q(r(s(t(u(v(w(x(y(z(A(v]B(C(D(E(F(G(H(I(J(K(L(M(N(O(P(Q(                                                                                                                                                ",
"                                                                                                                                                                        R(S(T(U(V(W(X(Y(Z(`( _._+_@_#_$_%_&_*_=_-_;_>_,_'_)_!_~_{_]_^_/_(_                                                                                                                                              ",
"                                                                                                                                                                      __:_S(<_[_^(}_|_1_2_3_4_5_6_7_8_9_0_a_b_c_d_d_e_)_)_)_e_f_f_g_h_i_j_k_                                                                                                                                            ",
"                                                                                                                                                                    l_m_n_o_p_q_}_r_s_t_u_v_w_x_y_z_A_B_C_D_E_F_G_H_I_H_e_f_e_)_f_)_h_J_K_L_M_                                                                                                                                          ",
"                                                                                                                                                                  N_l.O_P_Q_R_S_T_U_V_W_X_Y_Z_`_ :.:+:@:#:$:%:&:f_g_*:e_e_)_)_)_f_f_=:-:;:>:,:':                                                                                                                                        ",
"                                                                                                                                                                ):!:~:{:N(]:^:/:(:_:::<:[:}:|:1:2:3:4:5:6:7:8:9:0:a:K(b:a:a:1_c:d:d:}_e:^:f:g:h:i:                                                                                                                                      ",
"                                                                                                                                                                j:k:l:m:n:o:p:q:r:s:t:u:v:w:x:y:z:A:B:C:D:E:F:G:H:I:d:J:d:K:L:L:K:K:M:T(^(N:O:P:Q:R:S:                                                                                                                                  ",
"                                                                                                                                                            T:U:V:W:,:X:;:^(Y:Z:`: <f_.<+<2_@<I #<$<%<&<*<=<-<M_;<><,<L:d:d:L:d:K:|_p:'<)<!<~<{<]<^</<Q:(<_<                                                                                                                            ",
"                                                                                                                                                      '::<<<[<}<|<':G:1<2<2<r_3<K:4<5<6<7<8<9<0<a<b<c<d<e<M.f<g<h<i<j<k<t_l<m<l<t_n<o<p<K_q<r<s<t<}<u<v<w<x<y<z<A<B<                                                                                                                    ",
"                                                                                                                                                C<D<(<E<F<Q:}<G<H<Q:Q:I<}_J<Z:K:K<L<+<M<N<O<P<Q<R<S<T<U<V<X*W<X<Y<Z<`< [t_m<m<t_.[+[-:@[;:q<#[$[/<%[&[*[R:(<w<':=[-[;[>[,['[                                                                                                            ",
"                                                                                                                                          )[![~[':x<Q:{[{[':/<][^[/[(<([_[:[J:|_<[[[}[|[1[2[3[4[5[6[G:7[G:8[9[0[+[.[a[b[+[t_t_t_.[+[c[@[d[e[f[':}<%[g[h[%[}<i[x<Q:s<{<j[i[':k[l[                                                                                                        ",
"                                                                                                                                      m[A<y<{[(<':x<(<Q:{[R:*[n[%[o[{[p[q[}_|_r[s[t[u[v[w[x[y[z[A[B[C[D[E[F[G[a[H[+[m<I[v:t_t_t_+[+[-:J[K[L[M[':]<g[N[O[%[G<V:Q:(<Q:x<x<{[x<{<P[Q[S:-[                                                                                                  ",
"                                                                                                                                R[,:A<s<Q:':(<s<Q:x<x<(<w<(<&[S[T[E<i[U[V[:[q[W[J:r[X[Y[Z[Y[`[ }.}+}@}#}8:$}b[%}I[b[t_&}t_t_t_*}+[0[-:=}-};}>}t<,}'})}h[*[!}x<x<Q:x<s<s<{<i[$[':':i[~}{}~<]}                                                                                            ",
"                                                                                                                            ^}!}/}(}_}/}/}/}/}/}/}/}/}/}/}/}!}:}!}<}_}U[_[[}}}}}}}|}1}::2}3}4}5}6}7}8}9}0}a}b}c}d}e}f}g}1}|}|}|}|}|}|}n:-}h}i}j}k}l}m}n}o}X=o}/}/}/}/}/}/}/}/}/}/}/}/}:}p}q}:}r}                                                                                        ",
"                                                                                                                      s}:}t}:}u}v}w}!}/}/}/}/}/}/}/}/}/}/}/}!}/}p}X*<}x}Z:[}|}|}|}c[f}v:b[v:&}y}z}$<B<A}B}C}D}E}F}1}f}G}g}|}|}|}|}|}H}-}[}I}y<w}k}l}J}J}K}L}K}/}/}/}/}/}/}/}/}/}/}/}/}!}u}u}U<u}M}N}                                                                                    ",
"                                                                                                                  S:O}P}Q}R}o}w}j}t}:}/}/}/}/}/}/}/}/}/}/}/}u}w}t}S}T}U}[}[}|}|}|}c[e}I[0[0[v:V}W}X}Y}Z}A}`} |.|+|F}g}f}G}|}|}|}|}|}g}@|}_U[#|u}$|l}J}J}K}L}K}/}/}/}/}/}/}/}/}/}/}/}/}w}R}v}:}j}!}%|X*R}&|                                                                              ",
"                                                                                                              *|=|u}w}!}-|/}!}p}u}w}/}/}/}/}/}/}/}/}/}/}/}/}:}R}u}/};|>|q[[}|}|}|}c[g}}}0[,|'|)|!|~|{|A}Y}]|^|/|1}G}|}|}|}|}|}|}|}|}g}@|X:x}z<:}(|l}J}J}K}L}K}/}/}/}/}/}/}/}/}/}/}/}/}:}/}j}w}:}u}R}u}!}_|:|<|                                                                          ",
"                                                                                                          [|T}j}u}/}:}u}u}:}/}!}!}u}/}/}/}/}/}/}/}/}/}/}/}/}/}!}w}(}_}}|1<[}|}|}|}c[||1|+[t_2|3|4|5|C<6|7|`}8|9|0|f}||e}|}|}|}|}|}|}|}H}}_a|<<:}!}l}J}J}K}L}K}/}/}/}/}/}/}/}/}/}/}/}!}w}v}u}w}/}w}u}u}w}R}!}=|<<b|c|                                                                    ",
"                                                                                                      d|e|x<j}f|R}v}/}!}/}u}w}w}t}!}!}/}/}/}/}/}/}/}/}/}/}/}!}p}!}p}g|h|i|[}|}|}|}c[j|k|v:l|m|n|o|p|A}6|]|Z}q|r|+|e}G}s||}|}|}|}|}|}-}n:}_t|<<:}=|l}J}J}K}L}K}/}/}/}/}/}/}/}/}/}/}/}u}:}Q}w}p}p}u}R}!}:}u}!}u}Q:t<=[u|                                                                  ",
"                                                                                                  f<v|w|Q:Q:x|/}/}/}/}/}/}/}/}/}/}/}/}/}/}/}/}/}/}/}/}/}/}/}w}p}/}U<U<y|z|}_|}||A|l(||m<b[B|C|4|5|D|]|7|`}7|E|F|G|f}e}s|G}|}|}|}|}|}|}-}}_H|i}I|$|l}J}J}K}L}K}/}/}/}/}/}/}/}/}/}/}/}/}/}/}/}/}/}/}/}/}/}/}/}/}':x<x<J|                                                                  ",
"                                                                                              K|i[L|j[w|{[^</}/}/}/}/}/}/}/}/}/}/}/}/}/}/}/}/}/}/}/}/}/}/}/}o}u}!}U<M|N|O|P|c[1}1}Q||}.[&}R|S|D|5|o|]|7|`}7|T|U|V|g}1}f}|}|}|}|}|}|}g}n:W|X|Y|R}$|l}J}J}K}L}K}/}/}/}/}/}/}/}/}/}/}/}/}/}/}/}/}/}/}/}/}/}/}/}/}^<]<t<Z|                                                                  ",
"                                                                                            `| 1=[w<.1R:+1R:/}/}/}/}/}/}/}/}/}/}/}/}/}/}/}/}/}/}/}/}/}/}/}/}u}w}w}U<M|@1#1:[|}|}s|$1||0[%1&1*1D|3|5|]|7|`}=1T|-1;11}|}||G}|}|}|}|}|}g}n:>1~<y<!},1l}J}J}K}L}K}/}/}/}/}/}/}/}/}/}/}/}/}/}/}/}/}/}/}/}/}/}/}/}/}^<R:'1)1                                                                  ",
"                                                                                          !1~1':{[(<V:)1R:R:/}/}/}/}/}/}/}/}/}/}/}/}/}/}/}/}/}/}/}/}/}/}/}/}u}w}!}!}_}f<{1r_||g}s|]1s|^1/1(1_1p|:14|B}7|<1<1T|[1}1|1g}||g}|}|}|}|}|}-}H}1121i}u}=|l}J}J}K}L}K}/}/}/}/}/}/}/}/}/}/}/}/}/}/}/}/}/}/}/}/}/}/}/}/}V:)131w<                                                                  ",
"                                                                                          4151':=[x<]<V:R:V:/}/}/}/}/}/}/}/}/}/}/}/}/}/}/}/}/}/}/}/}/}/}/}/}/}/}u}w}T}~<61X:||e}+|71||t_819101p|a1:1B}6|<1<1E|b1c1d11}g}1}|}|}|}|}|}|}-}e1,:i}x|f1l}J}J}K}L}K}/}/}/}/}/}/}/}/}/}/}/}/}/}/}/}/}/}/}/}/}/}/}/}/}R:^<H<t<g1                                                                ",
"                                                                                          h1i1y<$[V:/['1^<]</}/}/}/}/}/}/}/}/}/}/}/}/}/}/}/}/}/}/}/}/}/}/}/}!}:}:}w}-|w<j11<}}F}d}c[k1I[l1m1n1o13|:1B}6|<1<1p1q1r1s11}0||||}|}|}|}|}t1u1v1w1i[!}O}l}J}J}K}K}K}/}/}/}/}/}/}/}/}/}/}/}/}/}/}/}/}/}/}/}/}/}/}/}/}x|x1/[/}y1                                                                ",
"                                                                                          z1R}k*/}l}l}/}/}U</}/}/}/}/}/}/}/}/}/}/}/}/}/}/}/}/}/}/}/}/}/}/}/}/}/}/}/}O}}<A1B1C1D1E1F1G1H1I1J1K1L1y}M1N1O1P1Q1j<R1S1T1A||}G}|}|}|}|}|}U1V1;|M|u}!}u}/}/}/}/}/}/}/}/}/}/}/}/}/}/}/}/}/}/}/}/}/}/}/}/}/}/}/}/}/}/}W1X1Y1Z1_|                                                                ",
"                                                                                          t}&|`1l}l}l}/}/}U</}/}/}/}/}/}/}/}/}/}/}/}/}/}/}/}/}/}/}/}/}/}/}/}/}/}/}k*l}%[ 2.2+21|f}@2#2$2H1%2+2%2H1I1L1H1%2%2&2g}1}g}G}s|1}|}|}|}|}|}*2=2p}/}u}:}w}/}/}/}/}/}/}/}/}/}/}/}/}/}/}/}/}/}/}/}/}/}/}/}/}/}/}/}/}/}/}-2-2;2b=>2                                                                ",
"                                                                                          -|=|`1l}l}l}/}/}U</}/}/}/}/}/}/}/}/}/}/}/}/}/}/}/}/}/}/}/}/}/}/}/}/}/}/}k*l}%[^[,2K1.|e}'2*}%2)2W}!2!2~2{2]2^2/2(2_2:2:2<21}g}|}|}|}|}|}|}[2}2/}u}w}t}R}/}/}/}/}/}/}/}/}/}/}/}/}/}/}/}/}/}/}/}/}/}/}/}/}/}/}/}/}/}/}|2-2;212u}                                                                ",
"                                                                                          X*O}22l}l}l}/}/}U</}/}/}/}/}/}/}/}/}/}/}/}/}/}/}/}/}/}/}/}/}/}/}/}/}/}/}k*l}%[]<32J142F}F152L1623|o|X}a1:13|72823|*192-102O(1}g}|}|}|}|}|}a2b2!}:}R}u}/}/}/}/}/}/}/}/}/}/}/}/}/}/}/}/}/}/}/}/}/}/}/}/}/}/}/}/}/}/}/}-2c2-212d2                                                                ",
"                                                                                          e2,122l}l}l}/}/}U</}/}/}/}/}/}/}/}/}/}/}/}/}/}/}/}/}/}/}/}/}/}/}/}/}/}/}k*l}%[U:f2%2G11}l(g2n<h2i28:j2i2k2p101E|T|l2m2n2o2|}||g}|}|}|}|}|}p2q2/}/}/}j}u}/}/}/}/}/}/}/}/}/}/}/}/}/}/}/}/}/}/}/}/}/}/}/}/}/}/}/}/}/}/}r2c2|2>2=|                                                                ",
"                                                                                          s2t2u2l}l}l}/}/}U</}/}/}/}/}/}/}/}/}/}/}/}/}/}/}/}/}/}/}/}/}/}/}/}/}/}/}k*l}%[v<V:P1}}||v2s|.[w29191x28:*191y20191z2n2n202|}G}|||}|}|}|}|}A2B2u}!}v}b<u}/}/}/}/}/}/}/}/}/}/}/}/}/}/}/}/}/}/}/}/}/}/}/}/}/}/}/}/}/}/}-2|2c2C2D2                                                                ",
"                                                                                          E2$|F2l}l}l}/}/}U</}/}/}/}/}/}/}/}/}/}/}/}/}/}/}/}/}/}/}/}/}/}/}/}/}/}/}k*l}%[U:|<G2#2s|$1+|H2&1_1I2*18:0191x29101J2-1-1K21}s|g}|}s|g}F}+|L2/}/}/}/}/}/}/}/}/}/}/}/}/}/}/}/}/}/}/}/}/}/}/}/}/}/}/}/}/}/}/}/}/}/}/}/}-2|2;2>2/}                                                                ",
"                                                                                          !},1l}l}l}l}/}/}U</}/}/}/}/}/}/}/}/}/}/}/}/}/}/}/}/}/}/}/}/}/}/}/}/}/}/}k*l}%[)1M2N2O2j|Q|O(P2Q2R2S2T2U2V2J2W2X2[1Y2Y2U|02G}1}g}f}1}e}d}0|Z2/}/}/}/}/}/}/}/}/}/}/}/}/}/}/}/}/}/}/}/}/}/}/}/}/}/}/}/}/}/}/}/}/}/}/}/}c2-2-212U<                                                                ",
"                                                                                          <}$|l}l}l}l}/}/}U</}/}/}/}/}/}/}/}/}/}/}/}/}/}/}/}/}/}/}/}/}/}/}/}/}/}/}k*l}%[t<`2 3.31}F1c[1}+3@3S2r1#3@3$3m2n2n2n2m2n2o2|}71|}f}G}g}s|%3&3/}/}/}/}/}/}/}/}/}/}/}/}/}/}/}/}/}/}/}/}/}/}/}/}/}/}/}/}/}/}/}/}/}/}/}/}c2*3=312P}                                                                ",
"                                                                                          _}$|22l}l}l}/}/}U</}/}/}/}/}/}/}/}/}/}/}/}/}/}/}/}/}/}/}/}/}/}/}/}/}/}/}k*l}%['1)1-3;3s|>3c[f}m2,3r1r1'3'3@3$3-1Y2Y2@3@3)3!3g}||G}G}s|j|~3{3/}/}/}/}/}/}/}/}/}/}/}/}/}/}/}/}/}/}/}/}/}/}/}/}/}/}/}/}/}/}/}/}/}/}/}/}c2r2=3J}w}                                                                ",
"                                                                                        ]3U<O}22l}l}l}/}/}U</}/}/}/}/}/}/}/}/}/}/}/}/}/}/}/}/}/}/}/}/}/}/}/}/}/}/}k*l}%[^[)1^3/3||(3@2G}U|92r1#3'3'3r1r1@392$3_3r1:3<3G}||G}|}||[3}3|3/}/}/}/}/}/}/}/}/}/}/}/}/}/}/}/}/}/}/}/}/}/}/}/}/}/}/}/}/}/}/}/}/}/}/}/}-2*3c21323                                                                ",
"                                                                                        33U<w}43l}l}l}/}/}/}/}/}/}/}/}/}/}/}/}/}/}/}/}/}/}/}/}/}/}/}/}/}/}/}/}/}/}k*l}%[}<t<5363k|g}|}j|73m2@3#3r1'3#3#3#3'3'383$39303F}||1}||A|a3S|b3/}/}/}/}/}/}/}/}/}/}/}/}/}/}/}/}/}/}/}/}/}/}/}/}/}/}/}/}/}/}/}/}/}/}/}/}-2c2*3C2P}                                                                ",
"                                                                                        c3<}M|M|/}/}/}l}l}O}/}/}/}/}/}/}/}/}/}/}/}/}/}/}/}/}/}/}/}/}/}/}/}/}/}/}/}/}/}/}:}d3p}e3f3g3h3K_i3j3k3l3m3'3n3o3p3o3q3r3p3s3t3Q|v2@2u3U_U}{[w</}/}/}/}/}/}/}/}/}/}/}/}/}/}/}/}/}/}/}/}/}/}/}/}/}/}/}/}/}/}/}/}/}/}/}/}/}!}:}<}g|                                                                ",
"                                                                                        v3<}<}U</}/}/}l}l}l}/}/}/}/}/}/}/}/}/}/}/}/}/}/}/}/}/}/}/}/}/}/}/}/}/}/}/}/}/}/}/}/}u}w}w3'_x3y3z3A3B3l3r1'3o3o3C3D3E3F3C3s3t3Q|v2@2@|G3H3R:k[/}/}/}/}/}/}/}/}/}/}/}/}/}/}/}/}/}/}/}/}/}/}/}/}/}/}/}/}/}/}/}/}/}/}/}/}!}R}!}<}<}                                                                ",
"                                                                                        I3X*_}X*/}/}/}l}l}l}/}/}/}/}/}/}/}/}/}/}/}/}/}/}/}/}/}/}/}/}/}/}/}/}/}/}/}/}/}/}/}R}/}w}J3K3L3M3N3O373-1-1@3p3C36:D3P3F3o3s3Q3Q|>3R3S3T3h:]<U3/}/}/}/}/}/}/}/}/}/}/}/}/}/}/}/}/}/}/}/}/}/}/}/}/}/}/}/}/}/}/}/}/}/}/}/}p}/}!}_}<}#|                                                              ",
"                                                                                        V3e2_}X*/}/}/}l}l}l}/}/}/}/}/}/}/}/}/}/}/}/}/}/}/}/}/}/}/}/}/}/}/}/}/}/}/}/}/}/}/}R}v}/}/}W3W[H}X3Y3B3m2m2$3'3Z36:o3`3 4.4+4@4Q|O(H}X:#4$4%4w}/}/}/}/}/}/}/}/}/}/}/}/}/}/}/}/}/}/}/}/}/}/}/}/}/}/}/}/}/}/}/}/}/}/}/}/}:}u}u}_}M|Y*                                                              ",
"                                                                                        &4S}_}_}/}/}/}l}l}l}/}/}/}/}/}/}/}/}/}/}/}/}/}/}/}/}/}/}/}/}/}/}/}/}/}/}/}/}/}/}w}j}:}/}t}*4=4-4;4J2:.W2C[D[>4U2,4'4)4!4~4{4@471g}H}]4^4/4/}u}/}/}/}/}/}/}/}/}/}/}/}/}/}/}/}/}/}/}/}/}/}/}/}/}/}/}/}/}/}/}/}/}/}/}/}/}w}/}u}U<U<!}                                                              ",
"                                                                                        g|S}X*U</}/}/}l}l}l}/}/}/}/}/}/}/}/}/}/}/}/}/}/}/}/}/}/}/}/}/}/}/}/}/}/}/}/}/}/}t}j}u}v}(4_4:4<401_1[48:x2[4_1I2}4|4p13|y214<3n:@|J_2434_}u}/}/}/}/}/}/}/}/}/}/}/}/}/}/}/}/}/}/}/}/}/}/}/}/}/}/}/}/}/}/}/}/}/}/}/}/}/}u}u}/}M|U<k[                                                              ",
"                                                                                        4454U<<}/}/}/}l}l}l}/}/}/}/}/}/}/}/}/}/}/}/}/}/}/}/}/}/}/}/}/}/}/}/}/}/}/}/}/}/}/}/}/}/}/}/}6474[4918:_1_1x2x2_1_1i+84D<o|94]4;:04J<a4I R}$|k*/}/}/}/}/}/}/}/}/}/}/}/}/}/}/}/}/}/}/}/}/}/}/}/}/}/}/}/}/}/}/}/}/}/}/}/}/}/}/}U<U<U<                                                              ",
"                                                                                        b4S}_}S}/}/}/}l}l}l}/}/}/}/}/}/}/}/}/}/}/}/}/}/}/}/}/}/}/}/}/}/}/}/}/}/}/}/}/}/}/}/}/}/}/}/}c4d4e4p1p1k2k2k2z:T|E|f4[|<1o|g4h4u1p:i4j4X*k4l4m}/}/}/}/}/}/}/}/}/}/}/}/}/}/}/}/}/}/}/}/}/}/}/}/}/}/}/}/}/}/}/}/}/}/}/}/}/}/}/}U<U<U<^}                                                            ",
"                                                                                        U<S}U<U</}/}/}l}l}l}/}/}/}/}/}/}/}/}/}/}/}/}/}/}/}/}/}/}/}/}/}/}/}/}/}/}/}/}/}/}/}/}/}/}/}/}m4n4o4p4q4a13|3|]}7[r4r4[|7|]}s4W|J<t4u4v4w4x4r2y4/}/}/}/}/}/}/}/}/}/}/}/}/}/}/}/}/}/}/}/}/}/}/}/}/}/}/}/}/}/}/}/}/}/}/}/}/}/}/}U<U<U<P}                                                            ",
"                                                                                      z4#|U<#|_}/}/}/}l}l}l}/}/}/}/}/}/}/}/}/}/}/}/}/}/}/}/}/}/}/}/}/}/}/}/}/}/}/}/}/}/}/}/}/}/}/}/}A4B4C4C4D4a13|p|M_#<E4E4$4j[w<F4G4H4I4J4K4L4x4M4N4/}/}/}/}/}/}/}/}/}/}/}/}/}/}/}/}/}/}/}/}/}/}/}/}/}/}/}/}/}/}/}/}/}/}/}/}/}/}/}U<U<U<Z1                                                            ",
"                                                                                      O4U<S}<}<}/}/}/}l}l}l}/}/}/}/}/}/}/}/}/}/}/}/}/}/}/}/}/}/}/}/}/}/}/}/}/}/}/}/}/}/}/}/}/}/}/}/}P4Q4R4 4D4$<6[-<7[#<S4E4T4{<![U4V4W4X4Y4Z4`4 5.5r2/}/}/}/}/}/}/}/}/}/}/}/}/}/}/}/}/}/}/}/}/}/}/}/}/}/}/}/}/}/}/}/}/}/}/}/}/}/}/}U<U<U<I                                                             ",
"                                                                                      +5_}-|X*U</}/}/}l}l}l}/}/}/}/}/}/}/}/}/}/}/}/}/}/}/}/}/}/}/}/}/}/}/}/}/}/}/}/}/}/}/}/}/}/}/}/}Z|@5#5$5%5&5}45|*5M_S4g|=5-5{<;5>5,5'5v4K}C2{$)5!5/}/}/}/}/}/}/}/}/}/}/}/}/}/}/}/}/}/}/}/}/}/}/}/}/}/}/}/}/}/}/}/}/}/}/}/}/}/}/}U<U<U<_}                                                            ",
"                                                                                    E2R}/}:}:}u}/}/}/}/}/}/}/}/}/}/}/}/}/}/}/}/}/}/}/}/}/}/}/}/}/}/}/}/}/}/}/}/}/}/}/}/}/}/}/}/}/}/}P}K}~5{5]5^5/5(5_5:5=5b<e2g|<5[5}5|5=5/}/}O}l}l}k*/}/}/}/}/}/}/}/}/}/}/}/}/}/}/}/}/}/}/}/}/}/}/}/}/}/}/}/}/}/}/}/}/}/}/}/}l}l}l}/}/}/}_}15                                                          ",
"                                                                                    j}w}/}:}u}/}/}/}/}/}/}/}/}/}/}/}/}/}/}/}/}/}/}/}/}/}/}/}/}/}/}/}/}/}/}/}/}/}/}/}/}/}/}/}/}/}/}n}#.b 2535455565758595E<b<^}S4=505a5b5c5/}/}O}l}l}k*/}/}/}/}/}/}/}/}/}/}/}/}/}/}/}/}/}/}/}/}/}/}/}/}/}/}/}/}/}/}/}/}/}/}/}/}l}l}l}/}/}/}M|d5                                                          ",
"                                                                                    w}/}u}u}/}!}/}/}/}/}/}/}/}/}/}/}/}/}/}/}/}/}/}/}/}/}/}/}/}/}/}/}/}/}/}/}/}/}/}/}/}/}/}/}/}/}/}n}e5f5g5r<h5i555j5h5k5E<g|=5O4U<S}S}-|M|/}/}O}l}l}k*/}/}/}/}/}/}/}/}/}/}/}/}/}/}/}/}/}/}/}/}/}/}/}/}/}/}/}/}/}/}/}/}/}/}/}/}l}l}l}/}/}/}M|W:                                                          ",
"                                                                                  l5U</}/}/}/}!}/}/}/}/}/}/}/}/}/}/}/}/}/}/}/}/}/}/}/}/}/}/}/}/}/}/}/}/}/}/}/}/}/}/}/}/}/}/}/}/}/}n}b b m5|3n5o5p5q5r5*<$4g|g|s5e2V<t5U<T}/}/}O}l}l}k*/}/}/}/}/}/}/}/}/}/}/}/}/}/}/}/}/}/}/}/}/}/}/}/}/}/}/}/}/}/}/}/}/}/}/}/}l}l}l}/}/}/}U<p                                                           ",
"                                                                                  u5U</}/}/}!}!}/}/}/}/}/}/}/}/}/}/}/}/}/}/}/}/}/}/}/}/}/}/}/}/}/}/}/}/}/}/}/}/}/}/}/}/}/}/}/}/}/}/}v5K}w5~1x5y5z5z5A5)4:17[R[c=<5E2B5<}S}/}/}O}l}l}k*/}/}/}/}/}/}/}/}/}/}/}/}/}/}/}/}/}/}/}/}/}/}/}/}/}/}/}/}/}/}/}/}/}/}/}/}l}l}l}/}/}/}U<j}                                                          ",
"                                                                                  C5U</}!}!}/}u}/}/}/}/}/}/}/}/}/}/}/}/}/}/}/}/}/}/}/}/}/}/}/}/}/}/}/}/}/}/}/}/}/}/}/}/}/}/}/}/}/}/}D5/ X*y<82E5F5G5H5&5E|35S4#<<5e2X*X*(}/}/}O}l}l}k*/}/}/}/}/}/}/}/}/}/}/}/}/}/}/}/}/}/}/}/}/}/}/}/}/}/}/}/}/}/}/}/}/}/}/}/}l}l}l}/}/}/}M|<}                                                          ",
"                                                                                  I5U</}/}/}/}/}/}/}/}/}/}/}/}/}/}/}/}/}/}/}/}/}/}/}/}/}/}/}/}/}/}/}/}/}/}/}/}/}/}/}/}/}/}/}/}/}/}/}J K}U<':Z|J5K5D4r3L5r1m2f4#<X*M|U<U<_}/}/}O}l}l}k*/}/}/}/}/}/}/}/}/}/}/}/}/}/}/}/}/}/}/}/}/}/}/}/}/}/}/}/}/}/}/}/}/}/}/}/}l}l}l}/}/}/}<}I                                                           ",
"                                                                                M5,:U</}/}/}/}/}/}/}/}/}/}/}/}/}/}/}/}/}/}/}/}/}/}/}/}/}/}/}/}/}/}/}/}/}/}/}/}/}/}/}/}/}/}/}/}/}/}/}o}U<U<V:Z|N5O5P5Q5R5S5T5U57[M|U<U<U<U</}/}O}l}l}k*/}/}/}/}/}/}/}/}/}/}/}/}/}/}/}/}/}/}/}/}/}/}/}/}/}/}/}/}/}/}/}/}/}/}/}/}l}l}l}/}/}/}U<U<V5                                                        ",
"                                                                                W5~<U</}/}/}/}/}/}/}/}/}/}/}/}/}/}/}/}/}/}/}/}/}/}/}/}/}/}/}/}/}/}/}/}/}/}/}/}/}/}/}/}/}/}/}/}/}/}/}U<U<#|V:V:X5Y58}Q5o3Z5`592#<U<<}U<M|U</}/}O}l}l}k*/}/}/}/}/}/}/}/}/}/}/}/}/}/}/}/}/}/}/}/}/}/}/}/}/}/}/}/}/}/}/}/}/}/}/}/}l}l}l}/}/}/}U<_}W:                                                        ",
"                                                                                 6.6U</}/}/}/}/}/}/}/}/}/}/}/}/}/}/}/}/}/}/}/}/}/}/}/}/}/}/}/}/}/}/}/}/}/}/}/}/}/}/}/}/}/}/}/}/}/}/}':':V:V:V:^<D<`}+6@6#6$6%6]}U<<}U<U<U</}/}O}l}l}k*/}/}/}/}/}/}/}/}/}/}/}/}/}/}/}/}/}/}/}/}/}/}/}/}/}/}/}/}/}/}/}/}/}/}/}/}l}l}l}/}/}/}_}U<q}                                                        ",
"                                                                                &6~<U</}/}/}/}/}/}/}/}/}/}/}/}/}/}/}/}/}/}/}/}/}/}/}/}/}/}/}/}/}/}/}/}/}/}/}/}/}/}/}/}/}/}/}/}/}/}/}':':V:}<}<^<':B<*6=6-6;6>634U<U<U<U<_}/}/}O}l}l}k*/}/}/}/}/}/}/}/}/}/}/}/}/}/}/}/}/}/}/}/}/}/}/}/}/}/}/}/}/}/}/}/}/}/}/}/}l}l}l}/}/}/}_}U<e2                                                        ",
"                                                                                .6l:U</}/}/}/}/}/}/}/}/}/}/}/}/}/}/}/}/}/}/}/}/}/}/}/}/}/}/}/}/}/}/}/}/}/}/}/}/}/}/}/}/}/}/}/}/}/}/}V:V:V:%[%[,},6Z|k2'6)6!6~6w1U<M|M|_}<}/}/}O}l}l}k*/}/}/}/}/}/}/}/}/}/}/}/}/}/}/}/}/}/}/}/}/}/}/}/}/}/}/}/}/}/}/}/}/}/}/}/}l}l}l}/}/}/}U<_}<}R<                                                      ",
"                                                                              G:v|#|/}/}/}/}/}/}/}/}/}/}/}/}/}/}/}/}/}/}/}/}/}/}/}/}/}/}/}/}/}/}/}/}/}/}/}/}/}/}/}/}/}/}/}/}/}/}/}/}V:{6{6]6^6V:':(<Q:f4/6(6f<X*S}!}/}/}/}/}/}/}/}/}/}/}/}/}/}/}/}/}/}/}/}/}/}/}/}/}/}/}/}/}/}/}/}/}/}/}/}/}/}/}/}/}/}/}/}/}/}/}/}/}/}/}/}/}:}w}$|                                                      ",
"                                                                              x<':Q:/}/}/}/}/}/}/}/}/}/}/}/}/}/}/}/}/}/}/}/}/}/}/}/}/}/}/}/}/}/}/}/}/}/}/}/}/}/}/}/}/}/}/}/}/}/}/}/}}<{6{6]6^6V:V:(<x|M|_6:6x|_}u}/}!}!}/}/}/}/}/}/}/}/}/}/}/}/}/}/}/}/}/}/}/}/}/}/}/}/}/}/}/}/}/}/}/}/}/}/}/}/}/}/}/}/}/}/}/}/}/}/}/}/}/}u}u}R}o}                                                      ",
"                                                                              V:Q:i[/}/}/}/}/}/}/}/}/}/}/}/}/}/}/}/}/}/}/}/}/}/}/}/}/}/}/}/}/}/}/}/}/}/}/}/}/}/}/}/}/}/}/}/}/}/}/}/}k*%[%[}<V:V:R:w<x<x<': 115!}u}w}!}/}/}/}/}/}/}/}/}/}/}/}/}/}/}/}/}/}/}/}/}/}/}/}/}/}/}/}/}/}/}/}/}/}/}/}/}/}/}/}/}/}/}/}/}/}/}/}/}/}/}w}u}:}!}                                                      ",
"                                                                            +1(<i[Q:/}/}/}/}/}/}/}/}/}/}/}/}/}/}/}/}/}/}/}/}/}/}/}/}/}/}/}/}/}/}/}/}/}/}/}/}/}/}/}/}/}/}/}/}/}/}/}/}k*l}<6O}/}V:Q:w<Z|[6}6|6Z|u}w}j}:}:}!}/}/}/}/}/}/}/}/}/}/}/}/}/}/}/}/}/}/}/}/}/}/}/}/}/}/}/}/}/}/}/}/}/}/}/}/}/}/}/}/}/}/}/}/}/}/}/}/}w}:}t}16n}                                                    ",
"                                                                            +1w<Q:x</}/}/}/}/}/}/}/}/}/}/}/}/}/}/}/}/}/}/}/}/}/}/}/}/}/}/}/}/}/}/}/}/}/}/}/}/}/}/}/}/}/}/}/}/}/}/}/}N4-2-226/}/}x<B<36465666`}:}:}!}p}u}w}/}/}/}/}/}/}/}/}/}/}/}/}/}/}/}/}/}/}/}/}/}/}/}/}/}/}/}/}/}/}/}/}/}/}/}/}/}/}/}/}/}/}/}/}/}/}/}/}:}/}!}M|54                                                    ",
"                                                                            76x<x<x</}/}/}/}/}/}/}/}/}/}/}/}/}/}/}/}/}/}/}/}/}/}/}/}/}/}/}/}/}/}/}/}/}/}/}/}/}/}/}/}/}/}/}/}/}/}/}/}N4U$U$26n}/}':[6869606a6b6(4t}u}/}u}!}/}/}/}/}/}/}/}/}/}/}/}/}/}/}/}/}/}/}/}/}/}/}/}/}/}/}/}/}/}/}/}/}/}/}/}/}/}/}/}/}/}/}/}/}/}/}/}/}u}/}!}t}!}                                                    ",
"                                                                          c6Q:x<':x</}/}/}/}/}/}/}/}/}/}/}/}/}/}/}/}/}/}/}/}/}/}/}/}/}/}/}/}/}/}/}/}/}/}/}/}/}/}/}/}/}/}/}/}/}/}/}/}d6U$U$26J}/}(<~[e6f6g6h6i6j6v}R}:}!}:}/}/}/}/}/}/}/}/}/}/}/}/}/}/}/}/}/}/}/}/}/}/}/}/}/}/}/}/}/}/}/}/}/}/}/}/}/}/}/}/}/}/}/}/}/}/}/}/}/}/}/}u}U<U<                                                  ",
"                                                                          k6{<s<(<i[/}/}/}/}/}/}/}/}/}/}/}/}/}/}/}/}/}/}/}/}/}/}/}/}/}/}/}/}/}/}/}/}/}/}/}/}/}/}/}/}/}/}/}/}/}/}/}/}N4U$U$26/}/}R:D<B}l6m6n6o6p6p}/}t}j}/}/}/}/}/}/}/}/}/}/}/}/}/}/}/}/}/}/}/}/}/}/}/}/}/}/}/}/}/}/}/}/}/}/}/}/}/}/}/}/}/}/}/}/}/}/}/}/}/}/}/}/}/}/}U<                                                  ",
"                                                                          q6w<r6x<Q:/}/}/}/}/}/}/}/}/}/}/}/}/}/}/}/}/}/}/}/}/}/}/}/}/}/}/}/}/}/}/}/}/}/}/}/}/}/}/}/}/}/}/}/}/}/}/}/}N4<6-2N4/}V:Q:Z|s6t6u6v6w6t%u}!}/}j}:}/}/}/}/}/}/}/}/}/}/}/}/}/}/}/}/}/}/}/}/}/}/}/}/}/}/}/}/}/}/}/}/}/}/}/}/}/}/}/}/}/}/}/}/}/}/}/}/}/}/}/}/}/}U<;<                                                ",
"                                                                          x6{[i[Q:(</}/}/}/}/}/}/}/}/}/}/}/}/}/}/}/}/}/}/}/}/}/}/}/}/}/}/}/}/}/}/}/}/}/}/}/}/}/}/}/}/}/}/}/}/}/}/}/}k*%[l}}<V:V:^<{[i[w<y6z6/4p}/}!}w}w}:}/}/}/}/}/}/}/}/}/}/}/}/}/}/}/}/}/}/}/}/}/}/}/}/}/}/}/}/}/}/}/}/}/}/}/}/}/}/}/}/}/}/}/}/}/}/}/}/}/}/}/}/}/}U<O:                                                ",
"                                                                        A6~1i[E<Q:':/}/}/}/}/}/}/}/}/}/}/}/}/}/}/}/}/}/}/}/}/}/}/}/}/}/}/}/}/}/}/}/}/}/}/}/}/}/}/}/}/}/}/}/}/}/}/}/}}<%[%[}<V:V:x<i[':':s<21(}w}!}u}u}!}!}/}/}/}/}/}/}/}/}/}/}/}/}/}/}/}/}/}/}/}/}/}/}/}/}/}/}/}/}/}/}/}/}/}/}/}/}/}/}/}/}/}/}/}/}/}/}/}/}/}/}/}/}/}U<`|i+                                              ",
"                                                                        ]}B6w<Q:x<':/}/}/}/}/}/}/}/}/}/}/}/}/}/}/}/}/}/}/}/}/}/}/}/}/}/}/}/}/}/}/}/}/}/}/}/}/}/}/}/}/}/}/}/}/}/}/}/}}<{6{6]6^6V:':x<_}U<M|b4X*w}/}/}:}t}w}/}/}/}/}/}/}/}/}/}/}/}/}/}/}/}/}/}/}/}/}/}/}/}/}/}/}/}/}/}/}/}/}/}/}/}/}/}/}/}/}/}/}/}/}/}/}/}/}/}/}/}/}/}U<I5`|                                              ",
"                                                                        U<#|M|u}/}/}/}/}/}/}/}/}/}/}/}/}/}/}/}/}/}/}/}/}R}u}b<%4Q}u}/}/}/}/}/}/}/}/}/}/}/}/}/}/}/}/}/}/}/}/}/}/}/}/}/}V:/}V:/}/}/}/}/}/}/}u}u}/}/}/}/}u}/}/}/}/}/}/}/}/}/}/}/}/}/}/}/}/}/}/}/}/}/}/}/}/}/}/}/}/}/}/}/}/}u}u}/}u}u}/}/}/}/}/}/}/}/}/}/}/}/}/}/}/}/}/}/}x<C6k[                                            ",
"                                                                      D6U<U<U</}/}/}/}/}/}/}/}/}/}/}/}/}/}/}/}/}/}/}/}/}u}v}/}v}R}!}!}/}/}/}/}/}/}/}/}/}/}/}/}/}/}/}/}/}/}/}/}/}/}/}/}/}/}/}/}/}/}/}/}/}/}/}/}/}/}/}/}/}/}/}/}/}/}/}/}/}/}/}/}/}/}/}/}/}/}/}/}/}/}/}/}/}/}/}/}/}/}/}/}/}/}/}U</}u}/}/}/}/}/}/}/}/}/}/}/}/}/}/}/}/}/}/}':x<x<                                            ",
"                                                                      E2U<U<U</}/}/}/}/}/}/}/}/}/}/}/}/}/}/}/}/}/}/}/}/}/}j}o}/}:}/}/}/}/}/}/}/}/}/}/}/}/}/}/}/}/}/}/}/}/}/}/}/}/}/}/}/}/}/}/}/}/}/}/}/}/}/}/}/}/}/}/}/}/}/}/}/}/}/}/}/}/}/}/}/}/}/}/}/}/}/}/}/}/}/}/}/}/}/}/}/}/}/}/}u}/}/}/}/}!}/}/}/}/}/}/}/}/}/}/}/}/}/}/}/}/}/}/}E6x<x<Y|                                          ",
"                                                                      q6U<U<U</}/}/}/}/}/}/}/}/}/}/}/}/}/}/}/}/}/}/}/}/}v}u}:}:}u}/}u}/}/}/}/}/}/}/}/}/}/}/}/}/}/}/}/}/}/}/}/}/}/}/}/}/}/}/}/}/}/}/}/}/}/}/}/}/}/}/}/}/}/}/}/}/}/}/}/}/}/}/}/}/}/}/}/}/}/}/}/}/}/}/}/}/}/}/}/}/}/}/}/}:}/}/}:}u}/}/}/}/}/}/}/}/}/}/}/}/}/}/}/}/}/}/}/}Q:(<{[<<                                          ",
"                                                                      b4U<U<U</}/}/}/}/}/}/}/}/}/}/}/}/}/}/}/}/}/}/}/}/}F6u}!}p}!}/}u}/}/}/}/}/}/}/}/}/}/}/}/}/}/}/}/}/}/}/}/}/}/}/}/}/}/}/}/}/}/}/}/}/}/}/}/}/}/}/}/}/}/}/}/}/}/}/}/}/}/}/}/}/}/}/}/}/}/}/}/}/}/}/}/}/}/}/}/}/}/}/}/}u}w}!}:}:}/}/}/}/}/}/}/}/}/}/}/}/}/}/}/}/}/}/}/}x<(<.1![                                          ",
"                                                                    G6_}U<U<U</}/}/}/}/}/}/}/}/}/}/}/}/}/}/}/}/}/}/}/}/}  !}!}u}!}/}!}/}/}/}/}/}/}/}/}/}/}/}/}/}/}/}/}/}/}/}/}/}/}/}/}/}/}/}/}/}/}/}/}/}/}/}/}/}/}/}/}/}/}/}/}/}/}/}/}/}/}/}/}/}/}/}/}/}/}/}/}/}/}/}/}/}/}/}/}/}/}/}/}S}b<R}u}u}!}/}/}/}/}/}/}/}/}/}/}/}/}/}/}/}/}/}/}x<(<i[H6                                          ",
"                                                                    &4U<U<U<U</}/}/}/}/}/}/}/}/}/}/}/}/}/}/}/}!}_}w}j}N}  <}w}p}u}!}!}/}/}/}/}/}/}/}/}/}/}/}/}/}/}/}/}/}/}/}/}/}/}/}/}/}/}/}/}/}/}/}/}/}/}/}/}/}/}/}/}/}/}/}/}/}/}/}/}/}/}/}/}/}/}/}/}/}/}/}/}/}/}/}/}/}/}/}/}/}/}/}/}/}I6%4u}!}w}/}/}/}/}/}/}/}/}/}/}/}/}/}/}/}/}/}/}':':':J6                                          ",
"                                                                    K6U<U<U<U</}/}/}/}/}/}/}/}/}/}/}/}/}/}/}!}!}R}%4v4    =|u}!}R}u}/}/}/}/}/}/}/}/}/}/}/}/}/}/}/}/}/}/}/}/}/}/}/}/}/}/}/}/}/}/}/}/}/}/}/}/}/}/}/}/}/}/}/}/}/}/}/}/}/}/}/}/}/}/}/}/}/}/}/}/}/}/}/}/}/}/}/}/}/}/}/}/}!}L6  M6u}!}:}/}/}/}/}/}/}/}/}/}/}/}/}/}/}/}/}/}/}x<(<i[s<N6                                        ",
"                                                                  S4q}_}U<U<U</}/}/}/}/}/}/}/}/}/}/}/}/}/}/}j}p}w}t}a<    O6!}w}/}/}/}/}/}/}/}/}/}/}/}/}/}/}/}/}/}/}/}/}/}/}/}/}/}/}/}/}/}/}/}/}/}/}/}/}/}/}/}/}/}/}/}/}/}/}/}/}/}/}/}/}/}/}/}/}/}/}/}/}/}/}/}/}/}/}/}/}/}/}/}/}/}/}/}d3    e2u}w}/}/}/}/}/}/}/}/}/}/}/}/}/}/}/}/}/}/}i[(<i[':{}                                        ",
"                                                                P634Q6<}U<U<U</}/}/}/}/}/}/}/}/}/}/}/}/}/}/}!}:}u}<}      R6:}p}:}w}/}/}/}/}/}/}/}/}/}/}/}/}/}/}/}/}/}/}/}/}/}/}/}/}/}/}/}/}/}/}/}/}/}/}/}/}/}/}/}/}/}/}/}/}/}/}/}/}/}/}/}/}/}/}/}/}/}/}/}/}/}/}/}/}/}/}/}/}/}/}/}/}/}S6    T6:}u}/}/}/}/}/}/}/}/}/}/}/}/}/}/}/}/}/}/}x<':':':U6                                        ",
"                                                              V6W6K6j4U<U<U<U</}/}/}/}/}/}/}/}/}/}/}/}/}/}/}t}j}!}X6        Y6:}Q}!}:}/}/}/}/}/}/}/}/}/}/}/}/}/}/}/}/}/}/}/}/}/}/}/}/}/}/}/}/}/}/}/}/}/}/}/}/}/}/}/}/}/}/}/}/}/}/}/}/}/}/}/}/}/}/}/}/}/}/}/}/}/}/}/}/}/}/}/}/}/}/}/}!}Z6      d3v}/}/}/}/}/}/}/}/}/}/}/}/}/}/}/}/}/}/}x<i[{<Q:w1                                        ",
"                                                              `6q} 7g|U<U<U<U</}/}/}/}/}/}/}/}/}/}/}/}/}/}/}/}!}X*.7        +7!}:}!}/}/}/}/}/}/}/}/}/}/}/}/}/}/}/}/}/}/}/}/}/}/}/}/}/}/}/}/}/}/}/}/}/}/}/}/}/}/}/}/}/}/}/}/}/}/}/}/}/}/}/}/}/}/}/}/}/}/}/}/}/}/}/}/}/}/}/}/}/}/}/}/}/}13      V3R}/}/}/}/}O}O}/}/}/}/}/}/}/}/}/}/}/}/}i[R:![s<j:,:                                      ",
"                                                              U<T}M|/}/}/}/}/}/}/}/}/}/}/}/}/}/}/}/}/}/}/}/}k[#|~<          k6s2R:k*/}/}/}/}/}/}/}/}/}/}/}/}/}/}/}/}/}/}/}/}/}/}/}/}/}/}/}/}/}/}/}/}/}/}/}/}/}/}/}/}/}/}/}/}/}/}/}/}/}/}/}/}/}/}/}/}/}/}/}/}/}/}/}/}/}/}/}/}/}/}/}/}/}23      @7S}(}d3%422#7$7O}/}/}/}/}/}/}/}/}/}/}/},1O}w}%7w5#|                                      ",
"                                                              /}t}b<p}!}/}/}/}/}/}/}/}/}/}/}/}/}/}/}/}/}/}/};<&7*7            76&|%[/}/}/}/}/}/}/}/}/}/}/}/}/}/}/}/}/}/}/}/}/}/}/}/}/}/}/}/}/}/}/}/}/}/}/}/}/}/}/}/}/}/}/}/}/}/}/}/}/}/}/}/}/}/}/}/}/}/}/}/}/}/}/}/}/}/}/}/}/}/}/}/}/}d5        s5U<v}=7-7;7j*k*/}/}/}/}/}/}/}/}/}/}/}l}l}l}/}/}/}T$                                    ",
"                                                              _}:}>7t}!}/}/}/}/}/}/}/}/}/}/}/}/}/}/}/}/}/}/}~<x6              ,7^<&[/}/}/}/}/}/}/}/}/}/}/}/}/}/}/}/}/}/}/}/}/}/}/}/}/}/}/}/}/}/}/}/}/}/}/}/}/}/}/}/}/}/}/}/}/}/}/}/}/}/}/}/}/}/}/}/}/}/}/}/}/}/}/}/}/}/}/}/}/}/}/}/}/}u}        '7M|)7j}!7#7~7k*/}/}/}/}/}/}/}/}/}/}/}l}l}l}/}/}/}{7                                    ",
"                                                            ]7/}:}!}u}/}/}/}/}/}/}/}/}/}/}/}/}/}/}/}/}/}/}/}]}                ^7*[%[/}/}/}/}/}/}/}/}/}/}/}/}/}/}/}/}/}/}/}/}/}/}/}/}/}/}/}/}/}/}/}/}/}/}/}/}/}/}/}/}/}/}/}/}/}/}/}/}/}/}/}/}/}/}/}/}/}/}/}/}/}/}/}/}/}/}/}/}/}/}/}/}/}Z1          /7b4:}(7_7~7k*/}/}/}/}/}/}/}/}/}/}/}l}l}l}/}/}/}U<                                    ",
"                                                            M|/}u}t}!}u}/}/}/}/}/}/}/}/}/}/}/}/}/}/}/}/}/}/}&7                T4*[:7(|/}/}/}/}/}/}/}/}/}/}/}/}/}/}/}/}/}/}/}/}/}/}/}/}/}/}/}/}/}/}/}/}/}/}/}/}/}/}/}/}/}/}/}/}/}/}/}/}/}/}/}/}/}/}/}/}/}/}/}/}/}/}/}/}/}/}/}/}/}/}/}/}<7          [7c5j}Y6}7|7/}/}/}/}/}/}/}/}/}/}/}/}l}l}l}/}/}/}<};|                                  ",
"                                                          ]|<}u}w}/}u}/}/}/}/}/}/}/}/}/}/}/}/}/}/}/}/}/}/}U<                  ![u<g[/}/}/}/}/}/}/}/}/}/}/}/}/}/}/}/}/}/}/}/}/}/}/}/}/}/}/}/}/}/}/}/}/}/}/}/}/}/}/}/}/}/}/}/}/}/}/}/}/}/}/}/}/}/}/}/}/}/}/}/}/}/}/}/}/}/}/}/}/}/}/}/}/}17            27w}Y63747/}/}/}/}/}/}/}/}/}/}/}/}l}l}l}/}/}/}S}57                                  ",
"                                                        67v|M|u}!}!}u}/}/}/}/}/}/}/}/}/}/}/}/}/}u}/}!}/}!},1                  F<)177(|/}/}/}/}/}/}/}/}/}/}/}/}/}/}/}/}/}/}/}/}/}/}/}/}/}/}/}/}/}/}/}/}/}/}/}/}/}/}/}/}/}/}/}/}/}/}/}/}/}/}/}/}/}/}/}/}/}/}/}/}/}/}/}/}/}/}/}/}/}/}/}/}              87<}169707/}/}/}/}/}/}/}/}/}/}/}/}l}l}l}/}/}/}M|57a7                                ",
"                                                        b7c7U</}/}/}/}/}/}/}/}/}/}/}/}/}/}/}/}/}/}/}u}:}U<U<                  E< 2&[/}/}/}/}/}/}/}/}/}/}/}/}/}/}/}/}/}/}/}/}/}/}/}/}/}/}/}/}/}/}/}/}/}/}/}/}/}/}/}/}/}/}/}/}/}/}/}/}/}/}/}/}/}/}/}/}/}/}/}/}/}/}/}/}/}/}/}/}/}/}/}/}/}                d7!}m}97/}/}/}/}/}/}/}/}/}/}/}/}l}l}l}/}/}/}S}_}T$                                ",
"                                                        ,:x<U</}/}/}/}/}/}/}/}/}/}/}/}/}/}/}/}/}!}:}:}/}O}                    {<V:h[/}/}/}/}/}/}/}/}/}/}/}/}/}/}/}/}/}/}/}/}/}/}/}/}/}/}/}/}/}/}/}/}/}/}/}/}/}/}/}/}/}/}/}/}/}/}/}/}/}/}/}/}/}/}/}/}/}/}/}/}/}/}/}/}/}/}/}/}/}/}/}/}/}                e7t}k*`1/}/}/}/}/}/}/}/}/}/}/}/}l}l}l}/}/}/}X*U<_}                                ",
"                                                        f<#|U</}/}/}/}/}/}/}/}/}/}/}/}/}/}/}/}/}w}t}!}R}u}                  f7v|}<%[(|/}/}/}/}/}/}/}/}/}/}/}/}/}/}/}/}/}/}/}/}/}/}/}/}/}/}/}/}/}/}/}/}/}/}/}/}/}/}/}/}/}/}/}/}/}/}/}/}/}/}/}/}/}/}/}/}/}/}/}/}/}/}/}/}/}/}/}/}/}/}/}g7                  T}T[(7/}/}/}/}/}/}/}/}/}/}/}/}l}l}l}/}/}/}_}_}=5                                ",
"                                                      h7l:P[U</}/}/}/}/}/}/}/}/}/}/}/}/}/}/}/}/}!}:}/}!}%7                  i7x<^<&[t2/}/}/}/}/}/}/}/}/}/}/}/}/}/}/}/}/}/}/}/}/}/}/}/}/}/}/}/}/}/}/}/}/}/}/}/}/}/}/}/}/}/}/}/}/}/}/}/}/}/}/}/}/}/}/}/}/}/}/}/}/}/}/}/}/}/}/}/}/}/}/}f1                  P}j}j7/}/}/}/}/}/}/}/}/}/}/}/}l}l}l}/}/}/}S}<}e2/}                              ",
"                                                      f<k7(<U</}/}/}/}/}/}/}/}/}/}/}/}/}/}/}/}/}p}w}p}!}                    l7Q:R:h[,1/}/}/}/}/}/}/}/}/}/}/}/}/}/}/}/}/}/}/}/}/}/}/}/}/}/}/}/}/}/}/}/}/}/}/}/}/}/}/}/}/}/}/}/}/}/}/}/}/}/}/}/}/}/}/}/}/}/}/}/}/}/}/}/}/}/}/}/}/}/}/}                    g|/}u}/}/}/}/}/}/}/}/}/}/}/}/}l}l}l}/}/}/}X*_}U<T}                              ",
"                                                    m7T4C6U</}/}/}/}/}/}/}/}/}/}/}/}k*k*k*/}/}/}(}!}(}M|                    A<R:R:,},1/}/}/}/}/}/}/}/}/}/}/}/}/}/}/}/}/}/}/}/}/}/}/}O}}<}<}<V:V:x|%7U</}u}!}u}/}!}/}/}u}u}/}/}/}/}/}/}/}/}/}/}/}/}/}/}/}/}/}/}/}/}/}/}/}/}!}:}w}p}n7                    o7k[f1/}/}/}/}/}/}/}/}/}/}/}/}O}O}O}/}/}/}U<u}w}p}                              ",
"                                                    p7S}_}<}/}/}/}/}/}/}/}/}/}/}/}/}l}l}l}/}/}/}<}S}_}e2                    Q:R:V:V:/}/}/}/}/}/}/}/}/}/}/}/}/}/}/}/}/}/}/}/}/}/}/}/}}<{6{6]6^6V:(<x<e2e2S}#<U</}/}/}/}!}!}/}/}/}/}/}/}/}/}/}/}/}/}/}/}/}/}/}/}/}/}/}/}/}u}:}:}b<w}g|                    q7,}'}/}/}/}/}/}/}/}/}/}/}/}/}/}/}/}/}/}/}!}u}!}k}                              ",
"                                                    :}M|<}_}/}/}/}/}/}/}/}/}/}/}/}/}l}l}l}/}/}/}_}57<}                      i[]<V:^<(|/}/}/}/}/}/}/}/}/}/}/}/}/}/}/}/}/}/}/}/}/}/}/}k*%[%[}<V:V:Q:i[{[i[Q:,:#|!}/}u}/}/}!}/}/}/}/}/}/}/}/}/}/}/}/}/}/}/}/}/}/}/}/}/}/}/}/}!}/}/}t}r7                    s7&[*[/}/}/}/}/}/}/}/}/}/}/}/}/}/}/}/}/}/}u}!}/}t}t7                            ",
"                                                    R<_}M|U</}/}/}/}/}/}/}/}/}/}/}/}l}l}l}/}/}/}e2T}S}                      Q:R:^<^</}/}/}/}/}/}/}/}/}/}/}/}/}/}/}/}/}/}/}/}/}/}/}/}k*l}u7k*/}V:Q:{<D<Z|v7w7(<x|u}/}/}:}:}/}/}/}/}/}/}/}/}/}/}/}/}/}/}/}/}/}/}/}/}/}/}/}/}:}/}w}R}<7                    x7u<h[/}/}/}/}/}/}/}/}/}/}/}/}/}/}/}/}/}/}:}!}/}:}t2                            ",
"                                                  y7V3(}X*_}/}/}/}/}/}/}/}/}/}/}/}/}l}l}l}/}/}/}M|M|(}                      ':V:^<V:/}/}/}/}/}/}/}/}/}/}/}/}/}/}/}/}/}/}/}/}/}/}/}/}N4-2-226/}/}]<B<z7v7A7B7`}s2p}/}R}/}u}/}/}/}/}/}/}/}/}/}/}/}/}/}/}/}/}/}/}/}/}/}/}/}!}w}u}u}t}C7                    D7^[h[/}/}/}/}/}/}/}/}/}/}/}/}/}/}/}/}/}/}u}!}!}/}d5                            ",
"                                                  E7M|_}U<X*/}/}/}/}/}/}/}/}/}/}/}/}l}l}l}/}/}/}(}U<F7                      i[V:^<R:/}/}/}/}/}/}/}/}/}/}/}/}/}/}/}/}/}/}/}/}/}/}/}/}N4U$U$26n}/}t<7|G796H7I7J7I|u}u}w}w}/}/}/}/}/}/}/}/}/}/}/}/}/}/}/}/}/}/}/}/}/}/}/}/},1/}p}Q}w}t%                    K7}<%[/}/}/}/}/}/}/}/}/}/}/}/}/}/}/}/}/}/}w}/}!}!}f1                            ",
"                                                  L7(}M|M|U</}/}/}/}/}/}/}/}/}/}/}/}l}l}l}/}/}/}e2F7Y*                      M7V:)1R:/}/}/}/}/}/}/}/}/}/}/}/}/}/}/}/}/}/}/}/}/}/}/}/}d6U$U$26J}/}V:Z|N7O7P7Q7R7S7u}!}:}!}u}/}/}/}/}/}/}/}/}/}/}/}/}/}/}/}/}/}/}/}/}/}/}/}/}!}:}!}p}U<                    T7/<T[/}/}/}/}/}/}/}/}/}/}/}/}/}/}/}/}/}/}w}/}/}/}t2                            ",
"                                                  U<<}X*M|_}/}/}/}/}/}/}/}/}/}/}/}/}l}l}l}/}/}/}_}(}I                       (</[R:R:/}/}/}/}/}/}/}/}/}/}/}/}/}/}/}/}/}/}/}/}/}/}/}/}N4U$U$26n}/}Q:Z|s6U7V7W7X7N}p}j}p}w}:}/}/}/}/}/}/}/}/}/}/}/}/}/}/}/}/}/}/}/}/}/}/}/}/}/}/}/}/}_}c7                  Y7,}&[/}/}/}/}/}/}/}/}/}/}/}/}/}/}/}/}/}/}/}/}/}/}/}t2                          ",
"                                                l$~1<}S}U<U</}/}/}/}/}/}/}/}/}/}/}/}l}l}l}/}/}/}(}M|!}                    Z7s<-5t<V:/}/}/}/}/}/}/}/}/}/}/}/}/}/}/}/}/}/}/}/}/}/}/}/}N4-2-226/}/}V:D<[6`7 8.8+8x|:}w}/}R}p}/}/}/}/}/}/}/}/}/}/}/}/}/}/}/}/}/}/}/}/}/}/}/}/}/}/}/}/}/}=|                  @8^[g[/}/}/}/}/}/}/}/}/}/}/}/}/}/}/}/}/}/}/}/}/}/}/}n}                          ",
"                                                s5b4T}S}M|<}/}/}/}/}/}/}/}/}/}/}/}/}l}l}l}/}/}/}e2<}#8                    15i[)1^<V:/}/}/}/}/}/}/}/}/}/}/}/}/}/}/}/}/}/}/}/}/}/}/}/}k*l}u7}<x|V:x<x<Z|D<$8%815u}!}u}/}R}:}/}/}/}/}/}/}/}/}/}/}/}/}/}/}/}/}/}/}/}/}/}/}/}/}/}/}/}/}/}/}                  &8,}k*/}/}/}/}/}/}/}/}/}/}/}/}/}/}/}/}/}/}/}/}/}/}/}U<                          ",
"                                                *8q}T}S}M|(}/}/}/}/}/}/}/}/}/}/}/}/}l}l}l}/}/}/}U<=8                    -8j[x<V:V:V:/}/}/}/}/}/}/}/}/}/}/}/}/}/}/}/}/}/}/}/}/}/}/}/}k*%[%[}<V:V:Q:Q:=[Q:s<#[Y|w}!}p}!}w}/}/}/}/}/}/}/}/}/}/}/}/}/}/}/}/}/}/}/}/}/}/}/}/}/}/}/}/}/}/}/}                    ;8'}/}/}/}/}/}/}/}/}/}/}/}/}/}/}/}/}/}/}/}/}/}/}/}U<                          ",
"                                              >8~5v4U<M|_}M|/}/}/}/}/}/}/}/}/}/}/}/}l}l}l}/}/}/}_}e2                  ,8x<j[s<'1t<^<,1/}/}/}/}/}/}/}/}/}/}/}/}/}/}/}/}/}/}/}/}/}/}/}}<{6{6]6^6V:R:x<X*M|U<v4w}w}u}u}w}/}!}/}/}/}/}/}/}/}/}/}/}/}/}/}/}/}/}/}/}/}/}/}/}/}/}/}/}/}/}/}x|]}                  '8h[/}/}/}/}/}/}/}/}/}/}/}/}/}/}/}/}/}/}/}/}/}/}/})8                          ",
"                                              v4M|U<M|/}u}w}/}/}/}/}/}/}/}/}/}/}/}/}!8/<%7~8x|#|{8                    I|_6s2~8,1]8k*/}/}/}/}/}/}/}/}/}/}/}/}/}/}/}/}/}/}/}/}/}/}/}/}O}}<}<V:V:V:x|~8<}<}!}u}u}!}u}!}!}u}/}/}/}/}/}/}/}/}/}/}/}/}/}/}/}/}/}/}/}/}/}/}/}/}/}/}/}/}/}/}/}Y|                  ^8w</8O}k}16$|k*O}/}/}/}/}/}/}/}/}/}/}/}/}/}/}/}/}/}{8                        ",
"                                              S}/}/}/}l}l}l}/}/}/}/}/}/}/}/}/}/}/}/}x<^<i[=[Q[{}(8                    _}/}/}/}k*l}l}/}/}/}/}/}/}/}/}/}/}/}/}/}/}/}/}/}/}/}/}/}/}/}/}/}/}/}/}/}/}/}/}/}/}/}/}/}/}/}/}/}/}/}/}/}/}/}/}/}/}/}/}/}/}/}/}/}/}/}/}/}/}/}/}/}/}/}/}/}/}/}/}/}':                    C6_8`1:8_7u2<8l}O}/}/}/}/}/}/}/}/}/}/}/}/}/}/}/}/}':                        ",
"                                            [8M|/}/}/}l}l}l}/}/}/}/}/}/}/}/}/}/}/}/}':Q:':x<v|~<                    }8_}/}/}/}l}l}l}/}/}/}/}/}/}/}/}/}/}/}/}/}/}/}/}/}/}/}/}/}/}/}/}/}/}/}/}/}/}/}/}/}/}/}/}/}/}/}/}/}/}/}/}/}/}/}/}/}/}/}/}/}/}/}/}/}/}/}/}/}/}/}/}/}/}/}/}/}/}/}/}w5':                    #:O}97<8u2<897l}O}/}/}/}/}/}/}/}/}/}/}/}/}/}/}/}/},6c7                      ",
"                                            t5U</}/}/}l}l}l}/}/}/}/}/}/}/}/}/}/}/}/}{[{<':.115 1                    |8M|/}/}/}l}l}l}/}/}/}/}/}/}/}/}/}/}/}/}/}/}/}/}/}/}/}/}/}/}/}/}/}/}/}/}/}/}/}/}/}/}/}/}/}/}/}/}/}/}/}/}/}/}/}/}/}/}/}/}/}/}/}/}/}/}/}/}/}/}/}/}/}/}/}/}/}/}/}/}/}Q:                      w}f11828C738k*/}/}/}/}/}/}/}/}/}/}/}/}/}/}/}/}/}w<V:                      ",
"                                            X*(}/}/}/}l}l}l}/}/}/}/}/}/}/}/}/}/}/}/}{<i[(<(<Q[                      S}U</}/}/}l}l}l}/}/}/}/}/}/}/}/}/}/}/}/}/}/}/}/}/}/}/}/}/}/}/}/}/}/}/}/}/}/}/}/}/}/}/}/}/}/}/}/}/}/}/}/}/}/}/}/}/}/}/}/}/}/}/}/}/}/}/}/}/}/}/}/}/}/}/}/}/}/}/}/}/}#|w1                    b5U<!}!}p}R}/}/}/}/}/}/}/}/}/}/}/}/}/}/}/}/}/}/}i[Q:                      ",
"                                          _4U<_}/}/}/}l}l}l}/}/}/}/}/}/}/}/}/}/}/}/}w<{[(<j[v|                      /}X*/}/}/}l}l}l}/}/}/}/}/}/}/}/}/}/}/}/}/}/}/}/}/}/}/}/}/}/}/}/}/}/}/}/}/}/}/}/}/}/}/}/}/}/}/}/}/}/}/}/}/}/}/}/}/}/}/}/}/}/}/}/}/}/}/}/}/}/}/}/}/}/}/}/}/}/}/}/}/}':c7                      48<}X*e2v}/}/}/}l}l}l}/}/}/}/}/}/}/}/}/}/}/}/}i[D<                      ",
"                                          58S}X*/}/}/}l}l}l}/}/}/}/}/}/}/}/}/}/}/}/}w|(<{[x<j:                      (}U</}/}/}l}l}l}/}/}/}/}/}/}/}/}/}/}/}/}/}/}/}/}/}/}/}/}/}/}/}/}/}/}/}/}/}/}/}/}/}/}/}/}/}/}/}/}/}/}/}/}/}/}/}/}/}/}/}/}/}/}/}/}/}/}/}/}/}/}/}/}/}/}/}/}/}/}/}/}/}':D<                        a757<}M|/}/}/}l}l}l}/}/}/}/}/}/}/}/}/}/}/}/}':R:                      ",
"                                        6878S}U</}/}/}l}l}l}/}/}/}/}/}/}/}/}/}/}/}/}i[x<':t<                      88_}<}/}/}/}l}l}l}/}/}/}/}/}/}/}/}/}/}/}/}/}/}/}/}/}/}/}/}/}/}/}/}/}/}/}/}/}/}/}/}/}/}/}/}/}/}/}/}/}/}/}/}/}/}/}/}/}/}/}/}/}/}/}/}/}/}/}/}/}/}/}/}/}/}/}/}/}/}/}/}/}i[/[                          c=M|e2U</}/}l}l}l}/}/}/}/}/}/}/}/}/}/}/}/}x<#|                      ",
"                                        >}<}S}<}/}/}/}l}l}l}/}/}/}/}/}/}/}/}/}/}/}/}Q:':w<98                      R}M|_}/}/}/}l}l}l}/}/}/}/}/}/}/}/}/}/}/}/}/}/}/}/}/}/}/}/}/}/}/}/}/}/}/}/}/}/}/}/}/}/}/}/}/}/}/}/}/}/}/}/}/}/}/}/}/}/}/}/}/}/}/}/}/}/}/}/}/}/}/}/}/}/}/}/}/}/}/}/}w5Q:w<                          08K6e2U</}/}l}l}l}/}/}/}/}/}/}/}/}/}/}/}/}':(<                      ",
"                                        `6U<U<M|/}/}/}l}l}l}/}/}/}/}/}/}/}/}/}/}/}/}x<Q:i[                        M|X*M|/}/}/}l}l}l}/}/}/}/}/}/}/}/}/}/}/}/}/}/}/}/}/}/}/}/}/}/}/}/}/}/}/}/}/}/}/}/}/}/}/}/}/}/}/}/}/}/}/}/}/}/}/}/}/}/}/}/}/}/}/}/}/}/}/}/}/}/}/}/}/}/}/}/}/}/}/}/}/}Q:':                            a8j4U</}/}l}l}l}/}/}/}/}/}/}/}/}/}/}/}/}Q:R:                      ",
"                                        g|M|(}S}/}/}/}l}l}l}/}/}/}/}/}/}/}/}/}/}/}/}w<i[{[                        q}<}U</}/}/}l}l}l}/}/}/}/}/}/}/}/}/}/}/}/}/}/}/}/}/}/}/}/}/}/}/}/}/}/}/}/}/}/}/}/}/}/}/}/}/}/}/}/}/}/}/}/}/}/}/}/}/}/}/}/}/}/}/}/}/}/}/}/}/}/}/}/}/}/}/}/}/}/}/}/}x|':':                            b8`6U</}/}l}l}l}/}/}/}/}/}/}/}/}/}/}/}/}x<{[                      ",
"                                        c8M|U<M|/}/}/}l}l}l}/}/}/}/}/}/}/}/}/}/}/}/}':s<d8                      e8(}_}U</}/}/}l}l}l}/}/}/}/}/}/}/}/}/}/}/}/}/}/}/}/}/}/}/}/}/}/}/}/}/}/}/}/}/}/}/}/}/}/}/}/}/}/}/}/}/}/}/}/}/}/}/}/}/}/}/}/}/}/}/}/}/}/}/}/}/}/}/}/}/}/}/}/}/}/}/}/}/}(<':w1                            K6U</}/}l}!7l}/}/}/}/}/}/}/}/}/}/}/}/}x<Q:D<                    ",
"                                        j}M|X*u}/}/}/}k*k*k*/}/}/}/}/}/}/}/}/}/}/}/}Q:v|                        f8%4S}U</}/}/}k*k*k*/}/}/}/}/}/}/}/}/}/}/}/}/}/}/}/}/}/}/}/}/}/}/}/}/}/}/}/}/}/}/}/}/}/}/}/}/}/}/}/}/}/}/}/}/}/}/}/}/}/}/}/}/}/}/}/}/}/}/}/}/}/}/}/}/}/}/}/}/}/}/}/}/}x<x<g8                            s5U<_}/}O}4338/}/}/}/}/}/}/}/}/}/}/}/}Q:Q:Y5                    ",
"                                        R}R}u}u}/}/}/}/}/}/}/}/}/}/}/}/}/}/}/}/}/}/}':w<                        h8/}R}u}/}/}/}/}/}/}/}/}/}/}/}/}/}/}/}/}/}/}/}/}/}/}/}/}/}/}/}/}/}/}/}/}/}/}/}/}/}/}/}/}/}/}/}/}/}/}/}/}/}/}/}/}/}/}/}/}/}/}/}/}/}/}/}/}/}/}/}/}/}/}/}/}/}/}/}/}/}/}x|i[':H6                            S}X*U<S}w}u}/}/}/}/}/}/}/}/}/}/}/}/}/}w<i[':                    ",
"                                        /}!}p}u}/}/}/}/}/}/}/}/}/}/}/}/}/}/}/}/}/}/}(<i:                        !}j}R}p}/}/}/}/}/}/}/}/}/}/}/}/}/}/}/}/}/}/}/}/}/}/}/}/}/}/}/}/}/}/}/}/}/}/}/}/}/}/}/}/}/}/}/}/}/}/}/}/}/}/}/}/}/}/}/}/}/}/}/}/}/}/}/}/}/}/}/}/}/}/}/}/}/}/}/}/}/}/}/}i[Q:i[                            :}(}<}_}P}!}t}/}/}/}/}/}/}/}/}/}/}/}/}w<(<.1                    ",
"                                      i8/}/}p}/}/}/}/}/}/}/}/}/}/}/}/}/}/}/}/}/}/}/}Q:                          j}:}w}!}/}/}/}/}/}/}/}/}/}/}/}/}/}/}/}/}/}/}/}/}/}/}/}/}/}/}/}/}/}/}/}/}/}/}/}/}/}/}/}/}/}/}/}/}/}/}/}/}/}/}/}/}/}/}/}/}/}/}/}/}/}/}/}/}/}/}/}/}/}/}/}/}/}/}/}/}/}/}/}x<w<j8                            k8_}U<(}:}w}!}/}/}/}/}/}/}/}/}/}/}/}/}i[(<':                    ",
"                                      l8!}/}u}!}/}/}/}/}/}/}/}/}/}/}/}/}/}/}/}/}/}t2m4                        m8M|:}p}w}/}/}/}/}/}/}/}/}/}/}/}/}/}/}/}/}/}/}/}/}/}/}/}/}/}/}/}/}/}/}/}/}/}/}/}/}/}/}/}/}/}/}/}/}/}/}/}/}/}/}/}/}/}/}/}/}/}/}/}/}/}/}/}/}/}/}/}/}/}/}/}/}/}/}/}/}/}/}x|':x<R:                            n8(}M|S}!}u}w}/}/}/}/}/}/}/}/}/}/}/}/}x<x<Q:^7                  ",
"                                      o8w}u}!}w}/}/}/}/}/}/}/}/}/}/}/}/}/}/}/}/}/}#|                          j}w}/}p}u}/}/}/}/}/}/}/}/}/}/}/}/}/}/}/}/}/}/}/}/}/}/}/}/}/}/}/}/}/}/}/}/}/}/}/}/}/}/}/}/}/}/}/}/}/}/}/}/}/}/}/}/}/}/}/}/}/}/}/}/}/}/}/}/}/}/}/}/}/}/}/}/}/}/}/}/}/}/}u}':{[x<p8                            E2;|M|R}:}R}/}/}/}/}/}/}/}/}/}/}/}/}(<(<s<x|                  ",
"                                      q8/}:}!}/}/}/}/}/}/}/}/}/}/}/}/}/}u}/}!}u}:}_6                          O}!}v}w}/}/}/}/}/}/}/}/}/}/}/}/}/}/}/}/}/}/}/}/}/}/}/}/}/}/}/}/}/}/}/}/}/}/}/}/}/}/}/}/}/}/}/}/}/}/}/}/}/}/}/}/}/}/}/}/}/}/}/}/}/}/}/}/}/}/}/}/}/}/}/}/}/}/}/}/}/}/}/}/}(<':x<k[                            r8S}S}/}:}!}/}/}/}/}/}/}/}/}/}/}/}/}Q:x<':`2                  ",
"                                      s8u}/}/}/}/}/}/}/}/}/}/}/}/}/}/}/}u}:}R}%4(|                          g|w}!}u}u}u}/}/}/}/}/}/}/}/}/}/}/}/}/}/}/}/}/}/}/}/}/}/}/}/}/}/}/}/}/}/}/}/}/}/}/}/}/}/}/}/}/}/}/}/}/}/}/}/}/}/}/}/}/}/}/}/}/}/}/}/}/}/}/}/}/}/}/}/}/}/}/}/}/}/}/}/}/}/}/}Q:':{[':                              t5X*:}!}/}/}/}/}/}/}/}/}/}/}/}/}/}(<i[x<w|                  ",
"                                      _}R}/}:}j}/}/}/}/}/}/}/}/}/}/}/}/}w}:}Q}t}b<                          {8!}/}u}u}/}/}/}/}/}/}/}/}/}/}/}/}/}/}/}/}/}/}/}/}/}/}/}/}/}/}/}/}/}/}/}/}/}/}/}/}/}/}/}/}/}/}/}/}/}/}/}/}/}/}/}/}/}/}/}/}/}/}/}/}/}/}/}/}/}/}/}/}/}/}/}/}/}/}/}/}/}/}/}w5Q:x<i[{<t8                            u8e2:}/}R}/}/}/}/}/}/}/}/}/}/}/}/}x<':i[i[I|                ",
"                                      54>7p}u}w}/}/}/}/}/}/}/}/}/}/}/}/}:}j}:}!}                          v8w5/}/}/}/}!}/}/}/}/}/}/}/}/}/}/}/}/}/}/}/}/}/}/}/}/}/}/}/}/}/}/}/}/}/}/}/}/}/}/}/}/}/}/}/}/}/}/}/}/}/}/}/}/}/}/}/}/}/}/}/}/}/}/}/}/}/}/}/}/}/}/}/}/}/}/}/}/}/}/}/}/}/}/}/}Q:w<{[x< 1                              S:!}!}p}/}/}/}/}/}/}/}/}/}/}/}/}':Q:(<s<c4                ",
"                                      /}>7v}!}u}/}/}/}/}/}/}/}/}/}/}/}/}u}/}54w8                          v|x|/}/}/}/}!}/}/}/}/}/}/}/}/}/}/}/}/}/}/}/}/}/}/}/}/}/}/}/}/}/}/}/}/}/}/}/}/}/}/}/}/}/}/}/}/}/}/}/}/}/}/}/}/}/}/}/}/}/}/}/}/}/}/}/}/}/}/}/}/}/}/}/}/}/}/}/}/}/}/}/}/}/}/}/}Q:.1j[s<G:                              x8T}w}:}/}/}/}/}/}/}/}/}/}/}/}/}x<i[{<>[{}                ",
"                                      y8w}:}/}/}/}/}/}/}/}/}/}/}/}/}/}/}w}t}R}                          z8)1!}!}/}/}/}!}/}/}/}/}/}/}/}/}/}/}/}/}/}/}/}/}/}/}/}/}/}/}/}/}/}/}/}/}/}/}/}/}/}/}/}/}/}/}/}/}/}/}/}/}/}/}/}/}/}/}/}/}/}/}/}/}/}/}/}/}/}/}/}/}/}/}/}/}/}/}/}/}/}/}/}/}/}/}!}x<{[![':9:k_                              54R}R}/}/}/}/}/}/}/}/}/}/}/}/}x<':w<{[Y|;<              ",
"                                      f1p}U3:}w}/}/}/}/}/}/}/}V:V:/}/}/}x|Q6                            _6i[!}!}/}u}/}/}/}/}/}/}/}/}/}/}/}/}/}/}/}/}/}/}/}/}/}/}/}/}/}/}/}/}/}/}/}/}/}/}/}/}/}/}/}/}/}/}/}/}/}/}/}/}/}/}/}/}/}/}/}/}/}/}/}/}/}/}/}/}/}/}/}/}/}/}/}/}/}/}/}/}/}/}/}/}x|i[{<w|':C6z<                              A8/}u}/}/}/}/}/}/}/}/}/}/}/}/},1v<(|S[!8!8              ",
"                                      B8C8G<77l}l}<6-2J}J}J}%[{6{6^6V:':w1O:                            ':Q:/}/}/}/}/}/}/}/}/}/}/}/}/}/}/}/}/}/}/}/}/}/}/}/}/}/}/}/}/}/}/}/}/}/}/}/}/}/}/}/}/}/}/}/}/}/}/}/}/}/}/}/}/}/}/}/}/}/}/}/}/}/}/}/}/}/}/}/}/}/}/}/}/}/}/}/}/}/}/}/}/}/}/}/}/}/}/}/}U<U<I                               D8i[x|/}u7l}l}O}/}/}/}/}V:V:V:/}l}!7E8F8E8              ",
"                                    G8%[H8/[]<R:V:/}/}/}/}/}%[{6{6V:V:':,:g:                            (<Q:/}/}/}/}/}/}/}/}/}/}/}/}/}/}/}/}/}/}/}/}/}/}/}/}/}/}/}/}/}/}/}/}/}/}/}/}/}/}/}/}/}/}/}/}/}/}/}/}/}/}/}/}/}/}/}/}/}/}/}/}/}/}/}/}/}/}/}/}/}/}/}/}/}/}/}/}/}/}/}/}/}/}/}/}/}/}/}/}U<U<!}                                E<{[/}/}/}/}(|V:V:V:V:':':V:V:%[I8~7~7~7              ",
"                                    J8U3V:/[V:R:V:V:V:/}V:V:%[{6{6V:V:': 1K8                            x<':/}/}/}/}/}/}/}/}/}/}/}/}/}/}/}/}/}/}/}/}/}/}/}/}/}/}/}/}/}/}/}/}/}/}/}/}/}/}/}/}/}/}/}/}/}/}/}/}/}/}/}/}/}/}/}/}/}/}/}/}/}/}/}/}/}/}/}/}/}/}/}/}/}/}/}/}/}/}/}/}/}/}/}/}/}/}/}/}U<U<U<L8                              M8':/}/}/}/}V:V:V:V:V:':':':V:V:}<%[N8%['1            ",
"                                    O8i[':w<(<x<':':Z|Z|Z|,6}<%[%[V:V:':;<K8                          P8i[(<w5/}/}/}/}/}/}/}/}/}/}/}/}/}/}/}/}/}/}/}/}/}/}/}/}/}/}/}/}/}/}/}/}/}/}/}/}/}/}/}/}/}/}/}/}/}/}/}/}/}/}/}/}/}/}/}/}/}/}/}/}/}/}/}/}/}/}/}/}/}/}/}/}/}/}/}/}/}/}/}/}/}/}/}/}/}/}/}U<U<U<o}                              Q8w<':':':':':':V:V:V:V:V:V:Z|Z|Z|^6]6^6-5            ",
"                                    ~578C6,:5151Z|Z|Z|R8R8^6V:l}l}/}/}U<~<                            S8s<(</}/}/}/}/}/}/}/}/}/}/}/}/}/}/}/}/}/}/}/}/}/}/}/}/}/}/}/}/}/}/}/}/}/}/}/}/}/}/}/}/}/}/}/}/}/}/}/}/}/}/}/}/}/}/}/}/}/}/}/}/}/}/}/}/}/}/}/}/}/}/}/}/}/}/}/}/}/}/}/}/}/}/}/}/}/}/}/}U<U<U<_}                              T8':':':':U<U</}/}/}/}<6u7/}':':':Z|U8R8B<            ",
"                                    g5j434,:l:~1Q:Q:,6Z|U8V8l}m}u7/}/}U<W8                            M7{[':/}/}/}/}/}/}/}/}/}/}/}/}/}/}/}/}/}/}/}/}/}/}/}/}/}/}/}/}/}/}/}/}/}/}/}/}/}/}/}/}/}/}/}/}/}/}/}/}/}/}/}/}/}/}/}/}/}/}/}/}/}/}/}/}/}/}/}/}/}/}/}/}/}/}/}/}/}/}/}/}/}/}/}/}/}/}/}/}U<U<U</}                              X8y1U<U<o}Y8J}J}Z8U$U$B_`8 9d6/}x|V:Z|v7~[.9          ",
"                                  +96 3 ~5j4I U<z<(|,1,1^[@9U$#9$912%9+5                              z<w<i[/}/}/}/}/}/}/}/}/}/}/}/}/}/}/}/}/}/}/}/}/}/}/}/}/}/}/}/}/}/}/}/}/}/}/}/}/}/}/}/}/}/}/}/}/}/}/}/}/}/}/}/}/}/}/}/}/}/}/}/}/}/}/}/}/}/}/}/}/}/}/}/}/}/}/}/}/}/}/}/}/}/}/}/}/}/}/}/}U<U<U<!}r4                            &9(}Z8*9=9-9;9>9,9'9)9!9~9{9]9^9c2v<J6,6U8v7          ",
"                                  /9`6~5I D5D5Z1C2r2(9$9_9:9<9[9}9|91219                              )1{[x</}/}/}/}/}/}/}/}/}/}/}/}/}/}/}/}/}/}/}/}/}/}/}/}/}/}/}/}/}/}/}/}/}/}/}/}/}/}/}/}/}/}/}/}/}/}/}/}/}/}/}/}/}/}/}/}/}/}/}/}/}/}/}/}/}/}/}/}/}/}/}/}/}/}/}/}/}/}/}/}/}/}/}/}/}/}/}/}U<U<U<M|c7                              =5293949596979899909a9b9c9d9e9f9g9h9i9j9i[          ",
"                                  k9I _}_}Y8J}U$l9m9n9o9p9o9q9>9u t L4r921                          s9y<i[x</}/}/}/}/}/}/}/}/}/}/}/}/}/}/}/}/}/}/}/}/}/}/}/}/}/}/}/}/}/}/}/}/}/}/}/}/}/}/}/}/}/}/}/}/}/}/}/}/}/}/}/}/}/}/}/}/}/}/}/}/}/}/}/}/}/}/}/}/}/}/}/}/}/}/}/}/}/}/}/}/}/}/}/}/}/}/}/}U<U<U<M|W6                              t9u9v9w9x9y9z9A9B9C9D9E9F9G9H9I9J9K9L9V:~[M9        ",
"                                  I5I u}O}=3N9O9P9Q.Q9R9S9T9U9V9W9X9b / j4M_                        Y9s<w<i[/}/}/}/}/}/}/}/}/}/}/}/}/}/}/}/}/}/}/}/}/}/}/}/}/}/}/}/}/}/}/}/}/}/}/}/}/}/}/}/}/}/}/}/}/}/}/}/}/}/}/}/}/}/}/}/}/}/}/}/}/}/}/}/}/}/}/}/}/}/}/}/}/}/}/}/}/}/}/}/}/}/}/}/}/}/}/}/}U<U<U<_}Y*                              d Z9`9 0.0+0@0#0$0%0&0*0=0-0;0>0,0'0)0U3{[!0        ",
"                                  7[s2t%~0{0]0^0/0(0_0:0<0[0}0|0102030/ 7840                        50w|(<Q:/}/}/}/}/}/}/}/}/}/}/}/}/}/}/}/}/}/}/}/}/}/}/}/}/}/}/}/}/}/}/}/}/}/}/}/}/}/}/}/}/}/}/}/}/}/}/}/}/}/}/}/}/}/}/}/}/}/}/}/}/}/}/}/}/}/}/}/}/}/}/}/}/}/}/}/}/}/}/}/}/}/}/}/}/}/}/}/}U<U<U<<}b4k7                            6070809000a0b0c0d0e0f0g0h0i0j0k0l0m0n0F2E653        ",
"                                  o0p0q0r0s0t0u0v0w0x0y0z09~A0B0C0D0E09>F0                          ':i[!8w5/}/}/}/}/}/}/}/}/}/}/}/}/}/}/}/}/}/}/}/}/}/}/}/}/}/}/}/}/}/}/}/}/}/}/}/}/}/}/}/}/}/}/}/}/}/}/}/}/}/}/}/}/}/}/}/}/}/}/}/}/}/}/}/}/}/}/}/}/}/}/}/}/}/}/}/}/}/}/}/}/}/}/}/}/}/}/}/}U<U<U<M|b4x6                            G0H0I0J0K0L0M0N0O0P0Q0R0S0T0U0V0W0X0[;Y0Y5Z0        ",
"                                `072 a.a+a@a#a$a%aq^&a*a=a-a;a>a,ay0'a)a                          !a:}<|~at2/}/}/}/}/}/}/}/}/}/}/}/}/}/}/}/}/}/}/}/}/}/}/}/}/}/}/}/}/}/}/}/}/}/}/}/}/}/}/}/}/}/}/}/}/}/}/}/}/}/}/}/}/}/}/}/}/}/}/}/}/}/}/}/}/}/}/}/}/}/}/}/}/}/}/}/}/}/}/}/}/}/}/}/}/}l}l}l}/}/}/}<}U<M|                            {a]a^a/a(a_a_a(a:a<a[a}a|a1a2a3a4a5a6a7a8a9a        ",
"                                l.~<0aaabacadaeafagahaiajakalamanaoapaqa                          I3/}97<8l}/}/}/}/}/}/}/}/}/}/}/}/}/}/}/}/}/}/}/}/}/}/}/}/}/}/}/}/}/}/}/}/}/}/}/}/}/}/}/}/}/}/}/}/}/}/}/}/}/}/}/}/}/}/}/}/}/}/}/}/}/}/}/}/}/}/}/}/}/}/}/}/}/}/}/}/}/}/}/}/}/}/}/}/}/}l}l}l}/}/}/}M|U<M|                            rasatata_auavaua(a(awaxayazaAaBaCaDaEaFa9:          ",
"                                Ga(<HaIaJaKaLaMaNaOaPaQaRaSaTaUaVaWaXaYa                          o}w}ZaF2`1O}/}/}/}/}/}/}/}/}/}/}/}/}/}/}/}/}/}/}/}/}/}/}/}/}/}/}/}/}/}/}/}/}/}/}/}/}/}/}/}/}/}/}/}/}/}/}/}/}/}/}/}/}/}/}/}/}/}/}/}/}/}/}/}/}/}/}/}/}/}/}/}/}/}/}/}/}/}/}/}/}/}/}/}/}l}l}l}/}/}/}_}M|Q}                          `a b.b+bxa(a_a@b7'7'#b$b%b&b*b=b-b;b>b,b'b;[          ",
"                                * Y|)b!b~b{b]b^bp+/b(b_b:b$0<b[b}b|b1b2b3b                        g|u}22u2u2O}/}/}/}/}/}/}/}/}/}/}/}/}/}/}/}/}/}/}/}/}/}/}/}/}/}/}/}/}/}/}/}/}/}/}/}/}/}/}/}/}/}/}/}/}/}/}/}/}/}/}/}/}/}/}/}/}/}/}/}/}/}/}/}/}/}/}/}/}/}/}/}/}/}/}/}/}/}/}/}/}/}/}/}/}l}l}l}/}/}/}M|M|(}=5                        4b5b6bN0N07b7b7bN08b9bc00babi,bbcbdbebfbgb            ",
"                                hbibjbkblbmbnbobpbqbrbsbtbubvbwbxbybzbAbBbCb                    J3S}/}T[l}l}/}/}/}/}/}/}/}/}/}/}/}/}/}/}/}/}/}/}/}/}/}/}/}/}/}/}/}/}/}/}/}/}/}/}/}/}/}/}/}/}/}/}/}/}/}/}/}/}/}/}/}/}/}/}/}/}/}/}/}/}/}/}/}/}/}/}/}/}/}/}/}/}/}/}/}/}/}/}/}/}/}/}/}/}/}l}l}l}/}/}/}X*M|DbS}                        EbFbGbHb9bIb&bJbKbLbMb9bNbObPbQbRbSbTbUb              ",
"                                    VbWbXbYbZb`b c.c+c@cX)#c$c%cc$Pa&c*c=c-c                    v4T};c>c<8`1/}/}/}/}/}/}/}/}/}/}/}/}/}/}/}/}/}/}/}/}/}/}/}/}/}/}/}/}/}/}/}/}/}/}/}/}/}/}/}/}/}/}/}/}/}/}/}/}/}/}/}/}/}/}/}/}/}/}/}/}/}/}/}/}/}/}/}/}/}/}/}/}/}/}/}/}/}/}/}/}/}/}/}/}/}l}l}l}/}/}/}<}e2(}w}                      ,c'c)c!cHbc0~c{c]c^c/cMbN0(c_c:cL'Y+<c[c}c              ",
"                                    |c1c2c3c4c{~5c6c7c8c9cB@0cac$c<+bcccdcec                    M|U</}l}l}l}/}/}/}/}/}/}/}/}/}/}/}/}/}/}/}/}/}/}/}/}/}/}/}/}/}/}/}/}/}/}/}/}/}/}/}/}/}/}/}/}/}/}/}/}/}/}/}/}/}/}/}/}/}/}/}/}/}/}/}/}/}/}/}/}/}/}/}/}/}/}/}/}/}/}/}/}/}/}/}/}/}/}/}/}/}l}l}l}/}/}/}_}X*<}v4                      fcgchcicjckclcmcncocpcqckc_crcsctcucvcSbwc              ",
"                                      xcyczcAcBcCcDcEcFcGcHcIcJcKcLcMc<bNcOcPc                  U<U</}l}l}l}/}/}/}/}/}/}/}/}/}/}/}/}/}/}/}/}/}/}/}/}/}/}/}/}/}/}/}/}/}/}/}/}/}/}/}/}/}/}/}/}/}/}/}/}/}/}/}/}/}/}/}/}/}/}/}/}/}/}/}/}/}/}/}/}/}/}/}/}/}/}/}/}/}/}/}/}/}/}/}/}/}/}/}/}/}l}l}l}/}/}/}U<M|_}78                      QcRcScTcUcVcWcXcYcZc`c d.d_c+d@d#d$d%d&d*d=d            ",
"                                      -d;d>d,d'd)d!d~d.c{d]d^d/db@(d_d:dxb<d[d                q6U<U</}l}l}l}/}/}/}/}/}/}/}/}/}/}/}/}/}/}/}/}/}/}/}/}/}/}/}/}/}/}/}/}/}/}/}/}/}/}/}/}/}/}/}/}/}/}/}/}/}/}/}/}/}/}/}/}/}/}/}/}/}/}/}/}/}/}/}/}/}/}/}/}/}/}/}/}/}/}/}/}/}/}/}/}/}/}/}/}/}l}l}l}/}/}/}_}_}e2<}.7                    }d|d1d2d3d4d5d6d7d8d9d0dadbdcdddedfdgdhdidjd            ",
"                                      kdldmd.+ndodpdqdrdsdtdudvdwdxdydzd%cAdBd                /6U<U</}l}l}l}/}/}/}/}/}/}/}/}/}/}/}/}/}/}/}/}/}/}/}/}/}/}/}/}/}/}/}/}/}/}/}/}/}/}/}/}/}/}/}/}/}/}/}/}/}/}/}/}/}/}/}/}/}/}/}/}/}/}/}/}/}/}/}/}/}/}/}/}/}/}/}/}/}/}/}/}/}/}/}/}/}/}/}/}/}l}l}l}/}/}/}_}U<e2#|W6                    CdDdEdFdGdHdIdJdKdLdMdNdOdPdQdRdSdTdUdVdWdXd            ",
"                                    YdZd`d e.e_&+e@e.c#e$e%e&e*e=e-e;e>e,e'e)e!e              ~eU<U</}l}l}l}/}/}/}/}/}/}/}/}/}/}/}/}/}/}/}/}/}/}/}/}/}/}/}/}/}/}/}/}/}/}/}/}/}/}/}/}/}/}/}/}/}/}/}/}/}/}/}/}/}/}/}/}/}/}/}/}/}/}/}/}/}/}/}/}/}/}/}/}/}/}/}/}/}/}/}/}/}/}/}/}/}/}/}/}/}l}l}l}/}/}/}M|X*_}_}C6                  {e]e^e/e(e_e:e<eK$[e}e&@|e1e2e3e4e5e6e7e8e9e0e            ",
"                                    aebecedeeefegeheie#$jeS0kelemeneoepeqeresete              9 U<U</}/}l}l}/}/}/}/}/}/}/}/}/}/}/}/}/}/}/}/}/}/}/}/}/}/}/}/}/}/}/}/}/}/}/}/}/}/}/}/}/}/}/}/}/}/}/}/}/}/}/}/}/}/}/}/}/}/}/}/}/}/}/}/}/}/}/}/}/}/}/}/}/}/}/}/}/}/}/}/}/}/}/}/}/}/}/}/}/}l}l}l}/}/}/}X*S}(}M|ue                  vewexeye_ezeAeBeCeB]De5+,dEejcFeGeT]HeIeJeKeLe            ",
"                                    MeNeOePe@%QeRe<b@%SeTeUeVeWeXeYeZe`e f.f+f@f              #fU<U<U</}/}/}/}/}/}/}/}/}/}/}/}/}/}/}/}/}/}/}/}/}/}/}/}/}/}/}/}/}/}/}/}/}/}/}/}/}/}/}/}/}/}/}/}/}/}/}/}/}/}/}/}/}/}/}/}/}/}/}/}/}/}/}/}/}/}/}/}/}/}/}/}/}/}/}/}/}/}/}/}/}/}/}/}/}/}/}/}/}/}/}/}/}/}/}/}Q}t}R}                $f%f&f//*f=f-f;f>fLb&b&b,f,f'fE()f!f~f{f]f^f/f              ",
"                                    (f_f:f<f@%[f$c$c}fvbac$c|f1f2f3f4f5f6f7f8f9f0f            =5U<U<U</}/}/}/}/}/}/}/}/}/}/}/}/}/}/}/}/}/}/}/}/}/}/}/}/}/}/}/}/}/}/}/}/}/}/}/}/}/}/}/}/}/}/}/}/}/}/}/}/}/}/}/}/}/}/}/}/}/}/}/}/}/}/}/}/}/}/}/}/}/}/}/}/}/}/}/}/}/}/}/}/}/}/}/}/}/}/}/}/}/}/}/}/}/}u}:}w}/}!}              afbfcfdfL0ef]~ffgfhfrcifN0jfkf_]lfmfnfofpfqfrfsf              ",
"                                  tfufvfwfxfyf}f$czf$c0@AfBfCfDfEfFf<cGfHfIfpdJfKf            !}U<U<U</}/}/}/}/}/}/}/}/}/}/}/}/}/}/}/}/}/}/}/}/}/}/}/}/}/}/}/}/}/}/}/}/}/}/}/}/}/}/}/}/}/}/}/}/}/}/}/}/}/}/}/}/}/}/}/}/}/}/}/}/}/}/}/}/}/}/}/}/}/}/}/}/}/}/}/}/}/}/}/}/}/}/}/}/}/}/}/}/}/}/}/}/}/}:}/}:}/}/}              LfMfNfOfPfQfRfSfTfUf`.,dVfWfXfYfZf`f g.g+g@g#g                ",
"                                  $g%g&g*g=g-g;g>g,g'g_d)g!gRf~g~g{g]g^g/g(g_g:g<g          [gM|U<U<U</}/}/}/}/}/}/}/}/}/}/}/}/}/}/}/}/}/}/}/}/}/}/}/}/}/}/}/}/}/}/}/}/}/}/}/}/}/}/}/}/}/}/}/}/}/}/}/}/}/}/}/}/}/}/}/}/}/}/}/}/}/}/}/}/}/}/}/}/}/}/}/}/}/}/}/}/}/}/}/}/}/}/}/}/}/}/}/}/}/}/}/}/}/}u}w}:}:}!}#|                  }g|g1g2g3g4g5g6g7g8g !9g0gagbgcgdgegfg                  ",
"                                    gghgp'igjgkglgmgngogpgogqgq+rgq+c(sgtgugvgwg            xgM|U<U<U</}/}/}/}/}/}/}/}/}/}/}/}/}/}/}/}/}/}/}/}/}/}/}/}/}/}/}/}/}/}/}/}/}/}/}/}/}/}/}/}/}/}/}/}/}/}/}/}/}/}/}/}/}/}/}/}/}/}/}/}/}/}/}/}/}/}/}/}/}/}/}/}/}/}/}/}/}/}/}/}/}/}/}/}/}/}/}/}/}/}/}/}/}/}/}/}/}u}/}/[                    ygzgAgBgCgDgEgFgGgHgIgJgKgLgMgNgOgPg                  ",
"                                      QgRgSgTgUgVgWgXgYgogZgqergzd`g h.h+h@h                k8T}U<U<U</}/}/}/}/}/}/}/}/}/}/}/}/}/}/}/}/}/}/}/}/}/}/}/}/}/}/}/}/}/}/}/}/}/}/}/}/}/}/}/}/}/}/}/}/}/}/}/}/}/}/}/}/}/}/}/}/}/}/}/}/}/}/}/}/}/}/}/}/}/}/}/}/}/}/}/}/}/}/}/}/}/}/}/}/}/}/}/}/}/}/}/}/}/}w}p}!}w}u}^<                      #h$h%h&h*h=h-h;h>h,h'h)h!h~h{h]h                    ",
"                                        ^h/h(h_h:h<h[h}h|h1h2h3h4h5h6h7h8h                  q}X*U<U<U</}/}/}/}/}/}/}/}/}/}/}/}/}/}/}/}/}/}/}/}/}/}/}/}/}/}/}/}/}/}/}/}/}/}/}/}/}/}/}/}/}/}/}/}/}/}/}/}/}/}/}/}/}/}/}/}/}/}/}/}/}/}/}/}/}/}/}/}/}/}/}/}/}/}/}/}/}/}/}/}/}/}/}/}/}/}/}/}/}/}/}/}/}/}/}/}/}/}/}v|                        9h0hahbhchdhehfhghhhihjhkhlh                      ",
"                                          mhnhS;ohphqhrhshthuhvhwhxh                      yh~5U<U<U<U</}/}/}/}/}/}/}/}/}/}/}/}/}/}/}/}/}/}/}/}/}/}/}/}/}/}/}/}/}/}/}/}/}/}/}/}/}/}/}/}/}/}/}/}/}/}/}/}/}/}/}/}/}/}/}/}/}/}/}/}/}/}/}/}/}/}/}/}/}/}/}/}/}/}/}/}/}/}/}/}/}/}/}/}/}/}/}/}/}/}/}/}/}/}/}/}/}/}/}x|                        zhAh      Bh0'ChDhEhFhGhHh                        ",
"                                              IhJhKhLhMhNhOhPhQhRh                        27b4_}U<U<U</}/}/}/}/}/}/}/}/}/}/}/}/}/}/}/}/}/}/}/}/}/}/}/}/}/}/}/}/}/}/}/}/}/}/}/}/}/}/}/}/}/}/}/}/}/}/}/}/}/}/}/}/}/}/}/}/}/}/}/}/}/}/}/}/}/}/}/}/}/}/}/}/}/}/}/}/}/}/}/}/}/}/}/}/}/}/}/}/}/}/}/}/}/}/}/}/}/}/}/}                                      ShThUhVhWhXh                        ",
"                                                YhZh`h i.i+i@i#i$i                         7c=_}U<U<U</}/}/}/}/}/}/}/}/}/}/}/}/}/}/}/}/}/}/}/}/}/}/}/}/}/}/}/}/}/}/}/}/}/}/}/}/}/}/}/}/}/}/}/}/}/}/}/}/}/}/}/}/}/}/}/}/}/}/}/}/}/}/}/}/}/}/}/}/}/}/}/}/}/}/}/}/}/}/}/}/}/}/}/}/}/}/}/}/}/}/}/}/}/}/}/}/}/}/}/})8                                      %i&is**i                          ",
"                                                    =i-i;i>i,i'i                          )i34U<U<U<U</}/}/}/}/}/}/}/}/}/}/}/}/}/}/}/}/}/}/}/}/}/}/}/}/}/}/}/}/}/}/}/}/}/}/}/}/}/}/}/}/}/}/}/}/}/}/}/}/}/}/}/}/}/}/}/}/}/}/}/}/}/}/}/}/}/}/}/}/}/}/}/}/}/}/}/}/}/}/}/}/}/}/}/}/}/}/}/}/}/}/}/}/}/}/}/}/}/}/}/} 5                                                                        ",
"                                                                                        !i34_}U<U</}/}/}/}/}/}/}/}/}/}/}/}/}/}/}/}/}/}/}/}/}/}/}/}/}/}/}/}/}/}/}/}/}/}/}/}/}/}/}/}/}/}/}/}/}/}/}/}/}/}/}/}/}/}/}/}/}/}/}/}/}/}/}/}/}/}/}/}/}/}/}/}/}/}/}/}/}/}/}/}/}/}/}/}/}/}/}/}/}/}/}/}/}/}/}/}/}/}/}/}/}/}Z1                                                                        ",
"                                                                                        #:e2k}/8O}l}/}/}/}U</}/}/}/}/}/}/}/}/}/}/}/}/}/}/}/}/}/}/}/}/}/}/}/}/}/}/}/}/}/}/}/}/}/}/}/}k*l}l}l}l}/}!}/}S}U<(}X*U</}/}/}/}/}/}/}/}/}/}/}/}/}/}/}/}/}/}/}/}/}/}/}/}/}/}/}/}/}/}/}/}/}/}/}/}/}/}/}/}/}/}/}/}/}/}/}/}M|_}                                                                      ",
"                                                                                        V<=598<8l}l}l}/}/}U</}/}/}/}/}/}/}/}/}/}/}/}/}/}/}/}/}/}/}/}/}/}/}/}/}/}/}/}/}/}/}/}/}/}/}/}k*l}l}k*O}/}u}!}U<(}S}v478/}/}/}/}/}/}/}/}/}/}/}/}/}/}/}/}/}/}/}/}/}/}/}/}/}/}/}/}/}/}/}/}/}/}/}/}/}/}/}/}/}/}/}/}/}/}/}/}x<~i                                                                      ",
"                                                                                        {i_},1!8l}l}l}/}/}U</}/}/}/}/}/}/}/}/}/}/}/}/}/}/}/}/}/}/}/}/}/}/}/}/}/}/}/}/}/}/}/}/}/}/}/}k*l}l}O}/}/}u}u}(}U<X*<}u}/}/}/}/}/}/}/}/}/}/}/}/}/}/}/}/}/}/}/}/}/}/}/}/}/}/}/}/}/}/}/}/}/}/}/}/}/}/}/}/}/}/}/}/}/}/}/}/}':':':                                                                    ",
"                                                                                        !:k8x|k*l}l}l}/}/}U</}/}/}/}/}/}/}/}/}/}/}/}/}/}/}/}/}/}/}/}/}/}/}/}/}/}/}/}/}/}/}/}/}/}/}/}k*l}/}/}/}/}<}g|X*78~5:6M|/}/}/}/}/}/}/}/}/}/}/}/}/}/}/}/}/}/}/}/}/}/}/}/}/}/}/}/}/}/}/}/}/}/}/}/}/}/}/}/}/}/}/}/}/}/}/}/}':(<j[                                                                    ",
"                                                                                          ,8j8/8l}l}l}/}/}U</}/}/}/}/}/}/}/}/}/}/}/}/}/}/}/}/}/}/}/}/}/}/}/}/}/}/}/}/}/}/}/}/}/}/}/}O}O}/}/}/}U<k[!:    ]iM|X*/}/}/}/}/}/}/}/}/}/}/}/}/}/}/}/}/}/}/}/}/}/}/}/}/}/}/}/}/}/}/}/}/}/}/}/}/}/}/}/}/}/}/}/}/}/}/}/}':Q:{[                                                                    ",
"                                                                                            ^il}l}l}l}/}/}U</}/}/}/}/}/}/}/}/}/}/}/}/}/}/}/}/}/}/}/}/}/}/}/}/}/}/}/}/}/}/}/}/}/}/}/}/}/}/}/}/}U<          /iI /}/}/}/}/}/}/}/}/}/}/}/}/}/}/}/}/}/}/}/}/}/}/}/}/}/}/}/}/}/}/}/}/}/}/}/}/}/}/}/}/}/}/}/}/}/}/}/}Q:':w<J6                                                                  ",
"                                                                                            (iF2l}l}l}/}/}U</}/}/}/}/}/}/}/}/}/}/}/}/}/}/}/}/}/}/}/}/}/}/}/}/}/}/}/}/}/}/}/}/}/}/}/}:}j}p}E2_i:i            S4/}/}/}/}/}/}/}/}/}/}/}/}/}/}/}/}/}/}/}/}/}/}/}/}/}/}/}/}/}/}/}/}/}/}/}/}/}/}/}/}/}/}/}/}/}/}/}/}i[(<Q:<<                                                                  ",
"                                                                                            <il}l}l}l}/}/}U</}/}/}/}/}/}/}/}/}/}/}/}/}/}/}/}/}/}/}/}/}/}/}/}/}/}/}/}/}/}/}/}/}/}/}/}:}Q};|/}g|n7            64/}/}/}/}/}/}/}/}/}/}/}/}/}/}/}/}/}/}/}/}/}/}/}/}/}/}/}/}/}/}/}/}/}/}/}/}/}/}/}/}/}/}/}/}/}/}/}/}x<':s<[i                                                                  ",
"                                                                                            }i<8l}l}l}/}/}U</}/}/}/}/}/}/}/}/}/}/}/}/}/}/}/}/}/}/}/}/}/}/}/}/}/}/}/}/}/}/}/}/}/}/}/}R}_}<}M|T$              |i/}/}/}/}/}/}/}/}/}/}/}/}/}/}/}/}/}/}/}/}/}/}/}/}/}/}/}/}/}/}/}/}/}/}/}/}/}/}/}/}/}/}/}/}/}/}/}/}v|V:                                                                      ",
"                                                                                            O}l}l}l}l}/}/}U</}/}/}/}/}/}/}/}/}/}/}/}/}/}/}/}/}/}/}/}/}/}/}/}/}/}/}/}/}/}/}/}/}/}/}/}!}T}S}<}+.              %:/}/}/}/}/}/}/}/}/}/}/}/}/}/}/}/}/}/}/}/}/}/}/}/}/}/}/}/}/}/}/}/}/}/}/}/}/}/}/}/}/}/}/}/}/}/}/}/}=[                                                                        ",
"                                                                                            (|Zal}l}l}/}/}U</}/}/}/}/}/}/}/}/}/}/}/}/}/}/}/}/}/}/}/}/}/}/}/}/}/}/}/}/}/}/}/}/}/}/}/}/}X*X*F7                xg/}/}/}/}/}/}/}/}/}/}/}/}/}/}/}/}/}/}/}/}/}/}/}/}/}/}/}/}/}/}/}/}/}/}/}/}/}/}/}/}/}/}/}/}/}/}/}/}i:                                                                        ",
"                                                                                          1i(|(7l}l}l}/}/}U</}/}/}/}/}/}/}/}/}/}/}/}/}/}/}/}/}/}/}/}/}/}/}/}/}/}/}/}/}/}/}/}/}/}/}/}X*<}`6                  2i/}/}/}/}/}/}/}/}/}/}/}/}/}/}/}/}/}/}/}/}/}/}/}/}/}/}/}/}/}/}/}/}/}/}/}/}/}/}/}/}/}/}/}/}/}/}/}/}[6                                                                        ",
"                                                                                          3i!8F2l}l}l}/}/}U</}/}/}/}/}/}/}/}/}/}/}/}/}/}/}/}/}/}/}/}/}/}/}/}/}/}/}/}/}/}/}/}/}/}/}/}x64i&6                    [8(}S};|S}u}/}/}O}l}l}k*/}/}/}/}/}/}/}/}/}/}/}/}/}/}/}/}/}/}/}/}/}/}/}/}/}/}/}/}/}/}/}/}/}/}/}/}I|                                                                        ",
"                                                                                          5iY6u2l}l}l}/}/}U</}/}/}/}/}/}/}/}/}/}/}/}/}/}/}/}/}/}/}/}/}/}/}/}/}/}/}/}/}/}/}/}/}/}/}/}b36i                        7i_}S}(}u}/}/}O}l}l}k*/}/}/}/}/}/}/}/}/}/}/}/}/}/}/}/}/}/}/}/}/}/}/}/}/}/}/}/}/}/}/}/}/}/}/}/}i[j9                                                                      ",
"                                                                                          8ix1`1l}l}l}/}/}U</}/}/}/}/}/}/}/}/}/}/}/}/}/}/}/}/}/}/}/}/}/}/}/}/}/}/}/}/}/}/}/}/}/}/}/}w14i                          <}<}M|!}/}/}O}l}l}k*/}/}/}/}/}/}/}/}/}/}/}/}/}/}/}/}/}/}/}/}/}/}/}/}/}/}/}/}/}/}/}/}/}/}/}/}(<y1                                                                      ",
"                                                                                          9i,122l}l}l}/}/}U</}/}/}/}/}/}/}/}/}/}/}/}/}/}/}/}/}/}/}/}/}/}/}/}/}/}/}/}/}/}/}/}/}/}/}/}~5                            27_}E2/}/}/}O}l}l}k*/}/}/}/}/}/}/}/}/}/}/}/}/}/}/}/}/}/}/}/}/}/}/}/}/}/}/}/}/}/}/}/}/}/}/}/}':w<                                                                      ",
"                                                                                          S}(|22l}l}l}/}/}U</}/}/}/}/}/}/}/}/}/}/}/}/}/}/}/}/}/}/}/}/}/}/}/}/}/}/}/}/}/}/}/}/}/}/}/} 1                            0iX*_}_}/}/}O}l}l}k*/}/}/}/}/}/}/}/}/}/}/}/}/}/}/}/}/}/}/}/}/}/}/}/}/}/}/}/}/}/}/}/}/}/}/}/}Q:{<ai                                                                    ",
"                                                                                          (}$|u2l}l}l}/}/}U</}/}/}/}/}/}/}/}/}/}/}/}/}/}/}/}/}/}/}/}/}/}/}/}/}/}/}/}/}/}/}/}/}/}/}/}bi                              j}=5t}/}/}O}l}l}k*/}/}/}/}/}/}/}/}/}/}/}/}/}/}/}/}/}/}/}/}/}/}/}/}/}/}/}/}/}/}/}/}/}/}/}/}Q:':P[                                                                    ",
"                                                                                          X*=|u2l}l}l}/}/}U</}/}/}/}/}/}/}/}/}/}/}/}/}/}/}/}/}/}/}/}/}/}/}/}/}/}/}/}/}/}R}%4/}/}!}Q}                                b<S}p}/}/}O}l}l}k*/}/}/}/}/}/}/}/}/}/}/}/}/}/}/}/}/}/}/}/}/}/}/}/}/}/}/}/}/}/}/}/}/}/}/}/}(<i[w<                                                                    ",
"                                                                                          M|O}u2l}l}l}/}/}U</}/}/}/}/}/}/}/}/}/}/}/}/}/}/}/}/}/}/}/}/}/}/}/}/}/}/}/}/}/}w}t}!}u}!}V5                                ci_}U</}/}O}l}l}k*/}/}/}/}/}/}/}/}/}/}/}/}/}/}/}/}/}/}/}/}/}/}/}/}/}/}/}/}/}/}/}/}/}/}/}/}Q:Q:':D<                                                                  ",
"                                                                                          e2O}l}l}l}l}/}/}U</}/}/}/}/}/}/}/}/}/}/}/}/}/}/}/}/}/}/}/}/}/}/}/}/}/}/}/}/}/}u}:}!}u}y8                                  di(}U</}/}O}l}l}k*/}/}/}/}/}/}/}/}/}/}/}/}/}/}/}/}/}/}/}/}/}/}/}/}/}/}/}/}/}/}/}/}/}/}/}/}i[':Q:i}                                                                  ",
"                                                                                          E2O}l}l}l}l}/}/}U</}/}/}/}/}/}/}/}/}/}/}/}/}/}/}/}/}/}/}/}/}/}/}/}/}/}/}/}/}/}:}!}/}u}_6                                  S}X*X*/}/}O}l}l}k*/}/}/}/}/}/}/}/}/}/}/}/}/}/}/}/}/}/}/}/}/}/}/}/}/}/}/}/}/}/}/}/}/}/}/}/}Q:':':(<                                                                  ",
"                                                                                        ei_}k}u2l}l}l}/}/}U</}/}/}/}/}/}/}/}/}/}/}/}/}/}/}/}/}/}/}/}/}/}/}/}/}/}/}/}/}/}u}R}:}:}U<                                  p6X*!}/}/}O}l}l}k*/}/}/}/}/}/}/}/}/}/}/}/}/}/}/}/}/}/}/}/}/}/}/}/}/}/}/}/}/}/}/}/}/}/}/}/}D<':x<x<i}                                                                ",
"                                                                                        fi;|,1F2l}l}l}/}/}U</}/}/}/}/}/}/}/}/}/}/}/}/}/}/}/}/}/}/}/}/}/}/}/}/}/}/}/}/}/}:}w}:}16                                      <5_}/}/}/}l}O}/}/}/}/}/}/}/}/}/}/}/}/}/}/}/}/}/}/}/}/}/}/}/}/}/}/}/}/}/}/}/}/}/}/}/}/}/}':x<(<.1{8                                                                ",
"                                                                                        gi/}!}u}/}/}/}/}/}/}/}/}/}/}/}/}/}/}/}/}/}/}/}/}/}/}/}/}/}/}/}/}/}/}k*l}l}O}/}/}M|_}(}b4                                      hi34Q6<}U<T}g|t}/}/}/}/}/}/}/}/}/}/}/}/}/}/}/}/}/}/}/}/}/}/}/}/}/}/}/}/}/}/}/}/}/}/}/}/}/}/}/}U</}                                                                ",
"                                                                                        V<u}/}/}/}/}/}/}/}/}/}/}/}/}/}/}/}/}/}/}/}/}/}/}/}/}/}/}/}/}/}/}/}/}k*l}l}O}/}/}/}U<U<I                                         W8W6<}U<(}X*U</}/}/}/}/}/}/}/}/}/}/}/}/}/}/}/}/}/}/}/}/}/}/}/}/}/}/}/}/}/}/}/}/}/}/}/}/}/}/}U<U<#|                                                              ",
"                                                                                        g|:}!}/}/}/}/}/}/}/}/}/}/}/}/}/}/}/}/}/}/}/}/}/}/}/}/}/}/}/}/}/}/}/}k*l}l}O}/}/}_}e2)8R<                                        ii`6e2M|U<<}M|/}/}/}/}/}/}/}/}/}/}/}/}/}/}/}/}/}/}/}/}/}/}/}/}/}/}/}/}/}/}/}/}/}/}/}/}/}/}/}U<U<x|                                                              ",
"                                                                                        R}:}w}/}/}/}/}/}/}/}/}/}/}/}/}/}/}/}/}/}/}/}/}/}/}/}/}/}/}/}/}/}/}/}k*l}l}O}/}/}U<g|%4                                          ..K6<5<}X*<}_}/}/}/}/}/}/}/}/}/}/}/}/}/}/}/}/}/}/}/}/}/}/}/}/}/}/}/}/}/}/}/}/}/}/}/}/}/}/}/}U<U</}                                                              ",
"                                                                                        =|t}R}/}/}/}/}/}/}/}/}/}/}/}/}/}/}/}/}/}/}/}/}/}/}/}/}/}/}/}/}/}/}/}k*l}l}O}/}/}!}e2y1                                            #<U<(}X*_}/}/}/}/}/}/}/}/}/}/}/}/}/}/}/}/}/}/}/}/}/}/}/}/}/}/}/}/}/}/}/}/}/}/}/}/}/}/}/}/}U<U<U<                                                              ",
"                                                                                        /}%4j}/}/}/}/}/}/}/}/}/}/}/}/}/}/}/}/}/}/}/}/}/}/}/}/}/}/}/}/}/}/}/}k*l}l}O}/}/}!}_}_6                                            ji;|S}M|T}!}/}/}/}/}/}/}/}/}/}/}/}/}/}/}/}/}/}/}/}/}/}/}/}/}/}/}/}/}/}/}/}/}/}/}/}/}/}/}/}U<U<U<                                                              ",
"                                                                                      kiu}!}x|:}/}/}/}/}/}/}/}/}/}/}/}/}/}/}/}/}/}/}/}/}/}/}/}/}/}/}/}/}/}/}k*l}l}O}/}/}_}X*/}                                              T}U<M|M|T}/}/}/}/}/}/}/}/}/}/}/}/}/}/}/}/}/}/}/}/}/}/}/}/}/}/}/}/}/}/}/}/}/}/}/}/}/}/}/}U<U<U<li                                                            ",
"                                                                                      miR}v}!}/}/}/}/}/}/}/}/}/}/}/}/}/}/}/}/}/}/}/}/}/}/}/}/}/}/}/}/}/}/}/}k*l}l}O}/}/}(}V3+5                                              X*X*(}M|X*/}/}/}/}/}/}/}/}/}/}/}/}/}/}/}/}/}/}/}/}/}/}/}/}/}/}/}/}/}/}/}/}/}/}/}/}/}/}/}U<U<U<#|                                                            ",
"                                                                                      16b<p}!}!}/}/}/}/}/}/}/}/}/}/}/}/}/}/}/}/}/}/}/}/}/}/}/}/}/}/}/}/}/}/}k*l}l}O}/}/}(}27                                                niS}<}<}w}/}/}/}/}/}/}/}/}/}/}/}/}/}/}/}/}/}/}/}/}/}/}/}/}/}/}/}/}/}/}/}/}/}/}/}/}/}/}/}U<U<U<U<                                                            ",
"                                                                                      t2u}Q}:}/}/}/}/}/}/}/}/}/}/}/}/}/}/}/}/}/}/}/}/}/}/}/}/}/}/}/}/}/}/}/}k*l}l}O}/}/}/}P}                                                  !}M|U<<}/}/}/}/}/}/}/}/}/}/}/}/}/}/}/}/}/}/}/}/}/}/}/}/}/}/}/}/}/}/}/}/}/}/}/}/}/}/}/}U<U<U<x|                                                            ",
"                                                                                    t5!}v}R}/}/}/}/}/}/}/}/}/}/}/}/}/}/}/}/}/}/}/}/}/}/}/}/}/}/}/}/}/}/}/}/}k*l}l}O}/}/}M|d7                                                  ,8_}X*U</}/}/}/}/}/}/}/}/}/}/}/}/}/}/}/}/}/}/}/}/}/}/}/}/}/}/}/}/}/}/}/}/}/}/}/}/}/}/}U<U<U<Q6                                                            ",
"                                                                                    !}u}w}%|j}:}/}/}/}/}/}/}/}/}/}/}/}/}/}/}/}/}/}/}/}/}/}/}/}/}/}/}/}/}/}/}k*l}l}O}/}/}_}d5                                                  oiU<<}w}/}/}/}/}/}/}/}/}/}/}/}/}/}/}/}/}/}/}/}/}/}/}/}/}/}/}/}/}/}/}/}/}/}/}/}/}/}/}/}U<U<U<!}                                                            ",
"                                                                                  pi/}/}/}u}!}/}/}/}/}/}/}/}/}/}/}/}/}/}/}/}/}/}/}/}/}/}/}/}/}/}/}/}/}/}/}/}/}/}/}U<U<U<_}z<                                                    =[.1~8/}/}/}/}/}/}/}/}/}/}/}/}/}/}/}/}/}/}/}/}/}/}/}/}/}/}/}/}/}/}/}/}/}/}/}/}/}/}/}U<U<U<#|                                                            ",
"                                                                                  ![/}/}/}/}/}/}/}/}/}/}/}/}/}/}/}/}/}/}/}/}/}/}/}/}/}/}/}/}/}/}/}/}/}/}/}/}/}/}/}U<U<U<S}                                                      x<w|(</}/}/}/}/}/}/}/}/}/}/}/}/}/}/}/}/}/}/}/}/}/}/}/}/}/}/}/}/}/}/}/}/}/}/}/}/}/}/}U<U<U<U<                                                            ",
"                                                                                  =[/}/}/}/}/}/}/}/}/}/}/}/}/}/}/}/}/}/}/}/}/}/}/}/}/}/}/}/}/}/}/}/}/}/}/}/}/}/}/}U<U<U<M|                                                      Y}x<k[/}/}/}/}/}/}/}/}/}/}/}/}/}/}/}/}/}/}/}/}/}/}/}/}/}/}/}/}/}/}/}/}/}/}/}/}/}/}/}U<U<U<U<T$                                                          ",
"                                                                                qii[/}/}/}/}/}/}/}/}/}/}/}/}/}/}/}/}/}/}/}/}/}/}/}/}/}/}/}/}/}/}/}/}/}/}/}/}/}/}/}U<U<U<t}                                                      ri':k[/}/}/}/}/}/}/}/}/}/}/}/}/}/}/}/}/}/}/}/}/}/}/}/}/}/}/}/}/}/}/}/}/}/}/}/}/}/}/}U<U<U<M|57                                                          ",
"                                                                              I#six</}/}/}/}/}/}/}/}/}/}/}/}/}/}/}/}/}/}/}/}/}/}/}/}/}/}/}/}/}/}/}/}/}/}/}/}/}/}/}U<U<w5                                                        m[{[-[/}/}/}/}/}/}/}/}/}/}/}/}/}/}/}/}/}/}/}/}/}/}/}/}/}/}/}/}/}/}/}/}/}/}/}/}/}/}/}U<U<U<U<Y*                                                          ",
"                                                                              ^<w<Q:/}/}/}/}/}/}/}/}/}/}/}/}/}/}/}/}/}/}/}/}/}/}/}/}/}/}/}/}/}/}/}/}/}/}/}/}/}/}/}U<U<I                                                         c6x<i[/}/}/}/}/}/}/}/}/}/}/}/}/}/}/}/}/}/}/}/}/}/}/}/}/}/}/}/}/}/}/}/}/}/}/}/}/}/}/}U<U<U<U<z<                                                          ",
"                                                                              ti=[s</}/}/}/}/}/}/}/}/}/}/}/}/}/}/}/}/}/}/}/}/}/}/}/}/}/}/}/}/}/}/}/}/}/}/}/}j}%4j}(}X*q}                                                          w<k[/}p}/}u}/}j}/}/}/}/}/}/}/}/}/}/}/}/}/}/}/}/}/}/}/}/}/}/}/}/}/}/}/}/}/}/}/}/}/}U<U<U<M|`6                                                          ",
"                                                                            uis<':w</}/}/}/}/}/}/}/}/}/}/}/}/}/}/}/}/}/}/}/}/}/}/}/}/}/}/}/}/}/}/}/}/}/}/}/}u}/}w}<}V3=8                                                          @8x|w}/}&|R}:}p}/}/}/}/}/}/}/}/}/}/}/}/}/}/}/}/}/}/}/}/}/}/}/}/}/}/}/}/}/}/}/}/}/}U<U<U<U<j4                                                          ",
"                                                                            viw<{[(</}/}/}/}/}/}/}/}/}/}/}/}/}/}/}/}/}/}/}/}/}/}/}/}/}/}/}/}/}/}/}/}/}/}/}/}t}Q}u}!}S}                                                              f1u}p}p}w}!}:}/}/}/}/}/}/}/}/}/}/}/}/}/}/}/}/}/}/}/}/}/}/}/}/}/}/}/}/}/}/}/}/}/}U<U<U<<}v4                                                          ",
"                                                                            m[=[':i[/}/}/}/}/}/}/}/}/}/}/}/}/}/}/}/}/}/}/}/}/}/}/}/}/}/}/}/}/}/}/}/}/}/}/}/}u}R}:}R}wi                                                              xiw}R}u}u}!}/}/}/}/}/}/}/}/}/}/}/}/}/}/}/}/}/}/}/}/}/}/}/}/}/}/}/}/}/}/}/}/}/}/}U<U<U<_}b4                                                          ",
"                                                                            t%{[(<':/}/}/}/}/}/}/}/}/}/}/}/}/}/}/}/}/}/}/}/}/}/}/}/}/}/}/}/}/}/}/}/}/}/}/}/}!}!}u}X*                                                                yip}:}R}!}u}/}/}/}/}/}/}/}/}/}/}/}/}/}/}/}/}/}/}/}/}/}/}/}/}/}/}/}/}/}/}/}/}/}/}U<U<U<X*b4                                                          ",
"                                                                            ^<{[':Q:/}/}/}/}/}/}/}/}/}/}/}/}/}/}/}/}/}/}/}/}/}/}/}/}/}/}/}/}/}/}/}/}/}/}/}/}u}R}!}/}                                                                  zi%4!}/}t}!}/}/}/}/}/}/}/}/}/}/}/}/}/}/}/}/}/}/}/}/}/}/}/}/}/}/}/}/}/}/}/}/}/}U<U<U<M|`6                                                          ",
"                                                                          AiS:y1!}x|/}/}/}/}/}/}/}/}/}/}/}/}/}/}/}/}/}/}/}/}/}/}/}/}/}/}/}/}/}/}/}/}/}/}/}/}x<x<C6f<                                                                  Bie2M|<}S}_}/}/}/}l}l}k*/}/}/}/}/}/}/}/}/}/}/}/}/}/}/}/}/}/}/}/}/}/}/}/}l}l}l}/}/}/}X*T}^}                                                        ",
"                                                                          CiS}p}w}u}/}/}/}/}/}/}/}/}/}/}/}/}/}/}/}/}/}/}/}/}/}/}/}/}/}/}/}/}/}/}/}/}/}/}/}/}~1k7{}                                                                    DiX*M|<}e2_}/}/}O}l}l}l}/}/}/}/}/}/}/}/}/}/}/}/}/}/}/}/}/}/}/}/}/}/}/}/}l}l}l}/}/}/}U<<}q}                                                        ",
"                                                                          d<U</}!}:}/}/}/}/}/}/}/}/}/}/}/}/}/}/}/}/}/}/}/}/}/}/}/}/}/}/}/}/}/}/}/}/}/}/}/}/}C6O:.6                                                                      <}U<_}M|U</}/}O}l}l}l}/}/}/}/}/}/}/}/}/}/}/}/}/}/}/}/}/}/}/}/}/}/}/}/}l}l}l}/}/}/}_}U<M|                                                        ",
"                                                                          b4M|!}/}/}/}/}/}/}/}/}/}/}/}/}/}/}/}/}/}/}/}/}/}/}/}/}/}/}/}/}/}/}/}/}/}/}/}/}/}/}I f<                                                                        d3<}M|U<U</}/}O}l}l}l}/}/}/}/}/}/}/}/}/}/}/}/}/}/}/}/}/}/}/}/}/}/}/}/}l}l}l}/}/}/}X*U<57                                                        ",
"                                                                          U<M|/}/}!}/}/}/}/}/}/}/}/}/}/}/}/}/}/}/}/}/}/}/}/}/}/}/}/}/}/}/}/}/}/}/}/}/}/}/}/}b3`|                                                                        Ei<}M|M|u}/}/}O}l}l}l}/}/}/}/}/}/}/}/}/}/}/}/}/}/}/}/}/}/}/}/}/}/}/}/}l}l}l}/}/}/}S}_}Y|                                                        ",
"                                                                        I3M|_}/}w}!}/}/}/}/}/}/}/}/}/}/}/}/}/}/}/}/}/}/}/}/}/}/}/}/}/}/}/}/}/}/}/}/}/}/}/}/}I                                                                             U<U<S}<}/}/}O}l}l}l}/}/}/}/}/}/}/}/}/}/}/}/}/}/}/}/}/}/}/}/}/}/}/}/}l}l}l}/}/}/}<}U<M|                                                        ",
"                                                                        Q6U<_}/}!}/}/}/}/}/}/}/}/}/}/}/}/}/}/}/}/}/}/}/}/}/}/}/}/}/}/}/}/}/}/}/}:}Q}:}/}w}$|{}                                                                            S}<}X*U</}/}O}l}l}l}/}/}/}/}/}/}/}/}/}/}/}/}/}/}/}/}/}/}/}/}/}/}/}/}l}l}l}/}/}/}U<_}U<                                                        ",
"                                                                      FiU<U<U</}/}/}/}/}/}/}/}/}/}/}/}/}/}/}/}/}/}/}/}/}/}/}/}/}/}/}/}/}/}/}/}/}!}w}/}:}w}Gi                                                                              48<}M|U</}/}O}l}l}l}/}/}/}/}/}/}/}/}/}/}/}/}/}/}/}/}/}/}/}/}/}/}/}/}l}l}l}/}/}/}U<M|_}&|                                                      ",
"                                                                      E2U<U<U</}/}/}/}/}/}/}/}/}/}/}/}/}/}/}/}/}/}/}/}/}/}/}/}/}/}/}/}/}/}/}/}/}!}p}!}:}!}s2                                                                              Hi_}U<U</}/}O}l}l}l}/}/}/}/}/}/}/}/}/}/}/}/}/}/}/}/}/}/}/}/}/}/}/}/}l}l}l}/}/}/}_}X*_}/}                                                      ",
"                                                                      q}U<U<U</}/}/}/}/}/}/}/}/}/}/}/}/}/}/}/}/}/}/}/}/}/}/}/}/}/}/}/}/}/}/}/}/}p}w}:}!}T}                                                                                  X*_}M|/}/}O}l}l}l}/}/}/}/}/}/}/}/}/}/}/}/}/}/}/}/}/}/}/}/}/}/}/}/}l}l}l}/}/}/}U<U<<}a7                                                      ",
"                                                                    Ii(}U<U<U</}/}/}/}/}/}/}/}/}/}/}/}/}/}/}/}/}/}/}/}/}/}/}/}/}/}/}/}/}/}/}/}/}p}Q}t}!}Ji                                                                                  V<_}M|/}/}O}l}l}l}/}/}/}/}/}/}/}/}/}/}/}/}/}/}/}/}/}/}/}/}/}/}/}/}l}l}l}/}/}/}M|<}_}Y*                                                      ",
"                                                                    s5<}U<U<U</}/}/}/}/}/}/}/}/}/}/}/}/}/}/}/}/}/}/}/}/}/}/}/}/}/}/}/}/}/}/}/}/}w}:}!}/}                                                                                    Ki_}U</}/}/}l}l}l}/}/}/}/}/}/}/}/}/}/}/}/}/}/}/}/}/}/}/}/}/}/}/}/}l}l}l}/}/}/}M|M|X*_}                                                      ",
"                                                                  LiMiU</}/}/}/}k*k*/}/}/}/}/}/}/}/}/}/}/}/}/}/}/}/}/}/}/}/}/}/}/}/}/}/}/}U<U<U<X*-|X*57                                                                                    NiU<_}U<U</}/}O}O}/}/}/}/}/}/}/}/}/}/}/}/}/}/}/}/}/}/}/}/}/}/}/}/}O}O}O}/}/}/}P}/}!}:}n}                                                    ",
"                                                                  &4U<_}/}/}/}l}l}l}/}/}/}/}/}/}/}/}/}/}/}/}/}/}/}/}/}/}/}/}/}/}/}/}/}/}/}U<U<U<_}v4~5                                                                                      OiX*U<U<U<U</}/}/}/}/}/}/}/}/}/}/}/}/}/}/}/}/}/}/}/}/}/}/}/}/}/}/}/}/}/}/}/}/}u}!}:}u}/}                                                    ",
"                                                                  78<}M|/}/}/}l}l}l}/}/}/}/}/}/}/}/}/}/}/}/}/}/}/}/}/}/}/}/}/}/}/}/}/}/}/}U<U<U<<}E2W6                                                                                        _}U<U<U<U</}/}/}/}/}/}/}/}/}/}/}/}/}/}/}/}/}/}/}/}/}/}/}/}/}/}/}/}/}/}/}/}/}p}w}u}/}w}                                                    ",
"                                                                R<M|M|M|/}/}/}l}l}l}/}/}/}/}/}/}/}/}/}/}/}/}/}/}/}/}/}/}/}/}/}/}/}/}/}/}/}U<U<U<_}X*s5                                                                                        c8M|U<U<U</}/}/}/}/}/}/}/}/}/}/}/}/}/}/}/}/}/}/}/}/}/}/}/}/}/}/}/}/}/}/}/}/}u}!}!}/}=|!8                                                  ",
"                                                                U<e2X*(}/}/}/}l}l}l}/}/}/}/}/}/}/}/}/}/}/}/}/}/}/}/}/}/}/}/}/}/}/}/}/}/}/}U<U<U<_}X*l:                                                                                        PiU<U<U<U</}/}/}/}/}/}/}/}/}/}/}/}/}/}/}/}/}/}/}/}/}/}/}/}/}/}/}/}/}/}/}/}/}!}u}u}!}/}S}                                                  ",
"                                                                k8_}U<_}/}/}/}l}l}l}/}/}/}/}/}/}/}/}/}/}/}/}/}/}/}/}/}/}/}/}/}/}/}/}/}/}/}U<U<U<X*<}                                                                                            k8U<U<U</}/}/}/}/}/}/}/}/}/}/}/}/}/}/}/}/}/}/}/}/}/}/}/}/}/}/}/}/}/}/}/}/}u}w}Dbj}:}q}                                                  ",
"                                                                E2(}M|U</}/}/}l}l}l}/}/}/}/}/}/}/}/}/}/}/}/}/}/}/}/}/}/}/}/}/}/}/}/}/}/}/}U<U<U<_})8                                                                                            Qi_}M|/}/}!}/}/}/}/}/}/}/}/}/}/}/}/}/}/}/}/}/}/}/}/}/}/}/}/}/}/}/}/}/}/}/}u}w}t}w}u}U<l:                                                ",
"                                                              RiS}(}U<_}/}/}/}l}l}l}/}/}/}/}/}/}/}/}/}/}/}/}/}/}/}/}/}/}/}/}/}/}/}/}/}/}/}U<U<U<X*_6                                                                                              <5SiE2:}u}w}/}/}/}/}/}/}/}/}/}/}/}/}/}/}/}/}/}/}/}/}/}/}/}/}/}/}/}/}/}/}/}/}/}/}/}U<`|                                                ",
"                                                              jiX*<}U<_}/}/}/}l}l}l}/}/}/}/}/}/}/}/}/}/}/}/}/}/}/}/}/}/}/}/}/}/}/}/}/}/}/}U<U<U<X*                                                                                                Ti;|g|t}Q}u}/}/}/}/}/}/}/}/}/}/}/}/}/}/}/}/}/}/}/}/}/}/}/}/}/}/}/}/}/}/}/}/}/}/}/}U<,:                                                ",
"                                                              V<U<_}_}_}/}/}/}l}l}l}/}/}/}/}/}/}/}/}/}/}/}/}/}/}/}/}/}/}/}/}/}/}/}/}/}/}/}U<U<U<Q6                                                                                                UiQ}_}:}b<t}/}/}/}/}/}/}/}/}/}/}/}/}/}/}/}/}/}/}/}/}/}/}/}/}/}/}/}/}/}/}/}/}/}/}/}U<f<                                                ",
"                                                              I _}<}U<U</}/}/}l}l}l}/}/}/}/}/}/}/}/}/}/}/}/}/}/}/}/}/}/}/}/}/}/}/}/}/}/}/}U<U<U<Vi                                                                                                  /}T}R}%4w}/}/}/}/}/}/}/}/}/}/}/}/}/}/}/}/}/}/}/}/}/}/}/}/}/}/}/}/}/}/}/}/}/}/}/}U<l:k_                                              ",
"                                                              ~1_}(}M|U</}/}/}l}l}l}/}/}/}/}/}/}/}/}/}/}/}/}/}/}/}/}/}/}/}/}/}/}/}/}/}/}/}U<U<U<                                                                                                      /}R}%|j}/}/}/}/}/}/}/}/}/}/}/}/}/}/}/}/}/}/}/}/}/}/}/}/}/}/}/}/}/}/}/}/}/}/}/}U<`|Wi                                              ",
"                                                              U<_}_}U</}/}/}/}O}O}O}/}/}/}/}/}/}/}/}/}/}/}/}/}/}/}/}/}/}/}/}/}/}/}/}x|%7~8W:k[/4                                                                                                      v8w1Xib4/}/}/}/}/}/}/}/}/}/}/}/}/}/}/}/}/}/}/}/}/}/}/}/}/}/}/}/}/}/}/}/}/}/}/}U<l:i+                                              ",
"                                                              t2!}/}u}!}/}/}/}/}/}/}/}/}/}/}/}/}/}/}/}/}/}/}/}/}/}/}/}/}/}/}/}/}/}/}w<i[x<{[Yif4                                                                                                        Zik_ 1/}/}/}/}/}/}/}/}/}/}/}/}/}/}/}/}/}/}/}/}/}/}/}/}/}/}/}/}/}/}/}/}/}/}/}/}l:                                                ",
"                                                              k4R}u}:}w}/}/}/}/}/}/}/}/}/}/}/}/}/}/}/}/}/}/}/}/}/}/}/}/}/}/}/}/}/}/}x<i[i[Q:F<                                                                                                          `i6ib3/}/}/}/}/}/}/}/}/}/}/}/}/}/}/}/}/}/}/}/}/}/}/}/}/}/}/}/}/}/}/}/}/}/}/}/}l:                                                ",
"                                                              u}/}/}/}w}/}/}/}/}/}/}/}/}/}/}/}/}/}/}/}/}/}/}/}/}/}/}/}/}/}/}/}/}/}/}x|':w<':v|                                                                                                             jw1/}/}/}/}/}/}/}/}/}/}/}/}/}/}/}/}/}/}/}/}/}/}/}/}/}/}/}/}/}/}/}/}/}/}/}/}C6                                                ",
"                                                            z4/}:}/}w}!}/}/}/}/}/}/}/}/}/}/}/}/}/}/}/}/}/}/}/}/}/}/}/}/}/}/}/}/}/}/}':':':$[                                                                                                                w1/}/}/}/}/}/}/}/}/}/}/}/}/}/}/}/}/}/}/}/}/}/}/}/}/}/}/}/}/}/}/}/}/}/}/}/}l:                                                ",
"                                                            i8/}/}/}/}/}/}/}/}/}/}/}/}/}/}/}/}/}/}/}/}/}/}/}/}/}/}/}/}/}/}/}/}/}/}/}k[Q:i[r7                                                                                                                .j/}/}/}/}/}/}/}/}/}/}/}/}/}/}/}/}/}/}/}/}/}/}/}/}/}/}/}/}/}/}/}/}/}/}/}/},:                                                ",
"                                                            w}/}!}/}u}/}/}/}/}/}/}/}/}/}/}/}/}/}/}/}/}/}/}/}/}/}/}/}/}/}/}/}/}/}/}/}x<(<x<w5                                                                                                                  _}/}/}u}u}/}/}/}/}/}/}/}/}/}/}/}/}/}/}/}/}/}/}/}/}/}/}/}/}/}/}/}/}/}/}/}.6                                                ",
"                                                            U</}/}/}/}/}/}/}/}/}/}/}/}/}/}/}/}/}/}/}/}/}/}/}/}/}/}/}/}/}/}/}/}/}/}/}(<w|':7|                                                                                                                  E2R}:}u}/}:}/}/}/}/}/}/}/}/}/}/}/}/}/}/}/}/}/}/}/}/}/}/}/}/}/}/}/}/}/}/}g:                                                ",
"                                                            U</}/}/}/}/}/}/}/}/}/}/}/}/}/}/}/}/}/}/}/}/}/}/}/}/}/}/}/}/}/}/}/}/}/}/}=[+j)1                                                                                                                    l8;ct}!}w}t}/}/}/}/}/}/}/}/}/}/}/}/}/}/}/}/}/}/}/}/}/}/}/}/}/}/}/}/}/}/}x6                                                ",
"                                                            /}/}/}/}/}/}/}/}/}/}/}/}/}/}/}/}/}/}/}/}/}/}/}/}/}/}/}/}/}/}/}/}/}/}/}/}w<Q:@j                                                                                                                    i8w}u}w}x|/}/}/}/}/}/}/}/}/}/}/}/}/}/}/}/}/}/}/}/}/}/}/}/}/}/}/}/}/}/}/}{8                                                ",
"                                                            Q6/}/}/}/}/}/}/}/}/}/}/}/}/}/}/}/}/}/}/}/}/}/}/}/}/}/}/}/}/}/}/}/}/}/}/}s<w</[                                                                                                                    #jp}w}/}:}w}/}/}/}/}/}/}/}/}/}/}/}/}/}/}/}/}/}/}/}/}/}/}/}/}/}/}/}/}/}/}g:                                                ",
"                                                            U</}/}/}/}/}/}/}/}/}/}/}/}/}/}/}/}/}/}/}/}/}/}/}/}/}/}/}/}/}/}/}/}/}/}/}s<e3                                                                                                                        w}/}u}j}u}/}/}/}/}/}/}/}/}/}/}/}/}/}/}/}/}/}/}/}/}/}/}/}/}/}/}/}/}/}/}~1                                                ",
"                                                            U</}/}/}/}/}/}/}/}/}/}/}/}/}/}/}/}/}/}/}/}/}/}/}/}/}/}/}/}/}/}/}/}/}/}/}#|$j                                                                                                                        t7(}x|X*p}/}/}/}O}O}O}/}/}/}/}/}/}/}/}/}/}/}/}/}/}/}/}/}/}/}/}/}/}/}/}%j                                                ",
"                                                          &jU</}/}/}/}/}/}/}/}/}/}/}/}/}/}/}/}/}/}/}/}/}/}/}/}/}/}/}/}/}/}/}/}/}/}/};<(8                                                                                                                        T4<}_}_}U</}/}/}l}l}l}/}/}/}/}/}/}/}/}/}/}/}/}/}/}/}/}/}/}/}/}/}/}/}/}v|                                                ",
"                                                          *jU</}/}/}/}/}/}/}/}/}/}/}/}/}/}/}/}/}/}/}/}/}/}/}/}/}/}/}/}/}/}/}/}/}/}/}c=                                                                                                                          =jS}U<X*_}/}/}/}l}l}l}/}/}/}/}/}/}/}/}/}/}/}/}/}/}/}/}/}/}/}/}/}/}/}/}w<                                                ",
"                                                          Z|U</}/}/}/}/}/}/}/}/}/}/}/}/}/}/}/}/}/}/}/}/}/}/}/}/}/}/}/}/}/}/}/}/}/}/}b3                                                                                                                          -jM|X*_}<}/}/}/}l}l}l}/}/}/}/}/}/}/}/}/}/}/}/}/}/}/}/}/}/}/}/}/}/}/}/}D<                                                ",
"                                                          =[U</}/}/}/}/}/}/}/}/}/}/}/}/}/}/}/}/}/}/}/}/}/}/}/}/}/}/}/}/}/}/}/}/}/}/}B6                                                                                                                            <}<}_}X*/}/}/}l}l}l}/}/}/}/}/}/}/}/}/}/}/}/}/}/}/}/}/}/}/}/}/}/}/}/}i}                                                ",
"                                                          F<U</}/}/}/}/}/}/}/}/}/}/}/}/}/}/}/}/}/}/}/}/}/}/}/}/}/}/}/}/}/}/}/}/}/}/}                                                                                                                              mi;|e2_}/}/}/}l}l}l}/}/}/}/}/}/}/}/}/}/}/}/}/}/}/}/}/}/}/}/}/}/}/}/}':D<                                              ",
"                                                          76U</}/}/}/}/}/}/}/}/}/}/}/}/}/}/}/}/}/}/}/}/}/}/}/}/}/}/}/}/}/}/}/}u}/}x|                                                                                                                              ;j<}g|;|/}/}/}l}l}l}/}/}/}/}/}/}/}/}/}/}/}/}/}/}/}/}/}/}/}/}/}/}/}/}x<i}                                              ",
"                                                          ':U</}/}/}/}/}/}/}/}/}/}/}/}/}/}/}/}/}/}/}/}/}/}/}/}/}/}/}/}/}!}/}u}u}/}U<                                                                                                                                M|U<_}/}/}/}l}l}l}/}/}/}/}/}/}/}/}/}/}/}/}/}/}/}/}/}/}/}/}/}/}/}/}Q:Q:                                              ",
"                                                        >jy<U</}/}/}/}/}/}/}/}/}/}/}/}/}/}/}/}/}/}/}/}/}/}/}/}/}/}/}/}/}/}u}u}!}:}                                                                                                                                  (4;|_}/}/}/}l}l}l}/}/}/}/}/}/}/}/}/}/}/}/}/}/}/}/}/}/}/}/}/}/}/}/}{<,j                                              ",
"                                                        'j':U</}/}/}/}/}/}/}/}/}/}/}/}/}/}/}/}/}/}/}/}/}/}/}/}/}/}/}/}/}u}!}u}:}t}                                                                                                                                  )j(}w}/}/}/}l}l}l}/}/}/}/}/}/}/}/}/}/}/}/}/}/}/}/}/}/}/}/}/}/}/}/}(<i:                                              ",
"                                                        !j':U</}/}/}/}/}/}/}/}/}/}/}/}/}/}/}/}/}/}/}/}/}/}/}/}/}/}/}/}/}u}w}/}t}n}                                                                                                                                  ~j<}_}/}/}/}l}l}l}/}/}/}/}/}/}/}/}/}/}/}/}/}/}/}/}/}/}/}/}/}/}/}/}Q:x<j9                                            ",
"                                                        G:v|U</}/}/}/}/}/}/}/}/}/}/}/}/}/}/}/}/}/}/}/}/}/}/}/}/}/}/}/}/}!}/}/}O}                                                                                                                                    uiM|<}/}/}/}l}l}l}/}/}/}/}/}/}/}/}/}/}/}/}/}/}/}/}/}/}/}/}/}/}/}/}i[(<s<                                            ",
"                                                        C6':/}/}/}/}/}/}/}/}/}/}/}/}/}/}/}/}/}/}/}/}/}/}/}/}/}/}/}/}/}/}M|p}/}~8                                                                                                                                      w}!}/}/}/}O}k*k*/}/}/}/}/}/}/}/}/}/}/}/}/}/}/}/}/}/}/}/}/}/}/}/}':x<L|                                            ",
"                                                      &j':':/}/}/}/}/}/}/}/}/}/}/}/}/}/}/}/}/}/}/}/}/}/}/}/}/}/}/}U<U<U<U<U<W6{}                                                                                                                                      _}M|U<U<U</}/}/}/}/}/}/}/}/}/}/}/}/}/}/}/}/}/}/}/}/}/}/}/}/}/}/}':Q:^<                                            ",
"                                                      s<#|Q:/}/}/}/}/}/}/}/}/}/}/}/}/}/}/}/}/}/}/}/}/}/}/}/}/}/}/}U<U<U<M|q}`6                                                                                                                                        R}U<U<U<U</}/}/}/}/}/}/}/}/}/}/}/}/}/}/}/}/}/}/}/}/}/}/}/}/}/}/}(<i[(<                                            ",
"                                                      ]<w<Q:/}/}/}/}/}/}/}/}/}/}/}/}/}/}/}/}/}/}/}/}/}/}/}/}/}/}/}U<U<U<e278'                                                                                                                                         {j(}U<U<U</}/}/}/}/}/}/}/}/}/}/}/}/}/}/}/}/}/}/}/}/}/}/}/}/}/}/}x<i[x<{<                                          ",
"                                                    |<]js<w</}/}/}/}/}/}/}/}/}/}/}/}/}/}/}/}/}/}/}/}/}/}/}/}/}/}/}U<U<U<X*57G:                                                                                                                                          54U<U<U</}/}/}/}/}/}/}/}/}/}/}/}/}/}/}/}/}/}/}/}/}/}/}/}/}/}/}Q:':':~1                                          ",
"                                                    B<w<s<(</}/}/}/}/}/}/}/}/}/}/}/}/}/}/}/}/}/}/}/}/}/}/}/}/}/}/}U<U<U<T}9:                                                                                                                                            e<U<U<U</}/}/}/}/}/}/}/}/}/}/}/}/}/}/}/}/}/}/}/}/}/}/}/}/}/}/}Q:':':B<                                          ",
"                                                    e3{[{<i[/}/}/}/}/}/}/}/}/}/}/}/}/}/}/}/}/}/}/}/}/}/}/}/}/},1/}!}_}_}T}c8                                                                                                                                            ^jI M|/}!}:}w}/}/}/}/}/}/}/}/}/}/}/}/}/}/}/}/}/}/}/}/}/}/}/}/}Q:':x<~}                                          ",
"                                                  /ji[(<':i[/}/}/}/}/}/}/}/}/}/}/}/}/}/}/}/}/}/}/}/}/}/}/}/}!}u}!}M|<}_}S}                                                                                                                                                _}X*/}R}v}w}/}/}/}/}/}/}/}/}/}/}/}/}/}/}/}/}/}/}/}/}/}/}/}/}i[':(<i[                                          ",
"                                                  h:Q:x<(<':/}/}/}/}/}/}/}/}/}/}/}/}/}/}/}/}/}/}/}/}/}/}/}/}!}/}u}_}M|_}54                                                                                                                                                g|X*U</}!}p}/}/}/}/}/}/}/}/}/}/}/}/}/}/}/}/}/}/}/}/}/}/}/}/}Q:':(<R:                                          ",
"                                                  *5':i[(<':/}/}/}/}/}/}/}/}/}/}/}/}/}/}/}/}/}/}/}/}/}/}/}/}u}w}u}<}U<78                                                                                                                                                  (j_}M|t}R}/}/}/}/}/}/}/}/}/}/}/}/}/}/}/}/}/}/}/}/}/}/}/}/}/}':':(<,[                                          ",
"                                                  P[(<s<':':/}/}/}/}/}/}/}/}/}/}/}/}/}/}/}/}/}/}/}/}/}/}/}/}:}/}!}_}<}o}                                                                                                                                                  _j-|Q}u}!}u}/}/}/}/}/}/}/}/}/}/}/}/}/}/}/}/}/}/}/}/}/}/}/}/}':':w<<<                                          ",
"                                                  i1w<i[':':/}/}/}/}/}/}/}/}/}/}/}/}/}/}/}/}/}/}/}/}/}/}/}/}!}u}w}/}78                                                                                                                                                    Ti(}Q}w}!}p}/}/}/}/}/}/}/}/}/}/}/}/}/}/}/}/}/}/}/}/}/}/}/}/}x<':x<'::j                                        ",
"                                                .jC6(<~8w5':/}/}/}/}/}/}/}/}/}/}/}/}/}/}/}/}/}/}/}/}/}/}/}/}R}%7!}<}_}                                                                                                                                                      E2_}/}w}u}/}/}/}/}/}/}/}/}/}/}/}/}/}/}/}/}/}/}/}/}/}/}/}/}X*_}#|<}Q:                                        ",
"                                                <jU<<}!}u}/}/}/}/}/}/}/}/}/}/}/}/}/}/}/}/}/}/}/}/}/}/}/}/}/}':Q:Q:{[A<                                                                                                                                                      _6i[x<':(</}/}/}/}/}/}/}/}/}/}/}/}/}/}/}/}/}/}/}/}/}/}/}/}Z1n}k4/ d5                                        ",
"                                                +5(}M|u}p}R}/}/}/}/}/}/}/}/}/}/}/}/}/}/}/}/}/}/}/}/}/}/}/}/}x<(<{[{<                                                                                                                                                        {<s<x<x<':/}/}/}/}/}/}/}/}/}/}/}/}/}/}/}/}/}/}/}/}/}/}/}/}1212[jr9o}                                        ",
"                                                M|M|S}/}:}w}/}/}/}/}/}/}/}/}/}/}/}/}/}/}/}/}/}/}/}/}/}/}/}/}x<Q:{[#|                                                                                                                                                        }j{[':x<i[/}/}/}/}/}/}/}/}/}/}/}/}/}/}/}/}/}/}/}/}/}/}/}/}1212[j|j+5                                        ",
"                                                S}U<U<!}!}!}/}/}/}/}/}/}/}/}/}/}/}/}/}/}/}/}/}/}/}/}/}/}/}/}w5s<':w5                                                                                                                                                        h:Q:Q:x<Q:/}/}/}/}/}/}/}/}/}/}/}/}/}/}/}/}/}/}/}/}/}/}/}/}J}12[j1j)8                                        ",
"                                              v3U<_}_}!}w}/}/}/}/}/}/}/}/}/}/}/}/}/}/}/}/}/}/}/}/}/}/}/}/}/}i[x<J6                                                                                                                                                          2jw<{[(<':/}/}/}/}/}/}/}/}/}/}/}/}/}/}/}/}/}/}/}/}/}/}/}/}N413J}r9)8d5                                      ",
"                                              t}U<S}S}!}/}:}/}/}/}/}/}/}/}/}/}/}/}/}/}/}/}/}/}/}/}/}/}/}/}/}s2|<w5                                                                                                                                                            w<{[x<x</}/}/}/}/}/}/}/}/}/}/}/}/}/}/}/}/}/}/}/}/}/}/}/}131312/ )8C6                                      ",
"                                              g|U<U<U</}/}/}/}/}/}/}/}/}/}/}/}/}/}/}/}/}/}/}/}/}/}/}/}/}/}/}x<y<                                                                                                                                                              R:(<Q:':/}/}/}/}/}/}/}/}/}/}/}/}/}/}/}/}/}/}/}/}/}/}/}/}J}J}J}K}o}I                                       ",
"                                              b4U<U<U</}/}/}/}/}/}/}/}/}/}/}/}/}/}/}/}/}/}/}/}/}/}/}/}/}/}/}Q:':                                                                                                                                                              ~}(<i[x</}/}/}/}/}/}/}/}/}/}/}/}/}/}/}/}/}/}/}/}/}/}/}/}J}J}J}K}o}U<                                      ",
"                                              )8U<U<U</}/}/}/}/}/}/}/}/}/}/}/}/}/}/}/}/}/}/}/}/}/}/}/}/}/}/}Q:V:                                                                                                                                                              3jx<i[(</}/}/}/}/}/}/}/}/}/}/}/}/}/}/}/}/}/}/}/}/}/}/}/}J}J}J}K}o}U<{}                                    ",
"                                            4jM|U<U<U</}/}/}/}/}/}/}/}/}/}/}/}/}/}/}/}/}/}/}/}/}/}/}/}/}/}/}(|                                                                                                                                                                5jx<i[_6/}/}/}/}/}/}/}/}/}/}/}/}/}/}/}/}/}/}/}/}/}/}/}/}J}J}J}K}o}U<S}                                    ",
"                                            =5M|U<U<U</}/}/}/}/}/}/}/}/}/}/}/}/}/}/}/}/}/}/}/}/}/}/}/}/}/}/}Z|                                                                                                                                                                  x<{[w</}/}/}/}/}/}/}/}/}/}/}/}/}/}/}/}/}/}/}/}/}/}/}/}J}J}J}K}o}U<M|                                    ",
"                                            78_}U<U</}/}/}/}/}/}/}/}/}/}/}/}/}/}/}/}/}/}/}/}/}/}/}/}/}U</}U<x|                                                                                                                                                                  w1 1w</}/}/}/}/}/}/}/}/}/}/}/}/}/}/}/}/}/}/}/}/}/}/}/}J}J}J}K}o}U<n7                                    ",
"                                            U<<}/}/}/}k*l}l}/}/}/}/}/}/}/}/}/}/}/}/}l}l}l}/}/}/}_}U<<}e2Q6C6                                                                                                                                                                    i+r<~1U</}/}/}/}/}/}/}/}/}/}/}/}/}/}/}/}/}/}/}/}/}/}/}/}/}/}U<U<U<<}                                    ",
"                                            z<(}/}/}/}l}l}l}/}/}/}/}/}/}/}/}/}/}/}/}l}l}l}/}/}/}U<M|_}S}<}~5                                                                                                                                                                    6j7j~5U</}/}/}/}/}/}/}/}/}/}/}/}/}/}/}/}/}/}/}/}/}/}/}/}/}/}U<U<U<U<15                                  ",
"                                          8jb4<}/}/}/}l}l}l}/}/}/}/}/}/}/}/}/}/}/}/}l}l}l}/}/}/}U<M|U<S}(}p                                                                                                                                                                     +:k9x6U</}/}/}/}/}/}/}/}/}/}/}/}/}/}/}/}/}/}/}/}/}/}/}/}/}/}U<U<U<X*b3                                  ",
"                                          MiM|M|/}/}/}l}l}l}/}/}/}/}/}/}/}/}/}/}/}/}l}l}l}/}/}/}M|M|U<X*<}                                                                                                                                                                        7jj4U</}/}/}/}/}/}/}/}/}/}/}/}/}/}/}/}/}/}/}/}/}/}/}/}/}/}U<U<U<U<k[                                  ",
"                                          T}U<_}/}/}/}l}l}l}/}/}/}/}/}/}/}/}/}/}/}/}l}l}l}/}/}/}X*U<_}X*#|                                                                                                                                                                        9jl:U</}/}/}/}/}/}/}/}/}/}/}/}/}/}/}/}/}/}/}/}/}/}/}/}/}/}U<U<U<_}I                                   ",
"                                          p}U<(}/}/}/}l}l}l}/}/}/}/}/}/}/}/}/}/}/}/}l}l}l}/}/}/}X*U<_}M|M|                                                                                                                                                                        &6l:/}/}/}/}/}/}/}/}/}/}/}/}/}/}/}/}/}/}/}/}/}/}/}/}/}/}/}U<U<U<_}0j                                  ",
"                                        aj(}U<M|/}/}/}l}l}l}/}/}/}/}/}/}/}/}/}/}/}/}l}l}l}/}/}/}M|_}_}M|{8                                                                                                                                                                        Ga~<U<p}R}u}/}/}/}/}/}/}/}/}/}/}/}/}/}/}/}/}/}/}/}/}/}/}/}U<U<U<_}Q6                                  ",
"                                        w}M|_}X*/}/}/}l}l}l}/}/}/}/}/}/}/}/}/}/}/}/}l}l}l}/}/}/}U<M|U<78                                                                                                                                                                            H:X*t}d3v}Q}t}/}/}/}/}/}/}/}/}/}/}/}/}/}/}/}/}/}/}/}/}/}U<U<U<U<v4                                  ",
"                                        54M|_}X*/}/}/}l}l}l}/}/}/}/}/}/}/}/}/}/}/}/}l}l}l}/}/}/}<}_}g|S:                                                                                                                                                                              /}b<v}!}t}w}/}/}/}/}/}/}/}/}/}/}/}/}/}/}/}/}/}/}/}/}/}U<U<U<S}I g:                                ",
"                                        Mi(}M|<}/}/}/}l}l}l}/}/}/}/}/}/}/}/}/}/}/}/}l}l}l}/}/}/}R}<}Q6                                                                                                                                                                                fiw}t}!}u}R}/}/}/}/}/}/}/}/}/}/}/}/}/}/}/}/}/}/}/}/}/}U<U<U<<}v4I                                 ",
"                                      #ft%;|X*<}/}/}/}l}l}l}/}/}/}/}/}/}/}/}/}/}/}/}l}l}l}/}/}/}_}(}w}                                                                                                                                                                                  E2j}:}Q}u}/}/}/}/}/}/}/}/}/}/}/}/}/}/}/}/}/}/}/}/}/}U<U<U<=5K6E4                                ",
"                                      c3e2T}M|_}/}/}/}l}l}l}/}/}/}/}/}/}/}/}/}/}/}/}l}l}l}/}/}/}V3;|#|                                                                                                                                                                                  _jv}X*:}/}/}/}/}/}/}/}/}/}/}/}/}/}/}/}/}/}/}/}/}/}/}U<U<U<(}MiB5                                ",
"                                      w}u}/}w}u}/}/}/}/}/}/}/}/}/}/}/}/}/}/}/}/}/}/}/}/}/}U<U<U<e2<}                                                                                                                                                                                      Mi~5(}X*U<U<U</}/}/}/}/}/}/}/}/}/}/}/}/}/}/}l}l}l}/}/}/}U<M|_}                                ",
"                                      t2p}R}!}u}/}/}/}/}/}/}/}/}/}/}/}/}/}/}/}/}/}/}/}/}/}U<U<U<_}_}                                                                                                                                                                                      bj:6v4_}U<U<U</}/}/}/}/}/}/}/}/}/}/}/}/}/}/}l}l}l}/}/}/}<}U<<}                                ",
"                                    cj/}v}Q}:}/}/}/}/}/}/}/}/}/}/}/}/}/}/}/}/}/}/}/}/}/}/}U<U<U<54=5                                                                                                                                                                                        dj57X*U<U<U</}/}/}/}/}/}/}/}/}/}/}/}/}/}/}l}l}l}/}/}/}<}U<<}o}                              ",
"                                    X*u}t}Q}:}/}/}/}/}/}/}/}/}/}/}/}/}/}/}/}/}/}/}/}/}/}/}U<U<U<<}>7                                                                                                                                                                                        _<v4T}U<U<U</}/}/}/}/}/}/}/}/}/}/}/}/}/}/}l}l}l}/}/}/}U<X*_}R}                              ",
"                                  ej(}/}u}w}u}!}/}/}/}/}/}/}/}/}/}/}/}/}/}/}/}/}/}/}/}/}/}U<U<U<X*                                                                                                                                                                                            X*S}U<U<U</}/}/}/}/}/}/}/}/}/}/}/}/}/}/}l}l}l}/}/}/}U<X*_}j}                              ",
"                                  r4M|!}w}/}/}!}/}/}/}/}/}/}/}/}/}/}/}/}/}/}/}/}/}/}/}/}/}U<U<U<E2                                                                                                                                                                                            E2<}U<U<U</}/}/}/}/}/}/}/}/}/}/}/}/}/}/}l}l}l}/}/}/}_}M|(}v4                              ",
"                                  {}U</}/}/}/}/}/}/}/}/}/}/}/}/}/}/}/}/}/}/}/}/}/}/}/}/}/}U<U<U<z<                                                                                                                                                                                              U<M|_}M|u}:}R}/}/}/}/}/}/}/}/}/}/}/}/}l}l}l}/}/}/}U<_}X*<}                              ",
"                                (_w1U</}/}/}/}/}/}/}/}/}/}/}/}/}/}/}/}/}/}/}/}/}/}/}/}/}/}U<U<U<                                                                                                                                                                                                MiU<_}X*/}u}w}/}/}/}/}/}/}/}/}/}/}/}/}l}l}l}/}/}/}_}_}M|_}                              ",
"                                W5I5U</}/}/}/}/}/}/}/}/}/}/}/}/}/}/}/}/}/}/}/}/}/}/}/}/}/}U<U</}                                                                                                                                                                                                fjM|_}X*w}/}!}/}/}/}/}/}/}/}/}/}/}/}/}l}l}l}/}/}/}_}_}M|+5                              ",
"                                gjk7U</}/}/}/}/}/}/}/}/}/}/}/}/}/}/}/}/}/}/}/}/}/}/}/}/}/}U<U<U<                                                                                                                                                                                                  j}_}M|w}/}!}/}/}/}/}/}/}/}/}/}/}/}/}l}l}l}/}/}/}_}U<_}X*c7                            ",
"                                Ga,:U</}/}/}/}/}/}/}/}/}/}/}/}/}/}/}/}/}/}/}/}/}/}/}/}/}/}U<U<U<                                                                                                                                                                                                  z1U</}!}u}/}/}/}/}/}/}/}/}/}/}/}/}/}l}l}l}/}/}/}U<M|<}S}z<                            ",
"                                6jk7U</}/}/}/}/}/}/}/}/}/}/}/}/}/}/}/}/}/}/}/}/}/}/}/}/}/}U<U<#|                                                                                                                                                                                                  N}M|<}/}u}/}/}/}/}/}/}/}/}/}/}/}/}/}l}l}l}/}/}/}U<M|(}e2)8                            ",
"                                #[y</}/}/}/}/}/}/}/}/}/}/}/}/}/}/}/}/}/}/}/}/}/}/}/}Q:Q:x<i[[6                                                                                                                                                                                                      76Q:i[':':/}/}/}/}/}/}/}/}/}/}/}/}/}/}/}/}/}/}/}u}!}t}t}                            ",
"                              c6Q:':/}/}/}/}/}/}/}/}/}/}/}/}/}/}/}/}/}/}/}/}/}/}/}/}':Q:x<Q:Y|                                                                                                                                                                                                      {<Q:Q:':':/}/}/}/}/}/}/}/}/}/}/}/}/}/}/}/}/}/}u}/}u}/},1                            ",
"                              hji[x</}/}/}/}/}/}/}/}/}/}/}/}/}/}/}/}/}/}/}/}/}/}/}/}':Q:x<Q:y<                                                                                                                                                                                                      {<':Q:':':/}/}/}/}/}/}/}/}/}/}/}/}/}/}/}/}/}/}/}!}t}j}w5                            ",
"                              R:':x</}/}/}/}/}/}/}/}/}/}/}/}/}/}/}/}/}/}/}/}/}/}/}/}':Q:x<Q:D<                                                                                                                                                                                                      A<':':':':/}/}/}/}/}/}/}/}/}/}/}/}/}/}/}/}/}/}/}!}v}R}$|                            ",
"                              ':Q:x</}/}/}/}/}/}/}/}/}/}/}/}/}/}/}/}/}/}/}/}/}/}/}/}x<':x<#|                                                                                                                                                                                                        /4x<x<x<':/}/}/}/}/}/}/}/}/}/}/}/}/}/}/}/}/}/}u}/}:}w}:}                            ",
"                            j:w<{[x</}/}/}/}/}/}/}/}/}/}/}/}/}/}/}/}/}/}/}/}/}/}/}/}x<':x<':                                                                                                                                                                                                        _6x<x<x<':/}/}/}/}/}/}/}/}/}/}/}/}/}/}/}/}/}/}:}u}!}w}/}                            ",
"                            d7w<{[=[/}/}/}/}/}/}/}/}/}/}/}/}/}/}/}/}/}/}/}/}/}/}/}/}Q:x<':P[                                                                                                                                                                                                          ':Q:':x</}/}/}/}/}/}/}/}/}/}/}/}/}/}/}/}/}/}/}/}/}/}/}+5                          ",
"                            V:(<':w</}/}/}/}/}/}/}/}/}/}/}/}/}/}/}/}/}/}/}/}/}/}/}/}Q:x<':_6                                                                                                                                                                                                          y<Q:':x</}/}/}/}/}/}/}/}/}/}/}/}/}/}/}/}/}/}/}/}/}/}/}/}                          ",
"                          Y9(<Q:x<Q:/}/}/}/}/}/}/}/}/}/}/}/}/}/}/}/}/}/}/}/}/}/}/}/}':x<':H6                                                                                                                                                                                                          ':Q:':':/}/}/}/}/}/}/}/}/}/}/}/}/}/}/}/}/}/}/}/}/}/}/}x|                          ",
"                          ij|<Q:(<Q:/}/}/}/}/}/}/}/}/}/}/}/}/}/}/}/}/}/}/}/}/}/}/}/}':x<':                                                                                                                                                                                                            ':':':':/}/}/}/}/}/}/}/}/}/}/}/}/}/}/}/}/}/}/}/}/}/}/}o}                          ",
"                            j[x<(<x</}/}/}/}/}/}/}/}/}/}/}/}/}/}/}/}/}/}/}/}/}/}/}/}x<x<v|                                                                                                                                                                                                            ':':':':/}/}/}/}/}/}/}/}/}/}/}/}/}/}/}/}/}/}/}/}/}/}/}t2                          ",
"                            #[i[{[x</}/}/}/}/}/}/}/}/}/}/}/}/}/}/}/}/}/}/}/}/}/}/}/}(<x<,[                                                                                                                                                                                                              ':':Q:/}/}/}/}/}/}/}/}/}/}/}/}/}/}/}/}/}/}/}/}/}/}/}U<jj                        ",
"                            H<{<':(</}/}/}/}/}/}/}/}/}/}/}/}/}/}/}/}/}/}/}/}/}/}/}/}':,:                                                                                                                                                                                                                ':':Q:/}/}/}/}/}/}/}/}/}/}/}/}/}/}/}/}/}/}/}/}/}/}/}/}E6                        ",
"                            y<w<Q:(</}/}/}/}/}/}/}/}/}/}/}/}/}/}/}/}/}/}/}/}/}/}/}/}l:l:                                                                                                                                                                                                                C6':':/}/}/}/}/}/}/}/}/}/}/}/}/}/}/}/}/}/}/}/}/}/}/}/}~[                        ",
"                            A<(<i[(</}/}/}/}/}/}/}/}/}/}/}/}/}/}/}/}/}/}/}/}/}/}/}/}l:w1                                                                                                                                                                                                                Z|':':/}/}/}/}/}/}/}/}/}/}/}/}/}/}/}/}/}/}/}/}/}/}/}/}i[                        ",
"                            [|x<Q:x</}/}/}/}/}/}/}/}/}/}/}/}/}/}/}/}/}/}/}/}/}/}/}/}l:~<                                                                                                                                                                                                                  ':':/}/}/}/}/}/}/}/}/}/}/}/}/}/}/}/}/}/}/}/}/}/}/}/}Q:J6                      ",
"                            {<':':':/}/}/}/}/}/}/}/}/}/}/}/}/}/}/}/}/}/}/}/}/}/}/}/}l:;<                                                                                                                                                                                                                  ':':/}/}/}/}/}/}/}/}/}/}/}/}/}/}/}/}/}/}/}/}/}/}/}/}':x<                      ",
"                            ^<Q:x<Q:/}/}/}/}/}/}/}/}/}/}/}/}/}/}/}/}/}/}/}/}/}/}/}/}l:O:                                                                                                                                                                                                                  w5x</}/}/}/}/}/}/}/}/}/}/}/}/}/}/}/}/}/}/}/}/}/}/}/}x<^<                      ",
"                            i[j[s<w</}/}/}/}/}/}/}/}/}/}/}/}/}/}/}/}/}/}/}/}/}/}/}/};<~:                                                                                                                                                                                                                    (<:}/}/}u}u}/}/}/}/}/}/}/}/}/}/}/}/}/}/}/}/}/}/}/}':i[D<                    ",
"                          kjM7{[x<':/}/}/}/}/}/}/}/}/}/}/}/}/}/}/}/}/}/}/}/}/}/}/}/};<                                                                                                                                                                                                                      z</}!}/}u}/}!}/}/}/}/}/}/}/}/}/}/}/}/}/}/}/}/}/}/}x<s<P[                    ",
"                          p8qis<':':/}/}/}/}/}/}/}/}/}/}/}/}/}/}/}/}/}/}/}/}/}/}/}/};<                                                                                                                                                                                                                      lj!}w}/}u}/}w}/}/}/}/}/}/}/}/}/}/}/}/}/}/}/}/}/}/}x<i[(<                    ",
"                          9:s<i[':w|/}/}/}/}/}/}/}/}/}/}/}/}/}/}/}/}/}/}/}/}/}/}/}/}f<                                                                                                                                                                                                                        /}!}!}u}/}!}/}/}/}/}/}/}/}/}/}/}/}/}/}/}/}/}/}/}x<Q:':{[                  ",
"                        mjx<{[Q:':(</}/}/}/}/}/}/}/}/}/}/}/}/}/}/}/}/}/}/}/}/}/}/}/}{8                                                                                                                                                                                                                        x1u}!}/}u}/}/}/}/}/}/}/}/}/}/}/}/}/}/}/}/}/}/}/}':Q:':M2                  ",
"                      njv|i}=[{[x<Q:/}/}/}/}/}/}/}/}/}/}/}/}/}/}/}/}/}/}/}/}/}/}/}/}f<                                                                                                                                                                                                                          (}!}!}u}:}/}/}/}/}/}/}/}/}/}/}/}/}/}/}/}/}/}/}x|e3W:e3~|                ",
"                  oj_}:}/}/}/}/}U<U</}/}/}/}/}/}/}/}/}/}/}/}/}/}/}/}/}/}/}/}/}/}/}U<;<                                                                                                                                                                                                                          pjM|!}T[l}l}l}l}/}U<U</}/}/}/}/}/}/}/}/}/}/}/}<}qj:}D2Y*                ",
"                  V<rj07l}l}l}/}U<U</}/}/}/}/}/}/}/}/}/}/}/}/}/}/}/}/}/}/}/}/}/}/}/}                                                                                                                                                                                                                            M}U<U<T[l}l}l}l}/}U<U</}/}/}/}/}/}/}/}/}/}/}/}12J}[j/ D2                ",
"                  :}sj(7l}l}l}/}U<U</}/}/}/}/}/}/}/}/}/}/}/}/}/}/}/}/}/}/}/}/}/}/}U<                                                                                                                                                                                                                              <}U<~al}l}l}l}/}U<U</}/}/}/}/}/}/}/}/}/}/}/}b=C2C2/ K}                ",
"                Li_}38u2l}l}l}/}U<U</}/}/}/}/}/}/}/}/}/}/}/}/}/}/}/}/}/}/}/}/}/}/}U<                                                                                                                                                                                                                              ;|U</8l}l}l}l}/}U<U</}/}/}/}/}/}/}/}/}/}/}/}12C212/ d2                ",
"                R}:}g7l}l}l}l}/}U<U</}/}/}/}/}/}/}/}/}/}/}/}/}/}/}/}/}/}/}/}/}/}/}/}                                                                                                                                                                                                                              Gi_}k*22l}l}l}/}U<U</}/}/}/}/}/}/}/}/}/}/}/}131312K}tj                ",
"                23<}43l}l}l}l}/}U<U</}/}/}/}/}/}/}/}/}/}/}/}/}/}/}/}/}/}/}/}/}/}/}U<                                                                                                                                                                                                                              ujx|k*22l}l}l}/}U<U</}/}/}/}/}/}/}/}/}/}/}/}1312J}K}r9                ",
"                  E2sj(7l}l}l}/}U<U</}/}/}/}/}/}/}/}/}/}/}/}/}/}/}/}/}/}/}/}!}!}/}Y|                                                                                                                                                                                                                              vjU<k*22l}l}l}/}U<U</}/}/}/}/}/}/}/}/}/}/}/}J}J}13m5wj                ",
"                    xju2l}l}l}/}U<U</}/}/}/}/}/}/}/}/}/}/}/}/}/}/}/}/}/}/}/}/}!}u}s2                                                                                                                                                                                                                                /}k*22l}l}l}/}U<U</}/}/}/}/}/}/}/}/}/}/}/}131213/ )8                ",
"                    (7F2l}l}l}/}U<U</}/}/}/}/}/}/}/}/}/}/}/}/}/}/}/}/}/}/}/}/}/}$|                                                                                                                                                                                                                                  /}k*22l}l}l}/}U<U</}/}/}/}/}/}/}/}/}/}/}/}1312C2r9v5                ",
"                    <8Zal}l}l}/}U<U</}/}/}/}/}/}/}/}/}/}/}/}/}/}/}/}/}/}/}/}/}/}:}                                                                                                                                                                                                                                  U<k*22l}l}l}/}U<U</}/}/}/}/}/}/}/}/}/}/}/}>212[j/ %957              ",
"                    T[`1l}l}l}/}U<U</}/}/}/}/}/}/}/}/}/}/}/}/}/}/}/}/}/}!}/}/}/}:}                                                                                                                                                                                                                                  t2k*22l}l}l}/}U<U</}/}/}/}/}/}/}/}/}/}/}/}>21313m5@.U<              ",
"                    yjZal}l}l}/}/}/}/}/}/}/}/}/}/}/}/}/}/}/}/}/}/}/}/}/}!}/}u}u}%7                                                                                                                                                                                                                                  /}/}22l}l}l}/}/}/}/}/}/}/}/}/}/}/}/}/}/}n}12C2>2m5D5U<Y*            ",
"                    ;[/[V:/}/}l}l}/}/}/}/}/}/}/}/}/}/}/}/}/}/}/}/}U<U<U<_}U<U<zj                                                                                                                                                                                                                                    !}w}!8/}k*l}l}l}/}/}U<U<U<U<':/}/}/}J}J}J}-2l}m}/}/}/})7            ",
"                  E<D<':V:/}/}l}l}l}/}/}/}/}/}/}/}/}/}/}/}/}/}/}/}U<U<U<_}I W6F7                                                                                                                                                                                                                                    57w}u}/}O}l}l}l}l}U<U<U<U<U<':/}/}/}J}J}J}l}l}l}/}/}/}<}Aj          ",
"                Bj7|':x<V:/}/}l}l}l}/}/}/}/}/}/}/}/}/}/}/}/}/}/}/}U<U<U<_}I `6Cj                                                                                                                                                                                                                                    Dj_}!}/}/}/}l}l}l}U<U<U<U</}/}/}/}/}n}n}n}l}l}l}/}/}/}e2W:          ",
"                Ej-8B<':V:/}/}l}l}l}/}/}/}/}/}/}/}/}/}/}/}/}/}/}/}U<U<U<U<U<57                                                                                                                                                                                                                                        T}X*/}/}/}/}k*l}V:/}/}/}/}/}/}/}/}/}/}/}l}l}l}/}/}/}54R<;|        ",
"              8},jD<Q:{[V:/}/}l}l}l}/}/}/}/}/}/}/}/}/}/}/}/}/}/}/}U<U<U<U<Q6T$                                                                                                                                                                                                                                        98_}/}/}/}/}O}l}V:V:/}/}/}/}/}/}V:V:':V:/}l}l}/}/}/}T}M|%7        ",
"            g<Fj`}[6x<{[V:/}/}l}l}l}/}/}/}/}/}/}/}/}/}/}/}/}/}/}/}U<U<U<U<Q6                                                                                                                                                                                                                                            T}U</}/}/}/}/}V:V:V:/}n}J}U<#|':Z|U8GjV:l}l}/}/}/}_}X*_}(}      ",
"          jj^3~[<1,j(<Q:V:/}/}l}l}l}/}/}/}/}/}/}/}/}/}/}/}/}/}/}/}U<U<U<M|Q6                                                                                                                                                                                                                                            HjT}U<w}/}/}!}%[%[%[l}26J}D5x|{<82IjJjV:l}l}/}/}/}X*M|_}-|      ",
"        Kjr4^3LjMjNj]|Q:V:/}/}l}l}l}/}/}/}/}/}/}/}/}/}/}/}/}/}/}/}U<U<U<b4Oj                                                                                                                                                                                                                                              Pj_i<}u}/}^<%[Qj%[-226J}m5x|Z|RjSjTjV:l}l}/}/}/}M|_}g|U<Y|    ",
"      Ujl: 1Z0VjWjXj5j':V:/}/}l}l}l}/}/}/}/}/}/}/}/}/}/}/}/}/}/}/}U<U<U<Db)8                                                                                                                                                                                                                                                Yj54U<M|V:{6I8I8-2Zj`jwjI  k.k+k@k^6l}l}/}/}/}X*M|T}<}{}    ",
"      h7,:$j!|#k$k%kY5w<V:/}/}l}l}l}/}/}/}/}/}/}/}/}/}/}/}/}/}/}/}U<U<U<%|_i                                                                                                                                                                                                                                                &kB5M|U<R:{6I8I8-2Zj`jJ ~1*k=k-k;k^6l}l}/}/}/}T}S}_}<}g|    ",
"      >kf<&7|6Z|j9[6Q:s<V:/}/}l}l}l}/}/}/}/}/}/}/}/}/}/}/}/}/}/}/}U<U<U<_},k                                                                                                                                                                                                                                                wi`6X*<}V:'k)kI8-2Zj`jJ {8!k~k{k]k^6l}l}/}/}/}U<<}e2T}(}    ",
"      ^kQ[$j|3kjZ|':':=[V:/}/}k*k*k*/}/}/}/}/}/}/}/}/}/}/}/}/}/}/}U<U<U<-|d7                                                                                                                                                                                                                                                /kI M|p}t<)k)kI8<626`jwjj8P4(k_k:k^6l}l}/}/}/}/}_}!}_}b4    ",
"  z<(<*[h[V:v|w1l:C6C6C6I I U<U<U<U</}/}/}/}/}/}/}/}/}/}/}/}h[<kG<T[^<Q:r7                                                                                                                                                                                                                                                  >[31g[o[*[%[%[l}l}l}l}~a~8]<N5Gj[k%[l}l}l}l}l}~ak*k*!}U<+5  ",
"  *[}k|k1k2kI ~5~5~5~5~5~5~5~5~5~5U</}/}/}/}/}/}/}/}/}/}/}l}%[I83k4k^[{[M}                                                                                                                                                                                                                                                  ^<)}5kI86kl}l}l}l}l}l}l}l}l}l}l}l}l}l}l}l}l}l}l}l}l}l}l}/}  ",
"  7k:7%[8k'}/}U<U<U<U<U<U<U<U<U<U<U</}/}/}/}/}/}/}/}/}/}/}O}%[9k}<0k]<B<                                                                                                                                                                                                                                                    `2:7'}8kakl}l}l}l}l}l}l}l}l}l}l}l}l}l}l}l}l}l}l}l}l}l}l}O}bk",
"ck^<)1&[&[&[/}/}/}/}/}/}/}/}/}/}/}/}U<U<U<U<U<U<U<U<U<U<U</}G<B8&[^[,6                                                                                                                                                                                                                                                      !8}<dk:7H8O}O}O}O}O}O}O}O}O}O}O}O}O}O}O}O}O}O}O}O}O}O}O}/}]}",
"2jx<^<]<77g[/}/}/}/}/}/}/}/}/}/}/}/}U<U<U<U<U<U<U<U<U<U<U<U<ek'}fki[                                                                                                                                                                                                                                                        gkt<]<g[0k/}/}/}/}/}/}/}/}/}/}/}/}/}/}/}/}/}/}/}/}/}/}/}U<,:",
"hki}':V:]<)1l}l}l}l}l}l}l}l}l}l}l}/}U<U<U<U<U<U<U<U<U<U<U<U<+1@jR:                                                                                                                                                                                                                                                            7|15^<'1/}/}/}/}/}/}/}/}/}/}/}/}/}/}/}/}/}/}/}/}/}/}/}U<l:",
"  B6M_C6$jQ:u}t2w}t2$|p}O}O}O}O}O}/}_}I b4b4b4~5`6~5Q6liikjk                                                                                                                                                                                                                                                                      kk%7!}S}M|U<M|/}U</}w}e2X*(}U<U<U<U<U<U<X*U<u}U<M|U<~1",
"      #:;<f<P}u}p}u}R}b<w}w}w}w}w}X*j4~5`6Q6W6b4b3                                                                                                                                                                                                                                                                                  h|S}-|_}U<(}V3U<<}T}(}M|E2_}_}_}_}_}_}T}U<M|_}(}<}9j",
"                +.lkY*/4&|&|15{7~8c7                                                                                                                                                                                                                                                                                                      V<ue/}T}U<X*X*U<_}_}M|M|M|M|M|M|M|U<U<M|X*w}mk",
"                                                                                                                                                                                                                                                                                                                                                KiQ657M|e2X*(}M|M|M|M|M|M|T}M|S}U<_}o}  ",
"                                                                                                                                                                                                                                                                                                                                                        ^ 23a7<}<}d5k[<}57U<E2j8nk      "};
