/* XPM */
static char *south[] = {
/* columns rows colors chars-per-pixel */
"100 100 256 2 ",
"   c #2A2A1B",
".  c #35311D",
"X  c #3B3725",
"o  c #2F2D21",
"O  c #1E1E16",
"+  c #433C25",
"@  c #453D2B",
"#  c #3D4A16",
"$  c #495917",
"%  c #485515",
"&  c #556D0E",
"*  c #5A790B",
"=  c #566819",
"-  c #5C7517",
";  c #4B6410",
":  c #62741C",
">  c #677B19",
",  c #667813",
"<  c #4B442C",
"1  c #484729",
"2  c #53492B",
"3  c #4C5426",
"4  c #55582A",
"5  c #4C4532",
"6  c #4D4A33",
"7  c #4A4636",
"8  c #534C33",
"9  c #544C39",
"0  c #584B36",
"q  c #5C543B",
"w  c #5D5A3C",
"e  c #595536",
"r  c #4F5033",
"t  c #62553C",
"y  c #635B3C",
"u  c #665A39",
"i  c #625436",
"p  c #5A6626",
"a  c #5E6335",
"s  c #5D7121",
"d  c #636D2B",
"f  c #656929",
"g  c #6C7C24",
"h  c #64732B",
"j  c #6B742C",
"k  c #6D7B2B",
"l  c #667624",
"z  c #727C2C",
"x  c #737829",
"c  c #64633C",
"v  c #6B6B3B",
"b  c #676837",
"n  c #726B3B",
"m  c #6B7433",
"M  c #6E7A32",
"N  c #6C733A",
"B  c #697535",
"V  c #737C33",
"C  c #747C3A",
"Z  c #7A7C3C",
"A  c #757538",
"S  c #5C5742",
"D  c #534F41",
"F  c #645C43",
"G  c #6A5D43",
"H  c #665B47",
"J  c #715D48",
"K  c #656344",
"L  c #6B6344",
"P  c #6C6A43",
"I  c #6C644B",
"U  c #6E6A4B",
"Y  c #666348",
"T  c #726B44",
"R  c #72654C",
"E  c #736B4B",
"W  c #7A6C4D",
"Q  c #766548",
"!  c #7B7543",
"~  c #7B7C44",
"^  c #7B734C",
"/  c #7C7B4B",
"(  c #747546",
")  c #6C6653",
"_  c #746C53",
"`  c #7B6D53",
"'  c #776B57",
"]  c #7C7354",
"[  c #7D7A53",
"{  c #7C735A",
"}  c #797556",
"|  c #6D7442",
" . c #7E7662",
".. c #827B3C",
"X. c #837C4B",
"o. c #847949",
"O. c #856D53",
"+. c #827454",
"@. c #837C54",
"#. c #8A7B55",
"$. c #83755A",
"%. c #847B5C",
"&. c #8B7C5C",
"*. c #8A7456",
"=. c #937B59",
"-. c #836D4D",
";. c #847B63",
":. c #8B7D63",
">. c #857A66",
",. c #937D63",
"<. c #847B72",
"1. c #A07E5B",
"2. c #5C840C",
"3. c #68880C",
"4. c #6A8618",
"5. c #758B1A",
"6. c #769517",
"7. c #6F9410",
"8. c #6D8425",
"9. c #73832C",
"0. c #778827",
"q. c #7A9327",
"w. c #748233",
"e. c #7B8435",
"r. c #7C833C",
"t. c #7A8937",
"y. c #7C9333",
"u. c #6E8332",
"i. c #76A412",
"p. c #7C8345",
"a. c #7E8254",
"s. c #82941C",
"d. c #839427",
"f. c #84893A",
"g. c #869538",
"h. c #899334",
"j. c #8AA339",
"k. c #8AA531",
"l. c #838445",
"z. c #848B44",
"x. c #83834C",
"c. c #858B4B",
"v. c #8B8C4C",
"b. c #8A8648",
"n. c #8A9448",
"m. c #94974B",
"M. c #858353",
"N. c #8A8454",
"B. c #8B8B54",
"V. c #85825B",
"C. c #8C835C",
"Z. c #8D8A5B",
"A. c #868A55",
"S. c #92835D",
"D. c #938B5C",
"F. c #958A57",
"G. c #8C9354",
"H. c #949354",
"J. c #94925C",
"K. c #989859",
"L. c #928D4B",
"P. c #A3965C",
"I. c #9BA358",
"U. c #96A248",
"Y. c #A2A55B",
"T. c #8C8364",
"R. c #8D846B",
"E. c #8B8764",
"W. c #938464",
"Q. c #948B64",
"!. c #9B8C64",
"~. c #93856B",
"^. c #948A6B",
"/. c #9B8C6B",
"(. c #9A8567",
"). c #969363",
"_. c #9B9364",
"`. c #9C9A63",
"'. c #9C936B",
"]. c #99976B",
"[. c #968B72",
"{. c #9B8D72",
"}. c #968874",
"|. c #9C9373",
" X c #9D9578",
".X c #8D8670",
"XX c #A38B6A",
"oX c #A39C64",
"OX c #A2946C",
"+X c #A49B6C",
"@X c #A8976A",
"#X c #A38D74",
"$X c #A39474",
"%X c #A99574",
"&X c #A49A74",
"*X c #AB9B74",
"=X c #A3957A",
"-X c #AA967B",
";X c #A59A7B",
":X c #AB9C7B",
">X c #B19D7B",
",X c #B49977",
"<X c #B4996E",
"1X c #A7A46A",
"2X c #ADA17C",
"3X c #AAA576",
"4X c #B3A47C",
"5X c #B7A77A",
"6X c #B6B27A",
"7X c #B2AC6E",
"8X c #9DA066",
"9X c #C1A87B",
"0X c #AC9D82",
"qX c #A79B84",
"wX c #B39D83",
"eX c #B79B83",
"rX c #ADA282",
"tX c #ADA38A",
"yX c #B3A483",
"uX c #BAA584",
"iX c #B5AA83",
"pX c #BBAB84",
"aX c #B4A48A",
"sX c #BBA68A",
"dX c #B5AA8A",
"fX c #BCAC8B",
"gX c #BBB387",
"hX c #BBAC93",
"jX c #BDB294",
"kX c #AFA392",
"lX c #AEA491",
"zX c #C2AC8C",
"xX c #C4AA86",
"cX c #C4B28B",
"vX c #C8B68A",
"bX c #C4AE93",
"nX c #C4B393",
"mX c #CBB494",
"MX c #CBBA93",
"NX c #CCBB9B",
"BX c #C8B69A",
"VX c #D3BA98",
"CX c #D1BA8E",
"ZX c #D3BDA2",
"AX c #CABBA2",
"SX c #D6C39A",
"DX c #CFC296",
"FX c #CBC5A7",
"GX c #D7C6A6",
"HX c #DBD1B2",
"JX c #E2CDA8",
"KX c #E6D7B8",
"LX c #E7D1AF",
"PX c #E6E0BA",
"IX c #F0E7C9",
"UX c #E5DCC4",
/* pixels */
"B.w.f.0.z j p.vXn &.pXfX=XZ.p.Q.&XdX^.Q.T ' =XC - g w.t.6X%X_.f.8.V p = k > 6.6.5.6.6.6.0.4.e.v.D.E.C.c = = - z +Xc.b.mXVXVXGXnXC.C K.u 9 q 8 9 F E ~.iXpXMXmX0X;X0XnX*X:XR P v w l 0.^ 4 L.5X(.S.(.*.O.",
"*Xm.5.6.4.: f f.x f Q.yX/. X&XE.'.:XF.J.C.w ;XM.; g.JXPXGXNXSX7X8.7.4.& * - * 3.7.7.7.2.* - , Z o.&.L r 4 / x.V.=XfXyXsXcXpXBXKX5Xg.g.Z n y F _ U c E *X4X/.yXaXdXrXfXcXiX$X$XOX>XyXpXzX%.E S.` $.*.XX=.",
"'.).e.4.3.4.4., & k 7XnX2X[./.Q./.(.^.3X$X} E W 4 H.vXDXN.oXGX*Xl.5.4.F.#.N.M.> 4.h.g.y.f.o.b.#.(.:.F r } :XpXmXfXrX$XW.>X4X%.;XNXFXjXC.XX%X` E Y 1 2 T OX$X&X|.dXfXgXgXfXiX$X/.#XBXBXNXNXyX;.H H T.XX1.",
"GXyX[ ).0.7.4., 4 a B.yX:X&.[ ].oX).Q._.J.'.T ^ #.T j z g 7XKXDXQ.N.b $XpX3XK.5., q.I.xX5XxX4X*X$X/.{.Q.yXuX#XxXmXmXxX>X-XyXOXA n.H.H.Z.F.5XXX_ W.%.E y P ^ ] +.%.T.] ^ Q.2XOX/.{.iX0X0XBXsX:X;X/.S.W 9X",
"+X7X( P : 3.7.6.l.Z.E.M.T &X#.@.Q.X.L.e.g.Y.oX@.c n b Z L.SXPXKXvXOX%.I T.x.h.g.f.h.oXxXfXfXmXfX~.:.~.=XwXeX,X,XxXxXxXxXvXxX@Xx > l = = l.1XG./ ^.iXyX>X$X$.] ` {.;X%.$.` (.Q.W.T.&.] +.'.{.y e Q XXG } ",
"h.y.5.: ; ; ; 3.s.d.g.1X/.$X:X{.{.&.!.o.9.f.OX&.8 c C.o.! <XSXJXSXoXJ.N / #.v L.P.g.5XuXfXMX:X:X{.' :.=X}.-XwX-X-XeXxXxXxX/.5X5XN.T d p j y.q.L.%XiX;XR &.:XzX:X&X;X(.=X;X=X=XyXyX^.R I ^.;X@.y W XXC b ",
"d.U.6.q.C - ; $ : 3.6.h.v.Q.pX(.-XW.C.4XcX5X4XOXW.i ] #.G !.xXVXVX_.d g V T n v !.2XcXfXyXuX>XxXMX{.H >.=X=X-X-X=X-XwXwX>X(.yXvX&X] b h a ^ w.v.dXdX[.) 9 e ^ Q.p.'.$X=X0X0XrX&XyXW.$./.C.A.r.p.M.D.C K.",
"6.6.7.6.d.l x d s , 5.6.5.m 1X@XE :.J.2XMXMXxXyX:XS.c S.L +.@X,X*X$Xm & b.XX@.k 1XNXwXsXuX>X$X!.&X[._ V.B./.(.{.=X:X0X}.0X$X4X4XZ.u.s l r.T.I v M.c.B.<.<.>.I G ^ `.gX0X|./.:XrXyX$X$.W.D.r.8.w.l.! n V.",
"d.s.0.0.0.g g b n o.x 5.h.~ !.+X^.` ( / l.+X@XD.pX&X! b.! #.F.S.C.~ l f S.S.c & t.aXwX-XaX/._.p.N C.J.k n.H.r.@.~.~.|.{.[.:X:XW.b s = 9.t.!.%.{ ^.( / [.R.&X0X0X2Xz.w.7XcXX.W.:X$XJ.z.).|.a.g m.P.H.#.n ",
"5.d.L.oX&XZ.f.f.v.V.!.l.1XpXW.(.$X/.OXQ.Q.Q.S.~ ;XfXJ.o.A ..L.OX`.: * C !.E # % N aX%X(.wX/.OXpXE.M.M.x.r.b.h.0.f.F.$X%.W.Q.$.$.8 b K M._./.T.=XrXC.c L E Q.4X2X1XQ 3 +XHXMXOX/.:X'.T @.;XrX'.vX5X4XOXXX",
"l.F.vXCXzX{.M.g.U.H.F.'.iXmXuX4XyXfXuX;XtX/.S.F.Q.cXjX:XX.~ B.+X'.d & C N.L 8 1 7 7 &.@XD./.4X4Xx.: C x.V f.5.5.x b.OX+.! m T.~.S ;.:.R.0X*X*X0XhX;Xw X X 9 ' T.T.%X:X&XGXSXpXbX$X*X,.R $X;XcXmX5X>X(.5X",
"9X:XfXCXmX4Xc.6.s.h.h.J.@.D.OX$X(.|.$XOX3X:XS.#.|.dXiXfXiXC.N e.*X$XC z.f.j V ~ e 1 $.cX1X$XnXVXyXd z j = o.l.x.&.#X>XOXe.x M._ D S _ R.>.-XsXhXfXfXT.7 X H  .R $.:./.-.uX:X&XfX:X>X(.=.pXpX5XDXcX4X(.:X",
"xX5XuXiXcX<X9.6.g.h.h._.N.! ^ ;.;.;.%.C.1X<X!./ oXiX2XiX{.~ p.J.$X$XN.f.G.K.v.`.( e ( NXJXGXAXGXpXd = l > A W.:XP.z.1X5X8.k ~ 9 9 S S F S t ` (.-XwX;X~.E S :.:.{./.` E '.7XoXnXNXfXcXVXLXJXCXvXCXvXOX>X",
":XzXMXcXyX/.N.P.5X+X3XxX$XW.W.{.#X}.{.pXvXOX/.5X5Xp.G.3XOXA ).0XtX/.Q.N.;XMX=X:X^ ' :XmXVXHXKXLXmX[ w T.Q.M.+.X.8.3.e.7Xg.4.r.' H H H J H 0 5 < q F 9 F $.#.$.~.dXrX*X<XX.b 1XJXGXmX%XyXGXKXKXNXSXMXpXyX",
",./.pXcX4X*X5XvXuXC.'.5X(.:XBXhXnXpX|.2XMXpX'.X.u p d V e.f.).^./.=X~ ].FX1XH.+X:XsXbXcX5XGXGXmX>X#X~.-X$X%X/.E % ; & , , m L.yX#X' 0 0 t J R H q 0 5 @ + 5 6 5 ] $XT.(.OXW.NXGXxX7X:XL y :.HXHXgX2XW.T.",
"{.%X:XB.e.f.l.f.oX!.F.H.H.|.0XwXbXS.[ &.pXMXVX>X] 3 4 h 9.e.).=XqX%.h p.3Xc.9.H.xXbXNXQ.f F.sXsXfXZ.D.*XuX>X%X:.< 1 / f.j C.Q. X(.$.R J Q O.(.,X#X(.W H 9 F F e < 5 y W.E.W 0XGXL.m.CXL X @ H >XE.5 5 R ",
"R /.Q.M.F.H.j : F.F.f.0.5.n._.^.$X].A.P C.pXVXMXhX' n n A Z #.~.$X~ m l.].B.@.#XeXbXaXF c J.hXAXFXk : j ..F.D.%.8 6 -X|./ Q.C./ T._ _ Q L +.*.,.#X#X&.+.R G t %.&.$.t [ E.L u $XfXzX5Xy 8 < @ $.%.< ' {.",
"q Q.Q.C.$XfX2Xb.K.~ : , * 2.t.e.f.+X&Xx.^ %.4XMXBXaX&X&.! #.*.:./.l.f.6XSXpXyX=X0XBX/.'  XfXGXLX7X> l c n ~ k A 3 1 ~.sXbX:X&X1XJ.#.+.*.=.=.=.*.*./.$XW.+.$.F F F W.:X|.R.F . Q qX'.n.x.] 8 < ] Q.L |.~.",
"9 C.E @.D./ x.L.L.x.& & $ $ ; > k V `.v.`.^.C.*XpXBXqXqX$XW.*.~.R.}.'.cXSXMXMXCXcX3Xm.Z.[ e.1X1X9.> > : ~ OXgXK.b c F { :.iX5XJ.K.`.F.-.O.W @.(.(.S.W.W.W.+._ y 2 i E K Y 8   + L 2Xy.g.D.E q I E L /.W.",
"1 ` 4X:XD.l.f.m.Q.2Xz : ~ T 4 r./ B.H.n.B.Q.OX=.=XUXhXQ.+X2X&.W.qXkXyX].W.-XzXaX=XH.0.= 3 $ v m : ! ! l e.'.'.D.@.&X^.|.@.` C.N.F.OX@XOXXXS.#.+.] W.&XV.@.C.&.^ L I I < X q 6 . r Z.w.y.m.!.T._ Y { rXiX",
"V.%.&X/.n e.b.F.(.yX3XD.A r.p j a Q.H.H.z.z.K.|.qXHXBXe m B.*XW.qXjXGX3Xp K S q { /.).e 6 G ( E x.@.:.~ B.gX$X{.} T.;XjX&XE.~.T.Q.&.(.@XXX1.=.-.I &.R.Q.'.Q.%.^ T.yX;X] y ^ L 4 : g r.B.L.J.OXV.a 6 K '.",
"~ 3X`.[ T ..o.$X/.@XL.L.j w.l l M h M V z n.y.p.=XBXHX|.R %.&XOX.X X1Xv.l p 3 u @.x.r.!.(.Q.Q.^ %.R.R.|.OX4X0XyXrXE.^.fX2X'.).&X'.W.&.#.*.=.#.+.R ` &.^ N.OX&X).Q.rXjX4X^._ 8 l 0.5.5.d K.cX$XT.E.p - t.",
"~ gXFXjX' @.F.pX4X@XL.f.M 8.l $ g g d p z H.p.u.^.|.3XqXH I C.Q.rX].f.p.h ; % 2 ] [ c.J.#.W.Q.%.T.'.%.T.;XrXnXnXnXfXyXdXdXhX2XpX&X;XW.*.*.W.Q.M.{.~.C.@.! @.] C.V.[ V.Q.'.` c g w.k 8.l J.6X$X[ %.b = j ",
"dXI.1XV K C.5XSXSXJXSX1XV & $ 1 = : f ~ b.`.1Xa.| N C S X 5 ` T./.iXiX).b.: $ 1 F ;.V.M.C.;.C.!.|./.^.^.^.R.aXhXhXbXBXfXwXjXaX=X{.[.,.!.-.I T.D._.OX&.V.P T c ! X./ [ [ ( b B w.r.V V w.w.M A C.] a p ! ",
").p.t.c.[ v +XvXSXJXLXKXgXm r 1 p f f V.4XoXH.w.k g r.c 1 6 R /./.*XyXaXjX3X: % 1 H ;.^.*X[.E ^.|.T./.|.Q.R ~.=X=XaX0XwXxXzXaXT.'.:.{ T.C.w I &.&X:XW.Q.] ^ ( ! x.T V.].d m h 8.y.0.j M 9.j d A E } [ #.",
"D.Q.`.G.g.0.x.6XpXcXMXKXGX$.;.w ~ Z @.FXIXDXn.g - > n.Z.P q _ ^.:XpXnXNXNXNX+X].K 6 9 9 R ~.R.R.R.%.|.;X4X$X;X>X$X|.:XT.{.#XeX-X0X|.|.' (.$._ %.^.*X4XnXNXnXjX3X*X!.@.Q.Z.p.- 4.y.y.p - 5.g Z f.9.9./ ^.",
"{ U x.n.8.> ~ 2X~ 1XAXyXuX{.c.r.Q.$XGXIXIXIXDXiXA.- n.A.b w U T.;XfXnXuX{.:.{.0XaXrX%.S < 1 6 I ;.T.~./.4XiXdXaXjXfX4X2X&X~.#XwX0X;X;X'.:XT.F I T.:XfXmXxX$X{.$XyXuXuXT @.C.b A fXrXh 3.i.6.4.8.g.~ K I ",
"B.z.l.l.Z 9.M.|.x.x.rXhXQ.z.5.7., c FXIXKXHXBXLXSXA V e.C B b N ).3X'._.$XT.{ ] >.BXnXT.K q 6 9 {././.|.&XyXdX0X=XuX>X*X:XyX:X{.:X4X5XOX&.$X:X} E '.2X$X'.OX&.{ $.^.yX!.C.@.x.Z.yX|.3 ; * 4.w._.fX:X` F ",
"t.t.J.3X`.H./.~.hX$X:.{ = * 3.7.& # U FXGXaXI 2X+XA ! A z k g k r.r.9.f.m.`.b.d [ tXnX1XB b E r I [.E. X&X4XiX|.T.{.=X:X%X:XyX~.hXcX5X9XS.+./.&X~ ~ z.e.f.K._.x.d C | T.D.g.k.j.`.qX{ w U ).4XyXXXC.%XpX",
"F.dXtX3X&XJ.oX$X/.zXE 9 3 & 3.3.- ; p D.'.( p b j V C x l f g k 9.4.k e.n.z.v.z.N %.'.y.3.8.Q.%.q Y ] ;.{.>X2XuXuX4XQ.R ` $XiX{.$XpX>X4X(.+.I &.l.9.4.g w.z.z.v.f.w./ S B 5.g.j.y.f.E.' ;.0XiXpX/.U ^.oX",
"/ '.4X3X_.@XoX(.` $X` { _ $ , m.G.p.l r.l.b f f j z 9.w.w.A.G.g g 5.0.e.p.H.oX_.[ { @.l 3.5.K.@._ _ V.} { yXuXmXVXmXyXT.F H ;.fXfX2X*X%X%X/.(.I @.z 5.0.e.l.m.K._.a.T.C.b 0.q.0.4.> b Y Y _ I E E N p.j ",
"Q.l.m.K.g.b.*XD.v [ V.Q.{.3 3 &X6Xb.E. Xx.l.A f f j m r.t.n.`.e.> 0.5.4.d 1XvX/.V.T.c d 4.5.1X'.} ) {.^.:.|.yXzXzXbXBXiX] I S  .hX&XZ F.nXNXBXtXQ.9.0.5.4.d 1XvX/.T.^.P l 7.g.D.T 8 F ) ' +.y q 4 = = = ",
"A 0.m.m.d.f.D.F.$X|.f.q.m.J.c b f.w.aXZXhXZ V A u 4 d d w.V k M z V j 9.k B.1XD.C.} a = & 4.6X7X*XT.' G G T +.W./.yXNXBX;XT.E ' $.$.>. XsXhXbXbXyXr.V j 8.k H.3XQ.C.[ a & 3.g.n.r.n G 5 G (.W G q r c b ",
"p : 4.5.6.d.v.C.{.] - 3.7.g.^ A m B jXLX%Xj ..N.] w d C V l h h w.r.w.V e.k h m @.U c | m G.gXoXD.pXNXfX;X'.@.y c S.4XnXGXBX;X|.^.R 0 0 F R { ,.$Xc.r.V V r.k j m C.E 4 & 3.k e.t.0.@X(.&.*.G t E $.:.$.",
"/ d ; * 3.5.0.X.C.T.p = j n | [ ( K  XGX/.! ..#.I 4 d V.).l C l 8.q.5.p g 8.j A r.| M.A.j h 8.l.Z b.yXnXGXLXJXgX`.J.3X*XBXGXGXhX$X$.G F q 1 X X p 8.y.0.d k 8.j m Z ( K 4 > 8.( p b.9X$X(.=.O.W G t $.` ",
"mXzX&Xz.8.g d : w.[..XR.qX{.w e I { !.+XX.S.y P %.T.OXC.@._./ = 9.K.z.p 4.6.8.w.y.0.V / V.a.a.).0.z.C.W.%.Q.B.k 0.f.z.X.!.;X:X0X=X=X~.:.$.I F e = 8.m.t.p > 6.g r.g.0.b.#X%X4XiX` E XX$.&.*.,.=.Q t L ` ",
"mXVXVXVXiXN.4 % e Y K I { >.] _ E / ~ h V `.2X' ' { yXpXn / @.P [ hX=X= 2.7.7.4.t.K.@.q Y ;.kXJ.> l z.$Xq 8 P I C./.T.;.{.B.C.~.Q.N.x.C.W.~.=XT.c / hX;Xs 3.i.7.4.e.H./.-XBXNXZXNX:X{ F F :.XX=.W 8 0 Q ",
"mXmXVXmXVXVXxX$X:.` _ I ] G w w p - - 3 a Z.8X].2X{ / '.'.Q.B.m.K.yX[.3 $ - g c.:XsX:XW.{ ' }.|.n ^ oX X{ >..X;.~.$X!.$X{./.W.N.h 5.5.g Z S.!.B.n.K.4X~.1 ; - g z.*XfX:X=XzXaXaXNXnXiX:XW.W.+.5XOXt + < ",
"sXsXzXbXsXwXmXVXNXBX0X~.{.E.E q 3 3 a 4 9 { ^.c.q.0.w.v } p.q.k.j.K. X .H  .yXcXpXW.^ $XxXQ.S.] { [.&XB.^.|.E.{.{ $.~.W.~.{.T.d : 5.6.6.4.z f.h.k.j.`.;X .F } ;XfXpXW.] $XxXQ./.W.:.L L o.@XG T.:XR X 9 ",
"=X{.sXsXuXyX:X0XiXsXuX:X:.%.+.W ` %.$.` E ;XQ.N K.H.B [ F B q.g.q.5.t.{ ) ;.=X|.&X&._ Q.v.A F./.R ) ;.T.(.&XK.H.l.%.b 0.y.e./ T.| & , , 3.0.h.s.j.k.q.y.;._ >.qX;X4X:._ Q.F.Z F.W.I q < i D.~ a /.T.y OX",
"0X X=X=X&XvXOX&.;XpXmX0X:.] W.S.#.&.] _ R %.'.^ ].).w M y.8.6.0.t.l s b I I L q G c l k p a c.3X2XR.R.c l.t.f.g.g.l.> 7.3.7.6.~ ^ = > = - g 0.6.0.t.g s b I Y K w L v j w.p a c.6X;X>. .y H.0.8.m.m.9.g.",
":XT.&X).D.MXDXD.(.$X;XfX{.^.$XyX>XuX/.E W.Q.OXW.Q.%.P = 3.i.6.m.B.P 9 F F { C.L q 3 $ = = 1 U ^.].n.G.0.7.8.t.q.h.e.0.4.> 4.4.9.C p > 5.0.0.h.q.n.B.P 9 F H ] %.K q 3 ; = = r U Q.].m.K.9.7.5.0.6.g.6X6X",
"%X%.b.l.b.).dX2X:X#X$XpXyX$XQ.:.^ 4XvXA.y &.OX/.E.] F a $ * 3.g.g.t.A W q ` T.L G G F ] ] _ R.qXV.9.n.g 9.J.G.n.m.H.m.f.5.5.5.6.0.: p V : 4.q.5.g.g.e.n L 0 R W.Q G y w E P q %.^.V.8.g.8.8.l.e.5.j.gX2X",
":X^.S.E T E R.$.=X=XOXwXaX*Xt.y.v.4XvXI.n.:X;X/.;.R 9 q 4 & 3.h ~ 9.g.5X$XW.*.G H ' { }.>.{ ;.$X^ [ 3XN c C.2X4X'.;XqX|.@.j > 4.- l 1 W.'.V.Z l.N p.0.g.5XXXW.*.y F E ] :.$.R ;.&X! a.3XN c W.*XoXn.f.k ",
">.^.:X'.%.] &.C.c.V z.$X(. .P & 5.Y.gX4XG.A.T.:X/.G I ^ T c V f.^ 4 F.<X/.(.W.,.,. .I $.E &.@.E.(.C.E.P < < H $.] :.~.[.}.[.T.&X&X%.q >.|.uXvX9XOX^ 4 F.,XXXS.S.*.O.G t +.Q $.^ W.W.C.Q.P 1 6 _ ~.] | p ",
"L R &.&.+.$XQ.m ; = w.X._ 9 9 S j l v 8 F %.;XfXfX@.+.$X%XuXfXmXnX~.` #.R ` ;.=X,.G 0 G W !.6X*X&XQ.T._ q 9 q 6 1 1 1 e L  ..X[.&X;X` R.pXOXxXxXxXuX$.W S.' $.*.XX=.G e L W (.5X+X&XQ.E.E q 9 q 6 1 K u ",
"@.#.W.(.` ` %X*XC d e.X.%.H q 8 e b M 1 + e y +.$X:XQ.'.~.=XBXBXNXZXfX~.R _ [.XXXX*.8 2 Q *.!.4X5XrXaX X:.` ) q < 1   o + 1 S { R.$X{.:.(.(.Q.yXnXMXNXiX;.H I W.XX(.-.8 8 W =.OX5XxXuX:X/.&.R q 6 6 v h ",
":XOX&.$.` y $.&X/.' ~.$X/.^.qX^.L 8 e 1 5 0 G u u &.OXOX(.{.:X$X-XbXwX$X;X=XW.W xX(.t X 5 H F y |.hXBXBXaX|.>.{ F 9 9 ' T.I F D ) &XnXyX#X:X|.:.{.wXnXyX:X:X/.&.W 5X&.8 q ~.^.H L *XiXzXbXfX$X&.` a s = ",
"&X XF i 8 8 9 q %.;.:.=X%XuXsXhX&X6 o X I I ' :.:.$.^.(.^.W.%.E ] /./.q F ] _.y { 0XE < R F I ' .X XtXhXhXrX$X@XS.~.;XrXdXrX|.I D .XaXaX0XT.R..XR.{.-X(.L q T XXy %.I q ~.}._ 9 6 _ R.;XzXMXnX>X&.q p p ",
"rXtX|.] L R H 5 S ' ;.=X=X0XaXaXtX>.H D ) R.;.~.qXqX=X=XyXyX^.' _ |.;XV.} &.+Xk ( ;XC.n +Xy S R. . . .;.R.;XpXMXpX:XyXyXdXnXpX] ) ) ) >..X>.F E T.{.}.{.%.I ] '.^ R.Q.'  X>.H S Y H ) I $.{.jXnX|.S  .>.",
"F } |. X{.:.%.{ ) ) { %.|.' { :.>.{ .X:.:.~.{.qX XqXaXaX0XiX~.:.&XR.M.p.G.M.Z.C 3XKX3Xy.g.m E >. ..X ._ ) &X4X'.pXfXrX:X;X0XfXuXrX>.q H '  .) K p.V.E. XG.c.C.^.^ _ _ >.;X^.>.) ' ' { H H ' :XyXR.) ) >.",
"H 8 y q _ K r u c _ { I I W 8 @ 5 q ] E ` E `.gXrX'.^.;XrX:X'.$.C.B.C t.G.l.o.n [ dXFXFXgXN.!.qX>.R.' D q ^ &X'.&X;XhXjXnXfXMXfXaXtX=XE.~ M b P ~ r.n.1Xc.z r.Z w.A P  .;XiXiX{.' 0 0 t J R $.(._ q q q ",
"~.%.b 1 + G w 2 E _ 9 L G Q.#.q F F } } 9 I C 8.6XcXN.(.:X$XF.z.'.&XV.M 1XoXF.=.n n m.oX`.Q.Q.fX[.{ ;.{ I i T @.T.%.:.[.=X;X|.3XfXkX2Xw.* - C V.v k w.w.w.k w.x g 8.= # w '.|.W.$.J J Q *.(.,X#X,.R H F ",
"8 y ! b < 5 q q i < X + < 9 ` W b 8 Y F @ ` W c 3XHXMX&X(.:X/.Q +.;X:X*XcXfX>X$X_.g 5.k s l x.+XE.{ R.qX:X:X/.R R ' ~.$XW.%.w p G. X&XA.v x.( C.x.M j l h w.r.V M w.> - > r./ T._ ` R J +.#.W.#X#X$.` t ",
"5 q E @.K S q +.u +       o < b n W [ ( X 6 *X:X&XGXnXpXBXOX%X=.R *X*XvXmXfX>X/.5X<Xo.P p p k y.y.A./.yX;X] Q.yXfX$X&X2XyX$XF K v ( @.&X2XrX|.T.%.'.f k h g y.0.g j 9.h p ~ `.J.@.O.*.=.=.=.*.&./.$XC.F ",
"F X 2 u u S K 4 e 1       o @ { (.XX/.].@.X S :.` pX:X*XsX>X>X(.XXcXcXxXVXzXaX{.iXvX*X%.c d a ( w.H.fXhX[.I 9 u &.$Xl.K.K.`.m.c.N M G.B.^._ ] '.B.J.Z.x.s 4.y.g.p = y.c.! b.K._.K.F.+.O.W #.W.W.S.Q.W.$.",
"E 0 < + 2 y E.%.9 1 1   O 5 G G ` $./.2XI.V E E T Q.1XoXNXSXfXcXGXKXLXDXvXCXcX=XaXiX).w.s l w.%.P N Z.J.Z.>. .{ F y W ^ V.Z.u.q.q.q.q.t.J.&.^.&X].p.^ Z.v v yXdXB 2.7.y.V.C.A.F.&X@X@XXX=.#.` { Q.|.&.W ",
"&.G Q Q R +.E Q.[.F 8 1     2 e t _ U b 9.5.y.+X5XX.b pXJXGXmXXX;XBXKXUXNXSXMXiXyX=Xa.B p r.r.'.%.E E.N ~ }..XqXqXqX0X]./.;.4 = 4.q.k d X.L L L T M.D.@.B.B.2X;Xe ; & l C /.T.Q.&.XX@XXX1.=.-.R :.T.!.!.",
"$X~._ y t W W.$X;X%.q 8 <     + 2 5 < . 3 p 9.N.Q././.GXZX5X1X4Xy 9 { FXGX2X'.+.:.;.S [ _ A.)./.R.=XrXV.v E ;. XdXdX1Xj.U.j.0.4.6.7.n.fX4XD.*.W.W.W.Z.g.k.k.K.0X>.w P V.Q.`.&XQ.W.:.*.*.=.#.+.R ` #.^ F.",
"dX$X&.G t G -.XXuX%X&.J t 6 1 o 8 Q G 5 1 F w Q.'.T.R :XGXl.I.vXq X @ F >X%.+ 5 >.~.S >.:.R.0XrX$XqXdX'.w @ D ) ;.[.E.g 4.6.9.h = & | 3XvXpX@XXX%XC.b 0.g.j.q.y.T.{ >.jXfXgXMX:X=X,.#.*.W.Q.C.{.,.S.+.+.",
"[ %.] _ R R -.S.XX,X%X$.` G _ S X e ] ` _ G R L [ T.G i $XBXcX*XG 8 1 @ +._ 5 :.[.{ D S ' R.R.-XsXfXhXfX;.X X H ' I $.q c ).4XyX.XI L P &XNXpX5XU.U.M 0.q.0.4.> d K K H.I.I.1XMXrX(.W.*.^ [ &.Z.f.oXOXS.",
"H.D.+.` -.O.=.=.-.$././.V.n P  X .6 + 2 u E >.{ T.T.q . E |.^.n.B.^ 8 5 %.Q.I =X>.q 9 S S U P ~ _.:XwXaX;X] r 9 %.^ o.o._ :.=X;X&X/.&.W '.dX3Xg.6.i.i.7.d.D.( r S ' P p M p = Q.|.] ] c : g ( m 9.7X*X(.",
"6X`.B.N.-.*.-.&.(.(.!.OX'.W m `.|.;X%.< 1 ' I } S q <   + L 2Xy.g.J.] F I I E $XT.I F E ) 4 d x.A d / @.B.n.9.n Z k d d [ ) Y { {.:X%.W.&.M.u.= - 4.3.3.d.n.r.b 2 5 I %.{.$X/.] T N.v.#.S.H.OXL T <X,.(.",
"5X5X5X4X/.(.*.+.+.%.C./.@.o.b.H./.aX3X( 8 @ X + X < R 0 o 8 V.G.g.I.OXW.^ P  .rX5X*.T @.G 4 v T.D.A A : 4.q.4.p g 8.M Z l.V v R $.&.] (.OX/ s = 9.9.Z p 4 f v A d 1 + U T.:XfX&X$.{.#X>XbXNXZXbX~.' F F ",
"+.OX5XpXuXXXXXS.*.R :.{.'.f..._.~.:XoX_.&.#.8 5 G E jX:XX o + y OXY.0.0.8.p 1 e D.S.L I { |.>XW./ '.( s z.3XA.p 7.6.4.9.5.0.l.C.W./.&.G &.pX_.b ~ N.W.{ { I e c C 4 1 < 8 q +.;X&X_./.~.fXbXhXNXNXiX/.` ",
"G e |.;XyX!.=.#.W J ` &.^ o.N.*XOX!.b.b./.*X%X4X{.{ ;X/.L q < 1 U p.d - - - - l r.1XiX{ >.{ yX4XA @.[ P Q.aXT.; 2.7.4.9.H.3X'.2X$.` L y F ;.|.;.>.=XOXOXqXaXQ.8 + X 7 q R W G R (.!.W.&./.W.T.:X:X%.%.W.",
"F G G ' %.+.W.W.V.~.;.&.@.V.oXvXcXcX7XN.pXzXcX0XyX2X1X*X5XD.#.c 3 p l 8.8.- s % a Z.].`.1X/ / E.$XQ.m.j.I.2X~.r 3 h p._.>X:XyX;X{ i 2 2 2 + F } >.~.-XuXsXaXiX{ X X H { _ $.[.~.{.|.$X:X(.] L W.=X] < e ",
"e e 8 q I *.+.E.&.^./.W.&.] 5XSXGXLXLXSX4XXXuXyXW.p.m.K._.W._.C.'.~ h u.y.y.c.c S E.R.w.q.8.r.P U w.6.j.g.n.].;.) .XhXcXfX+.%.|.rXQ.&.-.R 9 6 F I /.&XW.#X:X0X X$.F 9 >.:./.=XrX;X;X$X2X/.' ] C.].G.~ %.",
"/ L I ] I T P E $./.W.&.N.x v.pXcXMXSXKXCXXX(.uXyX|.vX7X4X+.C A.&X#.d m 8.4.y.@.] ;XD.N 1XG.b %.L N q.d.q.4.9.U I { }.C.Q.] e 2 ] :.~.$.T E E y ' L V.W 0 F I F _ T.#.$.^.yX=X|.:XdXrXfX:X] '._.p.9.9.l.",
"*X>X] U y L ^ _ _ (.*XOXB.e.l.5X+XgXNXmXmXXXQ _.0XfXMXvXKXHXnXK.G.w.w.u.4.- : ! ] %./.@.].[ w g q.6.6.e.l.d a U _ U y 8 w p a 9 8 9 5 U q 2 u { { U w W T < 9 w _ } G I v.1X5X5X#.(.:X=X'.B.C.Z.~ 8.e.L.",
"F.5X/.%.^.%.@.C.C.#.(.%X@Xf.C ;Xn c.jXaXsXOX9.5.e.C.DXGXKXIXKXGX3XC v | C G.@.@.S._.&XW.Q.%.Y = 3.7.7.K.l.T 0 S 0 $.E.I q 3 3 L N p 1 5 q 8 F Y < e L ` /.R y w S { 6 F ^ $ n.GX3XS.$X:XOXC B.rX;X/ Y.9X",
"v.K.c.r.K./.S.F.F.#.&.(.@XH.'.^.2XQ.{.0XN 4.7.7., %  XIXKXZX}.GXMXW.{ %.E.iXnX$X` W.*X^.T.I q c $ 2.3.e.g.e.f.&.L *.#.y L R 8 6 T ~ w 6 q L i < X   . X 8 Q n L S ^ X F (.*./.GXHXxX:X#X$X&.R ~.:XpXMX5X",
"M y.5.9.5.f.<XF.D.#.*.#.F.F._.~.yXiX] S 3 & 3.3.& % 4 ;XdX/.w X.Z A M.J.3X3X1X7X1X2X|.(.' I S q w & 3.M | g m.5X%X=.*.J G G < + G ^ W S q c W <     o   X u -.-.] Z.y o E uX&.cXcX&XBX-X$X(.R XX4X4XNXMX",
"c _ C l.A a X.N.N.N.&.*.#._.oX,X&.uX+.S w = 3.5.4.l d v.J.v f f j w.V z Z ~ k 4.g [ {.2X^.u W x./ @.l.K.+.e P.<XW.W.&.=.*.G 0 + X < i q _ L < < X     o 5 H :./.%X2X`.c < R ` $XcX*X4XzXpX4X:XVXDXvXCXCX",
"l.Q.L u %._ :.C.v.m.H.f.v.D.<XS.v %.] :.~.1 = 1X3XB.N ~ A A b f f z w.p.r.K.1XV d %.|.fXpX%.:.=X%XsXBXZXBX=X$.E F _ T.XX-.t 0 t t 2 < e _ ]._ q 8 X   o y L Q ` ] E.I.q.p.S.@.^ v.v.VXGXmXfXNXKXKXHXcXMX",
"f.!.T.' W ^ ! ~ 0.m.m.5.5.f.'.@X#.Q.B.z.].( 4 ] 1Xz. XjX&Xl.Z f 4 f d M w.t.z.N 1 8 9 E /.:X_.$X~.-XmXhXNXZXzX$X$.$.W.XX<X*.0 8 G W E &.%.C.|.%.8 r 1   . < 2 q F 3 h > 5.v.3X@XT 2XJXVXcX*X+.(.fXUXKXMX",
"OXOX~.0X'.c.A p : 0.q.6.s.f.F.N.:X/.x 7.d.m.P n V h dXGXzXA x l.T w d l k M l 4 9 F E L G $.'.!.:./.'.~.#XyX/.&.(.OX&.E pX&.0 . 9 H G G 4XiXiX|.c % 3 X o X 2 8 8 + X c d J.(./.:.hXGX5Xn.vX$.X 5 >.BXiX",
"0X&X>XzXmXpXD.A p & * 3.7.d.f.B.T.] = * , 9.M./ N c tXLX$XA ..#.{ 4 p p.B.s j a ' ' ' ~.~.~.|.$X;X|.$.E ] $X/.0 < c !.e ] :XL q W.G R L _ ^.pXcX[ P E S w X X u W G 9 S y E Q.E.E E nX&XoXMXW + < < #.*X",
";.$X>XeXmXmXmXzXyXD.V , 3.4.g V z.|.} L V.] e Y U I ~.nXS.X.n o._ u ! ] '.x.~ 3 I >.:.{.0X0X;X$X:X:X%.E ] ~.|.p.^ S.oXg ).hXX.e.oXc q q 8 G ] E.dX&.E E E ;.9 X q T ] L I _ U E._ + W jXyX3X( U 6 @ F '.",
"9 0 ` ,XxXmXbXmXVXVXMXpXB.m p ; d {  .>.qXqX} K U %.D.c.Z !.$.G ' ~.uX%XT E.V.T $.&.=X0X|.=XyXyXyXpX&.:.OXC.r.9.r.~ @.( gXKX1XU.n...T y I ] S G &.&X@.e c ;X0X{ 9 + 2 ^ :.;.;.T.I o 2 ] ^.G.g.S.y 8 I /.",
"H 0 J wXzXzXbXmXVXVXVXVXNXuX&.L L c P K H F y I B k k p b J.gX^.R.' ^.fXN.M.^ W ] ( I.7XpX).C.$X:X$X).V.C.M.M 5.f.l.o.n ( qXDXFXHXGXvX:X@.} q X < u &.E (  XrX;XqXI + q e c 8 X 6 . o <  XG.6.m./.] I F ",
"t J ,.wXsXuXwXwXzXmXmXmXBXmXVXmXuX$X:.' W.@.I e $ = = 3 6 [ ).J.K.c.A / /.D.z.J.&XF.p.w.1X3XD.$X:X:Xv.p.&XrXC.r.7X7XoXQ.! V g.h.`.NXGXHXcX%.^.E I u T x.j A U [.;X+.0 9 + . 1 q %.W.+ X y V.H.U.K.J.l.N ",
"-.*./.-X0XwXwX-XwX0XsXzXuX:XsXzXbXBXzXwX{.T.E L w K E L S ^.R.p.y.y.w.( S C 4.z J.v.J.).C.@X5XBX0XaX{.` +.$XyXcXcX5X*XOXP.g g f.c.`./.).`.B.n.z.A e.Z OXiX`.b V. X^.` q q F Q E /.nX0 X X + W 7X9.4.- - ",
"Q *.F.`.D.^.|.~.=X{.0XwXwXxX$X|.0XuXxX$X{ ` %.%.+.%.%._ I /.'.T ].8Xa / ~ B y.f.G.n.B.Q.OXW.|.UXBXW._.2X:.~.fXNXxX4XC.&.uX%XC.H.n.d 3 2 4 d > Z ! j w.'.'.Q.^ ;X|.+XgXT.>.I T ( m f.A b e e 1 b N p s > ",
"*.S.H.H.v.X.$X|.:X|.=X X).DX4Xo.{.yXfXnX/.W./.$XOX/.$.R C.@./.&.Q.V.K s 6.6.6.f.H.H.z.z.K.'.qXFXFXu m B.*X(.qXjXFXgXd y S q ' /.].c 6 F ( E x.#.:.~ l.gX$X|.{ R.|.E.).K.I.G.0.5.0.q.d.f.z t.4 s 8.M p : ",
"@.l.K.v._._.MXvX$X$._.F.L.iXGX4X(.(.$XpX$X/./.=X(.pXfX+.E !.+X/.E.C.U 4 & 3.7.g.n.V z z.y.r. XjXKX;X_ $.&XOX~. X1XH.l p 3 u +.N.r.!.(.!.Q.^ %.T.:. X].4X:XyXyX^.E. XR.r.q.q.4.t.p.0.q.g.f.g.8.5.7.5.: 4 ",
"l.d.h.K.L._.Q.*X:X$XX.T ! / ~.^.0X0XOXyXfX5XH.A.@.&XvXm.~ W.&X^.T.E 9 c 4 * 3.9.k p x H.c.u.E.]. XqX) F C.B.rX].f.r.j ; % < E [ p.J.C.Q.Q.%.T. X%.T.;X:XnXBXnXfXyXdX'.v ].`.a [ OX1XP.K.'.'.N.k t.d d 6 ",
"0.6.s.s.h.D./ o.C./.$X%.E I T.T./.).!.:X0X~.B 4.g.6XVX6Xg.].{.$X$.I F w u = , g v C l.K.3Xa.| B C S X 1 _ &.!.yXiX_.v.l ; + S $.V.M.C.;.C.!.|./.^.^.).T.0XhXhXbXBXfX>X@.Q.V.w 6 q :.W.:.{.|.R.R.&X3XC.q ",
"j f.7X1XoX3XOXX.E ;.$X/.&.(.C.p.g s w.D.$.) ) a 4.y.J.%.M.M./.iX:XP T F.F.W.Q.oX$X%.4X+XK.e.k g w.P 1 5 I (./.&XyXaXhX5Xl % 1 F ;.^.&X|.E T.|.;.~.|._.T T.=X=XaXyX-XuX/.Q.%.K 6 9 9 6 < 1 e I ] T.$X;X+.",
"2XvXyXS.3XcX/.:XhX$X$.&.+.(.XX~ s = 9.Z ` 9 @ q c h d + < _ T.:XfX'.&.#X#XwXNXZXZXHXIXGXm.g - > n.Z.P e E (.:XyXnXAXBXAX&X'.U 6 9 8 I ~.~.R.R.%.|.:X4X$X=X4X|.|.rXT.-X5XyX$XT.] G 9 6 < X   . + q { $X=X",
"K.Y.*X!.D.oXQ.$XfXwX~.(.$.G /.pXZ.U M.W.W.{ >.I w b N 3 @ < 0 t *.:X'.OX~.{.bXhXHXIXIXIXDXpXZ.- z.Z.v w U T.;XuXnXpX$X~./.0XaXyXV.F 1 1 5 H ;.T.^./.2XiXiXiXjXfXyX;XpXpXuXnXfX>X(.` I q 5 6 E E 5 8 $XnX",
"l x P.oXL.f.g.].$X{.` Q y e L %./.;.R.:XOX&XtXaXC.5 X X 9 F ` ` L W /.Q.T.&.^.T.AXIXKXKXBXJXGX~ z e.C B b v Q.3X'.!.*XT.{ ] $.nXNXT.L q 6 8 ~.[./.|.&XyXiXrX=XyX>X%XyXrX/.fXBXNXpXOXXX+.T.|.iX&XI @ ' qX",
"v.z L.o.9.4.3.4.H.;X] i 8 8 < + F ] >./.-XsXsXsXyXI X X _ { ' :.{.[.|.$XyX:XT.E ] FXHXhXI &X*XZ ! Z z k g k C r.9.e.m.`.c.h ( tXBX3XM a U r F [.R.|.;X:XiX;XR./.=X%XyX'.G ] &.yXcXcXvX:XyXiXjXfX&.I 5 9 ",
";XF.m.o.& & ; ; h ).2XQ.&.+.R 9 9 K _ OXOX:./.-X=X[.%.F H :.:.{.:XrX0X;X$X:XT.L P B.'.^ p f j V C z l f l g 9.4.g w.n.f.v.z.N { '.f.3.4.D.T.w F ] { {.:X:XiXuX4XOXI Q b I P E ^.pX*XiXcXyX;X0XfXfX>X$.S ",
"x m.b.J.: & b w 3 d @.$.T.E P ^ R G { K V.L 8 F F q { %.&.$.$XiX=X|.:XyXyXfX$XL m r.l.m f f j z w.w.w.c.G.k g 8.0.e.~ m.oXoXV.{ %.h 4.4.H.%.' _ %.[ { yXfXmXVXNXpXW.I c { 8 1 y '.$X'.$XyXjXfXMXfXfX:XrX",
"b.K./.dXH.p.~ ~ p A e < 8 U 8 2 c %.) U q +.v 5 S K %._ F I n.I.6X1XX./.;X|.'.@.T.&Xx.o.A f f j j r.t.n.8Xe.> 0.5.4.d oXvX$X%.~.P d 4.5.Y.+X{ I {.~.:.{.yXfXuXfXbXsX{ t T U c 4 u V.'.Q.%.{.|.E.`.5XrX:X",
"o.'.~.>XP._.j e.l f M 4 9 q q 9 H q + t G +.W.t 9 I U ) 5 I ^ s 1XGX3X!.{.wX!./.hXZXBXo.V Z u w d d V w.k M z w.k 9.k v.1XQ.C.[ a = = > 6X7X*XT.' I G P +.:.{.*XOX4X;X{.E.| m M j m C j ! /.&.8 = w.).|.",
"N.4XOX!.b.f.x 9.d 4 c y G G q 0 0 @ X o X X e t @ @ + @ @ 0 F 9 %.hXSXxX*X$X$X:XNXLX>Xj Z b.{ w b C C l d m C p.m m r.z l f @.E c b N c.gX1XD.5XNXfX2X'.V.L I :.~./.[.~.C.d d V M h m V b.iX$XL 4 3 A #.",
"@XCXvXMX7XL.x * = w _ F 0 t G R J S q 0 @ + t ,.*.O.J t 5 5 q 5 < q +.|.:X:X:XW.$XGXyXb...o.I 3 % P C.d X.*.#.S.-.W +.B.x.b @.$.T.E.m h w.v.X.! 2XfXZXGXJXvXJ.%.T e.e.@.@.d / B.f h h 9.z.n.n.q.q.d a p.",
"cXSXJXLXLXMXL.& # + F W J W O.=.-X-XXXO.J 9 Q ,XeX,X,.` F H t Q G < 5 1 q ] ;X/.&.$XyXpXB.Z d % + q ] [ / O.-.*.(.,.(.OXOXQ.] P N r.p p r.6X;X{ ;.u E.J.oXY.n.X.: 7.7.e.@./ } '.Z p.: 4.5.5.= 2.6.j ~ z."
};
