/* XPM */
static char * text_xpm[] = {
"1014 60 4 1",
" 	c None",
".	c #0E0E0E",
"+	c #0F0F0F",
"@	c #0D0D0D",
"                                                                                                                                                                                                                                                       .....            .....                   ..........                                                                                                           .....            .....            .....                                                                    .....                                                                                                                                                                                   .....                                                  .....            .....                                  ......                                                                                   .....                                                                                                                 ",
"                                                                                                                                                                                                                                                       .....            .....                 ............                                                                                                           .....            .....            .....                                                                    .....                                                                                                                                                                                   .....                                                  .....            .....                                  ......                                                                                   .....                                                                                                                 ",
"                                                                                                                                                                                                                                                       .....            .....                .............                                                                                                           .....            .....            .....                                                                    .....                                                                                                                                                                                   .....                                                  .....            .....                                  ......                                                                                   .....                                                                                                                 ",
"                                                                                                                                                                                                                                                       .....            .....               ..............                                                                                                           .....            .....            .....                                            .....                   .....                                                                                                                                                                                   .....                                                  .....            .....                                  ......                                                                                   .....                                                                                                                 ",
"                                                                                                                                                                                                                                                       .....            .....              ...............                                                                                                           .....            .....            .....                                            .....                   .....                                                                                                                                                                                   .....                                                  .....            .....                                  ......                                                                                   .....                                                                                                                 ",
"                                                                                                                                                                                                                                                       .....            .....              ......+                                                                                                                   .....            .....            .....                                            .....                   .....                                                                                                                                                                                   .....                                                  .....            .....                                  ......                                                                                   .....                                                                                                                 ",
"                                                                                                                                                                                                                                                       .....            .....             ......                                                                                                                     .....            .....            .....                                            .....                   .....                                                                                                                                                                                   .....                                                  .....            .....                                  ......                                                                                   .....                                                                                                                 ",
"                                                                                                                                                                                                                                                       .....                              .....@                                                                                                                                      .....                                                             .....                                                                                                                                                                                                                                                                  .....                                                   ......                                                                                                                                                                                                         ",
"                                                                                                                                                                                                                                                       .....                              ......                                                                                                                                      .....                                                             .....                                                                                                                                                                                                                                                                  .....                                                   ......                                                                                                                                                                                                         ",
"                                                                                                                                                                                                                                                       .....                              .....                                                                                                                                       .....                                                             .....                                                                                                                                                                                                                                                                  .....                                                   ......                                                                                                                                                                                                         ",
"                                                                                                                                                                                                                                                       .....                              .....                                                                                                                                       .....                                                             .....                                                                                                                                                                                                                                                                  .....                                                   ......                                                                                                                                                                                                         ",
"                                                                                                                                                                                                                                                       .....                              .....                                                                                                                                       .....                                                             .....                                                                                                                                                                                                                                                                  .....                                                   ......                                                                                                                                                                                                         ",
"         +....+..+.                                                                   .......+                             .......@                                .......               ........                       .......+@                      .....                              .....                            .......             .......+@                              .......                                         .....                                   +....+..+.                .....                                              ........                                              .......@                                                                    .......+                                           .......+@                      .....                                     ......@       ......                    @+....+@                               ........                                          @+....+@                                                                  +....+..+.        ",
"      +................           ......                 .....@           .....     ...........@                        ..............                 .....     @........            +.............                 ...............                   .....            .....       ....................@      .....     @........          ...............                        ............@    ......           .....            .....            .....               +................        .....................       .....                   +.............                                        ..............             .......                 .......         .....     ...........@                 .....                ...............                   .....            .....                 ............+    ......                 ..............                         +.............             .....                  ..............                 ......                 .....@              +................    ",
"    +...................          ......                 .....@           .....   @..............@                    ..................               .....   +..........          ..................            ....................                 .....            .....       ....................@      .....   +..........       ....................                     ...............   ......           .....            .....            .....             +...................       .....................       .....                 ..................                                    ..................            .......               .......          .....   @..............@               .....             ....................                 .....            .....                ...............   ......               @.................                     ..................           .....                @.................               ......                 .....@            +...................   ",
"   @....................          ......                 .....@           .....  ..................                 +...................@              .....  ............        .....................          ......................                .....            .....       ....................@      .....  ............      ......................                  ..................  ......           .....            .....            .....            @....................       .....................       .....               .....................                                 +...................@            ......               ......           .....  ..................              .....            ......................                .....            .....               .................  ......              ....................                  .....................          .....               ....................              ......                 .....@           @....................   ",
"  @.....................          ......                 .....@           ..... @...................               .......................             ..... .............       @.....................          .......................               .....            .....       ....................@      ..... .............      .......................                .................... ......           .....            .....            .....           @.....................       .....................       .....              @.....................                                .......................            ......             +.....            ..... @...................             .....            .......................               .....            .....              ................... ......             ......................                @.....................          .....              ......................             ......                 .....@          @.....................   ",
"  ........         .@+..          ......                 .....@           .....@.....+      +.......              +........       +........            .....@......      .      +.........       ......          .......        @........              .....            .....       ....................@      .....@......      .      .......        @........               ........+      ............           .....            .....            .....           ........         .@+..       .....................       .....             +.........       ......                               +........       +........           @......           .......            .....@.....+      +.......             .....            .......        @........              .....            .....             .........      ............            .........      .........              +.........       ......          .....             .........      .........            ......                 .....@          ........         .@+..   ",
" .......               .          ......                 .....@           ..........          +......             .......           ........           .........+               ........            +..          ...              @......              .....            .....             .....                .........+               ...              @......              ........          ..........           .....            .....            .....          .......               .           .....                   .....             ........            +..                               .......           ........           .......         .......             ..........          +......            .....            ...              @......              .....            .....            .......@          ..........           .......@          ........             ........            +..          .....            .......@          ........           ......                 .....@         .......               .   ",
" ......                           ......                 .....@           .........            .......           ......+              ......           ........                .......                .          .                  ......             .....            .....             .....                ........                 .                  ......             ......             .........           .....            .....            .....          ......                            .....                   .....            .......                .                              ......+              ......            ......         ......              .........            .......           .....            .                  ......             .....            .....            .......            .........           .......            .......            .......                .          .....            .......            .......           ......                 .....@         ......                    ",
" .....                            ......                 .....@           ........              ......          .......                .....           .......                .......                                               +.....             .....            .....             .....                .......                                     +.....            .......              ........           .....            .....            .....          .....                             .....                   .....           .......                                               .......                .....            @......       ......               ........              ......           .....                               +.....             .....            .....           +......              ........          .......              ......@          .......                            .....           .......              ......@          ......                 .....@         .....                     ",
" .....                            ......                 .....@           .......               @.....@         ......                 ......          ......@                ......+                                                .....@            .....            .....             .....                ......@                                      .....@           .....@               +.......           .....            .....            .....          .....                             .....                   .....           ......+                                               ......                 ......            .......     @......               .......               @.....@          .....                                .....@            .....            .....           ......               ........          ......                ......          ......+                            .....           ......                ......          ......                 .....@         .....                     ",
" .....                            ......                 .....@           ......+                ......         .....                   .....          ......                 ......                                                 ......            .....            .....             .....                ......                                       ......          ......                 .......           .....            .....            .....          .....                             .....                   .....           ......                                                .....                   .....             ......@   @......                ......+                ......          .....                                ......            .....            .....          @......                .......         +......                @......         ......                             .....          +......                @......         ......                 .....@         .....                     ",
" .....                            ......                 .....@           ......                 ......        @.....                   .....          ......                ......                                                   .....            .....            .....             .....                ......                                        .....          ......                 .......           .....            .....            .....          .....                             .....                   .....          ......                                                @.....                   .....              ......   ......                 ......                 ......          .....                                 .....            .....            .....          ......                 .......         +.....                  ......        ......                              .....          +.....                  ......         ......                 .....@         .....                     ",
" .....+                           ......                 .....@           ......                  .....        ......                   ......         ......                ......                                                   .....            .....            .....             .....                ......                                        .....          .....@                  ......           .....            .....            .....          .....+                            .....                   .....          ......                                                ......                   ......             +...... .......                 ......                  .....          .....                                 .....            .....            .....          ......                 @......         ......                  ......        ......                              .....          ......                  ......         ......                 .....@         .....+                    ",
" +.....++                         ......                 .....@           ......                  ......       ......                   .....@         .....@                ......                                                   .....            .....            .....             .....                .....@                                        .....          ......                  ......           .....            .....            .....          +.....++                          .....                   .....          ......                                                ......                   .....@              ............+                  ......                  ......         .....                                 .....            .....            .....          ......                  ......         ......                  ......        ......                              .....          ......                  ......         ......                 .....@         +.....++                  ",
"  ........@@                      ......                 .....@           ......                  .....@       ..............................@         .....                 .....+                                      .@................            .....            .....             .....                .....                            .@................          .....                   ......           .....            .....            .....           ........@@                       .....                   .....          .....+                                                ..............................@               ...........                   ......                  .....@         .....                    .@................            .....            .....          .....                   ......         ......                  ......        .....+                              .....          ......                  ......         ......                 .....@          ........@@               ",
"  ............@.                  ......                 .....@           .....                   ......       ..............................@         .....                 .....                                   ......................            .....            .....             .....                .....                        ......................          .....                   ......           .....            .....            .....           ............@.                   .....                   .....          .....                                                 ..............................@                .........                    .....                   ......         .....                ......................            .....            .....          .....                   ......         .....                   ......        .....                               .....          .....                   ......         ......                 .....@          ............@.           ",
"   +...............               ......                 .....@           .....                   ......      ................................         .....                @.....                                 +.......................            .....            .....             .....                .....                      +.......................         ......                   ......           .....            .....            .....            +...............                .....                   .....         @.....                                                ................................                ........+                    .....                   ......         .....              +.......................            .....            .....          .....                   ......        +.....                    ......      @.....                               .....         +.....                    ......        ......                 .....@           +...............        ",
"    ..................            ......                 .....@           .....                   ......      ................................         .....                ......                                .........................            .....            .....             .....                .....                     .........................         ......                   ......           .....            .....            .....             ..................             .....                   .....         ......                                                ................................                 .......                     .....                   ......         .....             .........................            .....            .....         +.....                   ......        ......                    .....@      ......                               .....         ......                    .....@        ......                 .....@            ..................     ",
"       ................           ......                 .....@           .....                   ......      ................................         .....                ......                               ..........................            .....            .....             .....                .....                    ..........................         ......                   ......           .....            .....            .....                ................            .....                   .....         ......                                                ................................                ........                     .....                   ......         .....            ..........................            .....            .....         ......                   ......        ......                    .....@      ......                               .....         ......                    .....@        ......                 .....@               ................    ",
"          +............+          ......                 .....@           .....                   ......      +.....                                   .....                @.....                              +........+            .....            .....            .....             .....                .....                   +........+            .....          .....                   ......           .....            .....            .....                   +............+           .....                   .....         @.....                                                +.....                                         ..........                    .....                   ......         .....           +........+            .....            .....            .....          .....                   ......        +.....                    ......      @.....                               .....         +.....                    ......        ......                 .....@                  +............+   ",
"              ...........         ......                 .....@           .....                   ......       .....                                   .....                 .....                              .......               .....            .....            .....             .....                .....                   .......               .....          .....                   ......           .....            .....            .....                       ...........          .....                   .....          .....                                                 .....                                         ...........                   .....                   ......         .....           .......               .....            .....            .....          .....                   ......         .....                   ......        .....                               .....          .....                   ......         ......                 .....@                      ...........  ",
"                 ........         ......                 .....@           ......                  .....@       ......                                  .....                 .....+                            .......                .....            .....            .....             .....                .....                  .......                .....          ......                  ......           .....            .....            .....                          ........          .....                   .....          .....+                                                ......                                       ............+                  ......                  .....@         .....          .......                .....            .....            .....          .....                   ......         ......                  ......        .....+                              .....          ......                  ......         ......                 .....@                         ........  ",
"                   .......        .....+                 .....@           ......                  ......       ......                                  .....                 ......                            ......                 .....            .....            .....             .....                .....                  ......                 .....          .....@                  ......           .....            .....            .....                            .......         .....                   .....          ......                                                ......                                      @...... ......                  ......                  ......         .....          ......                 .....            .....            .....          ......                  ......         ......                  ......        ......                              .....          ......                  ......         .....+                 .....@                           ....... ",
"                    ......        ......                 .....@           ......                  .....        ......                                  .....                 ......                            ......                ......            .....            .....             .....                .....                  ......                ......          ......                 .......           .....            .....            .....                             ......         .....                   .....          ......                                                ......                                     ......@   ......                 ......                  .....          .....          ......                ......            .....            .....          ......                 @......         ......                  ......        ......                              .....          ......                  ......         ......                 .....@                            ...... ",
"                    ......        ......                 .....@           ......                 ......        @.....                                  .....                 ......                            .....                 +.....            .....            .....             .....                .....                  .....                 +.....          ......                 .......           .....            .....            .....                             ......         .....                   .....          ......                                                @.....                                     ......    @......                ......                 ......          .....          .....                 +.....            .....            .....          ......                 .......         @.....                  ......        ......                              .....          @.....                  ......         ......                 .....@                            ...... ",
"                     .....         .....                ......@           ......+                ......         ......                                 .....                  ......                           .....                 ......            .....            .....             .....                .....                  .....                 ......           ......               +.......           .....            .....            .....                              .....         .....                   .....           ......                                                ......                                   ......      .......               ......+                ......          .....          .....                 ......            .....            .....          @......                .......         +......                .......         ......                             .....          +......                .......          .....                ......@                             ..... ",
"                    @.....         .....+               ......@           .......               ......@         ......+                                .....                  ......@                          .....                .......            .....            .....             .....                .....                  .....                .......           .......              ........           .....            .....            .....                             @.....         ......                  .....           ......@                                               ......+                                 .......       ......               .......               ......@          .....          .....                .......            .....            .....           .....+               ........          ......                ......          ......@                            .....           ......                ......           .....+               ......@                            @..... ",
"                    ......         ......              .......@           .......+              ......          +......                                .....                  .......                          ......              @.......            .....            .....             .....                .....                  ......              @.......            ......             .........           .....            .....            .....                             ......         ......                  .....           .......                                               +......                                @......         ......              .......+              ......           .....          ......              @.......            .....            .....           +......              ........          .......              .......          .......                            .....           .......              .......           ......              .......@                            ...... ",
"..                  .....+         @......            @.......@           .........            .......           .......                   +           .....                   .......                .        ......             +........            .....            .....             .....                .....                  ......             +........            ........          ..........           .....            .....            .....         ..                  .....+         ......                  .....            .......                .                              .......                   +           ......          ......@             .........            .......           .....          ......             +........            .....            .....            .......            .........           ......@            @......            .......                .          .....            ......@            @......            @......            @.......@        ..                  .....+ ",
"...@               ......           ......@          .........@           ..........          .......             ........               @..+          .....                    .......+            +..        .......           ..........            .....            .....             .....                .....                  .......           ..........             ........+      ............           .....            .....            .....         ...@               ......          ......+@                .....             .......+            +..                               ........               @..+         ......            +......            ..........          .......            .....          .......           ..........            .....            .....            ........          ..........           ........          ........             .......+            +..          .....            ........          ........             ......@          .........@        ...@               ......  ",
"......@+        @.......@           ........       ...........@           .....@.....@      +.......              ..........         .@.....+          .....                    @.......++       ......         .......@       +...........            .....            .....             .....                .....                   .......@       +...........             .................... ......           .....            .....            .....         ......@+        @.......@           ................       .....             @.......++       ......                               ..........         .@.....+        .......             ......            .....@.....@      +.......             .....           .......@       +...........            .....            .....             .........      ............            ........@      .........              @.......++       ......          .....             ........@      .........              ........       ...........@        ......@+        @.......@  ",
"........................             ................... .....@           ..... @...................               +........................+          .....                     @.....................         ..................... .....            .....            .....             .....                .....                   ..................... .....              ..................  ......           .....            .....            .....         ........................            ................       .....              @.....................                                +........................+       .......               ......           ..... @...................             .....           ..................... .....            .....            .....              ................... ......             ......................                @.....................          .....              ......................                ................... .....@        ........................   ",
".......................              +................@  .....@           .....  .................@                  .......................+          .....                      .....................          ..................+  .....            .....            .....             .....                .....                    ..................+  .....                ...............   ......           .....            .....            .....         .......................              ...............       .....               .....................                                  .......................+       ......                @......          .....  .................@              .....            ..................+  .....            .....            .....               .................  ......              ....................                  .....................          .....               ....................                 +................@  .....@        .......................    ",
"......................                ................   .....@           .....   @..............+                    +....................            .....                        +.................            ................+   .....            .....            .....             .....                .....                     ................+   .....                 ............+    ......           .....            .....            .....         ......................                 .............       .....                 +.................                                    +....................        ......                  ......+         .....   @..............+               .....             ................+   .....            .....            .....                ...............   ......               @.................                     +.................           .....                @.................                   ................   .....@        ......................     ",
"  ..................                    ............     .....@           .....     ...........+                        ................@              .....                          ..............                .............     .....            .....            .....             .....                .....                       .............     .....                    ......@       .....            .....            .....            .....           ..................                     ...........       .....                   ..............                                        ................@         @......                   ......         .....     ...........+                 .....               .............     .....            .....            .....                 .............    ......                 ..............                         ..............             .....                  ..............                       ............     .....@          ..................       ",
"       .+.......+                         .......+                        .....       ........                             .@......+.                                                    .......@                     ..@.....                                                                                                               ..@.....                                               .....                                                                   .+.......+                                                                     .......@                                              .@......+.                                                      .....       ........                                         ..@.....                                                                   ..+...@                                 +......@                               .......@                                          +......@                            .......+                            .+.......+          ",
"                                                                          .....                                                                                                                                                                                                                                                                                                                    @.....                                                                                                                                                                                                                                                                        .....                                                                                                                                                                                                                                                                                                                                                                ",
"                                                                          .....                                                                                                                                                                                                                                                                                                                    ......                                                                                                                                                                                                                                                                        .....                                                                                                                                                                                                                                                                                                                                                                ",
"                                                                          .....                                                                                                                                                                                                                                                                                                                    ......                                                                                                                                                                                                                                                                        .....                                                                                                                                                                                                                                                                                                                                                                ",
"                                                                          .....                                                                                                                                                                                                                                                                                                                   ......                                                                                                                                                                                                                                                                         .....                                                                                                                                                                                                                                                                                                                                                                ",
"                                                                          .....                                                                                                                                                                                                                                                                                                                  .......                                                                                                                                                                                                                                                                         .....                                                                                                                                                                                                                                                                                                                                                                ",
"                                                                          .....                                                                                                                                                                                                                                                                                                 ..              .......                                                                                                                                                                                                                                                                          .....                                                                                                                                                                                                                                                                                                                                                                ",
"                                                                          .....                                                                                                                                                                                                                                                                                                 .....        ..........                                                                                                                                                                                                                                                                          .....                                                                                                                                                                                                                                                                                                                                                                ",
"                                                                          .....                                                                                                                                                                                                                                                                                                 .....................+                                                                                                                                                                                                                                                                           .....                                                                                                                                                                                                                                                                                                                                                                ",
"                                                                          .....                                                                                                                                                                                                                                                                                                 .....................                                                                                                                                                                                                                                                                            .....                                                                                                                                                                                                                                                                                                                                                                ",
"                                                                          .....                                                                                                                                                                                                                                                                                                 @+.................@                                                                                                                                                                                                                                                                             .....                                                                                                                                                                                                                                                                                                                                                                ",
"                                                                          .....                                                                                                                                                                                                                                                                                                   ................                                                                                                                                                                                                                                                                               .....                                                                                                                                                                                                                                                                                                                                                                ",
"                                                                          .....                                                                                                                                                                                                                                                                                                       ...+....@                                                                                                                                                                                                                                                                                  .....                                                                                                                                                                                                                                                                                                                                                                "};
