/* XPM */
static char * wall_white_xpm[] = {
"256 256 763 2",
"  	c #CECCCD",
". 	c #CDCBCC",
"+ 	c #D6D5D6",
"@ 	c #D0CECF",
"# 	c #E7E5E6",
"$ 	c #E6E5E6",
"% 	c #F3F2F3",
"& 	c #E9E9E9",
"* 	c #EAEAEA",
"= 	c #E5E5E5",
"- 	c #E2E2E2",
"; 	c #D8D8D8",
"> 	c #D8D8D9",
", 	c #C4C5C6",
"' 	c #CECED0",
") 	c #D8D8DA",
"! 	c #D0D0D2",
"~ 	c #CACACC",
"{ 	c #C0C0C1",
"] 	c #DDDDDF",
"^ 	c #DADADB",
"/ 	c #C7C7C7",
"( 	c #D1D1D1",
"_ 	c #E0E0E0",
": 	c #D6D6D6",
"< 	c #DADADA",
"[ 	c #D6D7D7",
"} 	c #CFCFCF",
"| 	c #C9C9C9",
"1 	c #C1C2C2",
"2 	c #CBCCCC",
"3 	c #D7D7D7",
"4 	c #DFDFDF",
"5 	c #EDEDED",
"6 	c #E1E1E1",
"7 	c #DBDBDB",
"8 	c #CBCBCB",
"9 	c #D4D4D4",
"0 	c #DEDEDE",
"a 	c #EBEBEB",
"b 	c #E4E4E4",
"c 	c #E8E8E8",
"d 	c #EEEEEE",
"e 	c #F3F3F3",
"f 	c #F4F4F4",
"g 	c #EFEFEF",
"h 	c #DCDCDC",
"i 	c #C1C1C1",
"j 	c #969696",
"k 	c #6A6A6A",
"l 	c #5E5D5E",
"m 	c #5A595A",
"n 	c #5A5A5A",
"o 	c #575757",
"p 	c #565656",
"q 	c #585858",
"r 	c #5C5C5C",
"s 	c #5B5B5B",
"t 	c #5F5F5F",
"u 	c #7C7C7C",
"v 	c #B0B0B0",
"w 	c #B4B4B4",
"x 	c #B9B9B9",
"y 	c #CDCDCD",
"z 	c #E3E3E3",
"A 	c #E6E6E6",
"B 	c #E4E3E4",
"C 	c #DEDCDD",
"D 	c #CFCECF",
"E 	c #CECECE",
"F 	c #CCCCCC",
"G 	c #DCDBDC",
"H 	c #DFDDDE",
"I 	c #C5C3C4",
"J 	c #E0DEDF",
"K 	c #EBEAEA",
"L 	c #EAE8E9",
"M 	c #E2E1E1",
"N 	c #C8C7C8",
"O 	c #B8B7B8",
"P 	c #B1B1B1",
"Q 	c #ABAAAB",
"R 	c #ACABAC",
"S 	c #BAB9B9",
"T 	c #CACACA",
"U 	c #ADADAD",
"V 	c #8D8D8D",
"W 	c #898888",
"X 	c #969595",
"Y 	c #A3A2A2",
"Z 	c #A2A1A2",
"` 	c #9C9B9B",
" .	c #9F9D9E",
"..	c #8F8E8E",
"+.	c #858484",
"@.	c #727272",
"#.	c #606060",
"$.	c #686868",
"%.	c #636263",
"&.	c #504E4F",
"*.	c #4F4D4E",
"=.	c #4C4A4B",
"-.	c #4E4C4D",
";.	c #4C4B4B",
">.	c #514F51",
",.	c #525051",
"'.	c #4F4D4F",
").	c #4B4A4B",
"!.	c #6A696A",
"~.	c #929191",
"{.	c #636262",
"].	c #828182",
"^.	c #C9C8C9",
"/.	c #F1F1F1",
"(.	c #E7E7E7",
"_.	c #DDDDDD",
":.	c #D5D4D4",
"<.	c #D9D9D9",
"[.	c #F2F2F2",
"}.	c #ECECEC",
"|.	c #F0F0F0",
"1.	c #BFBFBF",
"2.	c #C0C0C0",
"3.	c #D5D5D5",
"4.	c #D2D2D2",
"5.	c #DEDEDF",
"6.	c #D3D3D3",
"7.	c #D0D0D0",
"8.	c #C5C5C5",
"9.	c #C3C3C3",
"0.	c #BEBEBE",
"a.	c #868686",
"b.	c #8F8F8F",
"c.	c #A2A2A2",
"d.	c #9E9E9E",
"e.	c #A1A1A1",
"f.	c #A6A6A6",
"g.	c #D2D1D2",
"h.	c #C2C2C2",
"i.	c #BCBBBC",
"j.	c #9F9F9F",
"k.	c #818181",
"l.	c #787878",
"m.	c #707070",
"n.	c #737373",
"o.	c #9C9C9C",
"p.	c #B8B8B8",
"q.	c #C4C4C4",
"r.	c #C6C6C6",
"s.	c #888888",
"t.	c #919191",
"u.	c #B6B6B6",
"v.	c #BABABA",
"w.	c #DDDCDC",
"x.	c #D9D8D9",
"y.	c #D7D6D6",
"z.	c #B7B6B7",
"A.	c #AAAAAA",
"B.	c #999898",
"C.	c #6B6A6A",
"D.	c #343334",
"E.	c #434243",
"F.	c #6F6D6E",
"G.	c #5F5D5E",
"H.	c #535152",
"I.	c #706F6F",
"J.	c #A19FA0",
"K.	c #B3B3B3",
"L.	c #A9A9A9",
"M.	c #C8C8C8",
"N.	c #C1C1C2",
"O.	c #B5B5B6",
"P.	c #BCBCBC",
"Q.	c #BDBDBD",
"R.	c #B7B7B7",
"S.	c #B5B5B5",
"T.	c #A3A3A3",
"U.	c #AFAFAF",
"V.	c #B2B2B2",
"W.	c #BBBBBB",
"X.	c #777777",
"Y.	c #A8A8A8",
"Z.	c #A7A7A7",
"`.	c #A0A0A0",
" +	c #AEAEAE",
".+	c #ACACAC",
"++	c #989898",
"@+	c #F6F6F6",
"#+	c #ABABAB",
"$+	c #858585",
"%+	c #909090",
"&+	c #A4A4A4",
"*+	c #939393",
"=+	c #898989",
"-+	c #999999",
";+	c #9A9A9A",
">+	c #E8E7E8",
",+	c #7E7E7E",
"'+	c #747474",
")+	c #979797",
"!+	c #9B9B9B",
"~+	c #929192",
"{+	c #A5A5A5",
"]+	c #848484",
"^+	c #666666",
"/+	c #7B7B7B",
"(+	c #7F7E7E",
"_+	c #8B8B8B",
":+	c #6B6A6B",
"<+	c #5D5D5D",
"[+	c #757575",
"}+	c #525151",
"|+	c #7E7C7D",
"1+	c #808080",
"2+	c #BFBEBF",
"3+	c #F7F7F7",
"4+	c #B2B3B2",
"5+	c #7B7B79",
"6+	c #5B595A",
"7+	c #878787",
"8+	c #F5F5F5",
"9+	c #8E8E8E",
"0+	c #5E5E5C",
"a+	c #4F4E4E",
"b+	c #949494",
"c+	c #F9F9F9",
"d+	c #838383",
"e+	c #FAFAFA",
"f+	c #656565",
"g+	c #F8F8F8",
"h+	c #FCFCFC",
"i+	c #7D7D7D",
"j+	c #FDFDFD",
"k+	c #717171",
"l+	c #FBFBFB",
"m+	c #959595",
"n+	c #767676",
"o+	c #4D4D4D",
"p+	c #585757",
"q+	c #575657",
"r+	c #545353",
"s+	c #505050",
"t+	c #7F7F7F",
"u+	c #6B6B6B",
"v+	c #7A7A7A",
"w+	c #8C8C8C",
"x+	c #6F6F6F",
"y+	c #6C6C6C",
"z+	c #676767",
"A+	c #828282",
"B+	c #929292",
"C+	c #999899",
"D+	c #6D6D6D",
"E+	c #494949",
"F+	c #484647",
"G+	c #4E4E4E",
"H+	c #BFBFBE",
"I+	c #D4D4D3",
"J+	c #9D9D9D",
"K+	c #616161",
"L+	c #696969",
"M+	c #5E5E5E",
"N+	c #636363",
"O+	c #818180",
"P+	c #737272",
"Q+	c #6C6B6B",
"R+	c #6E6E6D",
"S+	c #B6B6B5",
"T+	c #D0D0CE",
"U+	c #ACACAB",
"V+	c #CDCDCB",
"W+	c #D8D8D7",
"X+	c #555555",
"Y+	c #515151",
"Z+	c #686667",
"`+	c #878686",
" @	c #646464",
".@	c #727271",
"+@	c #747473",
"@@	c #696967",
"#@	c #70706F",
"$@	c #858583",
"%@	c #848482",
"&@	c #ADADAB",
"*@	c #BEBEBD",
"=@	c #BDBDBC",
"-@	c #B9B9B8",
";@	c #6E6E6E",
">@	c #D6D6D5",
",@	c #D0D0CF",
"'@	c #D7D7D6",
")@	c #B3B3B2",
"!@	c #797979",
"~@	c #8A8A8A",
"{@	c #626262",
"]@	c #6E6D6D",
"^@	c #959495",
"/@	c #6A6969",
"(@	c #6E6C6D",
"_@	c #81807F",
":@	c #AAA9A9",
"<@	c #767575",
"[@	c #686767",
"}@	c #626161",
"|@	c #5C5B5B",
"1@	c #5C5B5C",
"2@	c #6F6E6E",
"3@	c #646363",
"4@	c #747373",
"5@	c #989897",
"6@	c #656463",
"7@	c #686867",
"8@	c #868585",
"9@	c #868586",
"0@	c #9C9B9C",
"a@	c #6D6C6C",
"b@	c #6C6B6C",
"c@	c #575656",
"d@	c #535353",
"e@	c #C4C3C4",
"f@	c #C8C7C7",
"g@	c #666565",
"h@	c #595858",
"i@	c #656464",
"j@	c #626261",
"k@	c #6A6A69",
"l@	c #595959",
"m@	c #666665",
"n@	c #80807E",
"o@	c #5C5C5B",
"p@	c #5D5C5C",
"q@	c #616061",
"r@	c #717070",
"s@	c #757374",
"t@	c #8F8D8E",
"u@	c #5E5C5D",
"v@	c #6C6A6B",
"w@	c #7C7B7C",
"x@	c #565455",
"y@	c #716F70",
"z@	c #585758",
"A@	c #5C5A5B",
"B@	c #5B5A5B",
"C@	c #605F5F",
"D@	c #BAB9BA",
"E@	c #BEBDBD",
"F@	c #A7A6A6",
"G@	c #969495",
"H@	c #9A9999",
"I@	c #9E9D9D",
"J@	c #A1A0A0",
"K@	c #A5A4A5",
"L@	c #7F7E7F",
"M@	c #BDBCBD",
"N@	c #EEEDED",
"O@	c #EFEEEE",
"P@	c #F1F0F1",
"Q@	c #F1F0F0",
"R@	c #8A8889",
"S@	c #888687",
"T@	c #B2B1B1",
"U@	c #8B898A",
"V@	c #9E9C9D",
"W@	c #979596",
"X@	c #A8A6A7",
"Y@	c #BFBDBE",
"Z@	c #AAA8A9",
"`@	c #A3A1A2",
" #	c #999798",
".#	c #7C7A7A",
"+#	c #A6A4A5",
"@#	c #B4B2B3",
"##	c #AAA9AA",
"$#	c #8B8A8A",
"%#	c #8A8989",
"&#	c #B1B0B0",
"*#	c #ADACAD",
"=#	c #ABAAAA",
"-#	c #BCBABB",
";#	c #C2C1C1",
">#	c #E1E0E0",
",#	c #F6F5F6",
"'#	c #EBEAEB",
")#	c #DAD9DA",
"!#	c #989797",
"~#	c #AEACAD",
"{#	c #ADABAC",
"]#	c #B8B7B7",
"^#	c #B6B5B6",
"/#	c #9D9C9D",
"(#	c #9D9C9C",
"_#	c #F4F3F3",
":#	c #EFEEEF",
"<#	c #AFAFAE",
"[#	c #C4C4C3",
"}#	c #A9A9A8",
"|#	c #CDCCCC",
"1#	c #CECECD",
"2#	c #A2A1A1",
"3#	c #BABAB9",
"4#	c #C5C5C4",
"5#	c #888788",
"6#	c #757474",
"7#	c #656465",
"8#	c #B6B7B6",
"9#	c #545253",
"0#	c #767576",
"a#	c #7C7C7B",
"b#	c #D4D5D4",
"c#	c #747273",
"d#	c #BCBCBB",
"e#	c #595758",
"f#	c #575556",
"g#	c #595859",
"h#	c #5A5859",
"i#	c #585657",
"j#	c #605F60",
"k#	c #525152",
"l#	c #4B4B4B",
"m#	c #7B797A",
"n#	c #6B696A",
"o#	c #696768",
"p#	c #686768",
"q#	c #696868",
"r#	c #7B7A7A",
"s#	c #757475",
"t#	c #8B8A8B",
"u#	c #9A9A99",
"v#	c #5A5959",
"w#	c #807F7F",
"x#	c #6B6B6A",
"y#	c #5D5C5B",
"z#	c #434241",
"A#	c #494848",
"B#	c #767777",
"C#	c #858686",
"D#	c #5E5D5D",
"E#	c #838182",
"F#	c #989798",
"G#	c #7D7C7D",
"H#	c #C0BFC0",
"I#	c #C5C4C5",
"J#	c #8D8C8C",
"K#	c #5B5A5A",
"L#	c #545454",
"M#	c #4D4C4C",
"N#	c #545354",
"O#	c #6D6C6D",
"P#	c #979696",
"Q#	c #D1D0D1",
"R#	c #C7C6C7",
"S#	c #AFAEAF",
"T#	c #A4A3A4",
"U#	c #818081",
"V#	c #848384",
"W#	c #595958",
"X#	c #C9C7C8",
"Y#	c #C4C3C3",
"Z#	c #CCCBCC",
"`#	c #7A797A",
" $	c #838283",
".$	c #7C7B7B",
"+$	c #807F80",
"@$	c #8C8B8B",
"#$	c #939293",
"$$	c #4A4947",
"%$	c #484745",
"&$	c #494846",
"*$	c #474644",
"=$	c #4B4A48",
"-$	c #545352",
";$	c #605E5F",
">$	c #5D5B5C",
",$	c #464445",
"'$	c #494748",
")$	c #504F50",
"!$	c #555354",
"~$	c #4B494A",
"{$	c #4D4B4C",
"]$	c #646263",
"^$	c #616060",
"/$	c #4F4E4F",
"($	c #666465",
"_$	c #B9B8B8",
":$	c #9B9A9B",
"<$	c #9F9E9E",
"[$	c #B6B4B5",
"}$	c #C6C5C6",
"|$	c #B4B3B3",
"1$	c #949394",
"2$	c #878586",
"3$	c #D6D5D5",
"4$	c #BDBCBC",
"5$	c #BDBBBC",
"6$	c #D5D3D4",
"7$	c #E1E0E1",
"8$	c #C1C0C1",
"9$	c #C3C2C2",
"0$	c #CCCBCB",
"a$	c #D0CFCF",
"b$	c #BCBBBB",
"c$	c #AEADAE",
"d$	c #AFAEAE",
"e$	c #D5D4D5",
"f$	c #777676",
"g$	c #595757",
"h$	c #797778",
"i$	c #A9A7A8",
"j$	c #B5B3B4",
"k$	c #CCCACB",
"l$	c #B5B4B4",
"m$	c #A2A0A1",
"n$	c #919090",
"o$	c #CCCDCC",
"p$	c #D7D8D7",
"q$	c #D3D2D2",
"r$	c #C1C0C0",
"s$	c #8C8A8B",
"t$	c #737172",
"u$	c #514F50",
"v$	c #4A4849",
"w$	c #8F8E8F",
"x$	c #676666",
"y$	c #939292",
"z$	c #515050",
"A$	c #918F90",
"B$	c #9B9A9A",
"C$	c #BBBABB",
"D$	c #9F9E9F",
"E$	c #A5A4A4",
"F$	c #A1A0A1",
"G$	c #9E9D9E",
"H$	c #7C7A7B",
"I$	c #797878",
"J$	c #6F6E6F",
"K$	c #797777",
"L$	c #B5B4B5",
"M$	c #646364",
"N$	c #777677",
"O$	c #717071",
"P$	c #D0CFD0",
"Q$	c #A8A7A7",
"R$	c #B0AFAF",
"S$	c #7D7D7C",
"T$	c #9D9D9C",
"U$	c #A3A3A2",
"V$	c #B2B0B1",
"W$	c #868485",
"X$	c #7A7879",
"Y$	c #646362",
"Z$	c #797877",
"`$	c #848383",
" %	c #767475",
".%	c #828181",
"+%	c #898889",
"@%	c #959394",
"#%	c #8D8C8D",
"$%	c #818080",
"%%	c #787778",
"&%	c #858384",
"*%	c #6D6B6C",
"=%	c #6A6869",
"-%	c #656364",
";%	c #636162",
">%	c #777576",
",%	c #626162",
"'%	c #666566",
")%	c #838282",
"!%	c #908F90",
"~%	c #919091",
"{%	c #615F60",
"]%	c #787777",
"^%	c #7F7D7E",
"/%	c #CBCACB",
"(%	c #C3C2C3",
"_%	c #CDCCCD",
":%	c #CBCACA",
"<%	c #DBDADA",
"[%	c #A6A5A6",
"}%	c #B3B2B2",
"|%	c #B1B0B1",
"1%	c #696869",
"2%	c #B2B1B2",
"3%	c #7D7B7C",
"4%	c #E2E1E2",
"5%	c #807E7F",
"6%	c #A4A3A3",
"7%	c #828081",
"8%	c #7E7D7E",
"9%	c #878687",
"0%	c #989697",
"a%	c #676566",
"b%	c #535253",
"c%	c #A9A8A8",
"d%	c #949293",
"e%	c #555455",
"f%	c #E3E2E3",
"g%	c #8E8D8D",
"h%	c #858485",
"i%	c #CFCECE",
"j%	c #E9E8E9",
"k%	c #DBDADB",
"l%	c #E7E6E7",
"m%	c #E8E7E7",
"n%	c #ECEBEC",
"o%	c #E6E5E5",
"p%	c #EEEDEE",
"q%	c #EBEBEA",
"r%	c #E5E5E4",
"s%	c #F4F3F4",
"t%	c #F0EFF0",
"u%	c #E9E8E8",
"v%	c #E0DFDF",
"w%	c #D1D0D0",
"x%	c #D3D2D3",
"y%	c #F2F1F1",
"z%	c #DCDBDB",
"A%	c #DFDEDE",
"B%	c #E4E3E3",
"C%	c #EDECED",
"D%	c #F0EFEF",
"E%	c #F3F2F2",
"F%	c #F7F6F7",
"G%	c #D4D3D3",
"H%	c #C5C4C4",
"I%	c #C0BFBF",
"J%	c #AEADAD",
"K%	c #949393",
"L%	c #7A7979",
"M%	c #B5B5B4",
"N%	c #A4A4A3",
"O%	c #B4B3B4",
"P%	c #737273",
"Q%	c #4F4F4F",
"R%	c #4A4A4A",
"S%	c #7E7D7D",
"T%	c #A09F9F",
"U%	c #727172",
"V%	c #626061",
"W%	c #A7A5A6",
"X%	c #A7A6A7",
"Y%	c #A3A2A1",
"Z%	c #888786",
"`%	c #AFAEAD",
" &	c #BBBBBA",
".&	c #ABABAA",
"+&	c #AFAFAD",
"@&	c #B1B1B0",
"#&	c #C1C1C0",
"$&	c #6E6D6E",
"%&	c #B7B5B6",
"&&	c #A3A2A3",
"*&	c #C6C4C5",
"=&	c #BEBDBE",
"-&	c #9B999A",
";&	c #C0BEBF",
">&	c #BBB9BA",
",&	c #848283",
"'&	c #A6A5A5",
")&	c #A09E9F",
"!&	c #969596",
"~&	c #FEFEFE",
"{&	c #908F8F",
"]&	c #A8A7A6",
"^&	c #B0AFAE",
"/&	c #DDDCDB",
"(&	c #E7E7E6",
"_&	c #525252",
":&	c #9A999A",
"<&	c #CECDCE",
"[&	c #C9C8C8",
"}&	c #979697",
"|&	c #8C8B8C",
"1&	c #8E8D8E",
"2&	c #4A4949",
"3&	c #413F40",
"4&	c #B3B2B3",
"5&	c #3F3F3F",
"6&	c #4C4C4C",
"7&	c #4E4D4D",
"8&	c #535252",
"9&	c #4C4B4C",
"0&	c #4B4A4A",
"a&	c #524F50",
"b&	c #4A494A",
"c&	c #5F5E5F",
"d&	c #4E4D4E",
"e&	c #504F4F",
"f&	c #747374",
"g&	c #C7C6C6",
"h&	c #676667",
"i&	c #474747",
"j&	c #414040",
"k&	c #D7D6D7",
"l&	c #6C6C6B",
"m&	c #434343",
"n&	c #5F5E5E",
"o&	c #A9A8A9",
"p&	c #343333",
"q&	c #7D7C7C",
"r&	c #797879",
"s&	c #C2C1C2",
"t&	c #BBBABA",
"u&	c #ADACAC",
"v&	c #8E8C8D",
"w&	c #DBD9DA",
"x&	c #727171",
"y&	c #5D5C5D",
"z&	c #2B2B2A",
"A&	c #474645",
"B&	c #838382",
"C&	c #474647",
"D&	c #464545",
"E&	c #474646",
"F&	c #4D4C4D",
"G&	c #434242",
"H&	c #424141",
"I&	c #464646",
"J&	c #DAD9D9",
"K&	c #E3E3E4",
"L&	c #D3D3D2",
"M&	c #A8A7A8",
"N&	c #565556",
"O&	c #565555",
"P&	c #BFBEBE",
"Q&	c #C6C5C5",
"R&	c #CAC9C9",
"S&	c #E0DFE0",
"T&	c #939192",
"U&	c #908E8F",
"V&	c #D2D0D1",
"W&	c #888787",
"X&	c #959494",
"Y&	c #B0AFB0",
"Z&	c #706F70",
"`&	c #CBCCCB",
" *	c #C7C8C7",
".*	c #383737",
"+*	c #E3E1E2",
"@*	c #A09FA0",
"#*	c #EAE9EA",
"$*	c #EAE9E9",
"%*	c #515051",
"&*	c #444344",
"**	c #B6B5B5",
"=*	c #8D8B8C",
"-*	c #ACAAAB",
";*	c #AFADAE",
">*	c #484748",
",*	c #454444",
"'*	c #787677",
")*	c #B9B8B9",
"!*	c #B7B6B6",
"~*	c #C8C6C7",
"{*	c #454344",
"]*	c #474546",
"^*	c #D9D8D8",
"/*	c #DDDCDD",
"(*	c #ECECED",
"_*	c #B2B2B3",
":*	c #909091",
"<*	c #B4B4B5",
"[*	c #828283",
"  . + @ # $ % & * = - ; > , ' ) ! ~ { ] > ^ / ( _ - : < [ } | / 1 2 3 4 * 5 6 7 8 9 0 7 0 = 5 a = a b - c 6 & d e f a a g & 4 = _ & _ d g e d d c h i j k l m n o p o o o o o q r s s t u v w x y 3 4 z & A B C D E F 9 G * a H I J 0 z * K L M N O P Q R S T / U V W X Y Z `  ...+.@.#.$.%.&.&.*.=.*.-.-.=.;.>.,.'.).!.~.{.].^.e /.7 (.= c y - b = A 6 6 _.0 _.z h :.<._ A - z - - b A & [._ b * a * 5 (.a c & 5 }.g g |.e z ; (.g d g /.[.A _.< 8 1.2.| y E 6 = * * * }.a a }.a & & A _ 4 6 4 _ ; 3.<.7 _.0 0 _ 4 0 0 4 _.h _.",
"3.<.< h 3.3 h _.z & * (.4 7 A h : < <.<.7 ; 7 6 : 4.6 4 (.h 6 5.: 3 ; < 3.7 0 b | 9 6.6.6 7 6.} 9 / 7._.} 8.T 6.; 9.0.F T 7.4._.6 i a.b.c.d.e.f.F 1.a A - g.h.i.j.k.l.m.n.V o.c.9.p.q.7 b b 7 9 6.: r.z p.s.t.w / _ 3 z 6 3 T ( 3.u.v.q._.4 ; * |.a e e g /.5 d g 4 A & b b * a c _ w.x.y.0.z.A.B.C.D.E.F.G.H.I.J.~.K.v.L.3._.e /.E 4.M.| j.A.( = < 4.(.b = (.c & = (.A A A _.= c c b A d i h b _.(.A b (.<.3.= z a 6 - (.- c d }.A 5 /.[.g & d & c d a }.0 A z z b 0 : F 3 : <.* c _ 7 z h _ <.<.<.4 _ - 0 _ 6 _ - 0 4 7 <.h 0 ",
"| T E 7.} ; } 4.F 6.4.M.i N.O./ 4.7 7 F q.8 | 2.E ; h.F 7.9 9 v.P.1.2.M.h.Q./ 1.q.8.h.y } 7.| | E 4.4.8./ F 6.7.8.p.: < 7 3 4.y <.6.| | 2.R.P.F T 7.8.9.P.: * & & _ _.<.3 _.c c c 0 (._ E 8.: 2.( / S.9.c.v q.1.8.j.j.T.A.1.r.U.i 4.7.P.P V.W.9.3 : i r.M.7.b h 8.R.F q.w 9 q.Q.q.3 : _ & & (.(.b 7 0.T 3.; r.b 8 8.}.x E (.[.[.g = 7.S.9.X.Y.K.S.8.8 8 Z.`.o.j o.} r.E Q./ v.e.V.U w p.9.r.R.T q.q.P.p.P  +w 8 ( F y < T | 3.3 < A ; 7.b 7 E F h.q.7 a 4 7.T 0 }.a (.& 0 < ; 6.v.h.x ( R.i Q.h.T U 4.( 6.} : 4.6.7.} 9.8 } 9 ; ",
".+M.6.E : ; 3 : 8.7.8 T 9.8 <.( } 8 | r.4.4.8 } 7.r.q.} 3.h.T p.8.1.M.8.h.F Q.Q.W.V.p.E E q.v.} 4.4.E 8.h.W.| / h.( / / E / r.M.2.2.1.K.S.4.q.V.x w 1.M.< ( V ++Y.y _ - * c b /.* | r.c z h 9.8 } 7.T x i 1.2.v.L.v y 3 7 7.x } < E L.U.p./ 2.8 | u./ 1.8 i 8 i .+9.T M.T } y } : / 6.r.<.x h.| h 6.= A A z a @+<.= | l.F a e g h P. +M.9.4.8.q.V.h.V.v K.#+p.T x 0.$+K.%+c.b.u.v U K.A.d.j.e.c.&+R.U.P w K.x R. +*+=+-+&+U K.w v.F S.6 9.Y.U P x V.K.P.;+ +} >+7 <.3 8 h.p.q.u.: T r.9.U q.| 7.0.<.< T 8.| T / T 8 h.r.u.2.r.} ",
"F T 1.;+| 6.( 3 3.- / y T 3.: ( y F / | <.7.6.; r.T M.9 : ; 3 S.; } 3.7 ; : F T 0./ 4.: E r.E 3 y y ; < 3.( 6.T i r.M.3.y h.M./ / T q.| M.0.0.9.q.8.i u.W.w ,+'+4.F | 7._.8.z g r.)+4 a 0.M.E } T 8.1.r.8 9 9.Q./ 8 4.q./ R.h i / R.| u.8 P 8.M.u.p.x F 7.} / i r.F : 8 : <.< E | / 7.8 h 8.7.} E 9 7 4 4.9 6.E | : t.!+= e & ~+p.< 8.4.7.h.M.( = 4.i h.0.h.y h.9 4.M./ r.h.Q.M.3 | Q.6._.7 <.P.9.| r.p.1.u.S.x f.S.v.Q.Q.7.T h.F T <.7.v.1.i q.h.Q.F {+]+^+/+(+*+6.6.8.w 9.Q.6.2.U U.&+F ( F 8.Q.4.F | y E / Q.9.x w V.y 4.M.v.",
"( } d._+h ; 8 7.( } 4.4.: _.: E q.F E 4.( 4.( M.W./ E 4 < ( E E ; : _ 8 4.} 4.9 3.<.4 h _.7.< 4 7.< : | T M.T 4.T <.6 z M._.4 9 3.7.4.3 z E <.8 q.3.E E ( F 8 S.z < 6.d 4 |.c }.7 A 3.Q.7.9.} y } M.y 6.y M.| 3 F 7.2.7.7.3 ; F F | 1.r.7.q.q.u.F E <.P.8 2.T 3 4 _ E y 8 / ( y E 6.h (.p.9.E F | h.q.u.E h./ r.( 6 h.v.g }.9 :+/ z (.0 q.9.p.6.E x M.} T r.6 F r.7.; 8 6 _.h h } 3.<.( 6./ u.F : } | / M.7.3 8 7.9 F y <.6.M.8.<.7 ( i A.1.0.1.P.V.} /+<+[+[+}+l.|.9 T K.F M.| W.0.E M.R.W.p.R.E M.9.Q.8 h.0.p.S.h.: / q.h.0./ ",
"( } 2.; c h ; 3 9 3 } ; < ; 9./ 4.3 y 7.7.E M.U 0.E 3 _.( 7.F } F : E q.7.9 9 <.; 7 _.<.7.( _.} : : E } y E : 3.h - 9 y 0 ; < 0 9.: : ( y x } 8 1.M.4.9 M.E 2.Q.a 7 3.d g /._.(.3.<./ F 7 | T 3 | E < E 3 E M.( 4.M.<.< <.F 3.8.4.; 6.F h.E : 9 3 <.; 3.9 ; <.3.; _.6.3.9 3.6 v.6.c _.E q.6.6.E ( 6.E 9.v.h.9 9.u.P b.e.6 0 &+|+f 6 ; 0.q.u.; | v.9.P 8 | 3.<.E 6.7 } ( ; W.8 W.F 3.7 h h 4 3.8 8 r.i T 9 4.M.h 9 ( 4.9 x 2.S.| 8 K.T.P 2.4.M.i W.} ( 1+x z 6 2+r.3+( / M.8 } ( ( 9 8.i 8 4.| E 9.| y T q.P 1.h.r.8 r.T F q.8.8.",
"( ( r.<.& <.8 } 3.: | } ( 7.8 9 h 7.y 3.T r.U.v.M.F : 9 q.( y y 3.7.T 7.: 9 3 9 _.4 4 7.} 7.F 4.4.: ( 3 | E E ( 9 y F ; 3.} 6.E 4.; 3.M.M.p.y W.1.6.} M.E 4.2.K.[._ ( @+|.= y = 4.4.4.0 ; q.<._.7.6.4._ < E y 6.6.0 ( r.R./ 4.E 3./ r.| ( _.= z b : 9 h ( 3 : 4.} <.7.< ; ; / 8 0 * q.| U.| 9 4.y ; 4.6.( 6.4.4+5+6+q ++_ < b.7+8+_ F 9.F / _.0.| 9.7.h <.0 2.4.- v.8.E 8 v.h.8 0 ( F q.7 | 6./ / Q.; h : 6.E 7.< E 1.( 3.F 8 7.M.q.9.| r.S.K.h.2.} 7.Y.4.< <.T - @+( | / T 3 : } | / 8 9 3.4.3.F F | Q.q.8.8./ i 8 F 8.i F M.8.",
"M.( 7.< A 9 T 6.E 7.T } 6.T 9 3.; 6.3.T h.M.i 4.9 h 4 E 3.( y 6.6.4.8 : / : 6.3.< E r.F 8.r.8.8 : 9 6.<.T 4.3 h ; } 3.4.4.3 ; | M.6.9 9 } ( | 8.7.T y 7.v.| 1.L.g - }.@+(.7.0 <.9 4.<.3 3.: b < 3.7 h h E 3.0 6 z <.&+Z.2.: ( i 7.T M.E <.<._ A 7 y } ; : : h 4.} y < : 8 0.7 3 _.6.P f.R.< _.<.7 ; 4.< 9 6.6.9+0+a+b+7 (.; 0.d.c+6.8 0.4.( ( q.E ( 6.T P./ Q.W.u.v.( 3.4.: _ 7 : y < | < y 7.U 8 4.< } 3.7.h E W.T ; 6.( 4.( 3 ( 4.T / 1.8.P.8 8.U p.d+/ < _ h.T g F p.S.9.9.1.x Q.i T 3 4.6.h.F M.9.u.| K.8./ } y | 2.r.T r.M.",
"} ( 7.6.= 6.y 3 3.; : 3 y y 6.8 7.F 8 q.} F F 9 ( ; 7 7.8 ( 3.E y y 6.F <.3 9 } T | 4.3.h.9 F ( 7 0.3.E T < <.} 7.T } 6.7.9 y / 3.< 7.T / F 3.7.3.q.6.T E } c.U.d & g g b 4.z M.7 _.< ; _.0 A ( _.<._ v.6.9 < 4 0 T R.(.- - F 3 r.V.v.y M.; * ( w 9 : < E : 7 <.3.; ; M.q.y 0 <.| P..+2.<.h y 2.E 6.9 <.<.( U.c.d.b._.c a 7.1.8.e+4 } h.E W.9.} < 6.M.M.q.S.E r.; r.6.3 y F / E 7.7.9.E ( 0./ / 3 3.6.<.: y 9.M.7.6./ E 2.3 7.<.y } L.v.1.q.4.3.0.9.E f+U.4 4 P.h.g+/ 0.R.h.8 F y ( / 8 3.8.x r.Q.i v.F T 0.T y F / / M.| T F F ",
"y ; h 3 (.( 3.( 6.3 } T / : 6.: 3.( M.y y 7.< : : 0 7.T 4.<.} F 6.; 9 : 3.3 7 6.9 P.7 y / F F | E y r.F 7.4.| F ( T E 6.6.9 F 9 ; M.8.8.8 3 y 8 T 4.T W.Q.9.9+P.}.}.}.* A 3.: 9 _ 3.4.3 7.4 8 ( 3 0 9 8 c _ = 3 = 4 7 = z = 4 ( 0.F 3 7.4.5 y 2.T : h F : 4 E 3 ( 9 T Q.E <.3 6.9 <.; _ 6.F 9 ( ; 4 7 4 h F y E Q.u./.d A F / 8 h+z _ | 0.M.9 ( 1.| 8 | y / 3.i z 6._ 9 ( 4.r.7.P.y F 4.< 4 E 8 3 E T u.8 K.T } 8 M.8 7.( T 9 h F 8.Q.| 9.8.T r./ 4.4.i+q.6 z u.< /.2.2.8.| h.h.| | 7.T : r.P.8 9.q.q.| i x W.0.P.h.2.h.r.2.| 4.",
"9 <.<.F c 3.6.7.; 3./ T 9 4.7.} 9 F y / 9 9 } ( 3 9 y y 3.( F y : F 4.7.3 6.6.T P.} } K.1.V.( 7.: 3.; T F | 7.4.: < ; 7 4.7 | 6.T 3.9 h.4.< / E 4.} / 4.E P.p.| = c a 5 z : 4 b ( 3.b 7 9 4.7 6._ _.7.= 0 < h 4.3 F y } < ; ; 7.A g (.c }.<.3.T 7.6.F _.7 6.6._ 6.F 8.3.; 3.<.: 4.: 9 : E 4 0 <.< 4 : E | 8.3 ( 9 8.@+g = 8 : | j+h 4.9.7.y T 4.9.( y E ( 4.F ; } 4.F 4.y r.} i 9 3 8 y 4./ .+i i T 9.9 6.8 F | / / E E 6.| ; 4.4.; } 4./ ( 7.7.} ; S.k+7._ - d.(.c R.r.T M.| } 7.4.T | q.T.P.T 9.q.h.7.r.F y 8 9.i 8.8.7.E F T ",
"9 3 9 7.& < : } } r.M.E 7.4.F y F } / 3.9 6.F 6.( E T 7.E 7.| 9 F T 8 } E y 6.F i r.M.r.8.Q.: ( F 8 8.F 7.8.( 4.3.6.3.E 4.6.( 7.4.y 7.y = 4 8 7.} / | T 8 v.v.u.(.g & /.- y : 4.6.(.6.h.h <.: < h 3.- 3.<.0 ( z A 7 0 : 0 T 4.<.6 b _ 4 z < Q./ 8._.h _ 7 3.<.( / M.} 9 4.; 8 h.9 _.- 3 <.4.M.y 3 <.( 4.E M.4.0.9.i f * z } v 8 3+7 4.1.8.q._.7.: 9 r.y 7.y } r.4.( V.h.M.7.8 q.8 q.q.E _ w U.8 T 7.E <.9./ E 8 E 4.3 7.8 T 3 E } M.q.| M.8 q.9.h.T d.X.4.- 6.v |.4 9.2.1.y 7.7.( T y y / r.8 2.q.T y E r./ 8 3 P.T 7.6.8 8.9.M.",
"; : 3.: & 9 ( } ( W.y } y 7.9.7.( 4.9 <.E M.| y r.r.M.E E ( 4.4.i 8 E ( y E E 8 r.M.: } F } h r.( : 9 F 6.E 9 7.4.r.y 9 < T 6./ 7.; 3.h } v.h.} T E y 8 / v.7 Z.a /.5 d h 3 2.( y b } 3 8 6.3 ; y 3.E - z 6 7 <.| 0 ; h < 0 b <.A 7 7 _ _ 3 *+8 : 6.4 _ T ( 3.8 <.: 6 = <.} 8 E 0 ( = 3.q.Q.8 } < y ( F 3.( y ( 7.j [.* A E r.3 f ; 6.K.} | < ( E / | 6.( q.6.} 8 r.6.F } / 8 9.0.3 3 ( i 9.F ; T y F 0.0.: / } E 4.F M.E 7.4.y r.w v./ 3.6.4.7.: 8 k+9+9 4 _ x e+0 h.h.F 9 7.} E 4.7.| h.8.| / 8.F y 6.8 F 7.9 7.6.6.| / 4.6.} ",
"6.; 6.3.b ( F y i 8 3 9 4.| 9 9 } r.r.7.F y } / F E ( r.9.6.y y T ( 6.; y ( T 2.T 4.7.8 ( ( _ y ( 6.4.T F E 9 7.( : E <.E 3 y 3 7 4.F F  +/ 2.q.M.} 6.9.y _.P  +g [.b A W.u.( q.<.y E } t.3.4 ; 7 7.< < _.4.< ( h ; 3 : 3.: 3 4._ 3.h 0 ; 8.t.- h ; _ 6.8.} 8 <.4.6.4.| | : 7.6 E 9 } f.q.r.4 7 <./ 8.r./ T F 0.T.k.[.d 4 h.9 h c+0 T  +R._.8 r./ ( F 3.h.7.<./ } y T | y 8 9.<.4 ; 0.F : y r.8.r.y F E 3.} 7.r.T 2.} y T M.3.M.8.M.p.| q./ } : 4.S.,+P < - = P.l+_ h.h.y E F y M.E 6.T y 6.9 } | 9.P.8.8.T E M.} / E | y 7.8 T ",
"<.< 6._.- 0 q.4.8.; ( 7.7.( y F M.E ( h.T E ( 6.F 6.r.8 6.7.} } 0.} 4.9 8.8.W.P.( y 0.E y } ; } 7.7.6.9 } ; 6.h < } y 6.y T 4.} y r.8 .+r.T 8.E q.| M.K.h.M.9.R.|.a < _.9 <. +h.<.M.T U.8 b 7 z : 4.; 7 3.3.3.( } 7 9 3 h 7 <.7 6.3.9 h 8 y y h q.v.3 2./ 4.<.- T F 9 7 3.9 } h E 7 R.2.4.z 9 F F M.9 r.8 y | A.1+)+8+a z | : h 3+3.u.h.M.<.E 6.9 T h.E 7.< T p.h.6.E y E T 0.3.( r.y 4.8 / | F E 9 ( q.8 7./ y 8 E <.E 9 } T 2.q.p./ | 9.| 3 y 8. +s.2.7 b - h.e+< w 0.8 } 7.F | i 8.h.F 4.4.8.9 i 2./ h.q.T F E F 4.y E E 3.4.",
"_.: <.<.h 0 8.F : 9 9 4.4.F / 8.2.M.0.u.M.h.M.8.8 8.T } 6.E T F F } 6.r.q.r.} 8 y M.8.3.} 7.7.( T } 8 1.3 : h <.8.( T 8 y } r./ r.h.2.1.q.P.2.Q.i 9.P.1.r./ K.x b (.4 z 7 x T 9 | i j.++W.c.( 7.F 3.3 7.4.: } : 4.< _./ 8 / 4.8 3.6.7 < z 8.T.<.0.4.0 E _.h 3./ 7.3.6.9 / } ; 9 / F / 3.7.E u.8 } | 9.i 4.4.4.#+8.A.e b 4 / 6._.e 7.v.7.6 h.<.F T p.E 6.T } 9.M.h ( T F 6.i 8 y E ( E y y y T 9 3.T 7.9 | h E 1.T r.| r.M.i 0.Q.T F 9 8.y y r.F P./+u / h A - | e+y v.6.3 6.y | 2.} h.i | 8 T 9.F T z 3 / q.8 T E y 9 F T E ( M.",
"6.9 h 7.< < 8.3 7.4.( ; 3.T 8.Q.h.| y 9 2.p.V.P Q.8.T 9 } 7.4.7.E y T 2.0.F r.E 8 2.( 9 3.6.( } } ( 7.4.8 ; F 6./ 2.W.| 8.8.1.E 2.h.0.9.q.( 8 r.| / w r.i : m+u.= & z - : E 8 E : i ( : 9 7.y E E 7.3.6.7.( T 4.0 < y F 3.9 ( : : < _.7.q.y <.T ( b : y M.8 7.: E 8 <.9 6.h 3 3 T 6.E y / / r.; 9 4.3.6.} 8.i T W.F d _ z q.a (./.} T : ; | E Q.q.y 9.F q.8 F 6.q.4.} 7.R./ ; h./ 8.} 9./ 2.E F q.P.8 q.( F 9.F } E 4.8 q.2.W.1.8 h.v.8..+V.| T p.T P.2.A (._ : @+M.Q.; } M.T 9 7.E < _.9 ( y M.T 9.8  +2.6.( 9 r.y } y E 6.7.T ",
"F T E q.7.< T | 8 T <.: ( 2.8 } y r.8.y #+W.E : T M.F | } r.( T 2.8.y 8 F y r./ 7.3.; 6.| | y } 9 : v y F E T T i q.i 8 8.| E 2.u.8 x u.0.8.R.2.2.1.8.( 9 h i x (.b b 0 ; q.( 9 0.T <.q.<.} } : / } E F 6 3 y 9 ; 7.P.8.6.T 9 E : 6.<.| 7.y 9.7.3 } W.E ( 7 F 4.E M.; P.W.M.E h.q.F M.q.( F 9 M.E y / F 4.9 f.U m+8.5 a * 7.* h = |  +x u.0.8 8.Q.E 2.i } r.| 9.y F | &+q.: M.9.h.9.M.r.8.8.h.1.( <.8 v.r.8./ W./ q.r.9.Q.w F 8 q.W.8 P.P.E r.8.8.8 9+} A c 7 P.4.M.9 8 Q.8.| / i F / v.W.P.v.T / q.4.9.8 3.y 4.T E | r.F 3.8.8.",
"T 7.9 S.i 4 M.y ( 6.y y 2.x r.T 0.} | u.8.<.F w E ( 3.7.r.8.8 2.0.| 8 ( ( ( M.3.9 3 P.E M.8 E ( F F q.T r.: 8.9.i Q.u.M.i r.S.p.u.P.x K.i | P.| i 8.h.} _.9.v T b z < 3.M.M.y E } 6.E T 8.; h 6.<.4.8.h h P 7.; ; 4.7.<.9 F 6.E 3.7 6.9 ( <.} 9 9 E 8 r.r.9.i q./ F h.U 3 / 8 P.7.1.E 3.7.| F T | 9 3.6.( 4.6.z K.9.|.g & 6.; <.* P.Q.r.x .+v.P.T 8.h.q.1.Q.8.x x d.d.W.3 / R.U.7.4.r.2.8.P.8.6.W.Q. +( F q..+2.x p.q.j.U T F 8 / q.r.} 2.Q. +u.Y.#.m.6 d c : | a | y r.4.3 3.} 7 3 9 | M.9.T M.8 P 9.2.} } 9 ; 6.7.8 T 4.8 | 8.",
"E 3.3.T } _ r.4.3.7.r.} | P.E F 6.T 9.y : ( h.M.( T T 4.8.( 8 E E 8.F T F w } ( <.7.F F } 8 6./ h.2.P.M.6.7.h.T 8.i 8.F 8.M.r.i 9.E | 9.r.E F | M./ / ; ( M.i p.7 4 ; E y y | ( u.w U.d.Y.7.( _ h 6.0 6 q.U 7 _ 9 F T y ( 7 9 ( 3 _ 3.; 3 6.8 4.8 h.q.8 <.r.T M.1.c.o.h E R.8.i p.T E W.x 7.F h.7.3.y M.i 6.P.9 9.h d g c _.b ( 3 h.8 1.A.| 8.M.W.U #+ +S.M.c.L. +2./ 6./ 1.K.; M.x 9.| q.Q.1.f.V. +M.Q.R.U. +R.P V..+R.R.v R.K.i R..+n+=+m.s r p X.} A a c ; c (.h <.3.E r.8 7.3.} } E 4.9 } 9 v.1.8.S.;+} ; 4.E ( y 9 | F } 1.",
"3.( 8.2.9.- 6.S.i P.Q.F i / 4.<.r.9 3 h : ( T ; 4.y 7.9.R.T T F 9.4.v.-+'+1+p.y | P.W.} 8 F ( r.T 2.M.: F 4.4.F h.v.r.T q.2.8./ i 9.P.Q.( ( 8.8 F S.8 < E q.{+{+9.( h.q.F u.x x .+4.e._+u.4.E h ; 7 F 7 r./ h r.6.7.9 7.6.} i 9 6 3 / 8 } T 8 } E 3 3.3 3 : y 4.v.1.y M.Q.T 8.v.0.q.y / y P.M.r.6.; 6.U 3.8 4.M.( < d |.}.7 0 6.7 x / E f.h 4.++u.K.8 q.M.c.Z.E P.U 2.r.E r.| / v U.i w W.2.3.h.Q.u.0.U 8 -+v i #+1.W.W.S.R.2.W.q.h.a.o+p+q+p+r+s+e.F * d * _.; 8 6 3.3 } < _.0 h ; 9 4.T T E 9 T.++7+e.| _.9 7.7.9 E ( | M.1.r.",
"r.p.U.v r.0 _+@.t+u+n+v+$+o.T.w+a.U.S.P.1.S.( / 2.K.| i r.0.1.U L.d.f+x+y+t z+k+A+e.K.Y.p.7.r.7.4.< _._.: F E r.u.u.h.| F / } 2.2.0.8.y F q.M.: : 4.U.i / B+s.P _ b {+K.A+#.f+]+_+9+s.f.'+#+/+V./ M.8.y u.7.; r.<.3.<.3 3.| V.r.6./ y E 9 9 3.h 9 3.( 9 8 < T | W.P ( Q.: E v.w W.8 q.K.8 3._ : } y ]+: E T `.} 9 /.|.3+a | 3 z h i r.( ( <.y V.P.< y 2.: P / W.8.r.7.| y W.v.C+g.M.7.A.A.0.P.T }.- 4.4.4.F g / q.M.| ( V.r.E F b+$.n D+E+F+;.G+o k.L.1+=+)+/ 7 / 6.T.H+3 _ < 9 T : T P 1+f./ 8 f.n 7+`.p.}.y y ( 9.| r.y I+} 8.",
"-+u.| } 9.T u.-+J+*+u m.$.#.K+K+K+z+z+L+k ^+'+v+f+m.a.k #.t y+[+M+M+)+#+2.S.*+/ T _+,+r ^+1+e.s.t.++0.U.#+c.R.w S.( ; r.8 v.x y r.E ( | i P.++j._.y #+/ u.[+t.f.: 8.W.e.M+o.r ]+{+]+/+S.=+W.u.N+d+d.t.9+9.2.q.M.3.3.} ; q.3 < = h P.1.6.( / / M.2.2.R.T.8 F / 4 Q.: A b }.a g 5 = 5 0 (.z A (.0 6.c ( O+P+Q+R+w S+T+/.|.7 ; = <.; T 3.p.U.c.U+V+W+A | 7 4.4.b 7.( 3.6.- q.h.h.( F E r.6.6.6._ A : h 4 c ( d 7.y }.A _ 6.y h.x s.q X+Y+N+l.Z+`+=+J+T.'+k+ @.@+@@@#@x+$@%@&@*@r. +=@-@%+'+X.{+!+a.;@x c >@,@'@/ ( y i Q.V.u.)@ +b.",
"d a g & 4 = 0 - A c A b 0 3 6.4.E 6.M.v. +j.Z.9+o.K.#+$+d+m+%+!@$.,+@.L+D+z+x+V /+#.t s N+ @y+ @M+K+$.y+k.~@)+7+++V L+D+,+f+u l.i+m.n+$+k.u+b+-+c.=+=+q.j b.c.U e.)+m.{@K+k+ @#.y+k {@y+N+f+]@L+<+!@D+u+m.$.l.d+k.V ]+k+/+$+$+%+d+L+n.A+$+n.V D+-+y+1+o.M.Q.u.T.T.F P..+m+_+%+b.Z.&+L.9.E x h.b+V ^@!./@P+(@_@ +X :@y 2.$+<@l.[@i+m [@}@|@1@2@3@4@5@6@7@k B+P A+J+!+%+d+i+v+]+%+8@$+9@~@{+L.;+U u.f.;+m+R.0@a@@.;@$.b@y+t <+|@c@d@n+7+++f.e@f@: 4 _.( J+L+D+g@t m h@i@j@k@x+M+l@<+l@p p v+;@z+n ;@*+j.@.u+m@t K+s s /+1+M+n@o@q ",
"_ = A 7 3.- * & |././.d d 5 |././.e /.|.g d [.5 A = z A - 4 h h < _.4 4 4 0 z 7 < #+f.`.L.P.A.V *+{+)+d+f+r n s r r s n s p@q@%.i@{@M+^+D+L+[+'+d+X.f+'+!@m.B+7.0 7 : q.Q.e.r@s@t@u@q+P+1@v@w@x@q@y@z@h@m h@n n <+<+s l@q l@l@q l@l@6+A@B@|@C@y@V {+; b : P./ D@2+E@F@J.~.G@H@I@J@K@V.r.v 9@9@L@M@T A.< N@N@O@P@Q@= ` R@S@W.0.q.T@U@V@W@X@O Y@Z@`@ #.#+#@###$#%#S.&#*#=#-#O ;#T 8.| >#- * 5 3+e+c+c+8+@+e ,#g '#z < 6 3 4.6 6 )#h & c * g 5 /.[.[.|.d d (.< 8.0@!#~#@#{#K.Y 9+b+;+B+&+E A * & 0 4 & & A A y S.Z.t.b+)+%+T.Z.,+!+",
"V.S.q.2.6 z M.8 M.4.z * (.(.& 6 0 6 ( | h 8.2.h 6 E = ; _ ; _.= c }.& - b b & (.c }.}.& g a _.f.4 * a c _ h 9 y i M.1./ R.r.3 6.| M.4.7 4.6 5 & * A _.6 - c * |.5 }.f /.g c = 0 (.z : = A - c _.9 z v.V.W.]#^#S &#X@/#(#v 0.K.p.w u./ 2./ 4.A (.; 5 /.g+5 [./.d 3+8+g+@+3+@+3+3+g+g+8+8+g < _#3+@+3+3+3+g+3+@+f @+a c = z = [.e b (.e e |.d [.[.f [.:#|.d g [.* d (.c [.|./.- 5 (.c a 8+g+e+e+8+c+g+[.8+& /.g g e f 8+f f e g /.e /.e /.e e f f 8+d f [.@+[.f /.d |.|.f 8+8+d }.d & 5 |././.5 g g |.d }.|.d a 5 5 |./.|.|.5 & d ",
"7.; 9.} x / / } < 3 9.#+ +8.0.8 q.i y < } r._ 8.1.{+Q.8.M.u.1.r.S.Q.v.h.| } 9.r.4.4.h.2.A.w+x+S.|.b 3 T 3 < * (.b = }.g & b 4 - a |.z - a 6 }.g * d a 5 g 5 /.[.d 5 c * z 8+g g f [.@+[.@+3+8+|.3+8+e e d |.Q@/.P@a z K }.(.* a A = 0 6 7 M.v ;+v.(./.d c 5 & 5 |.5 c A (.b c c }.a (.6 7._ c & }.e 8+[.g 5 e e e+g+/.[.@+g = 6 : = @+a }.= (.(.c }.c g 4 g |.d < 4 6.< h g & < 1.9 h A d @+e e = h < = <.- ; _ 6 3./ | 9.1.E 4.: < 4 6 _.< 0 7 3 0 _ _.E | y | < | _.6 ; 9.q.: 7 0 9 3 ; M._.4 A <.h 4 z : _ z = A 0 h E y <.9 ",
"r.7.E F S.1.9.M.8 T 0.K.8.r.9.q.T | q.h.v P.y W.Q.8.8 T T T 9.F y } h.7.| q.2.A.2.y w =+m.A+n+A A | i | 7.3 F 8.( 4 <.3 : 4._.h ; : = z <.7.<.F < 3 ( } < 0 7 <.<.; ; - y <._.- 7 i 8.E 0.| : E 8 i | T u.p.} v. +U.E 1.U 9.)+0.9.p.0.P.;+-+*+u 3 a * y M.P.F 2.7.1.p.1.R.U V.M.S.Y.S.W.3.7 < 7.W..+u.0.S.h.q.| 4.} Q.A.#+0.9.j w ; | x P.3.; <.; h : h.4.E 7.0.T 2.y z 9 P j p.4.8.@+e f e @+_ Q.S.i {+K.2.0.p.j.o.9+S..+T E ( } ( T 8.y y F | 8 ( | u.8.( | ; Q./ r.x L.o.K.p.Y.8 8.T 7.| 9.4.M.#+8.M.r.| 9 } : ( p.3.T E ; 9 ",
"9 ( y y y 3.7./ y F 8 y r.M.M.T h.9.i | T 4.2.2.E x i 8 8 M.F | / 8.8.0.9.9.1.8.h.} W.Z.; /+j.[.7./ | r.T T r.8 E ; 7.| A.h.M./ y M.} M.W.y r./ q.h.F ; 2.T 9.r.8 } 7.T y ; 6.1.x y 7.M.3.E / 2.y / 4.: E _.( 7 ; y | ( < E } F 9 h.3.4.Q.X.m.t+S.M.c u.K.y W./ V.w 2.S.2.6.1.0.q.7.P.i ( 2.0.0.0.<.( R.1.q.2.8 8 q.o.9.P.0.x } E 8.8.W.0.} 9.p.r.q.&+f.U.K.e.U.0.q.1.p.w R.S.P.q._ /.e [.z z Q.u.x P 1.q.h.Q.S.v.W.1.h.8 4.7.6.} E y r.| r.T F T r.8.| 4./ / h.w 9 ( 0.1.w K.M.} F 9.P.w ;+P } v.v.9./ y ; <.< 3 P.} 3 / 8.T / ",
": y 6.i y 6.E 8 T / v.0.h./ | M.F | 8 h.8 T q.7.r.( : : 6.} y | | M.q.1.Q.Q.2.U.1./ 1.S.Y._+<.6 : 4./ 9.E 6.6.: 3 7.y x 4.3.3 < ; 3 h y 7.3 9 4.3.4.1.( 3 F | T v.P.2.h.7.6.2.8.T E T F Q.P.| 7.( 7.3.y M.r..+/ w 4.3 9.Q.`.x F r.| / y U.T.]+d@9 }.z 7.<.| ; 3 } } ; ( 3.6.F y | v.w F 7.r.7.y 4.T 7.7.} | M.y 8 p.u.| 9.y E T E 3.9 <.3 7 r.E 3 f.0.F 3.3.4.9 F 7.4.4.8 4.E 8 F Q.Y.h.M.t.6 R.1.x / 7.T M.R.Q.M.v.9.| v.r.T y y 0 F ( ( } 6.T F F M.y 6.8.R.y 3.9 F y 6.3.3.8 | F M.8./ y : 1.P.7.F F : 3 6.8 1.R.7.8 0.y M./ ",
"E } h.9.7.T M.7.T i 8 E r.r.8 q.q.F E } y / 8 9 F q.y h.P.Q.T 2.Q.P.h.r.r.h.9.u./ i f.;@{@m+4 _ i S.A.E y | y 3.i | } / 9 3.7 ; ( : 4 ; F 4.( - 3.3.z ; 3 _.4 b b 6 0 } ; T F 8 6 3.3.9 6.3.h <.<.< 3.4.E } b < 7 ( ; 6.9 b 0 3.P.9 < _ 2.K+9.} < a a 9 _.3 < E T <.F 4.0 ; ; 4 ; <.: 3.3.4.<.3 ( : <.6.E : _.4 h 3 ( 6.h ( / < 6.3.} / E < h.7.T 1.8 } 4.8.2.| y F | 2.q.y P.6.; -+R.3.Y.h.- 0.8.M.E 3.0.h.7.| q.q.T p./ / 3 F } T 6.M.E 4.} F } E 4.7.| 2.3 3.3./ T } F | 8 F 3.6.9.r.1.y r.i M.6.E 3 ( E / i i T F T 9.| u.F ",
"v.2.M.| y 9.} } q.9.T 8.2.r.9.q.r.| 8 / r.T M.q.r.M.F Q.M.F r.8.y | h.0.R.r.P.W./ M.M.D+m+- i E / F 7.7.q.W.M.h.x F h.M.6.} ; 9 4.3.| ( : T 0 : : _ : < ( : 3.E } E 7.9 T | E | 8 8 } <.4.4.; h _.< y P.x y | 4.} 9 4.T } 6.< 6.E 0 7.8 9.d+= }.|.5 g ; 8.( / F M.T ( ( 4.v.M.M.y 9 8 3.4.3.7.F 4.| / Q.| y y 9 F | r.: y E } 4.7.r./ | M.i p.9.F | < T 8.v M.Q.7.9.8 T E x | r.h -+@+g E c 3 x | 8 8 q.W.M.M.h.v.9.9.1.P.9 4.( 7./ x 0.8.F 4.7.E 3 1.r.8.M.W.8.M.2.i P.M.6.: 3 0 8 4 M./ 9.8 | : F r.F i / 8.M.y q.T r.T y E q.",
"h.9 8.8.y F F 1.h./ q.Q.8.2.9.q.i M.| 9./ r.i y M./ } y ( 8 i M.q.2.9.8.R.S.w h.M.E r.w+R.4 8 } y M.T 9 M.r.T / ( _ <.h h 6.<.9 <.; 9 < 7 8 < M.3 / 4.; 6.; h 7.3 ( ( ( ( 3 E F 6.E 3.3 4.( <._.T | F h.9 3.<.< } 6.3 : <.3.3.9 _ 4 3 | M.R.& /.e c }.8./ 7.7.F | F 7.4.1.8 | } ( T 8 } F 8 h.y 2./ T E ; 9 } | 2.q.M.q.r.y r.h.2.q.8 1.T y h.7.9 | F M.h.8.} E 6.3 3.7.F ( 8 3 ( Y.8+[.3 g+i U.T M.M.U.K.P.P.v.E 1.F M.h.| 7.8.T T i | ( : T 2.y q.x E 8.T q.T 8.M.9.w F y 4.3 h.| q.v.y T } E w x | 8 } } M.8 M.8 U.E E / / ( ",
"7.E i | F } T 8.q.h.Q.q.q.8.T h.M.T / q.*+U q.| 1.E 4.T 8 8 M.8 h.0.9.q./ | T r.M./ 9.a.x (.<.y M.h.3.3 7.4.6.; _.T E < 0 <.0 7 7 _._ 4.6.3.< 0 ; 6.h <.( 0 3 6.; / 7._.< 0 4.3.: 6.7.9 h.< z 6.9 <.0 / 4.4.9 7.T _.h 4 3 4.6 3 6.3.6.T ; R.(./.|.; 8+8.: 7.4.} 3.y <.r.h.i | 8 F 8.| 3.( 6.F i r.y 7.y ( q.T | q.r.7.7.8 M.F M.y y q.P.9 0.E E F | T 0.| | 6./ y S.U U.1.F 7.E 9..+e d ; [.W.P.i h.Q.p.q.7.i / 1./ q.i 7.7./ 7.8.W.r.E 8.T 2.| T r.| 6.y M./ F | i Q.Q.7.F 7.9.M.| y E } | y 4.| / r.q.| r.8 8.i 9.E / 9.P.T F ",
"r.9.v.7.E 8.i q./ 8.| 8.q./ 9.h.r.T q.q.0.} } F F E F v W.r.h.9.h.1.( r.h.4.M.| 9.P.0.d.V.}.E 6.h./ 6.F / } <.: 7 _ < ( 3 3.h ; _.3 F 3 6.<._ 3 _.; | E 9 E 6.8 ; <.; 9 4.; 4.< 4.y ( } 4.4.4.4.8 3 7.; 3.; : h 4.3.3 : 4.4 _.E 0.3.3.9 6. +_./.g 2.& 9 4.; : F : E 3 R.9 4.; 8 T 4./ 7 T A.2.y 3.r.} 6.F 9.T T / 8 y T T } 6.y F 8 1./ F 8.3.M.F | 9.F y ; r.M.Q.r.i h.y 8 E W.E P * 5 3 5 9.x 1.P v.9.1.p.x 9.x | T 9 <.T ( 8.| E T M.7.h.M.T F r.y T q.8.q./ M.8 i M.y } 3.( r.T 7.i h.8.} } W.S./ 8.i / u.W.| 8 7.6.3.q./ M.",
"} x T y 8.r.h.9.8.r.2.Q.8.9.T M.| 8.r.M.M.y | T y T r.9.: 9.r.| / 4.( r.8 r.h.h.W./ 8.m+R.c Q.; / } 9 8 F 3 6 0 3 _.h 0 < } 3.< : 3.<.4.F ; 6./ 7 9 : | 9 9 < <.< 4.; 9 0 : ; y 9 / F 3 ; 7 9 / F 3 7 3 <.0 h h E 3.; ( <.9 <.4.4 < y h.M.i <.f [.w g E 8.h 4.( h 8 3._ y 4./ 8 E Q.T 4.| 0.i T y T } y q.v.h.q.S.T 1.4.q.( 8 F 9.M.1.} 7.9 T F E 9.r.r.9 <.8.y | | M.7.y / v./ < V.|.d 0 < j.V.T r.i i W.Q.0.K.1.F 2.h.8.Q./ i | M./ / r.T / r.8 E ( 8 T / 7.q.8.Q.M.r.6.: ( 9.1.T T P.r.} M.i U r.( q.r.y E 4.6.T } 7.T 8.| E ",
"W.8.( T | / 9.0.r.9.i 1.T q.r.r.| y r.h.V.v.1./ 9.y ( 1.r.8.r.q.T ( 2.8 8 q.x i h.M.T U P z w y M.F | ; <.< A 0 3.4.7 3.9 6.9 7.: ; 3 7 y 7.3.6.; _.7 3 9 ( ; 6.8 y ( < } 9 7.| T E E <._.7.r.E 3.9 6.7.6.6.: ( 9 <.h h } 3.: h ; ; : x `.6.c @+}.L.b 3 7 h r.( } y y 4.7.| | 9.8.r.M.E | 8 8 E T T / 8.r.| y F 9.( T M.4.9 i i } F h.8 9 F E 6.q./ } } 8 / R.( | 9.F 4.y q.8 ( ; &+[.|.A * p.Q.R.i P Q.P 8.u.p.2.#+.+Q.&+.+0.9 h.F / | F h.E T F y Q.T 8.T q.y r.y 8.8.8 8 T 9.8 E F M.( } i 1.x A 6.( < 8 9 E T T 7.M.| 7.M.7.",
"9.9.T F 8 E F 7.7.8 M.F M.F T } y r.M.R.R.F P.i E 0.V.P.q.E / / ( 6.8.P.W.9.r.4.8.p.h.f.L.- i F h.M.y F F h F T 4.| 1.| : <.: 6.} 6.T 6.7.| 6.E 9 : ( 8 E : b r.<.; 3.6.4.<.F ( E 6.3._.8 8.} y _.< } 8 3.3 ; < 6.y 4.9 ( 3.; 4.E ; <.4 c 8 _ g+_ {+(.y y : M.} y | F F } 8.r.q./ r.6.h / T M.7.y ( y T E | } F 8 6.( 4.T T 8 M.F h./ : 4.F : h.8 8 } y T / T | T 9.} F T 4.8 q.8 T.|.}.g 7 Y.h.1.V.2.S.r.y 2.2./ P  +v K.1.9.8.q.( } r.y r.Q./ F 9./ 8 8.F r.8 8 q.M.6.6.7.4.4.8 y 7.7.8.| r.q.6.} 3 6.0.( M.8.E M.q./ 2.r.y 8 ",
"q.F 7.y E 7.y } / h.8 ( 8 M./ 0.i q.1.S.7.u.q.; r.h.8 8 | 6.2.T E M.i 1.0.T W.T / T M.U J+c R.7 6.4.; _ - q.M./ 7.3 ; 6.h < E 7.} : < <.: 0 / 3 3.4.8.E h _.4./ : T 6.} T ; E 7.( 3.h 3.1.q.E 8 7.M.7.9 3.9 E 7.8 <.4 ( 9 4.; - 7.3.6.4.:  +2.d _ .+* F 6.: 8.7.4.F 3.E 8 i T | | F ( ( } p.9.F 7.( F 8 | y F 9.( 9 F } F 1.2.1.8 / T ( M.F r.F y | F F } 7.7.M.h.| 4.F y M.F T 7 P |.g e M.Z.L.h.R.W.2.F 2.u.R.v S.1.Q.h.q.P.1./ T } } y 9.1.T 9./ / v.1.Q./ E 8 y ( 4.M.8 E E M.9 8 8.Q.| T M.E y 7.} | 1.T 8 9.| ( 2.F r.T r.",
"i ( 8 r.8.| r.| F / T } 8.8.8.v.q.q.T 3 ( 0.| T F F } 3.( E 7.} r.9.v.8.r.W.2.v.8.| 6.1.{+_ 0.h 7.: 9 6.( 9 6.3 3 7 _.: 7.7.F F ; 7 ; 9 7.2.: 3.( F r.F 3.E M.T F r.3 r.< < 6.M.3.7 3 ( r.: E } < 6.y T F 8 0.L.v | 7.} 3._.6 3 8 ( : | 8 r.| 4 F 1.& 7.E ( E 7.( T i 7.9.v.8 / 9.} | 9.4.| F ( } | h.r.} | i F 3.0.y | P.y } 7.E M.} / 8 | T | M.8 / 7.E 8.F Q.9.7.T r.y F 4.q.q.J+/.* g q.Z.v.0.W.1.h.9.d.v.Q.2.M.1.P.W.L.&+v.r.7.9.8.8.y T | r./ 8 9 F T / r.F y 6.6.: ; 4.6.9 9 8 v.M.M.i / / r.8 2.Q.} i M.8 } M.x / 8 1.1.",
"/ T | | | q.q.2.R.h.y M.2.9.2.8.T M.8 r.i R.4.h.P 2.M.( F 9.q.i 2.R.M.9.v.8.P.Q.q.} } W.T.z q._.4.: T 8.9.( 8.: 0 ; 3.7.3 / E 3 8 : q.8 8.y T ( / 7.8.9 4.8 y 7./ ( y < ( h.W.6.b - < m+3 y 8 / ( w i ( T : W.3.; h 3.7 1.<.7 F 3 3.4 E 0 v 3 4 <.9.3.M.6.F 3 3.( M.9 | 8.T 8 9.8 2.T 7 M.9.M.4.| Q.1.M.y | y 8 } 8.y y | y F r.6.y y 9 1.h.F 0.9.T | : 9.8 r.W.h.E r.8 8 9 M./ 8 {+|.d 8+v.e.S.| Q.T 9.h.Q.R.P.W.K.q.2.v A.8.| y / P.M.2.h.( 6.F 7.y 8.T 3 4.} M.4.y 8 } y 7.6.} 4.8.0.< M.q.M.h.E q.S.h.P.7.r.y M.1.y F p.h.M.",
"} } | / / 8 } / i i / 1.2.2.i | / 4.F r.W.U.W.p.Q.9.r./ P.x u.e.x h.p.M./ M.i ( 6.F ( 0.!+A } 3 q.( 6.: _.7.8 h.v.F F 3._ | : 4 4.: M.8.8.6.F M.T 3.F 3.E | / 9.x d.F 1.0./ h.c y M.8.7.q.T | E p.Y.R.<.3 ( 4.4 (.b : 3 b _.y 9.y 4.h.9 9 #+M.a * F F ( z : q.| M.8 E F M.8 8 7.8.( ( E | r.9.9.q./ 8 9 M.} ; 7.7.h.6.2.T y T y 9 E r.F F ; 6.( 7.E < 8.2.8.x y / / 8.| E r.y F M.A.d /.@+r.U.v S.1.U u.1.K.R.T W.i #+j {+R.u.i | p.h.| 1.v.| T 3.F / i 8.M.i } 4.T M.y M.0.| E 7.h.Q.6.9.r.| 2.2.| 0.v.| T y u.T 0.P.w T T M.8 ",
"| | 8 9.8.T r.i q.y y 0.i 1.M.M.| E / 9.A..+i u.| 6.Q.| W.Q.P.P.u.S.| r.F 1.S.r.y y S.T.-+= 9 h | 3 } 9 <.M.r.y 3.} : 3.( 9 9 y  +P 0.Q.| F 4.r.} 8 / E F x 8.8 } y 0 0.0.2.p.w v.u.h.!+r.3.E 3.8 ; - h 4.3.8 h : y ( ( | M.M./ v.9 _ b 7.M.9 a }.| - 1.q.9.E / q.< F 6.3 1.6.i | } 8 } y 8.h.y F M.3.8 E } T M.( 3.P.8.M.E y ( h.Q.E h.7.E / ( 8 y h.0.W.R.F / 1.E h.6.: E M.9.< L.d |.g+R.T.K.Z.J+Y.V.Z.%+R.L.c.d.d.;+S.S.h.8 8 M./ S.u.8 : M.3.( 8 T 9.8.E <.h : 6.| F ( 9.q.E q.u.8 2.0.h.8 8.q.1.8.7.8.0.i U x / } : M.y h.",
"F y r.8.T 9./ 1.q.y | h./ 2./ / T y / q.8.h.- 8 y T Q.2.u.2.1.E 8 3.( / 2.V.T 7.8 | 8.q.o.A M._ r.3.8.9 z 4.} <._.3 8.Q.9.} Q./ P./ v./ } y h./ h.0.v.8./ q.9.W.r.T 2.P.8 v.Q.F P $+++e.h 3 y T 7.4 b z F i T 6.v.7.4.<.6.r.S..+( : 9 F ( 8 F }.a ; ( ( ( 7.9 E y Q.Q.3.9 ( } r.3 8 r.| 4.9.| ( T 8 / / F E M.| T Q.T r.r.q.Q.M.r.0.8.| / M.8 r.8 h.2.( 1.r.M.0.E F 9 h 8.| / p.3.<#a |.g U T.;+x  +U.c.7+b.-+%+T.U.x P.W.u.i T ( 4.4.| | i < 7.F ( 7.T F E 8 7.Q.v.F r.8.( 8 9 <.E : 0./ / T q.0.i 2.i T p.2.0.2.E / r.Q.U.u.x ",
"8 | M.F 8.r.8.i r.9.Q.1.1.q.F y } 7.M./ 2.9 3.T F 8 q.V.i 1.h.9.| y v.v.i 9.y 8 T 8.r.( T.F A./ v.1.i ( 2.4.; < | 8 8 1.y K.#+h R.( } 3.F i | 8.F r.i F | Q.Z.Q.r.9.8 ( P.| 7.4.: 3.6 ; 6.} : : 8 4.7.; 3 9 4.7 7 7.T M.0.U .+4 4 7.3 6.: 2.h.& & _ } E 4.b _ : < 7.4.9 E 7.3 : F 2.} 6.r.P.M.y 0.T i F y } 9.9.8.v 8 8 F i / 8.8./ | y r.i / q.3.F y ( v.y 9 3 F 7.T E h.8./ M.[#}#/.3+(.%+j..+`.L.!+++t.e.V.p.r.M.2.r.2.F M.0.8 q.4.T | E 3 / E y 1.7.i T ( 3.8 8.R.9.y 7.8 7 9 } | 2.} i Q.P.0.8.q.4.1.9.T i y ( i i q.q.9.q.",
"y } E / 8./ 8.8.i h.8.9.F 8 8.F T | q.h.0.6.T q.8 8.8.8.i T | q.8.Q.W.9.h.1.h.h.v.8.8.T d+8 6.3 F : P E 3.<.8.r.P.M.7.3.: 6.y q.8.3 y } F T | | T 9.} } 3.R.y+w 9 v.M.M.|#( y 8 E 3 <.( 3.8 M.h.8 6.: 4.M.} ( < F | i / U./ a h } 9 < 9 4 x 2.A a (.x < : 6.8 T } : } 3 7./ x E 6.M.T q.F P.y 8.9.r.M.; 7.8 8 8.9.6.3.8.7.6.F r.w T.8 } | | T < i 2.T | 8 9 T M.1.y r.x i | | | 1#=#|.g h k.)+L.u.T.A.f.Q.y 6.7.W.h.| | 8.T 7.: 6.( } p.: ; T | i 0.3 8.M.y 3 T 8.u.8.8.i T } ; F T 8.q.2.h.8 2.1.i 9.9.2.i x U.Q.0.i i 8.h.q.u.",
"8 T / M.8 y M.q.r./ 9.2.q.9.T T T 2.q.9.W.T q.p.h./ q.1.9.r.0.0.8 i y | / 9.1.W.1.E 8.4.&+F 3 7.9 f.k.`.v | i | 8.y } <.4./ ( E } | ( 7.8 1.x `.Q.r.7.| < y T.< c.`.h.8.i 2.y 6.3 ( h.8 h.1.8 } <.<.0 4.E 3./ y 9 9.F u.3 & < 6.F q.3.( 4.W.x = a (.W.F 7.: T r.| 9.8 T / M.7.( q.i F M.6.q.T | / T 3 3.r.9.q.8.( M.| 8 4.y | : 2#p.8 } F 7.| 3.M.8 F 8./ | 8.( M.M.1./ 9.y y | y 3#b 4 r.A.++J+o.#+2.8.9.i E 8.F P.Q.1.8.} 8.h.T 3.8 / M.8.h.w R.%+,+0.2./ | p.w P.1.| : 9 y | F W.Q.q.h./ .+9.9.K.e..+W.V.A.W.w / | 8 | 1.u.i ",
"} E F 7.8 2.0.y 9.W.8 } 4.F 8.r.M.8.y r.u.F 0.P.Q.h.v.0.2.h.1.M.y M.P.W.Q.i p.Q.9.K.P.| j.3 d A E R.M+l@7+#+S.T ( } T 7.q.y q.} v.=+9.: x F P.o.9+| 7 6.7 ( Y.*+~@U =+/+/@u+p.v.h.1.( ( 6.y T 6.6.7.( M.8.x w 3.2.r.9 9 3.4.3 9 < < 4 3.4 1.U.& /._ K.; ( 6.7.9 4.} 8 7.4.<.7 6.7.} 3 y = E ( E F r.F r.M.| M.8.| ( 4.} 3 9 / r.1.6 R.h.T T <.E S.4.( R.F Q.F r.( 8 F F 7.8 8.x y 4#5 f U /+Z.u.v.h.8.R.v u.8.p.R.1.9.T T 6.M./ ; 3 7.F / F ( h.F w b P.h.Q.L.A.S.0.8 r.y M./ y h.p.9 M.v f.9+;+X.l@U.V.d.L.x 1.9./ 0.p.i x | P.",
"A.++ +U b+K+X.Q.b.i+K.2.e.T.f.P Y.V.p.v.A.-+j m+A.1.8.0.| i / 1.v u.| } | 2.1.M.W.v.M.( 2.4 b 8 w n+/+#.f.9+%+.+++Y.T.)+5#6#7#u+[+#.T 8#9.Q.w T.%+P R./ F  +i+_+k.u #.|@9#0#/#q.V e.v.w Z.1.: 4 4 g (._.F | 7 3.8 E y 8.F T 8 q.8.4.8.7.<.7+U.d 3 V.a#V u.Q.M.F ( 9./ h./ F y 9.y 4.y h _.E : : b#q.K.W.8 F 4.7.6.E i q.6.F 8 y R.l.c#].X.| F 8 : 4.P.( r.8.T ( : 0 6 E q.6.T ; d#,@_ i ++D+c@u+X.n+d+v+m.c.P Y.U.y E P.S.~@s.Z.K.Z.B+*+1+W t+7+/+$.]+M+L+q+e#f#g#h#i#j#C.n+l p@k#n M+s+l#Y+k+x+=+f.++)+$. @k+p  @{@$.<+l@m.,+r ",
"t l@n M+t l@n K+<+o N+f+r M+s <+<+<+t K+f+s L+k+ +7+m+s.m+a._+~@!+J+9+B+Z.j ;+r.3.} F d.A+$.!@x+<+s <+$.U n+n+l.m.m.;@F.F.s@m#n#o#N+w+x+7+p#]+L+x+'+!@l.x+z+%.q#:+M+$.{@f+$.=+Z.s.r#m+i+(@{.s#b.R.t#%#$+u u#w Z.x K.B+e.b+u.P j.v .+V.p.B+v#w#J+x#y#z#F+A#^+B#s.A+r ,+r K.U.v R.e.]+)+K.v m+C#&+C#l@D#q@$.b+R.K.v w E##+~.V S.U.V ++J@V.P !+$+w ++m.{@l@)+o.#+J+v /#F#{@u A.-+1+G#H#I#J#K#c@z@K#K#<+D+t L#q n n z+$.z+<+X+s+o K+G+o+o+o+M#N#l O#2@P#c.A.h.| 7.g.Q#R#M@S#T#$#=+U#V#8@V b.Z.V.w 9.h.y | 8.w -+m+Y.Y.J+)+w+]+@.X+W#",
"X.m.D+X.x+m.7+ +c.7+w w e.L.R.0.1.P A.&+d.v : ; _ y <.( ; 3 4 4 z 4 < 6.E ; (.A u. +1.Q.( 7.)#X#Y#Z#R./ 7 _ 6.L.$#`#9@ $.$w@U#+$@$$#@$W q+x@f#q s k.'+q l@e#x@x@h#U#;+]+A.p.&##$|@m r e#6+e#f#B@A@&.;.$$%$&$*$=$-$p s <+o M+<+;$>$6+n p q H.].V.'+p ,$'$&.a+)$!$~${$x@{$B@]$C@^$v#m v#u@;$f#*.&.h@/${$!$m 3@[@Z+[@($A@p@>$A@1@K#q@&+3 - F / _$:$5#<$[$}$[$|$1$K@2$E#m#P#3$4$5$6$7$c }.< 6.0.2.8$i.E@9$4$0$a$b$c$d$Z@z.1.r.8 <.7 F / 0.2.7.<.7 E | 3 6 |.[.z 6 6 0 < 3 ; ; 4.9 3.( 9 3 ; <._.4 6 3 | 3 3.8 4.< ( } y 9.| y y } 8 ",
"9 : ( : h 6.4.< h - * (._ 4 4 _ A c = A * (.6 d * b b & 5 g e e /.}.c * }.|./.g /.|./.@+f @+f @+@+f /.d d /.f 8+f d 5 g [.@+@+e e 5 & & 8 Y@H#8 4.}.g 0 Q.!+V b.S.<.(.d g e a }.4 4.7 : e$( | A.;+f$r+9#g$h$`@i$j$O 8$X#X#k$l$S.{+Z.d$m$n$e.o$p$q$g.r$P.y i T#s$c#f$n$+.8@t$&.u$v$/$w$y+r#!$F+~$~$=.x$y$W Z+z$-.h#A$B$4.e$3 E q.6.6 a }.g |.a g d |.[././.5 d 5 c >+A a * g d 7 b [.|.<.z _ b = : : y 4.9 / M.4.7.F / f.V.x / u.M.} E 3 y h 7 c e g+@+6 7 4 6 _ ; E 3 7 0.y W.E 3.6.7 6 < 3.y | 8.r.8./ T 7.9 < 3.3 _ _ 3._ 6 _ ",
"1.9.| : K.o.b.)+U 0.F T b _ 6 z 4 A (.}.(.= = _ <.T < } 7.9.r./ 9.E 4.9 6.4.<.7 < z (.A - b /.d /.d (.e /.g d & A _ 3.4.< : } 7.3._ A 5 e e |.4 d /.f |.9 |._ _ 4 3 4 /.@+8+|.|.[./.[.8+f f d /.a A < <.7 = /./.g 8+[.(.|.d (.(.* |./.a }.a a (.d A b <.3 7 h 4 z - 0 _._.6 ( M.i 9 0 / F C$W.2.0.1.7.<.3.} 0.D$E$y.d a & c (._ g g A d }.(.* ; 7 0 = 5 - _ & g |./.[.e 5 }.- * g c+* <.= = (.d b _ - _.: : y 6.<.3.0 h.} } 7 : 4 0 3.c z <.3..+A.B+$+b.9+0.9.T y R.<+L+*+o.x E F 4.3 S.W.x W./ W.| 8 v.0.i q.9.M.0.8 T ( 6.} 4.",
"x  +c.o.9+T. +: = T _ } 8 0.9.T } 7.F / y E 4.F E / E r.T 8.u.W.2.i p.x 8.8.1.v.1./ Q.T r.( 9 8 7.T 6.0 z c = - 0 <.b 0 6 ( 3./ 4 _.3 6.<.} 7 6.= ; < E ; ; o.o.T.6.c d }.b 5 0 3 * /.h - A d /.- c (.5 = (.<.6 b <.E - = y 7 _ b (.6 < _.= |.- & 6 4 c * }.- (.- - 6 & a c h 7 E 7 _.A * c _ _ _ (.(.c = a (.0 A _.< r.&+T.=+U 8 8 A 7 4.y h = 6 4 : ( : E _ z - (.b <.4 ; z 3 = h !+1.8.6.| 6.3 F Q.A.Q.; E / 3.4.;+U.2.y 2.T 6.( h 9 7.( #+S.R.w v K.i h.T &+S.| ( & A _ h / U 8.h.K.9.i 0.T 8./ T 1.u.W.2.T F ( 7.T E 7.q.r.",
"E i 2.u./ M.%+( -+R.} <.( 7.6.4.8 T 8 9.T } F T F 2.8 | M.y 8 T | 8 8 <._.; T 7.4.F / h.F q.3.T r.1.4.4.9 : F y M.y ( ( 8 4.9 9 ; <.3 7.; 6 b _.0 6 = h y 7 a.Y+r.4 c |.}.<.6.8 7.; S.| 4 ( T p.8.7 < c b c < ; 6.< : 4.T ( ( 8.( z - A = = 9 h 0 a a = : h : 0 < _._.7 0 4 : <.b < h ; E y ( 9 6.y } 2.T y 4 = g+/.- y @.F$_$N@_.3.} 8.; 7 } F E 8.h | | 6.7 | T | F Q.M.} M.| 7.8 F &+M.7.8.v.p.P o.`..+G$&+L.d.`.9.; w R.9.v.Z..+v./ 8.1.R.Q.p.w y | E < j N+K.K.R.M.i : | 3 3 h E 4.E E 6.| r.F / S.y ( E y T 7.8 F M.| F | ",
"4.q.h.7.x S.l.< ;@P.(.4.8.M./ E | F | 3.9 } 6.| 2.| E 8.3.y F F T ( ( y 4.h.E q.8.y r.( y 9 7.r.4.( 9 x E 3.9 ( 4.3.: 6.6.3.y | 4.( E E 8 E U S.W.P.i -+{+`.`.;@z A E h 9 q.T F 9 y _.7.F 3 } h.: _.= 0 6.3 | } < h 3 E 3.3 3 b a (._.< E 3 h.: 7.9 ( ; _.h F 6.< ; } <.: ( 6.<.: 9 9 7.7.E 7.( } } y E 7.4.V.t.3.: | i p.a 8+_ ; 0.8 _ / 4.; 3.T ( 4.( u.0.2.P.M.M.8.u.p.p.9.} 4 T W.2.i #+0.9.6.6.r.9./ i K.Q.Q.( v.p.4.} } L.h.E F V.q.P.2.W.E 4.7.9 E 6.J+( 6 : q.9 9 : 8 } 4.6.9 M.9 } : M.T E i <.<.4.9 9 ( : 7.4./ r.h.p.",
"i / F ( M.&+,+0 B+= F T P.M.T q.r.E 8 M./ } M.T 4.6.7.4.y 8 6.3.y ; 6 0 < E 9 : < 3 0 _._.z F 6.y F r.6.9 3.4.; 4.4.9 ( y 8.( <.E M.E M.q.u.T 9 | 1.6.8 0 _.c.$+_ - 0 b : 8 y / F 9 7.: 9 } 8 E / 6._ & ; 7 h ; M.( / 6.: 6.3 h h h _ < 3 _.} 0 ; <.0 0 } 3 8 ; < h 3.y ( F 3 ( 9 _.: ; y : 3 7.} T F 9 ( 7.E R.c+7.6.T 7 c : 7.F T 9 : < 3 / ( 7.Q.u.M.: F M.8 / 8 / v 8 6.& 3.8 r.u.v.w E } 6.h.i T 0 9 q.7.9 3._ _ h F _.( 7._.; F 1.M.( U P.y y } } E ( *+_ & Q.P.E 6.E E 4.: 4.| 8 8.3.7.} F ( : 9 7.E } 9 3 3 ( } } 4.4.<.",
"8 i ( } i i+_+6 i (.F 0.r.M.F 9./ 9./ 8 E F | T 9.8.E F 8 h./ P.| 3.3.4.9 8 3.0 } 7.r.8 6.} y 7.( } 7.4.9 7.} r.y 7.4.4.7.E 4.E 8.: | } 4.4.F T i 8.8.r.6.y j.!@4 w 0 Q.q.q.F M.| 8 8 y 3.F ( ( 3 h 7 h.8.: ( 3.6.h : } : 6.h h 3 : < h h 4 : y <.7 ( 3 3 7.: h ; 3 : 9 T ( F 9.| E Q.} ; h q.F F y 4.( F 3 : F f c : : y 3._.; : 9 7 : ( 8 8 T 0./ (.: 3.: _.h h 8 8 F 3._ p.9.<.E E 7.} 9 6.4.( 6.( : 9 b T 4 - b h < < 3 9.0 3.4.8.3 4.P.8 6.4./ y : E | U z A 0.} ( 6.9 F 7.M.E 4.E } r.P.q.} y 4.( F 4.; <.6.4.9 6.6.: y 7.",
"M./ r.P.v.=+0.(.: c 8./ E 7.7.F T 4.7.T | y y M.F E y } i r.| y ( } 9 } ( 7.; 9 E E 8.| q.T / 8 F } E y 4.3.F 6.4.3.4.F 7.| ( ( F } 4.y M.q.M.} r.} 6.( h.x e.,+7 ; 5 3.q.8 7.E y T F ( ; E 3.3.3.: 4.P.6.: < 3.3.4.W.8 3.3 7 9 ( 3.0 0 _.7 7 - 7 < 7.<.6.0 F : 0 < ; h 3.| 4.; } } y 8 <._ } F F T 6.| : 9 7.E /.T 0.( M.6.h 9 ; 6.7.8 6.3 4 8.6.h 0 9 ; <.9 <.F r.F 4 6 7 p.} z h } ( F 3.: < ( : 6.3 4.( _.A 0 z 0 3 3.} 0 6.} 9.q.} F r.y ( E 4.E ( v.7.i _ - P v.8 8 T 3 7.4.} } E 6.| F y T E 4.9 6.( 3 : : 3 3.9 9 } 6.3.",
"i h.h.Q.M.V.| A h 6 E 3.F T | 9.7.4.F r.E T ( : ( 4.3.| r.T ; y ( 4.} M.| T 3.8 M.( 3.7.; } 9 7.7.F M.} M.8 y T ( 8 | | } ( y | ( 9 6.} E 9 : q.3.M.3 E 6.M.`.,+; E < | r.<.E } y 7.( 7 <.} : <.3.( y 4.<.; 9 W.8 0.} ; : 3 ; 9 6.; 4 7 < _ _.: 7 : ( : 9 ( 2.7 F ; 6.( E 9 6.4.E 4.3.; - / r.E y : 9 6.( 8 y Q.8+2.T ( 3.3._.< E h : < 7 ; 6.3._ = 7 <.4 h : y 6.<._.0 : 4.( 6 h : E ; < 3._.3.3 ( 3 4.} ; b 7 ; _ <.M.} } 4.E x 9.F _.T 3 4.4.M.y | / F ( r.0 ; p.9.4.} 9 : ( T F 4.9 F ( 9 ( 7.: <.4.6.; ; <.3.} 4.8 7.3.6.: ",
"| 9.0.9.6.d.R.c 7 <.7./ M.F | M.| ( y 3.( 9 8 ( / 8 9.9.8 3.T Q.y q.M.T F 8 8 8.M.r.T E 3.E 4.( : F } 8.; 3 7.} y 7.} ( 4.F 4.3.3.( } ( 8 y M.2.E } 9 6.} M.T.f+M._ A y : < 7.: ( 3.3.; 6.4.0 9 } ( y 9 3./ T 9 F M.6.9 9 3 3.3.7 4.7 : 3 3 <.F 7 ; <.<.h : <.3 ; E 3.} : / } 6.9 < 9 - 3.T 8 F 7.: <.9 6.| <.3.8+7.v.1.y 4.< 8 ; _.< 4 3 7 3.7.; 7 0 7 3 3 ; : 7.< T < 3 ( 7 <.7 T P.7.7.} 3.y 6.<.7 } E E <.P.< _.y T 7.4.| 8.M.M.<.i 9.F 8 r.y 9.0.F | ; p.<.F {+M.8 } ( 3.6.( : ; ( 3 : 3.7.9 6.3.7.6.} 6.: 8 8 | y ( 6.: 9 ",
"0.h.W.8.( i Q.(.( F h.1.8 } ( 4.3 } F 8 } 4.} y 2.r./ F 9.M.2.} y } 6.| | 8.r.8.9 9 7.M.8 y 7.y | T } T 9 y 8./ } } y 7.4.E } 7.T 6.} y 3.: M.8 ; E } i 2.7.v ]+2.* 4.M.< 9 3 6.; 7.3 7 < 3 ; } E 7.9 ; ( | ; 3.4.<._.: _.< 6.4.( 4.3 0 : ; 3.3.0 ( 9 4 4.r.; ( } F 7.4.3 E } 9 : z & 7.E E 9.8 9 3.M.T M.7.( 6 |.r.#+; : 7.3 4._.= 6 7.< 4.x | <._.( E ; E E ( ; } E : : 9 3.: y P.S.E 9 0 ; : 3.< 9 _ _ <.E ; h : T / T F Q.P.8.: 4.r.F } | u.i y : 6.M.2.W.9 w 9 y y 9 3.9 3.3.7.4.4.F } E 9 3.9 } 9 } } E T 7.6.9 7.E 7.6.F ",
"M.P.9.| 8.c.`.6 9 M./ M.4.4.} E 7.8.7.r.7.4.y y y / E T y E } ( ( r.F r.: 4.( E ( / i M.} 4.y | E 1.F M.3 9 7.E y | | 8 2.M.E y h.M.F 7.} q./ 4./ r.y E y ( P.B+8.d P.: ; ( T 4.4.<.: _.0 3 ( 4.( 4.7.3 ( : 3 E ( : h : _.3.3.} 4.3.6 h 3 ; z 0 ; <.3 7.6.F 3.T p.E ( 3.y / 6.} 4.: i 8 6.E 4.3.: 3 : ( 7.< < ( e 3.K.: T E 2.( : ( i 7.4.q.6.; 0 7 ( 3 F y } F 7._.h < } 3 ; ; ( 8.T 6.- 3 8 7.7 ; 7 ; / } 3.: h T i F 8 q.v F ( y q.6.7.} r.r.6.8 } r.8 8.6.T 4 h.F 6.3.( 4.8 6.: <.<.6.4.F F E } : y y 6.E 9 F F 8 y 6.| } 7.",
"9 < q.M./ i #+_.9 9.8 4.9 } 7.y } ( E F y / M.| T y E / | h.y E 7.M.( E 4.F y T y } / y } 8 q.y Q.E } F ( r./ y T 9.T q.F 4.| T E 3.| 1.i Q.| x Q.: y 9.: _.9.c.M.5 9.z < } _.; q.<.9 : ; 9 3.7.E 3.9 9 6.3.3.( 3.; <.F 3.6.8 E 7.; : 9 3.: 3 {+< 3.8 F 3.9 9 8 E 8 ( 9 } M.r.8 E 8 | 8 F 9 3.<.: E } } 3.<.8 x f ( 2.( 4 } 3 0 : 7.F / h.3.: - (.3.7 M.} r.T <.z : 3 F E 7 } 9 3 p.: 6 h r.8 E 8 < 7.r.2.4.T y F ( 9.} 9.r.T / 9 8.3.6.7.r.7./ 9.1.1.F E M.: _.| q.T 3.4.6.4.3 3.( 9 6.4.E E } } 9 4.9.| 3.4.8 E } E ( F 6.( ( ",
"; 7.q.7.: 3 Y.<.: Q.( 8 7.| M.7.} } F T T F 8 8.T | | | i 8.r.T E E E 8 8 F h.8.7.r.T 8.7.T 7.} / 4.M.6.3.4.7.E } T E < 6.6.8 } 9 E y E 8 8 9.4._ 4 : : : 6.6.&+i d _ (.2.<.6.4.h < M./ 8 E 3.| 8 9 3.6.} ; 4.; 4.4.( F 9 6.9 ; h h 7 <.3 <.3.3 3 E 4.9 T 9 i } T 7.F ( 6.M.y 8 ; } T 6.} ( 7.9 | 9 ( ; < 3.} q.@+h F 6.} : ; F h _ ; 3 8 8 h = 6.F y ( T E E ( 7 3.T 4.h 3.6.< } 9 (._ M.8.} T q.8.8 E r.T 9 ; 4.M.9.T T r.T 7.( y F / T y | 2.8./ 4.y T 1.: 3.r.4.: 3 9 } : 6.E T E } F E E } 3.7.y } } T / } 7.} / | } 9 9 / ",
"F 8.( 0.( / b+T : h.6.7.9 F E ( M.M.r.F 8 } 8 M.E 4.E T 8.T 8.8 E 7.T 6.: 9 1.4.F 9.i 7.y } y y y F M.y F } } / y y E 6.4.4.E ( F 8 y / M.8 6.E - 8 9.3 ; 9 E R.v * h 4 b ( 7 ( 7.E h.3.} E 4.} h <.T y E ; 4.; E 9 4.4.E F ( 9 6.3.7 ; <.0 0 T } 4.; E T 6.: 4.; ; < E 8.| E 7.4.3.} ( 6.} } F : : 3./ 3._.j.2.3+7 h.6.: 0 ( 3 3.| Q.: 8 < <.3.y 7 7 h } r.8 ; 4 8 6.<.3 4.4.; : 3 3 6.< 6.} T : q.( | Q.3.: 9 7.T T T M.q.7 7.F y F E r.} 2.x i | / T 4.8.7 ; 6.9 } 7.F 7.( 7.y y 7.y E / 7.4.7.4.T 3 y 7.F 4.E 8 } 9 ( 9 y 8.",
"9.U f.Q.9.h.9+7 < u.E E 3 7.4.T 9.8 } 8 F T r.F F 2.M.2.q.E } 7.E 8 T i 1.q.q.M.K.h.E y F / F 7.E | 8 T 1.8 E 8 T ( 7.F ( 4.9 4.4.7.v.8.8 F 9.( 9..+h.7.E } } K.&+d - _ 4.h 4.9.4.8.( E E y ; 6.7.9 7.} 4.7.4.4.4.6.4.7.4.( ( 3.0 ; : h 6 _.T !+1.3.9 7.4.( T | 9 4.i 0.| T 7.9 ( y 6.( 9 } } y F 8 M.3.} T =+h c+M.<.7.T r.y <.6.h 9 P.W.7 ( h 6.E y M.8 r.7.4 4 ( 9 E M.7 } : 3 } } 9 P.9 T M.3.| 7.1.} ; 6.9 r.( 6.v.q.7 F W.8 | F / P.i q.Q.y 9 3.E | w F ( } 6.y M.y : 4.} F 7.4.E F 4.( 7.( y y r.8 M.} } / ( 9 6.y F M.} ",
"8.2.h./ h.v.9+4 _ p.V.9 9 F r.7.i } ( P.7.3./ / y y | r.3.} ( } } 7.8 } 7.T q.y } 6.F 8 F 8 F 4.y F M.i / y 9.P 4.4./ ( ; F 7.T 9 9.8 T ( 3 6.< 4 ( ( < 9 4.E J+_+a ; }.3._.< 3.( E E 4.; h _.9 F 9 | 9 6.7 ( 9 4.6.9 3.3 ; 7 3 : 4 ; <.3.9 ; b 4 7.4.y 7.h.F | ( r.h.9 E 3.6.3 6.4.} 4.<.6.| y 7.r.8.3.< 3 w$z l+3.: 8.p.7.0 < 3.T T r.} 3 3.h } 3.q.8.2.7._.| 9 7.8.4.h.F 3.y / | 3.r.x / W.3.9 } ; W.: 4.F P.F M.h.q.T } | } i T y 8 6.F r.4.E h.p.9.| m+p.0.&+#+8 ( 9 } } F y 7.4.7.y 7.T / 8 M.8 | F y y | F y | y ( y / F ",
"q.8.9.2.S.A.d.- 6 Q.]+| h.2.9.E q.r.y / F h.T 6.} T / : y T T | 7.| q.h.F } 7.4.4.| T F 8 8 8 M.8.| M.} 6.y F 8 3.6.3 3.9 | 8.T M.9.( M.3.} r.T i 7.y ( } F / !+a.; - 6 ; 7.; 9 3.<.h 7.3 : : 3 F } F E M./ | } 8 / 8 e.6.; 8 ; < 3 : 0 < 6.3.3.T } T / 8 E ( 8.V.( ( M.9 ( E 4.8 y ; : 4 E ( } 6.E 8 : F r.H$= @+3 y 8 0.<.- / 8.T 0.r.< < y : 6.r.y | < 6.M.6.<.9.| 8 ( ( | h.| Q.7.: / r.( } 7.E 7.7.6.F Q.7.7.i p.8 h M.M.r.1.; ( ; } | 3.3.E 9 ( 7 v.9+i %+n L+{+q.y M./ E y ( T E F / / | 8 M.T y F T q.8.F 8 F F E y F } ",
"i P.P.h.8 } U.0 - 8 L.9 F ( 9 7.h.7.4.E ( 9 M.8 T q.( } T E 8 r.( T F | : | r.q.W.i E / E / | T 8 ( 8 i y T <.; 3 : ( 7./ 1.| 6.R.q./ 3 y P.T 4.T ( | F r.8 i P.j _ & M.| 7.y } 9 9 ( ; : 4.r.3 9 } 7.4._.< 3.( } F F h - <.; 0 7 : 0 6 _ <.h E r./ 4.9 6.( 7.E } <.3 6.7.q.| F y 4.7.7 4.8.T } | E : E 8.t.(+a 3+b 2.0.3.<.p.W.} Q.h._ h 9 _.4.F r.| 7 } 6.4.4.3 M.8 8.E y 7.y 7 7 _.0.i ; y r.9 1.4 E 3.u.9.} 8.R.7.; 7.T 2.y y E M.| h.x ( q.8 T 3.4.w  +r.I$x@9#n+Z.} 9 ( E 3.: M.q.| T 8.i | 8 y F / | 8 T E | E 6.( F } } ",
"0.r.T / 8.h.1.8 & 7./ = 3.4.} ( 6.; 7 7.( 7.7.3.4.F 4.4.4.3.E ; F ; M.y / 1.2.T ( 6.F 6.T y 6.4.3 i i T 7.4.4.8 7.8.8.9.q.T M.1.T y 8.y y 4.6.3.6.E E E 8./ M.v o.7 |.f _.3 9 9 E r.< <.} r.3 ; 7.: 3 h : ; ( ( 4.F 6.4.9.<.: 3.<.- <._ _.<.0 3 <.M.: 3 7.4.; 9 3.3.M.( 3.E E y ; 3 z 7.4.( 7.; <.7.} } 4.p.U 3+@+z M.6.3 r.9.} } M._.( 7.: 7.6.| F : y Q.M.Q./ x r.8.Q.| 4./ / 0 0 r.M.y 9.<.6.} < y v.x / <.| q.8.9 F p.9.F i P.#+W.v.L.u.1.M.h./ y / i E 3 J$~$J#F = h 7.; 3.; E E 7.F 8 8 7.E } 4.T / y 8 E F F T 8 | E } E ",
"2.q.r.E 8 0.p.M.d 9 3.E h.7.( 6.E 7.F T E 7.8 4.( 3.< 3./ 8 : F : 7.T 8 7.y ( 9 : E } 4.} } M.: ; 9 7.9 y M.3.4.| / 4.8 2.9.| | T } F E E : F 7.} 8.1.M.8.P.M.Y.c.b 5 ; F ; 6.( 3.< _.; y : 7 T ( 9 9 3 3.3.4.; 7 3 | | _ 3 9 6.<.3 _.: <.3.< <.9 h <.4.9 3.3 ( 9 6.; <.<.3 < h < <.F 7.; 6.3.; < h _ _.P.b+| [.3+7 e.e.8 3.y Q.8.6.3.( 8 3.y r.; h 4 | } / T 7.3./ F W.7 6.M.; 9 W.| 7.h.F 6.8 9 ( y x T.v i Q.x S.0.U.M.1.0.r.| ( 9 r.9 ( 3 q.K.v B+2..+z 0 +${.=+J+h p.&+++S.( < F v.c.0.E 6.} 9 6.7.4.9 4.} ( } 4.3 : ( 7.8 ",
"E v 8 4.| < _.8+|.8 p.b+( y 7.: 4.9 7.| y 4.4.( 7.3.} 7.h <.3.<._.3 ( } 6.7.; <.E 3.< < 7.6.; < ( y } 9.8.7.h 8 6.6.y } } 4.4.v 8 < ( : 7 F T y / / ( } E r./ S. +- a v.( _.9 3 < ; 6.3 ( 7.9 ( 6.: 3.9 4.3.( <.; < 3 _ - <.h 8 E 6.4.7 <.: < < 4 3.; } ; <.3.4.7.3 ; < 3.<.4 h h 3 6.< ( 0 y 6.< Q.3 V.!+v.6./.q.V.6#K$Y E 2..+E <.h.!+U.0@A.6.&+)+S.i 6._._.= z 4 0 6 ; Z#0.L$-+$.f+M$v | 3.2.P.P N$O$V 9+{+W.F 6.Q.w 9.p.R.0.v.T k+#+r.v.+$G#_+(+1$[+-+= | #+-+P._ c+(.!+ +7 <.7.1.y+^+)+L.v.4.; 8 W.3.9.T ; 6.6.h 8 6.y S.| ",
")+~@7+j.w+Y.&+{+k.^+^+<+X.l.k+~@A.w } 6.; < 7.8.8 y } } 9 ( E } 4 ; q.7.w 8.9 T Q.3.3.8.: < 7 9 9 3.6.h <._.<.E 8 9 <.3 E E e.f$P$7 4.3 E F 2./ | q.q.M.R./ / U.&+5 z A+v+m.m+Y.P.y b ; 4.: 4.| 3.3.( 8 E 4.F h ; <.T 0 ; <._.8 0.L.1.6.< Q$:@R$< _.<.( <.4.y T 7 3 7.6.6.3 ; E ; - | 7.| q.E 3 3 r.++;@S$T$U$V$W$X$Y$Z$`$W@E# %.%t#I.X$H$ %9@+%b@x$m#A$@%t#P+F$1$V #%$%%%7#u@Z+v@X$u@&%*%=%F.-%;%;%x@n#>%,%c.N$f$2@:+s#F$'%)%%%U#P+!%Z.~%C.e#{%-%f#4@!@X.%%7#X+e.a @+} s#g#*#j u /+r M+e.0#p#r@f+ @m.-+++m+*+b+,+s.n+j.i+k+n.s.",
"_ ( z g A & A 7 E q.P Y..+=+;@k n.^+m.,+V ,+@.u+/+/+*+n+*+{+a.w+v B+m+V L+/+w+L+M+n+[+@.a.T.!+k.9+V [+,+ +.+x u.q.q.Q.S.T.-+=+t+L.R.w v.P.Q.v.| h.p.W.9.u.S.t.$.7+: 1$]%#%!$i#q@^%2$6#~+u.Y#h.y$u.M@/%(%_%*#:%3$x.<%3 = 0$F 0.[%V$}%|%V#1%%+0@O#b+u n.Z d.&+2%4.7.K.1.U. +S#$#++U.j m+u.t. +u#b.a.3%4@d$7 E 4%8+/ .+P V.p.Y G.e#5%P+i#L@6%K.W.j.~%W.8.w *+*+-+P#H$^%7%H$8%9%w+J+;+B+Y.A.e.]+f+q+@.u 1+~+=+0%W@u@a%c@x@r@b%E+n+o r q+w+D$$+@.c%< )#< d a 6 l$A$P.A g [.z 0.p.i d%,%e%y+P - >+f%E v.U.Z..+K.v.8 h.y ; 1.u.Y.#+ +b.",
"3+8+|.8+3+@+@+g+e /.a c c * g c b 9 9.v V k.!@!@!@1+;@t K+z+o o {@l@n n n o M+<+o {@ @n n t N+M+K#j#z@n K+t  @,%i@q#M$K+{.L+^+,+f.^@C. @f+K+^+]@;@%%x+u+C.u+f+g%9.0$K.w E T T } r.P.Z.9+V#y@]@h%.+U B+*+!+{+O L$ + +u.E@v.i r.i%x././.g j%& d c j%k%6 l%m%n%g c (.d * z o%>+p%[.[.g g g e g q%a r%o%5 e+l+8+@+l+5 |.c+c+g+[.g * [./.g e @+g+g+g+3+3+@+@+g+@+@+8+g a }.5 d a }.5 a 5 d /./.d c z c c c g |.g |.5 5 5 a * * 6 = c b * d e /.a : c f @+e f f f f e e 8+8+@+8+e e s%t%'#}.[.f 8+8+e f 8+f e /./.[.f e /.* a a }.- 7 ",
"9 <._.- : } 7 3.9 0 _ 3 }.5 * z }.[.g /.g d (.* 5 c (.z - & b 0 z } F | T } _ 7 F 7 < ( 6.< + 9.I#4.}$k%u%v%< w%b$x T@4$0./%x%& |.y%$ G z%A%B%c C%N@:#D%P@E%y%F%c+8+3+g+8+3+@+[.f e /.[./.d |.e d a * & & A c c * d a d d /.d [.8+f 8+* e 8+/.g @+3+8+f @+g & * 3+8+g+e+c+e+c+g+@+8+@+g+e+/.}.5 l+e+e+e+3+c+e+3+e+[./.f @+c+l+l+3+@+e+l+e+l+h+c+3+e+e+l+c+g+f /.A d a f /.[.f 8+/.c (.[.8+5 @+d f g e d g |.[.* & c 5 8+3+3+c+8+[./.@+3+@+(.2.h.(.* & - }.& h 5 & 5 e f e 5 5 _ _ A a * * d z 3.h _.= = = c c 9 4.6 < 7 S.8.b & ",
"9 7.y ( 9 7 - 0 7 6 0 h c (.4 : = 6 0 z z 4 _ 0 h 6 0 4.7 0 : ( 3 / T 8 3.E 9.<.h.1.1.8.q.E U.v.T.Y.i h.0.: 4 ; 3.: * 7 _ _.5 |.f 3+5 [.e @+e g+f 8+8+f g+3+g+g+[.e @+c+g+8+@+3+g+@+3+3+c+c+g+@+8+3+3+3+/.d 0 a e * A A <.6.A 4 _ = T S.4 y * = 6.} 9 : h ; * A z 3 z < | : 9 3 _.c A <.b & * - }.A & }.6 c a * g |.a g b h A [.@+h+}.l+c+l+|.[.5 4 h F b T 1.( 3 - - 0 9 8 q.9 J+#$y _ _.< q./ h 3.(.6 c 5 c & A z 0 7 ( < 9 q.b b |.7 8.B+M.d [.|.<._.A z - 3 2.P.8 8 / 8 T ; T q.q.8 6.q.0.r.7 <.8 / M.( x M.E 8.0.h.h.0 <./ ",
"p. +R.h.i M.T 1.h.9.r.} / 9.q.4.8./ i Q.2.h.p.v.0.r./ 8.i r.T 9 h 6 _.z = (.< d }.(.S..+} 3 ( x _.- 0 h 0 6 _.b = - h 3 7 0 _./ 3 y } M.T ( } F 6.6.3 4 <.- F <.7 7.0 7 < d * g /.}.4 _ 0 : y } F 9 3 3.h * 6 a 4 3 9 7 ( _.7 (.z 9 3 V.T _.F .+#+p.p.K.F 8 T r.8 r.y 0.r.9.q.r.} 4.y h _.9 / A.v.v | y 7.7.x Z.r.D$%+^@H@d.V o.W.h.F P 9+b+<@x+/+d.8 H@7+d+Y.j.a.S.x A.T.e.c.W.`.G%T a < `..+W.A.v.L.K.| T.9.P.P.K.P.h.r.| Q.7./ r./ &+V.6.a e }.v.A.L.c.e.!+t+W.h.M./ r.M.T T w 6._ 4.7.8.6.( 7.1.i r.T h.| h.: | y 9.q.7 T 2.",
"i 1.M.h.M.F q.h.r.8.2.W.2.8.2.y ; y 1.x i / h.v.T T / 2.S.q.q.i 0.x {+i P.u.r.r.Z.m.T.m+i 7.]+r #+P p.2.9 h : 3.4.7.h.F 3.: 0 7.2.i < <.4.< 3.: h F / 8 q.9.M.( 8.3 < 6.3.7.7.x / F 8.- <.h <.: A 4 9 _.Q.K.I@` R / T <.<.* b h q.q.4.&+q.4 {+w i y q.( } / ( ( ( | T 8 F M.( 7 ; < F } _.3.T 9.<.i v.| u.U _+K@R#H%I%J%F$C+K%R B$($>$L%M%N%~%B$n$5#s#~%Q$m+f.B+S.w e.w j.A..+`.S#}$y 7 : U.y M.8 8 ( 8 } 8 7.F / q.T 7.4.< 7 h.} 9.| 9.E 9 4 : 8 9.i h.8.0./ 6.6.7.( F E T F 6.3 <.<.3 3.6.8 8 E | 8 y 7.; } F q.x K.| 1.M.9.8.",
"8.h.| r.F | r.T / h.2.q.h.y E ( 6.8 8.M.M.0.0.8 F | 0.v.8 M.h.h.v.1.8 | r.y E q.1.9 2.d+6.0  +F 3 7.]+/ 4 0 6.F 8 T <._.F 6 z 3.- z 4 _.0 ; : ; ; 4 7 - < z 9 6 : < 0 & c A 7 ; _.4.- h 6 _.7 h 0 < 7 0 & 7 : 4 (.- A z - 4 y / | ; <._+E ; v.M.} ( 4.8 8.M.} 4./ r.8.r.M.2.h.8 4.( ( r.<.< 3.: 8 r.7.; 6.8 } < 7 9 8 r.E 8 9.y l$O%=#F F } T E E F | F E } : h.7.E } i r.E 3.( 8 i 4.A h `.9.8 ( ( 3 <._.4.3 F ( 3.<.3.6.| 2.} ( 4.y 9.y r.} E 8.M.E M.: E 3.7.: 4.F } 9 : ; 4.7.3 h.y y F h.r./ 1.8 E } 8.T | 0.M.8 2.q.| q.9.",
"| | F M.q.r./ / q.P.P.W.2.| / M.F q.0.8.T 4.8.Q.i M.9.q.9.P.r.i Z.0.p.8 F } F M.8 : `.A+/ - 9.b * 7 h.- a : 4.( F h - h 0 _ ( 4 <._ - 3.E 6 <.h 7 _.6.3 T 8 h < 3.6 = <.<.< _.9 <.h _ _.< < <.b 4 6.0 h 0 M.6 |.a _ 4 0 : < 7 ; <.0 7 ~@9.z / y 3.} 8 3 4.3.M.q.| } : | 1.2.M.6.7.y E | 4 : q.7.T 7.4.( r.9 E 6.7 q.9.7.9 8 } 9.| q.( 6.T v.6.q.2.8 T E 3.M.M.r.F M.T y i E S.8 8.| 4.}.3.P.q.E } } E F P.h./ E h : 3.} E } 8 M.| 9 8 T T 6.4.| 7.} M.| E 6.y 9.8 / y : y / T E 4.9 3.< 7.( F 8.q.4.( F 8 0.8.8.R.1.w T E | h./ ",
"8.8 1.9.r.| T 8 8.v T r.4.E E / r.Q./ q.r.M.r.7.} q.y 9.7.9.} p.} E i / r.T i | / S.P._ 9.b 4.6.0.A.E 8+h 3 ; <.7 6 E 7.; <.4.h < z _ 6 _ ( } < <.3 3 _.y 9 : < } 0 _.= - 3.< 6 c _ h : ; - h 3.z 6 <.3 : 7 _.5 ; 4 4 3 < h z 3._.z _ t.R.0 M.7.<.4.3 E 8 6.} ( } M.9.i 8.M.h.0 3 <.: 7 h 7 y ( 9.: <.3 7.} } } 7.q.0.F y } ( E T 3 = 4.y q.E T 3.: E E 6.M.| E v.E } q.| W.q.} 3.i h A < v.y 9 y y 8.v.P.y / 3 4.u.7.: 8 E y } F 8 8 < 9 9.} 7.3.E 6.8 7.} 1.} 6.y r./ 8 | <.6.4.| q.2.E / 8./ ; ; } 9 2.u.r.u.F M.T E T | | 7.",
"q.q.| 8.8.} r.8.8.2.E M.| | T M.T 9.M.1.8.| | ( ( 8 W.q.r.h.0.q.7.q.h.} | v. +V.1.} 9 `.P - ; a }.6 c+f ; 9 3 ( 7.: 4.4.: 3.0 0 _ _.E 3.} h 0 z 4._.6 4 ( y < h ; _.: 3 | 7 7 < : 0 3 _ 4.8 z 7 0 z z 4 : (.z <.9 y 4.<.h _._ 8 <.3 3 u #+4 q.; <.9 : 9 7 9 : : <.: 6.9./ 2.M.0 3.} 4.F : 4 F T : h <.4.} 3.y 6.; q.3 < 4.: F 9 } ; M.| T 8 r.8 8 E E <.7.p.r.8 6.} / x | E 4.( | / 6 * _.1.T 3.r.9 9 7 h 9 < 4.3 <.7 v.M.8 V.i y } <./ 9.T 6.: h.8.P./ 7.| 0 3.E T 6.; F 7.8 y M./ T i 7.h.r.8 T F r.E T q.7./ 9.2.1.| M.T r.2.",
"M.8 / / F r.P.9./ r./ F F q.M.F / Q./ q./ T 8 q.8.M.M.T | M.9.8 M.1.| F / q.8 i 8 E E x j.6 <.* < h 0 3 ( 3 9 3.| < 8 F <.< ( 4.<.6.7 <.4 7 h < < b h h ( ; - 6.( ( y ( <.h <.9 6._.3 _._._.- ( 7 1.4.8._ 7 _.< <.h 0 - 4 F q.; 0 b ; ;+-+A q.: 3.3 <.; ; 6.h 3 3 3 } E M.q.; z 6.8 8 W.7 <.r.h ; 7 F T 7.7.9 : 0 9.3 7 3.r.6.3 9 0 0.Q.2.8.T F F 3.< 4.Q.M.: 9 / 6.q.y M.M.} 8.7 0.6 & 7 P.E 8 F E 9 y 7.F 7 3.r.1.8 4.y 7.{+3./ / / 2.9.E : 3.F E } <.( E y | / ( : E 8 | 7./ M.F F 8 } u.} F 7.| y 8 q.8 i F | h.8 E F / | 9.",
"r.h.2.i y 9.F | 8 8.Q.q.r.8.T E v.T 8 8.9.8 v.h.8 / } E E 8.E | i 9.r.| 9 y ( 3 7.( 2.U ++- 4 6 b <.| E 9 ( : M.9 ( <.h _.4 0 ; ; h 6.3 _.3 3.7 ; z 7.7.3 ; < < 9 h 0 9 7 ( } E 6.<.9 < 0 = ; 4.6.7 9 z 6 3 6.3 7 h 3 9 <.3 <.- : <.; ]+m+= 1.7 ( } 4.4.7.E : y } 4.M.9.q.6.- < ( 3.4._.0 ; 9 9 6.4.8 ( : 3 h <.4.r.} y r.<.3.7.4.8 Q.y 6.r.9 ( h 4.3 1.T 4.F 7.} r.3.9 7.8 2.F T W.& = 7.i 9.T 7.3.6.| 4.E 9 E 8.; 6.Q.h.F ( F 4.y < 7.7.4.; 8 1.Q.9.2.h.T 1.8 3 ( 6.r.9.T } 6.M.E 4.E 9./ F 4.( 7.7.M.i P.i / / 2.r.T F y r.r.",
"| q.T 7.y | 8 | / q.9.0.W.Q.h.2.8.r.1.2.F | M.F T | 2.8 h.Q.W.q.h.F / 4.F T h.F T y 9 h.9+_.6 * <.3 4 6 7 h _.7.E : 9 <.4 0 ( 6.3.< 3.7 < 3.; 7 7 7.8 7.F : 0 9 9 9 y 3 < T 9.r.< _.4 6 h 9 ; 0 h ; 0 3 6 0 _ _.<.: 7 0 : 3 < 7 < y E z+d+_ | 9 F ( 7.| ( F F ( 9.y 8.h.9.r.( ( 7 : 6.<.3 < 9.F 6.7.7.< 9 6.y y 7.8 h.M.F T / 6.6.8 9 3 y ( E 4.6.3.r.| 7.} 3.y y F 4.T r./ h.T ( 8.h = 0 x x E 7.8 7.} | 7 M.} W.F ( F y 0.4.| } ( ( T 3.h 9 3.4.| 9 3.F 3 <.7.: 3 F 9 E 3.; 6.6.7 } T y : } r.0./ r.i 9.E M.8.0.T F r.r.| q.0.",
"2.Q.| F M.r.| / / 0.v.M.q.9.| 8 q.M.i M.y q.| 2.M.2.| 8.r.| 2.| 1.8.0.r.0.2.| 2.0.8.1.W.s.4.6 & : ( : 3 7 0 T 3 9 6.8.F 4.: 9 9 7 <.4.9 6.T - 6.<.( 3.9 7.E / 9.( : 9 } _ 4 ; _.0 0 3 < 6.( 3.h 3 _ : h 0 7 _.< < _.0 ; < : q.1.2.M.v.D+k+- 8 : 4.E } E 4.6.: } y } h.Q.r.7.9 3 < } 6.y 3 7 r.F } 7.| 7.8.q.q.T 7.P.o.3.q.T ( F T } 7.T q.8.M.3 8 F | M.M./ 8.1.8.7.F 1.M.v.T 6.E M.<.(.3 P.| y r.T } } : h.E E ( 8 y E 8 h.} F M.r.y 9 F ; 7.6.Q.8 3 F F 1./ q.8 T | r.8 6.9 | E | 8.| | E r.r.r.r.0.x P.Q.8 8 } i 0.M.i x R.L.",
"q.8 8.0.q.6.4.2.2.q.p.Q.v.8.F M./ } M.8 8./ i 8.i y 8 M.4.0.M.| M.q.r.E 4./ 8.E 4.7.T W.b+7.b a } : <.7 4./ : 7 | | y <.9 4.9 9 ; 7.E } 6.4.3.8.7 0 3 <.F E 3 r._ 0 z 4 4 8 9 3.<.3 6.3.4.9 ( 3.<.6.( 4 E ( : 6.y ; 9 <.; F W.b.++; M.k+k.- 9 3.E / F 7.| T ( } M.E E ( ; 7 6 3 : 7.3 3._.4.2.T 7.h./ M.y 4.6.4.6.q.0 3.; 3.| | F / E T | F ( : M./ q.i r.r.F | E 8 2./ / q.q.7.7 V.} }.3 0.i ( ( 9 <.| 3 h 4.K.2.8.1.v i Q.7.r.6.} ( F } 9 E / E 9 7.r.E E 0.r.M.F q.P.Q.W.S.6.Q.q.M.y 1./ T i 1.p.P.F F T h.| 8 2.6.6.W.M.P.1.",
"8.0.0.9.9.7.M.Q.h.v.| 8 4.y 7.E ( | 1.F F i / v.r.8 P.F |  +8.r.E 9./ T 2.y y 8 / y 8.r.v.( a A : 4.: / 9.7.E P.U } 3.7.< 4.E 7 } 6.( E y / y F F 9.<.T E < E < 3.( 6.7 3 7 ; 4.< < : ( ( 6.0 7 7.6.4.4.; : : r.3 8 8 9.T 4.w 7#g@.%P%u+s.<./ } T 7.6.} E F 8 F h./ 7./ 7.6.6.< 3 3 ; y Q.M.0.| y E 3.6.( 0.0.h.8.P.6.8.3.x 6.M.0.8 8 h.M.F 4.M.U.1./ 8 8.| } M.y 4.: T y E 7.: 7.d.P 6 < K.; E 4.F F E } ( y F } 3.9 y E M.8 1.| 8 7.F r.3.( M.6.4.} } | | 4.7 M.2.v./ } y : F 9.9.q.1.h.: P./ T 6.; ( 2.w q.x x | E u.} q.i } ",
"Q.v.q.T y 8 p.2.v./ F | / <.9.8 i M.9.i 0.Q.1.M.T 9./ q.8.Q.1.F 9.r.M.9.i 1.Q.| r.q.9.4.v q.5 z b 4.T T 4.T E T 4.0 3.3.} 3.E 3 6.r.y } 7.} y ( 6.7 < 8 2.7.9 3.T h.6.9 F } y 8 7 ( 9 3.: 7 ; 4.: 4.y : 6.E r.M.T / P.} 7 ( T $#w# $7#N+j A 4./ / } 7.4.T 8 y 8 8.| M.| 3.4.F 7.F 6.F 8._.7.W.q.7.h.F 8 q.q.F ( ( x ( 8./ | T M.( 4.y i / q.1.8.9.4.| 9.F 8 Q./ 9 r.q./ F / ( 8 y v 3 8+6.7 r.i 0.8 ( y F Q.R.T 4.; 3 } 8 r.4.h.4.M.r./ 8 4.} 2.x q.7.; 4.E E r.} Q.r.} q.9 q.E y i | F W.2.3.8 h.y W.2.P.i q.r.E } q.y r.x P.P.",
"0.h.x 1.h.| 0.x 8.2.9.q.1.2.Q./ T r.v.8 q.M.i | F | r.9.W.8.7.y h.8./ / | i 8 E | r.1.h.o.8.& 5 T S.y _.; 7 F E <.6.T 7.<.F } 7.1.| : F P./ 6.z < ; 6./ <.( 9 9 } h 7.i y : y <.3.3.6.6.; 6.9 <.9.r.9 : 9 y ( | h M.: 7 7.z 0 } 6.r.##,+&+- : y | E y M.M.M.| q.M.M.T : F M.| 9.E M.r.r.8 T q.4.q.( 8 r.| } 4.h h 8.| 3.r.8.6.Q.y ; 3 4.M.( q.V.p.8 M./ M.q.} 4.i p.F | T E 7.F 5 8 z g+0 7.F R.8.h.2.r./ T r.T T 7.8 P.q.1.0.2.8 M.M.r.4.r.P.M.= 8 6.( } r.| v.9.M.6.7.} F q.u.8.M.r.v 9.7.T  +q.7.h.h.T y 4.r.T M.9.8.i M.h.9.",
"u.u.8./ } M.V.i 7.r.T 9.( | F E 7.i T i r.2.v.p.M.h.W.q.2.8.T p.K.h.M.i h. +/ M.v.} 8.Q.`.h.& (.r.2.9 } 6.7.y 3.: 3.7.4.9.6.( E } 6.| F : 8.<.7 9 : y ; < 6.3 8 7 3 3.< 6.6.8 6.7 h 7 7 <.4.0 <.( : < 4.6.3.7.4.: / 4 ; _.( W.)+Q.& / h.i - y F } ( F y 8 y M.4.7.T F 6.y ( < 0 ; ( E 7.y T q.} y y i 8 | 4.7.p.8 0.3.6.R.W.F 7.3 9 3./ ( | i / _ y } | / 2.M.M.8 1.} i i r.8 F _ P (.f 4.K.#+S.u.<.( 4.4.r.7.M.i } 1.y E ; 7 4.( 4.8 9 T W.3.T v.9.| T r.E 7.8.y 3.: 7.y P.| 3.6.y r.F E 4.S.: / w R.i t+k.T.d.e.`..+U.T.;+.+e.",
"R.h.x 9.M.0.h.8 ( 7.9.h.p.p.E 4.q.1.h.2.Q.1.8 4.q.Q.v.2.0.8 v.u.7.T 9.M.i 4.7.K.i i U F 2.8.c A ( ; < 7.4.M.} 9 3.E 7.7 ; ; 8.: h.7.<.q.r.3._ : M.M.| 3 y < 0 6.7.8 E 4.4.< h < <.7 < : < 7 h 6.T 6.4.} E 6.y ; = <.3 E 6.( i v.7.A c y ; 5 6./ E E T y | F ( 4.4.4.3.M.T F 3 8./ 9.x 8 h | F r.8.M.8 3 3 F T / | p.Q.P..+: 4.h 9 E | 9 / x 8.3.y E / q.| } 7 9 T y / y h.8 r.3.d.f.z [.p.v.v.W.7 3.6.} 8 6.: 7.<.F | h ( M.<.<.9 4.7 y W.y / } h.4.h.F w | 9.3.( <.E | 8 } } 3 E : h.E } 3.T / r.M.} _+-+T. @p s [+=+q G+l@Q%R%",
"W./ 8 T T / F F 7.8.8.8.0.y 1.{+.+q.R.2.r.q.0.q./ 2.1.8 T 6.r.P.q.8 M.y E q./ ( 4 7.q.| F _ a _ 6._ 0 4.6.T 2.7.y 3 3 y 9 i ( 9 } ( q.( <.9 9 7.h.| 3 } 3.9 _.0 6.3 _._ <.6.8 ( 6 ; 3.6 : : 9 h./ } h < y E 0 ; E h < 3 7 A _ 6 = & a K.- c ( 8 7.E ( 6.9 ( ( 3.9 3.y ( 7.9 E h.T i h 7 T 9.8.0./ 2.8.7.w W.2.Q.P.i y q.8.| 9 r.3.4.W.q.V.y 6.} | F i 8 9 ; 3.3.8 v.2.S.8 2.2.f.}.h & h W.8.Q.P.<.} 6.| ; 6.} y F ( 9 3 } 6.: ; ( 6.4.y E < 7.3 9 E ; h : ; 4.} y F y T r.( : ( Y.-+2.P./ 2.P.( M.U.]+{@0.A.`.b+u.p.P !+.+c.7+/+",
"i h.( 7.E M.i 8.h.j u.A.B+R.8.T | 0.v r.0.8./ M.T 8./ 9.r.2.8 T | } o./+$+i+W.7.y x | 7 h g |.}._.7.S.8.E T } <.3 4.3.7 y h 3 4.h E 6.7 8.7.y M.E E 0 : 6.9 6.8 T 3 3.3 i <.9 0 4 ; ( ( 6.4.: 9.0 7.7.9 0 6.< < 4 E 6.4.4 E W.p.M.8 7+4@9.g 3 7.} 7.6.3.6.9 ( 3.y 9 8 : <.: F 8 | ; 3.7.6.h./ y E q.} 1.Q.4.E ( 4.( 4.3 y ( 3 } W.]+O$u.0.r.T } E M.E ; < 4.7 4.F | F T F S.} a 6 6.0 R.S.2.W.u.7.E ( ( 3 | 8 T 9 6.7._.6.7 6.| / 9.3.} 3.E 7 8.} 4.8.T Q.r.F 8 U.P.T r.0.7.E / y Q.8 8 y 8.F y r.W.Y.b+E Z.1+8 K.Q.U.e.f.v+j.&+",
"9.| | y y 1.;+v+'+@._+/+/+{+K.h.y V.P | T y M.} 3 i !+c.R.7.F 8 / 6.9.Y.u.p.h < 9 ; 3 F h _ 7 8 f.t.++)+)+~@_+R.!+y <.( | 4.y T 6.7.9 9 0.8 <.0 3.0 3.8 y 3.6.: < F E 1.E 0.7.9./ h.h.d.Z.P d.j b+#$1+}@S%3@8%6#(+T%H@U%$+5#w#;$V%-%s A@k !%8@J##$j $++%j$W%X%9+l.Y%Z%`% &.&1.1#/ _.E +&@&#&Q.j `.]+9+j.f.p._+j.8.E y A.p.p.<.E W.v.e./ q.9 ( 3.M.E <.T Q.V.*+b.A.0.E 3.P 4 q.L.a.w+%+b..%S%$&v.P Y.Z.Y.++W.r.y y 6 6 6.9.M.4.8 F h.r.6.8.h _ 8.E {+L+u q n+`.n.!+-+d.U k.#+o.!@X.U.Y.a.L.J+R.Z.J+d+l.;+d.v+u.%+A.9+m.m.N+m.s./+",
"= b _.q..+&+9+A.v.0.R.x P./ v j.)+u m+c.d.B+.+U #+&+/ | 7.r.F 4.A a / : E h - _.; 0 - A }.}.4 <.< 9 E E ( 0.y 7 w f.9%|+9@d+-+l.1+;+{+a.3@$%y$%#(+U%-%$%L@S%N$O$C.:+,%x@G.|@D#;%n#]$G.V%G.V%f#*.-.9#H.H.9#!$9#9#9#!$9#,.u$u$u$&.,.,.d@@.u.: F R.%&&#}%]#E$e.&& .~#r$p./ O 4$9$*&=&5$]#2.| : w i u.X@6%0#!.r@b@h%R@C.J$f$H@p.J+%+~%!+i A%@#-&&&Z.j I@n$ #Y Z@;&}$R.2.| 8 z 6.F h = c = (.6 4 (.A 3 8.=&>&-#S.1.W.R.{+_+~@$+u r#,&h$A$9@3%I$I$u@r+K#k#!@i+a.c.A+a.e.P  +b+_+c.'+L+$+@.t [+d+z+{@;@m.7+v.7 4 7 : / W.A.A.v r.: 3._.",
"e [./.}.5 g e e e /.[.f @+f @+f /.g /.e e [.e [.e e 8+8+8+8+8+3+3+@+8+@+| c.a - a d }.g [.[.[.g (.6 h 3 3 4 z 9.B+E : 9.1.v.v.w T h.2.9.< = b 7 7 z 7 | v.'&T%B.9+P###v P U 2#B$~% $X.-%^$O#p@g#g@G#t#s.t.o.P#)&P#!&g%~.m+L.&+A.v.9 9 0 & d [.@+g+c+l+h+j+h+l+j+h+~&~&j+l+h+g+c+l+e+l+l+h+e * (.h+g+_ x h /.d [.@+g f 3+c+g+e+c+@+c+f c+@+@+@+8+3+@+3+c+g+c+g+g+e+g+3+g+8+c+e+c+g+3+3+8+f /././.|.f @+8+8+3+f e d g /.f 5 }.c }.5 }.* (.4 = h 6._ <.6 & (.* A * 5 5 z g g * 4 4 z b _.7 b 6 - _ b * & h (.T F z g * a d a a |.|.",
"}.c d }.g f |.<.M.6.z z A }.|.a 5 e f @+@+3+g+@+* = z A & & - _ < 4 ; 8.T M.& 5 }.c * * h 7.8.E 8 E 6.3.3 < : _.h <.0 4 - * g g g |.5 g a }.& & A - _.4 z 7 a & 5 c b z _.& _ b - & 0 _.h z A z z _ b b z b (.6 A - - 6 = 6 c = A = (.* 9 0 }.a e c+g 5 d 3+c+A 4 a g e 3+d e g g [.3+[.(.6 & /.e e+c+5 (.e+g+e+/.* c+|.f f c+f 8+8+g+g+e+h+h+h+e+c+|.3+c+g+3+3+f g+3+3+3+c+c+g+g+g+3+/./././.e f /./.e /.e f * d g |._ (.g /.[././.[.d g |.g d b 5 8+8+(.f [.d |.d }._ 7 _.A * A c & g c 5 & (.- < E } i _.3 g & * c (.6 _.A < ",
"7.4 A b g [.b U V.; 9 < E E q.8 3.| 0.E / y 8.E | 4.E } M.i q.M.q.P U b+b.j T.;+!#{&w$7+h.7.W.Q.r./ | T 4.4.3 3 <.h 4 <.<.< z 4.3.y 9.h < r.0 7 7.i Q.r.E A 4 4 7 _ 4 3 7.; < 4 0 (.- = & * * * A z _.= * (.d a g a * g |.|././.[.}.- c _ 8+8+g 3 9 - 7.7.h 7 4.h 4.: 4.7 < 3 ; h h | } ( : 3 : ; ; 3 T 9.P.6.d 9 x ]&^&/&4 / } F : 1.1.2.} ( 7.y 3.9 4.( T 3 M.< (.- : 4.<.T 8 } F 2.1.P.x 8.r.2.y E 9 7 z 0.2.r.9.r.T 6./ / 8.F r.9 9./ : T q.p.f.$+x+#+4 E 7.L.K.f..+Q.Y..+++#+P./ F 9.v.8.2.P 1.e.Q.T u.9.| T | | r.y y r.| ",
"| M.F | } | r.&+#+A 7.h.F ( E 2.i / 3 <.3.} } T } 3.7 ; 3.< : 7.<.; 7.r.7.6 d h.R.E A A <.7.( 0 3 <.3 _.9 9 E E : 1.M.8.6.4.i u.#+2.: 1.v M.T w U q.1.K.S.| -+t+b+w+w+[+*+L.-+Z.K.A.L.Z.U.U `.&+A.!+P.d.b.-+c.b.*+b.7+*+K.P 4.E J+A+| : y P.R..+v.h.0.7.F F y y E | 2.4.y T 9 3.: 9 E y 7.p.i F F y u._+4.A g 5 } = z (&4 } | / v.y P.9 F 9 S.8.} h 8 : E r..+q.0 6.8 0 3 F 8 | r.i P..+P / h.1.} 9.9.Q.x A.L.p.( y q.9.M.M.F M.P.p.w 1.q.d.*+c.(+_&j < z ( K.U.2.x x .+Y.f.v 2.i i 0.p.u.h.9.2.| q.r.} 0.9.9 7 F | F F r.| M.P.",
"9.h.8 ( M.F 3.e.b._.E W.i y i 8 r.| 8.h.9.q.E } ( 3.: | 3.7.y : : 7.h : _ & 8+5 <.T T / 7.r.( ( ( | y q.h.( E 7.y 2.( } q.1.i T ( 3 ( 3.<.3 q.T q.M.7._.= h j.m.!+B+U W.8 F M.T q.E T q.i 1.y M.R.2.i v./ 0.W.R.P q./ q.Q.U c.7+T.1.| T x 8 : w h.( 6.<.3 6 3.4.6.9.y M.< F 9 ; : 7.} 7.9 8 7.4.( : v.~@9 }.b 3.9 6.r.4.y W.} 2.9.: 8 9 q.4.h.( | A.; _.W.8.8.3 - E 9 | 2.V.8 3 F 1.i S.} T F 4.E q.9.4.P.A.R.7.q.2.v K.M.P.S.P.S.P.1.Q.v..+w 1.:&Q$z (.h i 1.r./ q./ v 2.8 h.E F 4.F } ( 7.8 } T r.| / } E E 1.2.q.r.2.T | E T ",
"h./ T 7.| E 8.V /+r.4.9.: ( T T 9.T 8 E } T | 8 } 7.q.E 9.q.y M.y E x T ( 3 3.8 | F : 3 ( ( y T T 2.< 3 7 7.F E } | T F F | F F ( T y 0 0 E 6.r.M.0 : 9 3 7.L.=+r.7.| y : ( ( 8 E y ( / | Q.v.T T } S.0 T } M.7.7.( ( ; 7.8.y 8 M.7.9 y 7 4 ; y F 3 3 3._ E M.M.0.9.4.<.9.4.} ; y y ; } 9.| 3.4.7.4.T v.7.0 g 6.7 9.F 7.q.9.q.7.P.E 8.8 F 8.x y K.M._.r.L.W.1.y p.T ( 6.V.| 3.8.q.h.v.| : F y ( T T E M.8 / 3.6.0.Q.W.3.6.T F y 3 8 r.9.P./ } : #%<&6 b < h.: 8./ T A.h.7 ; < T / 8 8.8 y 9.M.| } 9 h.6.4.F T p.P.P.h.r.r.8.Q.6.",
"2.2.6.3.} E y j k.V.9 : 6.E E ( 7.F 3.9 6.F 7.4.9 / E F F 8 3.6.F 8.T ( E | } F 8.( F 8 } 8 F F T P./ U.y / / M./ 4.7.4 } y } 7.F 8 3 6.9 q.h.( 3 T T 1./ L.-+A+T 4.q.6.} 1./ 3 7.T q.P.2.8 E M.0.E y v 9 : 6.: 7.7.F : ; 4.3 h 9 0 : 4.h h.( 3._.<.h ( 4.M.8.6.| } ( ; 7 7 4./ P.3.4.F 8.<.3.y ( 4.E Y.: |.; 8 E / : 1.i } T 9.6.4 4.3 ( q.} 2.9.r.9 -+F ( 4.z 7.7.K.9+!+4 8 E r.h.1.0.y W.9 8 3 4.7.9.4.8 T 0.u.F } 3 r.1.8 q.h.2.} P./ r.8.; v+3 A * < 8 T 9.8.u.U.F * ( R.P.4./ 6.| M.8.r./ i 7.; 3.W.h.r.8 | r.T ( r.M.3 F ",
"| y q.h./ / P ;+X.-+h i r.M.| E F 6.< } y 7.6.3.E F } } F 9 4.E 8.( 4.6.6./ h.q.E y 7./ T 8 E } 6.F : 9 4.4.7.: 3._.; E T y <.3.: 4.: 6.7.( 3.T 8 y } | 7.| 1./+T y 9.; 6.3 9 } r.7.4.E F 6.T w R.<.} ( 7 4.3.4.( 6.< 8 T 3 <.( 7.4 3.7 w _._.h 3._.7.| r.h.( 9 7.8 F } 7.M.F i / 8 i 8.u.E F y 9 6.9 S.} * F u.y ; P.E 9 T 3 h 4.E 8 3 E i 8.| 8.: S.2.} 3 ; < F } } ( 9.: 0.x K.9 < / 8 8.M.<.E 6.2.7.9.q.M.u.h.h.v.q.q.| 1.W.1.h.&+d.2.i 7.Q.]+_ = = i 2.9.M.T M.h < 8 e.x } ; 4 4 h F 6.: 3.7 3.} / E M.6.y M.7 ( F / | Q.9.",
"6.7.( 3.q.v.| o.k+~@3 K.F } y 9 ( } 4.7.3 7 4.F | q.y 7.( ( 7.} < : 6.M.( y 6.h 3.( y 6._.h ; 7 3 _ < _.7 } 9 3.( ( 8 r.( 3 4.6.( 3.E 4.; | T } ( 6.T : 9 <.r.X./ 4.( T | E 9 y ( 7.( M.T r.8.W.0 : } F 8 6.6.3.} ( <.F 3.; : 3 h 3 F 8 _ 0 h _.7 | 9 y F ; 4.4.M.q.9 E 4.: 7.T 4 6.E  +q.4.F 3.6.F 7.L.9.c 8 w 8.y M.7 ; : 7.T ( 7.F 9 4.1.F h.} 3 } y / : F } | T 1.P.| i 0.8 7.r.L.} 8.8 } 8.| q.8 x x 1.1.| / } / y T x v L.r.1.8 0.r.i q.T B+* _ & 8 2.9.r.} ; : 4.| F } T 8 F } u.M.: 3.3 9 6.&+r.T E / y 8 T y 7.F r.1.r.",
"8.| T E ( ( 0./+@._+3.M.( T } ( F <.7.E 6.9 7.8 } 4.7.: 4.F 4.r.8.q.8 9 y 8 y 6.y } 3.} 7.} 7.9 ( y } < 6.<.T T 3 / 8 ( ( } M.E E 3.6.< ( 3.< < _ _.r.0 b E W.'+q.: q.8.y y 7.F 4.6.9.8.E 4.M.3.3.8.| F } y M.M.7.4.: 3.< < 3.3.: ; 8 T - ; _.7 < } 4.<.; 3.4.9.F 7.4.<.7.3.4.< <.( 6.h.F | } T T | 3.V./ 4 r.1.E 6.F h.9.8 : 4.3.T 6.3 Q.2.3.h 4.T 9.y 6.3 E 4.8.9 9.y ( ( i w P.M.i } q.y r.2.| v.P.1./ 8.8.y 8 3.: 8 u.2.W.| 9 v.U 2.r.v.Q.8 t.< a - } 9.M.7.< : 3.E 4.T h.1.M.| T q./ 9 4.} E 8 y 7 7.4.6.y y 8.M.F | | 3.4.",
"} ( F 4.3.F R.&+,+_+: 8./ 9.7.( : : 8 6.T F q.E F E T | 8.y M.4.( T h.8 F 4.| } : 4.i q.8 E 7.6.F F 9 y 8 r.4.7.8 T ( 6.< 9 : 9 4.7.6.7 E 9 6.y 6.7.E <.Q.r.u.D+h.9 P.r.E / M.h.| 8.9.8.| E | T T E 7.3.E } 3 <.3 7.<.: 3.9 } } ( 3.6.<.- 4 _.<.M.<.y E / } } 1.7.E } M.( <.3.T M.T S.| 8 8 q.T 7.} ( .+8.7 F ( <.F Q.T 9 8 4.4.( 4.| r.8.q.6.} 3.} 0.6.y i y x 0.2.E } ( 9 } < F } / F W.P.F T 8.0.8 p.q.6.| F T r.i 2.P w y r.( v r.8 r.q.r.i `.a }.3 p.y E ; 7.7.} E i 8 8.4 6.0 9 } r.3 8 4.| i 8 6.E / 8.y / | 8 / h.y ( / ",
"( T 8 : 6.: x j s.Z.: Q.T ( F 9 T } y } | 8 q.} 9.E ( F T / y 2.9.M.7.3.y 8.| 6.| r.7.4.6.<.4.F 9.y : } 6.( ( 6.9 7.( 9 E E } ; 7.7.3.T 7 < 6.M./ y } T ( q.)+$.0.h h.| } 3.<.E y F h.i F 8 F 4.: } 8 T | 9 <.4.8 3.E 9 ( 8 : 9 < 6.< A 6 ; y 7./ 4.| E | / i M.7.8 8 T / / 8.9.q.U.9.8.4.6.3.9 | 8 9 v 8.; M.0.8 E / 7.8 r.( M.E M.P.: T q.8 T r.K.P.r.u.h.r.M.8 7.1.6.: Q.T 8./ | 7.y q.M.F M.| | 8.r.9 0.h.q.T / E U.2.M.q.h.P.0.r.p..+w u.8 U.* = 8.h.r.P.Q.h.h./ 8 r.E 3.8 7.| 8.y T 4.< < M.| 4.M.8.M.F P.W.q./ 6.y 9 q.2.",
"4.M.2.q.p.M.i U A+Y.; 0.9.T 8 6.8 4.E 7.8.8 9 T / M.7.E F q.0.8 h.E r.M.8.E | _.3.( 9 ( | y / q.7.3.8.| ( < ( T / 8 7.7.7.E 4.8 y : ; 7 h 4 3 7 ( / 6./ 0.E *+;@h.3.8.| E 4.M.T 8 | } F r.0.Q.9 6.M.0.E F M.T ( 8 3 3.: 9 6.6.( q.: : _._.< 3.( ( ( ( 3.7.} E E ( / 3 i 6.T q.F i 9 9 } ( h.y E E 7.3.V.1.<.8.M.( 9.1.4.T : q.y 9.8 r.3 T r.8 8.P.W.1.F y } 2.} <.( E h <.h.| F 8 y M.8.9.F ( T M.8./ q.W.q.} 9.r.T 2.p.9.1.W.( R.y P.2.W.r.6 d.S.* <.q.q.W.T E y } ; E M.3./ S.8 1.<.M.F 3.r.8 8.E 7.i r.8.R.T T q.4./ q.p.i K.",
"/ T 8 } 7.| 2.w+v+w+6.0.} M.; 7 3 E } 8 T M.r.2.r./ ( E h.| 7.E r.| | | 9 4.<.7.9.E 2.8 8 w / 8.E 3 ; T ; 3 h.F r.E 9 7.| E E / ; 3.E 4.9 7.4.7.y y | 7.F 9.P.a.q.( M.8.( 2.w p.F M.9.r./ M.| / | F h | <.7 z 2.9 4.3 _.: 3 3.7.<.4 < 6 _._.q.E y : 3.: ( 6.3 <.F } T / 7 | F q.q.4.h.y 7.( 3.Q.E 8 F P x 9 8 9.F y T F h.4.p.| i ( T } i < /.| q.K.q.2./ / 7.3 h.q.: 3.9.2.y Q.8 / q.M./ M.< 4.8 8.T h.0./ / R.M.S.1.p.y } 7 / h.w U x S.9.++1+9.c 7 T y 4.< 8 r.F v.K.4.} 9 3.M.3.2.M.i y r.7.y 4.u.P W.6.F F i | 1.r.M.T r.h.",
"( 8.F 8 6.8 J+K+@.k.: | 9 ; 3.8 8 8 8 ( r.4.M.E F } 7.T ( y 3 7.8 y 9.r.3._.9 T 4.9.8.; r.4.3 ( _.M.8.( F h.W.M.6.( | 8 E 9 4.h : < : 4 h 8.F / / 4.8 4.F } 1.V E 4.Q.| 1.i y | / i 1.1.i M./ y | 8.E M.M.W.P 9.7.( 9 | 8 : 3.( 3 h <.< 7 7.3.( T 9 3 } 3.: 6.( | y 9 4.} 8 r.r.4.8 T y <.6.q.7.7.6.: A.L.6.F / E 2.9.6.| 4.6.1.M.8.1.r.} ; 1.A.M.0.9.M.7.M.9.9.S.u.} 9.R.p.y q.h.r./ 8 i E E T K.9.E M.: 7.i x v 8.P 2.1.y p.U.K.u.2.x u.p.V.Z.4.b < ( r.7.4.: y 4.M.6.y | } E 9 4.7.8 7.: 4.8 8 1.| 3 4.U  +r.i 2.W.M./ | W.M.",
"/ / 7.4.E r.P.8 `.a.6.y F 9./ ( y 8.F / F } F 8 2.| 7.4.8 M.1.1.T 2.M.T 0 9 0.u.T q.7.| | 7.0 7.y 8.2.K.v P / ( y F h 8 : <.F : 9 6.9 4.} 8 ; y ( 8 3.y h.| i n+2.6.q.F M.W.0.Q.r.q.2.r.Q.2.W.7.( ( h.0.( r.8.8 4.y h.( 9 3 1.r.: <.3 0 0.M.4.M.} ; | 4.F 8 ( ( 9.9 : P.| | ( 7.r.( | F T y ( ( 7.( 9.T.-+9 0.9.8.K.< 1.9.}.P.x F 1.r./ : 7 L.d.h.r.8.T q.E 6.M.M.q.T P.2.8./ y 7.8.4.i E ( | v.Y.T Q.r.K.c.u.R.0.r.Q.9.x 2.S.E 0.T 8.9.u.2.P.x 3.= < T q.| h.v. +/ Q.8.M.Q.i / 8 q.q.8 } y 9.h.f.u.Q.h.M.M.} P.U.v i / Q.R.i V.",
"9.q.M.T M.T y h.j.j.( : P.3.7.F q.r.( 4.y P./ F ( 8.F | x i / / q.T F < ; W.b+8 8.F M.8 q./ i i h.W.P i T 6.9 7.7.4.9 9 4 3.( y 7.: / Q.x h.9.P.i ( r.M.9.i 1.v+V.( P.h.2.0.E 9.h.| / V.u.P./ h.w K.w r.R.8.q.4.y } M.2.T v.h.M.( h < F l.<.( 9 7.} 3 h E 3.9 E | ( | T 3 } | 4.( 3.3.8 4.r.T 9 8 3 9 K.A+7 Q.h.| F t.h.R.R.X.1.1.r./ : ; 2.v v./ 8.6.9 / r.0.i P./ q.| M.T q.M.2./ 8 M.7.v.v.K.p.y 0.u.U v.< - T S.8 2.1.9.} #+&+w U L.R.F i *+| <.< U f.P.0.0.| 2.2.( T F E q.| h.M.q.v.Q.P.w 8 3 8.V. +v.&+;+U.R.h.u.K.p.h.9.",
"} y } y r.T 8.9.T.=+E } q.7.} y | : | y F 6.4.9 i 8 y T i 9 3.E 7.y 9 ; M.A.u.4.9.8.E 7.T r.9.q.} 2.E 8 8.F | 7.F T M.4 7.3.6.9 } ( q.8 ; 6.8 / 8.i / i 9.6.2.x+V.4.w v.0.T 9.8.q.9.v.w T } 9 6.9.q.| q.| 1.7.( F T r.| P.E 7.: 4 3 7.V u+T 7.( } 3.3.7.4.6.7.E ( 4.7.6.6.7.4.6.9 3.9 E 6.9 | 6.6.4.4.L.t+0 h.r.4.P.( M.2.Q.W.h.6.F 8.r.U.#+Q.P.M.y | 9.} | 8 4.y T } 3.q.F M.9 1.<.4.2.| 1.F R.6.( q.T h.b <.y / 2.0.f.P.| v.u.9.v.x 2.} 9.1.!+| } i P.T i S.i 9 / M.M.} y 8./ i v.1.E y 3 y F E F 2.1.i u.#+2.v P.1.E K./ / h.",
"E / y T M.q.F 9.B+]+V.3.E <.7 ( : 4.7.y / 7.7.1.y F 4.7.} E ( 9 h.3.4 : 4.7._ _.E } | 6.} 9 r.7.T M.7.8 F 7.3.6.6.3.; < | i T 7.9 } 6.7 0 ; 7.( ( <.( y ; } K.m.K.( 9.| r.| M.q.0.x W./ 8 y F 9.q.( } 2.8 y } / } W./ r./ 7.( 3.- 7.( B+i@* ; E E F } y 4.8 } E 4.6.F L.++2.| ( M.} M.E ; 3.6.8 K.} ; o.~@- .+8.} 8.i W.v.i 0.W.u.h.Q.i 2.x V.W.v.F | ( 9 E _.[&R.2.( q.i r.T r.M.q. +M.E y F F 4.2.2.K.F _.p.h. +~@L.S.6.< M.y q./ } ( Q.U.e.~@9 |.- q.( T q.M.q.h.E ( 4.u.q.8. +q.r.F i 1.i h.i M.r.8./ M.M.h.W.h.8.w P.E / q.",
"T y h.( / T 9 9.V /+k+V &+V.v.q.y J+.+1.4.: } F 3 9 8 T 9 3.: 4.; 3 4.8 T 3 3 0 4.9 7 7.T 7./ ; | 4.F 8 T ( F i 8.u. +#+/ / T r.y 3.; z y F / F 9 T 8 E h.r.B+k P.9 h.T M.4.7.7.| 1.Q.9.Q.E W.0.7.| M.7.y 8 | i i F } 7._.<.9 3 h 9 3 Y.k.0 M.} / y i 7.Y.q./ T _.4.L.m+_+~@U.]+L.} 9 : 6.; h.k+p.w b.q b.b i 7.x i 8.i 2.Q.R.W.1.9.F | q.9.r.i h.2.y 9.U i x *#} <.( p.h.y } ; h.M.v.++p.x i h.W.u.U V._.4.<.1.++A.8 ( 7.P.V..+#+U.s.b+{+j y+s.L.| f.M+}&#+ +1.Q.0.y F x !+~@Y.2.F 4.Q.8.| y r.q./  +2./ r.S.v.| ( 2.h.( 7.i {+",
"$+7+@.B+s.t.X.f+N+K+L+t+~@i+k+i+k+u -+_+y+d+d.A.d.o.p. +Y.L.Y.+%j b$v P / u./ r.p.p.p..+v `.S. +|&0@T#*+)+1+V J$l.<+t K#*%7%m+#%*+-+;+1&|+K%v o.!+#+Z.{+=+K+q l@j.j./+A+-+J+f.e.v h.K.S.y 9 6._.7.F 9 E } / P.y 6.| y 8 E 3.: <.< } D d.3.h r.L. +1.E R.p 7.9 9.]+l@o n t+b.v $.P+U.{+o.X.Y 5%!$!$2&3&}+s.| u.h.4 ( v.0.q.Q.i !+8.q.v.1.F 0 | Q.h.4&:&s.W.h.*#(%h 8 3.8 6.<.2.7.| e.`.T _+i+%+/ F F 4.F 3 V.d+n.^+a.p.U )+!@A+!@'+]+o.o.w+c.q.8 < Z.^$P+u+5&6&E+l#r+++-+b.!+R.} 8.|  +f.m+v.v.#+)+%+t._+)+%+b.P U..+t+i U -+X.d@",
"Z.o.V $+w+@.k+y+x+d+U.3 5 5 6 ; ( 6.3.7 ; < 7.P.0.W.u.Y.L.Z.*+b+[%-+1+a.s.v+$+l.n.!@n.$.x+{@L+p@e%7&8&d@o+9&;.0&{$,.{$v$'$*.H.&.u$,.u$,.,.,.}+k#8&a&s+Q%Q%Q%s+^+o.v Z.L.;+b+m+%+w+d+j.T / P.1.P.2.T | i T .+E 9.W.0.1.P.2.P U c.~@n+p#C@4.t.{.f+z+b%e%k#b&c&l r+a+p L+n.~@j -+z+~%]%6+x@,.*.{${$h#0#;@9% + +-+-+s.k.A..+T.v ++!+`.A+,+!@]+$+v+B+n+m p@x$q#o s+v#p@g#p+d&e&p e&v#j#1@y+@.a+s+,%N$G.;$7#O$l <+q q f+9.i x 9.7.; _.A & = (.& A z 5 [.d & _ _ E } ( r.E h.f. +{+r.2.e.#+v./ r.v o.T.#+&+%+p.V.v w d.m+j.v e.u m+~@c.",
"d * 4 = 7 0 = 0 }.}.& = * |.* 6 d /.}.}.(.c * d = (.- A 0 b = - A A & c z 0 <.7 <.0 b 0 4 ; < 0.v Z.L.`.B+j e.j.c.e.f.&#(%q.f.w$|&%+w+d+]+A+=+l.f&]%A+v+s.B+w y : ; < 7 6 c b - A d d a A A 6 _.h - = b = g 4 z d |.d 5 }.d d 5 * = h : z 3 v.-+o.#+J+`.f.T W.Z V./ r.9.9 (.6 <.< z :.P.v.q.K.L.8 z b 6 (.a |.5 }.|.c }.}.- }.d a c = 6 a 4 0 <.7 b & d g A _ _.M.V. +U Y.`.i+s.N+<+P%k+r@t.H@]%,%J$n.f$b+j.U.} (.}.5 [.e [.g }.}.5 |.|.|.8+e g+3+|.d (.}.e [.6.& 5 * d c a }.& h 3.3 3.3 0 _.7 _.h b < : ; 7 9 b 0 <.< - ( 8 9 ",
"z _ < z - b c b c * 6 z * b h y 6 = (.b = (._.= & c a (.c c d c b b _.3 < (.6 - 6 6 _ b 6 }.<.A 5 A d a (.z A A = * * * }.c a A = h } ; 3._.9 : 6.4.6.7.F : 7 0 ( : 7 z _ z (.z _ - = (.z a _ - A (.& A b z 4 } F 2.V.P.6.F h.2.q./ 8./ / h.1.8 3.8 / i Q.0.W.u. +++{+8.9 h.9.3.; _.h 7 c & * }.d e a }.(.z - }.7 4 = 7 0 _ 0 E u.Q.E = 3.6.q.7.y ; <.6 6.3.< 0 6.3 : 4.h 6 h (.y } F R.x -+&+T.j .+9.M.F 8 4.h <.h a a a (.< 3.9 _ ; 9 : _ <.(.- 0 < : c h _.= }._.6 < z ; : 8.3 ( 8.M.F 7.7 y E M.| 3 - : ; ; <.6.h 4 3 8 | W.",
"| Q.x W.P.P.K.L.`.t.-+1.a.Q.v./ .+R.x v./ 2.T 9.} 7.7.7.4.8 T E E 8 6.: _ M.| h.T h.v.Q.9.8 2.0.| 9 < 0 - 4.3 <.h - z A 7 6 0 E 8.7.; 3 ( 4.F E : } 8 r.M.T E 8.y : r.3.< <.( F E 3.9 b 3 T _.(.4 4 } 9 1. +Q.M.E : 0 h 3 i 3.E U v.h.r./ 8.: 9 A <.*+g&< 9$1.6 <.3 ; 9 ( : 7 0 ( 3 : 4 < } h.u.v K.Y.9.P U.S.L.Z.w &+L.L.S.f.A.7.- 3 p.P.P.&+#+W.R.S.2.M.0 6.W.1.} _.= * = z 7.1. +++M.V.8 2.{+e.!+u ,+j z g+4 4.( q.h.0.T.w q.6.4.: 0 3.( 8 9.c.-+j.x 0.v e.e.++)+{+L.P.p.0.R.U T.L.L.A.T.B+c.!+T.Y.U.f.Z.V.S.R.1.8.{+Z.v W.8.",
"j.L.8 1.i 9.8 M.A.8.| v.c.6.2.8.9.Q.q.r.T 8 } E 8 h.2./ 8.M.8 E 7.( 7 6.9 R.y 8 y M.} ( 3.2.M.i q.| M.< 6.x 8 f.d+-+8 ; : h 6.7 7 3 ; 6._ 6.6._.4.: 9 : _ = 2.: 6.E 7 6.| 0.1.9.y 7.; 6.F 6.6 <.3 <.3.V.E - 6 7 = < 7 _.h 4 0 p.; 7 4 ( 1.2.8 0.< 1.w * z b & 4 6.4.: <._.7 7 0 4 h 4.4.9 x d./ 4.7.: E 0.8 9 M.; F / T i / 8 6.<.( : 9 3.y T 8.v.2.q.M.w `.b.x q.h.0.V.i #+%+g@h&e./ E | 0 ; v h.(.6 9 |.@+y 8 9 E T y / q.i r.1.V.v #+r.1.W.Q.U.q.q.P.V.8 2.h.M.M.8.r.R.W.W.e.L.P.h.8.U.v.x 0.v v.Q.2.1.p.v.V.u.P P K.w W.8.y ",
"E E 9./ } : 4.U.7.8 ( i | : <.9 : 0 = 6.4.T | i M.T F / 2.q.| ( ( ( } T y M.6.| T 9 6.6.M.y / y F i 9 8 w q#o@)+w = b h ; ; - 7 3 < - _ = 0 6 h _ 0 7 h < ; < h < _ 4 < 3.: : ( 7.7 4 _ h _ _.< = 4 7.(.6 ; : 3 <._.<.4 6 <.| | ; _.7.E ( 3.( 3 } Q.u.& _.} 6.| y 7.; < <.<.6 _._.3.: ; h 6.: F r.3.h 9 <.; 9 <.: 4.y 3.T 3 3._.3 <._ } 3.: ; ; : 6.F r.q.r.h.q.8.q./ 0.=+h&s.J%q$z 6.6.6._.6.&+z _.7 | @+A : 6.9 T } 9 1.3 7.| q.9.T q.r.Q.i P p.i h.8.| q.r.0.r.E 3.T T 8 r.: } 8 P.0.E F 3 T T 7.} W./ E q.p. +2.i u.w F 8 i ",
"<.( <.3 4 < 9 h.9 4.1.: (.E | | } 3.9.q.h.W.x 8 M.T T / M.8 E E F ( 1.| Q.8 ( E 8 E 7.3.8.6.4.7.y M.y 9.S.C.-$l%7 4 h : 7 z 3._.} < _.6 - _ 4 <.; 4 ; ; 3 3.h 3.h h 9 3.6.4.( 7.: E ; h _ 4._.< 6.E T <.3 _.; < _ < T ; 9 2.4.< ; _.( F 9 < < 9 6 <.Y.d 3 ( E 8 ; ; <._ ; h h 7 h _ <.3 9 - y r.4.6.6.} y / T T : h | / r.4.T F 8 } i 8 M.} 7.E y 4.3 } 4.3.y 7.F 3.( 8 6.F } E ; 9 4.6.} E P.o.z b 4 a.F z } ( T 1.( / 9 3 i 7.} _.M.< T r.h.M.F } M.y 7.: q.y F 8.F | F T 4.8 / E } : y ; r.9.8.3.T 7.8 u. +W.| p.A.u.8.q.x 1.",
"E F ( / 8 p.#+W.T W.E _ / 8.8 E <.< 3 F ( 4.2.( 7.8 T T E F y 7.F T q.h.r.E 7 4.E b E 9.q.E 8.8 F ( F p.8.k.4@= E 4 : 9 z 3.} 7.: _.4 z 0 : ; 3 < ; 8 _ 4.7.M.E 6./ 4.<.W.3.6.9 h < <.h h _ h | <.M.<.3.< 7.; - 9 6.< h 3 0 } 0 < 9 E 9 4.F - < 9 3 R.g ; ; 3.: ; 3 < b 3 = (.7 < < 4.0 4 ( 8 6._.: < < ; < 3 h h 7 7.3.7 : F 6.} / } ( : ( 1./ 3.< 4.3 : 9 9 6.7.9 ( 4.} 7.M.9 6.6.E T E T 4 d.h b : B+* & | / T } / F 7.E 3 3 4.8 F 3.6.9 ( y r.8 F F ( y 3.7.M.F / P.F 4.( T y ( 3 ( ; r.F / T 9.8.P. +r.q.F v.i q.} } M.E Q.",
"r.4.| 9.| 0.| } } 8 6.h.p./ / 7.} r.p.T } M.7.6.r.9.q.y y F 3.6.4.9.F 6.h h T 8.9 h 8.U.E | | 2./ E E 8.A.8@7+* T < 2.9 E y 7.; h _ 3.( < 7 3 | 8 y : y ; y y 3 h.x 7.7.: : _.- (._ 4 _ 3.3.<.3.9 ; E ; y ; ( } E A 7 ; ( T _.( _ _.< 4.<.( E < b <.{+}.- ; _.<._.h h 3 7 _.4.; 4 } 7 6 7 4 - 9 < _.7 h _ _ h b _.<.3.( : : 3.7 _ 4 6 h h 3 <.<.: : 3 6.4.9 ; 3.7.8 F 6.6.7.6.4.( 8 7.M.7.4.7 ,+y ; i V.l+0 | y F E } T 9.y 7.8 } 3.r.M.y T M./ } r.E 6.E F F F 4.y q.4.< r.T M.y | P.| _.M.0.r.} M.T 8 9 T y q.| 6.3.F / 8 M.1.",
"v.h.4.9 T F M.w 9.8 7 1.T | E E M.9.P.8 } 6.3 6.E ( E E T 3.F } 6.( 3 < 9 } y / 7.9.Q.8.4.E 3./ T r.8.Q.8.~.)+A 6 - E < 6.0 < 6.: 7.F 7.F ( T 4.9 : 4.3.: <.4.6.W.A : E 3.7.0 _.9 3 _.; 3.7 : } 9 ; < < ; <.0 4 } z E < z b _ 3 T / F E 3.4 } ; _ : T }.3.<.< } 7 < < 0 6 0 6 z 7 3 7 <.h 0 ( 9 < _._.<.: 7 7 7 _._.9 6.3.; <.7 7 3 9 3 ; 3.4.9 <.7 3 4.4.h <.3 9 3.9 7 3 : 6.7.9 3.9 7.: } 7 $+8.; 0.q.j+A T E } E y <.3.( 3 3 < y 8 E 7.F T 8 | 3.3.r.T E 6.h T 2.( 7 7.} ( y / S.r.3.w w i y F } F F } 8.i 8 | 9 8 i h.i x p.",
"q.8 | 8.8 8 P.q.r.3.F h.Q.F 8 y y 0.M.} / } 7.6.< 6.} T 7.F } y 3 i 2.T 7.( 8 } 4.P.M.2.3 6.4.9 } r.Q./ 2.9+ +* 0 _ } ( M.8 } _.9 E 7 } <.F y 7.4.3 7 3 3.; h.3.: F ( E <._.3.< <.3 3 <.h h 3.0 9 : 7.6.h 3 6.T < 3 3.3 : F M.i 4.8 6.4.: r.: < < <.e.c 0 7 b : 7 ; _.4 - 6 h <.9 ; _.3 ; ; < y 0 6 _.< < < <._.<._.7.6.<.; : <.< : 3.: } 7.} < _.3.6.4.6.<.4.: 9 : : <.: E } 6.: <.4.: ( F 3.t+q.0 9.T e+} / ( 7.6.; E } 9 9 9 u.P F 7.6.} ( } 3.( F 7.6.: 6.8 h.( <.} } 6.1.9. +2.T 3 r.y ( 4.( / 7.( F 7.6.T y y x 9.0.P.0.W.",
"E 6.4.8.8 Q.F h.T 4.R.0.9.M.8./ 8.h.M.} | : 4.7.8 / E E E / 8 4.q.8 9 8 y M.E } E 3 | 3 9 7.3 7.| 0.0.7.9.B+P 5 _.< 8 y 6.( } i F E } 6.; 3 4.3.< 7 < } 7.7 < 9 Q.F : 3 0 y 0 3 3 : 4 4.7 ; 3.4.7.E 4.<.<.7.} T 4.6.9 F 7.<.} < 7.} ; ; 8 : : 0 3 7.W.}.A b _.4.7 7 0 6 6 _.3 < <.0 4 4 _.h M.7._ : : h 3 h h < 9 ; 9.: 6.7 <.7 < 7.3.; ( } 3.3 6.7.y 9 < 7.E 4.( 3.3.6.T 6.3.9 7 < E 8 y 6.9 [+r.z M.M.8+< : <.<.< } } 4.( 4.} 9 4.7.6.( 8.8.8.| 8 8.T 3.( 7.i y : 7.( F v.2.| F 6.4.E F T y W.0.8 M.W.P.v.1.1.E x 9.F 8 r.1.8 ",
": < ; 7.F T M.9.h.8 F M.M.F | ; | W.1.h.E < i M.r.8 8 ( 6.7.E | / / P W.T / r.q.P.F | 4.7.r.} ( 7.E 4 3.2.++R.A 6 - | ; 4.3 ( 8 ; 3.3.} < 4.4.< 6.6.6.3._ 9 6.6.<.3.7 < < 3 4.6.} : E 9 6.: : 3 7 h } : <.r.E 7 6.<.( 4.; y 7 ; 3.; ; _.< - - h 6.h T [.b 4 < 6.< M.| h 4 9 <.h h 7 7 7 3 ; 6.3.< } 9 : _.3 F < 9 (.r.3 6.; ; 3.4.9 < x - 3.3.E E 8 6.; M.| F : 4.4.3.3.h 4.( } 3 / q.| } 9 M. @| z 0./ * h 9 ( } ( } ( 3 ; F F i 4.} 9 U.T / y F 8 T F F T / 4.4 ( 7.8 1.M.8 T F 8.E F 2.h./ y E 2.1.8.| 2.h.0.1.W.F 7.r.W.T y ",
"E P.E / 9.P.T 2.8 8 M.q./ 8.8.r.q.r.7.r.Y.8.h.9.3 : 6.9 E 9 y r.8 T .+E T q./ 8 T } / : 4.1.} r.| 9.0 i F )+x b 6 <.r.6.8 ( ( <.3.9 6.3 F : 3 ; 6.<.; 7 h ; < h ; 4 < 7 : 3.<.< 3 7.7.E F 6.9 6.M.4.( _.y : 3 ( 7 _.; < 3.r.9 : _ 3 0 4.y - ( A F ; q.5 7 <._ : < ; 7.b 0 3 7 <.6.: ; 9 6.4.3 E 8 F 9 3.6./ E 3 E T 8 } T y F 7.4.F E h 9 ( 3.( 8 ( 3.7.E 3.( 4.F 3 3 3 9 4.7 h 4.1.4.3.1.S.b.f+( <.x h.3+g M.M.| y 7.6.4./ q.y F M.| P.1.T E 8./ F E 6.< y ( < y F } E 8 F : 8 M.r.8.| q./ F M.2.q.; q.9.h.8.8.F | 8 0.W.8.8 x ",
"9.q.F 2.u.q.Q.i T T 8.u.Q./ T / / 8 0.h.B+F i : 7.i 8.i 8.( / F E W.F F 8.9 } } | 8 4.( / ( 6 M.<.8 V.M.2._+W.* A h 9 ; < h _.7 _.- 7 - : ; 7.6.<.<.<.; <.6.6.7.3.( <.3 ; 6.9 ; E 8 h.F ( ; 4.3.3.} 3 6.9 E T 0 0 < 3._.< z } 7.} M.b - z 7 7.6.} 0 P.= <.: _.9 ; 7.- 4 3.} 4.( 6.3.4.r.F T / T 8 } T ( 7.h.} 8 6.( 6.| 4.} 9 y } 4.E i 9 q.7.7.} 7.y E } } 9 6.< h 3 } ( 3 7.q.9.4.| x 2.P.!@~@e b 6.: g+= 6.( 6.4.: T 8.E 7.: 0.T E y h 3 r.| 4.8 y 7.8 8 ( T 9.M.7.0.9.h.M.2.i M.7.4.i 8.r.0.q.h.<.p./ 1.q.8.r.W.1.h.7.E x 9.",
"8 E 1.p.W.v.Q.h.T 9.w F 3.F M.8 8 F r.6.p.7 ( 7./ r.3.( ; ( P.| i } ; 7.4.3 F } y 6.( 8.F M.T q.W.r.<.9 L.[+q.a - - 3 4.6.7 : } < 3 7 ; 6.9 6 _ h 4 <.<.; < 3 6.3 7 h : E <.<.| 8.8 4.6.< ; | r.7.9 _._ 0 4 _ < 3.E 4.: 3 6.7 _ 3 M.6.Q.} y 4.r.F 7 K.b A <._ ( 3 < : 3.| 8 } : 3 ( y y } _.; E 3.( y y 9.9.3.4.( _.v.y 9 9 4.7.( 6.8 4 u.L.E y F / E y 6.6.<.9 7 6.} E 9 F / M.} 8 P.| | 0.!+W.2.S.3.M.c+A y F 3 6.7.} 3.} 8.q.y 8 i / r.P.F y ( 9 M.9 8 4.4.9.q.| q.9.r.h.q.Q.W.} } i Q.P.i h.r.7 M.T } 8.1.0.1.p.h.M.1.P.R.2.",
"y F r.T T ( E M.E 8.r.<.8 7.( 4.: F T i P.E 0 0 F 4.y E 7.8.P.} : 3 9 3 ( ( } 3 y y 2.E 8./ M.7.; 9.T  +1+Z.| - b (._.9 6 h 9 4 h 3 3 6.h 7 7 : 3 M.y 7 : 6._.9 : ; 3.3.3.( y y h.: 3 ; h 6.| _ 3 7 : 7 _.: ; : 7.<._ h ; 4.3 7 7 0 _.h 4.: 3.3.9 4 8 8 A 6 3.( 3.<.( 3.4.9 y 7 7 | 7.( F | 8 3 ; < 8.M.E F 7.( } <.9.F F 4.: : 3.3 3.: - 6 y 6.( 9 7.6.4.E 7.( 7.i i | 2.9.h.8./ 2.F 9.: i v ( (.}.: 9 3+z W.T 8.T M./ r.T T F T / 8 M.F F ( ( 3.} E | r.E 2.M.y 4.F v.9./ E | y r.9.v.r.( T 4.y r.P.1.M.E T /  +S.h.8.9.1.T Q.",
"y T y T 8 r.} y F 8.7.} 8.M.4.3.h.q.h.9.p.9.8 L.f.w r.8.8 / } F 2.h.r.3 } ( ; F E 9 4.9 r.6.9 < } 8  +d+%./@8.d z ; ; } 3 4.< _.0 6 ( : 7 < 4 _ - <.- _._.: ; <.; ; ; F | y 3.3 < _.y F 3 ; 7 h 3 3 4.; 6.3 4.| : 4.} } 3 h 0 3 <.: ( T 3.3 ; 3 z _ T 6.* _.3.2.T } ; v.9 E 3 4.F 4.4.F 6.E 6.F 3.r.6.< 3 y 6.< 6.: K.T 7.4.1.( 4.4.7.8 E F 0.4.4.7.} } E : y / F 7.E 8.8.y } } 4.8.M.q.3.0 q.6.5 |.4.e c+< T r.7.6.( 8.r.M.2.E q.h.q.T y 8 h.8 8 i+8 9.F i v.r.9.h./ 1.| } M.2.} T P.2.E 9.P.8.i R.0.2.2.S.Z.f..+S.8.9.2.K.Y.v ",
"7.#+h.T } M.r.| F 8 4.E ( <.4.| F 6.4.F 1.7.h h 6 b h 2.9 E 2.2.F 3 8.( y 4.q.Y. +T 9 ( 6.( : 4.j.b+z+i&j&G#c d 3 Q.U y : 3._.<.6.7 < < 4.( T M./ T 3 h z 6 = < h ; T F 4.3.: 3.; h 3.; 9 4.0 3.9 : 9 4.} 7.i 8 E : _.- y 7.< 3.} 3.M.3 F 4.E 3 ( 6.u.E a Q.1+e.h.E Y.p.3 3.4.y y 8.8.h < 3.; ; 6.F 7.8 E | 8 8 9.4.2.E 3 7.( F 7.3 E y 6.4.(.0 E 8 3.} 3 7 } E y q.9./ r.E 2.(.} c 3.9 9 7.L.y [.g | A 5 4 q.F 4.T q.8.y T i T 9.} F F 4.E 7.| W (%k&9.2.1.8.r.} E y P.8 y 9.9.q.8.q.M.Q.2./ 8 i / w W.V.Z.f..+W.M.9.p.Q.W.r./ ",
"R.k./ M.6.7.h.y T 6.6.3 : M.v._ y | S.v.v.F 4 : v P d.i v c.c.s.7+f.h.3.4.F ;+k s.0.X.k.x 9.r.t.X.]@f+q @.0.7 c / v | @.b+r.3.: 7 <.h : 0 < 6 3 4.7.4.- b 0 : 7.< ; 8 8 4.<.3 3 3 : T 3.h K.u.<.< < E E i S.E _ - A _ 9 | c h _ <.( w+V.S.P.8.w / y 2._.u.w U M.;+&+u+U.q.4.8 T j.X. +M.8 } | | 6.M./ M._ q.7.6.7 < 2.: < q.2.6.7.< h _.q.0.y S.; /.= 3.z < r.7.( ( 9.| M.} ( 6._ } 1.= = 6 U.0 [.|./ 8+c+h 8.K.Q.} F 7.7.} y 8 h.h.r.q.R.1.i Q.P.c / q./ r.Q.q.2.9.y 2.6.r.9.W.8 T S.8.8 8.h.r.h.Q.R.p.A.U  +U W.v.P.1.q.1.h._.",
"Z.L.| W.&+e.h.W.F | E h.r.w R._+`.e.*+c.%+&+&+Z.L+z+<+z+N+ @y+u+9+w+V '+,+]+X. @*+w+n.x+n+v+N+N+M+^+f.8.4 - 8 ~@y+x+L+;%C.5#c.1.j. +o.o.{+m+&+u.T 3 ; 4.8.w B+v Q.f.=+A.v |++%U.8  +K.p.e.t.E j J+d+t+d.v.U 0.A.;+c.j._+e.-+[+u o.`.y h 6.4.| 8 | p.w _ u T.-+U p.1.Z.q.w E T e.k s.m+E 8.A.G@@#w$j r.2.0.3 E y 6.q.9.r.M.r S.A.#+Z.b.@.t.p.x W.r.;+j : y v.0.K.v.8.S.9.i y 0.Y.#+t.;+J+{+d.S.6 }.<.P |.h b+d.F _.8.9 E 9 i _._.b 7.K.v R.q.2.w K.Q.h.y r.2.| 8 4.E i v c.!+V.R.} 0./ 7.: E 0.8 x p.P.v.P.f.Y.S.A.Z.v K.Z.P A.B+",
"5 * g |.|.a b _ <.7.8 M.r.( _.0 h } y ( F / S.&+V B+W.r.3.6.7.: 7 c a : y 8.R.P.h 6 M.( h h H%x M.- 5 |./.8+f e = 7 _ z c (.F J+[+d+[+x+A+s.1+1+v+[+u+n+[+l.,+*+]+t+b.b+$+7+.+!+]+'+b+o.c.P.x 0.Q.} - & h A = 7 <.- 6 4 z b _ a * * 5 g g |.|.5 g 8+/._.* f A = _ 5 c 7 6 4.d.Z.| = @+< Y.{+v.p.0.M.x u.x K.T h.v.c.L.j.e.1.3 S.h.| | 4 * 4 < h 3.8 3 r.3.3.A }.5 * c * g }.}.}.a c - = c b < b 5 a 9 g+A _.9 w f.c.b+b.m+w+/+!@k '+,+s.%+b+s.*+P o.`.]+a.9+v+v+/+L+M+'+w+;+A+_+O#6+x+@.k t n+D+i+A+%+=+7+v.: 3._ c 5 A & }.g [.",
"& 5 /.}.* A = A * d d |.5 = 5 |.}.|.|./.g a * g |.d d |.e e f c+e+e+h+l+e+h+l+e+l+l+h+h+h+l+l+j+j+h+h+c+l+j+e+h+h+e+l+c+c+e+@+g+f /.[.5 |.}.}.& }./.* & c c c & a c c * }.* d d & 6 A c a }.g /./.[.[.e e 8+8+@+8+[.[.[.f [.f f f e 8+8+f e e 8+8+@+|.f 3+8+[././.f @+g+f c+g+g+@+g+c+3+@+3+3+8+f f f f f 8+e /.d g /.|./.A a d d g |.[./.e e [./.[.f f e [.f [.[.e e f f e [./.g d d g g }.A a /.|.A @+f d }.|.5 a = & 6 & (.z 6 b a d d 5 d 5 5 }.* }.* * d 5 a c 4 7 6 = c _ < 7 _ } 0.x 1.v.w V.V.} h _ 3 _ (.* d [.8+3+e+3+",
"6 z <.7 d g }.& 5 (.6 6./ ; h 4.3 F T 8 P.( A * & (.d [.|.- c _ 3.( 4.4 b _ 6 h c * & h } 0 a - b 5 & d c _._ 4 <.(.- }./.6 8 : z 0 _ 7 ( 4 6 4 }._.7 = g }.a g A }.g e [.|.[.d 5 |.e |.g a d 5 }.|.a 5 a [.e g g & & * = A * |.|.d f c 0 ; E 7.( T 1.y S.9.y _ c 5 5 [.(.6 a A }.= * [.f /.a & a 5 [.}.a d a g }.e /.[.|.d /./.|.e f @+8+@+e [.f 8+@+f 3+@+g+@+@+@+3+3+5 e e /.* * * f |.|.d f e 8+f l+3+8+@+f = a /.3+@+g+g+@+g+e 8+@+@+g+e 8+@+f 8+e /.|.|.5 & _ A c a }.a }.* * |.a |.|./.g [./.5 g [.(.= c 4 5 |.e f e+@+e ",
"5 e e }.; } ( 6.: <.6.<.r.w i h = b = A 4.z c c (.c * 5 & < _.} M.c _ 9 <.0 < 3.4 _ h _.= = - 4 4 4 h < b c c = c 5 d * = * * }.* c & c & * 3 _ (.0 c c _ h <.3.; <.6.8 P.M.E 3 3.V.9.h 7 - /.e f }.|.d 5 * & * & d e |.e |./.@+}.* - 6 5 [./.e /.|.[.}.5 |.- (.0 - A (.= * * z 4 - ; 7 = (.b 6.z & b = A * - h _.0 3 } 6.0 b 6 4 a |.c+c+e 3+8+f g /.}.c A c 5 5 g & }.d & }.d e /.5 T W.p.9.W./ r.v.u.8.9 3.6 d e |.a A h 0 & 5 a 5 5 e g /.A - b /.g * 5 b : F E 8 ( ( h.P.{+J+b+B+j c.L.Z.P 1.T 7 - c |.f e /.g (._ _.3 7.3 ",
"8 h.r.y M./ 8.| x h.( y 3.|.7 & } T 0.9.W.- d c ; 6.7.: y < 6 <.- | / M.6./ M.E r.r.M.T 3.: ( 8.8.R.W.x y 8 E T M.E r.E 4.( y E 8 T E 7.r.9 9 <.T } ( 3.} | i r.h.i } E i U c.; U u$D@< 3.b b _.z _.< ; : E 4.8 y T / F E 9 8 Q.Q.W.P.v 8.8.| T w K.1.T 4.r.9./ y 4.4.y M.M.r.i 7.y 6.3 7 3 8 8.; 9 7.} F | 8 F 6.y p.9.4.F .+p.6 c g a } 3.9.E y / 2.1.T r.F 8 3.: 6.F R.0.8.i u..+m+w /.d @+[.3+c+g+e+f & & 5 5 }.5 b 0 g /.a 4 z z - (.a b * 5 [.& h }.z 4 } /  +J+,+[+V Z.p.9.( 3 0 * 5 /.@+c+l+e+j+~&e+e+e+j+l+g+c+h+l+3+f ",
"p.1./ 8.R.r.7.9.9.8.T y E } < 9.2.o.z+v+t.6.y Q.8.P.8.8.7.8 E 4.y y F < 9 M.| h.8./ 4.6.3 } 4.T 4.; 6.7 3 4.9 7.| } T y 2.T 8 8.4.7.8.F 1.7.7.E 3 : 9 q.q.9.M.T 8 9 7.E 3.6.< ; v e#v%4 b - b 0 <.4.} } M.T 8.r./ r./ ( / | W.Q.W.P.8 6.3.} 6.y : 7 7.d.i T : 3.E T / r.E h <.y 9.7.9 6.| T V.1.F 4.; T 7.6.; 8 ( T 8.6.1.9+m+= 5 d & 6 } q./ ; 1.x P.8 y F F ( F F h.q.T : y : 3.3.= /.= 5 |.d /.}.* c 5 }.= ; E / E / 3.| T } Q.Q.} T 8 8 w / 9.y | P w .+q.| 9 _.p.z 4 f j+[.e l+e+j+~&e+e [.d * /.e+e+M.T.j..+Y.E W.h.i 2.y ",
"w W.i 2.8.2.M./ 8.4.7.8 h.h./ q.i Z.u y _ 6 r.0.S.q.q./ i 0.i h.7.6._.3./ r.4.y q.( F y 0.p.R.8.r.9.1.E / y y 8.T ( M.E | E E ; F 0.v.2.E 8 ( E 7.7.( T 3.| y F 9 : 4.8 | _._.h Q.a%v%* 0 0 3 : ( 8 ( 6.} y | 7.F T y ( 4.| } ; 7 3 ; F 3 T T : V.F 1._.7.9 } E ( ; 9 } 0 ( 8.i 4.; 9 y x h.| E E 3 } r.} 8 F | ( 4.9 ( 2.u+9 d (.7 4 <./ 2.E  +Q.S.} 9 T 7.; 4.( F } | 8 ( 3.6.< 9 6.r.E 4.9 y F 7.} 8 ( : y y h.T F q.T E 8 r.h.P.4.i P.p.r.F i q.P p.i 2.P.1.2.E 6 * : g = z e e+8+c 6._.4.E i 3 6 h R.f.o.c.v R.P S.T.!+;+T.",
"8 ( / y r.8.y 9.8 } 8 i F q.1.i F 2._+_.6 8 0.i E } 8 7.} | 9 7.7 3.y T ( ; y F 6.7.F T E | 7.T y y < 7 9 } T 9.y 4.y 7.7.6.( r.6.9 3.7.y ( } 4.T T y | F / r.8 E T T | h 4.y ( V.c@4 6 | - 4 7.8.i Q.| 8 3.9 } 6.3 3.4.| 9 3.4.; 4.| 7.7.( } 8.< q.( v.<.< : 9 3 E 4.h E T 9 3 3 : ( i 4.( 8 ( _.9 | 7._.3 } 8 E y U } h.m+d = - 4 _ 9 8.8 u.| 1.; E 8 E 3 3 6.3.9 | | } 6.} 6.h <.7.7.6.4.<.( 8 ( 4.3.E 8.T 8./ E | E 7.7.8.2.8 E T P.M.| 8 8 9 h.0./ 8 F < } F 8 8 4.e.z < = (.0 K.A.E E u.J+/ h.y &+b+V 7+{+T.9+w+1+B+`.n+9+",
"8 r.9.M.R.1.W.8 E Q.K.8.Q.2.0.r.h.i d+W.u./ q.h.2.T E ( 7.E } 6.} 8 8./ r.4.8 7.8 y ( E 7.9 ( : 7.r.<.y 8 v.F 9 ( F | 6.F } 4.< F 7.4.6.4.h ( | } 7.E F M.M.r.y } y 7.M.T h.8 | w <+h c : ; 6.8 E F 3 7.8 4.} 7.< F E } F T 7.3.E P.3.h 0 E y 8 7.4.6.q.z ( ; 3.9 <.7 <.7.: 4.7.( / M.E y 9 ( 3.6.E y 3.8 0.; 7.3.E 9.4.( J+4 c z < : M.E u.} 3.7 7.y 6.3.: 9 4.( / / T y 6.6.3.3.T 7.T 9 : E F 8 9 } 6.r.h.q.h.E 7.9 } F 8 T 3 6.F 8 / i r.y r.Q.Q.7.( 9 8 F 9 3 r.9.( j h 6 7.6 r.x .+q.P.0.h _.F V..+Z.U.0.c.7+o.b+o..+a.w ;+",
"7.T M.r.M.F F F P.8./ 8.T q.q.8 h.0.,+v - 0.0.| 8._.q.F 4.7.9 9.M.| 9.F } h.9.T | 7.y / E F F | i 4.y y 9.3.4.2.T T ( y 7.9 ( 8.7.| / 8.E 8.F y F M.| | F ( 9 ( / | h.9.8 / M.y p.l&7 5 _.h _.7.F 7.( 9 3.F T 9 } E ( 7.4.8 9 ( 9.( _.3 ; M.: 7._.9 : ; 4 - 3.8.3.9 7 3 6.4.h.( 6.6.: 7.3.( 4.( 6.} 4.| M.4.| r.4.; F 0 <.~@& (.< : : ( U.0.7.; ; ; ; 6.: < 4.E } E E T 9 : ( <.y 6.T F ( } 9 F } 6.: | 4.} y M.4.3 E y T T h 7.F 8.M./ E y q.8.8.( 6.| r.} 7.q.h.P.q.9.d+_ = F c T r.x | v.2.R.h.T 8.h.Q.q.1.W.F 8 9.h.P.1.T U.",
"2.x r.T ( 9 } T E 0.r.y h./ M.F / i d+w 7.8 M.8.M.P.Q.E E ( 2./ M.| 1.| / 8.( 9 T E T F / ( M.M.7.6.4.F 8 9 ; : 9 3.6.7.} | q.y 7.M.( F | E / ( 8 7.T 8 T y r.8.} E 8 8 T F T } w k 3.A d.3.- 6.F 3 < ; 7 3 y 7.8.7./ 7.7.: ( | 3.: _.} F T y h <.7.: : <.T < 3 ; 9 y 8 8 M.( ; 4.F 3 9 h / ( ( ; F } 9 4.( 8.4.( M.F 3 7 U#(.- 0 : : M.2.4 3.3.; 3 7.6.4.9 M.7.8 M.6.( <.< _ ; y | } F E 9 < T 7.F 9.4.7.y / y y 2.y E 3.h } 0.q.y | | T y h 9 F y F 6.M.i q.h.h.0./ 1.a._ = | a 8.V.M.| i | y 9.2.P.p.1.| | 8 8.0.U Z.P.h.#+Q.",
"1.q.M.r.i U.0.} | q.R.9.v.P 4.K.p.v._+b+E i 1.E 9.r.8 E 7.y | } E Q.} T T r.} 8.8.9.8.| 7.q./ / T T | r.T y T M.8 6.F 6.6.F / } 8 ( | T 6.| | F M.9.E 7.3.F y 9.F 1.8.q.8 F E E %+ @( .+0 * ; 7.E 4.6.T } 8 4.6.( 4.6.7.8 | r./ P.h.T h.( 8 <.4.8 y W.6.8.( 9 F 8 / 7.F T F } M.4.7 T 4.0.3.7.4.( E 6.} T } 7.} F 9.F _.y I$_.0 : y <.; y : F 3.; F E : 9 E : } y 7.7.4.6.( / / } | 3.F ( 3.y / T F E y r.| 8.8 y F 9.i r.( 9.9.Q.q.y ( 9 : } 9.r.q.q.T 8.0.1.8.9.T q.A.~@6 z } a i v.E W.1.W.Q.S.1.P.2.y q.r.h.2.U V.W.r.( 8 M.",
"/ E i 0.w W.q.u.1.W.9.w S.x 1.S.W.Q.*+m.w q.h.P.0.| M.T 4.4.y y E E 7.y T 8 M.M./ } y y E E F 8 T 7.6.M.y T M.( E M.h.r.y 1.9 } ( | 8 y 8 1.E / 8.9.8 r.q.W.q.8.F 8.M.q.r.M.8 | d.;@m+z & c 8 M.8 E S.9.r.| 7.3.( : < 3 T E ( ; 3.<.< < q.6.0.2.T F 7.} F 3.| 8 q.T y / 7.( 8.T 6.q.8 q.W.y y 6.F y 9 6.F / ; 7.8 2.F 3.i 5%( _ 4.4.7 T 8 <.3.7 F | 4.3.} 7 < ( M.7.( 8 M.8 | / 6.6.} M.3 7.} y 9.7.7.M.y y y E 3 : | y q.| K.M.<.( 7.( 7.7.3.y i 8 8 u.P.r.T ( x 0.8.u.J+z A 6.z F r.x v.0.W.x p.Q.<.T 0.9.Q.v.p.h.9.8.9.v.p.0.",
"8 7.P.q.1.1.8 W.W.v.p.R./ S.P U i x &+%+E - r.r.9 y 4.4.4.| 8 ( | / 6.6.M.4.8.F 8 M.T T M.} i i E T | 9.F T } T | 8 M.T T T M.T / 8.M.| q./ P.i 9.} F y / 8.9.9.h.P.q.T | y / 3.f.m&q.c c z 8 r./ 9.4.7 < 9 <.M.y 7.} F F E } 8.M./ 8 3 0.F ; : 9 y F / 8 4.} F F 6.3 T T 2.8.6.8 / 9.q.8 E F 3./ 9 4.8 1.F E 3.q.M.7.4.M.n&K.6.} 3 6 F F 7.9 } E : : ; ; 7.F y 3._.6.4.6.8 } | M.8 F E E / 2.1.| E 9.4.7.6.T 4.8./ h./ F M.8 3 3.4.} 7.4.6.x V.| } T | ( / M.9.| y i Y.v z - 3.& r.0.} F u.i 0.h.y h x v.Q.p.r.1.W.9.1.P.W.p.M.",
"0.8.x 1.9.T 8 F x U.w v.2.P 1.Q.v U.`./+/ A 6.y q.x y E y 8 9./ 9.} T 9.E M.7.7.F ( F 6.} T 3.y 9.9.8 } ( T E T 8 M.y F 9.W.h.2.q.y 9.y r.M.h.y 8 } 8 9.h.M.8.0.8.M.8 F y : } y Z.q r.z c a F 1.8.h.| 7.1.y r.} 9 | 8 y q.q.p.E : 6.} E 2.r.R.v./ 2.y F <.7.P.r.9 y } 2.6.: E ( r.M.4.( 8 } 6.1.: 7 3 3.y 9 M.x 1.8./ E V.{@x 3 7 <.6.9.| T F 9 7.4.8 E T q.9 3 T ( 8 7.} 3.6.3.3 3.4.4.( 9.8 F T / 8 / M.y 0.P.| Q.P.( E ( | 8.F F T r./ 8./ 8./ E v.4.r.9.F F i i v.t.P A < = - r.M.i P r.9.| 9 q.v U M.F E i W.0.9.M./ <.E / ",
"2.x p.S.U.W.1.{+o.#+ + +W.1.1.P.v 2.U.A+q.A | F 1.F / / h.M.4.8.M.| 8 r.| M./ E T 8 T | 9.h.S. +9 M.9.8.M.| r.r.T F | T M.| E 1.8.h.| M.y M.E y q.T 9.y } 8 M.T | 7.| 8 | 9.9.( P n.0.* 5 _ r./ } 4.8 9.8 7.8 4.T 8.E 9 2.q.T 8.6.R.8 Q.P.F E } 0./ ( 4.T 8.4.9 y ( 9 7.F / M.q.r.( 9 / M.4.4.} i r.x p.W.h.9.F M.y E y R.A+T : _.7 b 4.q.9 M.9.} 6.M.y 8.M.} 7.2.| i q.9 y } | y T ( 6.q.i 6.y | y q./ Q.i p.T 7.: 9 6.8 1.2.} 6.y h.7.T q.8.q.T T 9.P.v.q.F T q.8 | A.v.c 4.c z S.0.p.T r.} E v.E 8.F y M.i / M.y q.q.F 8 K.K.",
"W.W.Q.T i Q.Y.Z.w U.R.W.w Q.2.h.P p.R.'+i b i v 6.7.y T / / 0.1.8 / x T i 1.M.i T 9.v.Q.Q.| | M.} | } 8.9.| | M.F 8.8.9.| 2.F / M.T y y | M.8 F 9.q.8.q.Q.T T T 2.8 r.| T E } y K.=+q.A * A | 7.y 7.E y ( 8 9 E 8.9.6.h.q.y } E 6.z / r.T } 8 7.6.7.6.F F | | } E 9.x q.T ( r.4.r.( | } x ( 1.8.; 6.4.7./ | T } | 9.E |  +A.4.< 4 & = 4.9.r.8.6.3.T 8 h.0.h.F 8.8.T 1.} F 9.F T M.y T | W.r.1.7.0.7.4.; 3.0 ; y 3.2.T F | T ( 3 4.S.T i 9./ 1.1.8 q.1.i q.S.V.v i 0.| j 8.- M.3+| A.#+P.V.v.7.E M.p.q.8.| 8./ / r.8 r./ | P.h.M.",
"W.w v.U.L.v.u.x K.V.x p.P.0.q.p.u.h.Z.i+9.6 w M.6.i q.r.8 F 7.T Q.Q.9.h.2.q.8.1.T Q.9.i 8.y 2.8 / r.9.M.| q.r.8 / M.9.T 8 } M.i M.| h.9.9.r.0.1.h.1.M.M.r.| 8.| / F M.( 8 / T M.U.k v.A a }.8 6.| 8 F E | 7.8 8 h.E h.9.0.M.M.h.F W./ 3.( 7.( } M.F y v.: y < 9 | 8.y | M./ ( 4.<.: F T 8.h.| E F 8 y q.2.8 y 3 7.F 8 T y }.9 = = 6 4 E x 8 4.3.4.q.2.8 M.6.8.E T E F y 8.r.8 h.9.h.8 / M.8.F / Q.T h | < h y 8.8.} F i h.9.y i P.y 8 9./ | Q.h.0.R.v.q.Q.0.r.v.R.q.W.j i _.y 8+W.h.2.2.h.r.0.v.h.Q.r.q.h.1.i 1.9.K.1.h.r./ q.| ",
"Y.Z.Y.f.0.K.W.R.q.Q.p.U U.x P {+S.p.&+L.9 b 2.8 T u.T 2.8.2.9.r.| / 8 2.h./ T F v.2.P.h.F r.x E M.( 8.T 9.9.h.y / 8.r.T q.8 } F | / | h.M.P.h./ p.| 2.r.} 0.| h.1.h.q./ | T | 7.w ;@9.(.d E w h.| M.r./ / | q.| / T 9.( T T 8 : < } } M.( <.4.r.3.h.| E 7 4.M.9.y T E E ( 9 _.y ; < 7 / F 6.F <.: 3 6.E 9 E y } E 3 6.3.7.T 9.* A A b P.9 h 0 ; M.| | 7.| T 3 3.7.T h 6.0 q.8.r.0.r.q.i M.8 E 8 9.v 9.h.7 8.f.u.F 8.Q./ T 0.h.8.1.F F / F P.7.r.T 8.0.W.2.r.7.9.M.1.h.#+F - 7 5 Q.p.p.R.R.U P.q.r.Q.h.v.9.| 9.2.i 2.F M.y M.q.i ",
";@$+)+1.| c.c.K.A.V.w U.9.P.U U K..+f.k+V z%h.r.r.| h.8 / r./ S.Q.r.h.h.h.9.0.0.x Q.8.T h.x h./ r.2.0.M.9.y E } / q.i i 8 / } q.F M.M.8.8 M.E T q.h.T F r.F / P.h.} 7.( 6.4.E : K.y+3.c a w : / } 7.7.y T E h.T F T 9 3.9 4.F 9 ( y 7.: ( y } 8 T i } <.z ; : 3.h./ 3.( P.q.6.: 4 h 4.; 6.T 3 ( : 4./ _.E 9 4.4 ( E _ - v.w 4 d A c M.u.F P.o&N I# +| q./ < 3 r./ } T 0.r.9./ 9.F / } } M._+9+#$g#f$M.} 1.W.P.r.F 8.h.1.W.r.v.R.1.( F 8.Q.x 9.v.u.W.p.Q.| h.| i 0.8 | b.; & (.b A.x v R.h.h.8.i M. +8 8.T q.8.W.R.2.v.8.x f.U.&+",
"_+*+&+Q.K. +Q.u..+K.v x | Y.=+b+m+7+x+ @p&u@L.S.K.8.y | 6.y } / v L.h.9 ( / x M.i 9.r.7.r.T 6.| F 8.M.} 6.q.F 0.v.p.P.F / 8 8.| 9 M.M.} F 8 } T q.8 } 8.2.1.p.8 9 4.E 8 P.| E F o.!+- e }.S.| P P 9.9.K.P 0.P.8.T r.9.i 8.8.q.( 4.T h h 6 6.3.F ; 6 ; /.6.r.< <.} 3./ r.#+F 3 _.q.q.4.8 | _.)#i%_%8$++,+J#(%a$q.Y#3 C$.+q&_+j &+=#t.`$r&S%A$^@$.J$9.9.1.Q.s&t&Y#w 4$8$V.C$u&c$F@=&_$C$x /+;$v&x+s 4.1.W.8.r.P o.J#l$|#e.m+q.| y 4.y j.~@w M.i W.w+t.u.O =+*+W.| v.Q.Y.j.c d * 7 Q.9.8.r.Q.9.p.0.u.v.1.8.1.v.1.R.0.T 9.h.R.P.x h.",
"4.3.E / A. + +=+U u.v c.b.i+L..+o.,+z+k+-+9 7 u.v =+T.T.9.T F P n.u.; ( 3 M.3.; 3 h 7 9 3 3.4.E ; 3.} 3 4.y 3.7.<.( < E 9 E 9.E w T T q.E } 4.8 2.i 8 / F ( 7.E 4.T 3.( 3.7.M.#+a.q.d w&5$c.[%w@X..$2@[++$v+$.a.@.$./+~@'+k V )+%+j ++;+o.~.V !+)+a.d+t.x+_+1&k.x&]+k+o. +2.v k.;@A+X.l.l.$%n.z$1@y&^$z&A&B&C&D&E&s+h@i+t.L.3 2.x {+B+_+s.d+~@t+t.1+%.r+z$9&7&F&)$M#C&0&0&9&).2&E&A@~$v$G&H&,$I&x+s.i+5#h%a%e#x@)%q@$%n y+A.]+u+s.B+V p+h&n+k+n R%#.r+p+2&c&k.X+_&X.l.j q.9 & 9 T 8 8 P.S.K.i 1.&+*+$+V Q.W.{+K.Q.r.2.V.K.v.h.v.",
"A e c+0 M.x P.v {+P t.x+A+B+u =+#+U.F (.e f 9 j.#+| : 1.P V ;+]+v.0 w !+B+++d.u.R.8.h.0.x u.v.v.A.f.m+f.V j.-+u L@a.=+1$|&B+k.V#!@=+b+Z.!#!+s./+D+#%++=+9+$+<@/@x&J$#$X .%X.I$/+a.R.R...!&B+~%d..+P Q$o..+|$&#R.Y.n$!+P#n$:&Q K.c.{+A.Q !#6%1.Z#y 9 4 4 3.7 q$x%J&c & (.(._ = _.: _.< < _ 6 _._ = K&h T.L&* 7 ( } 4.4.; ; 4 <.7.= 4 4 : : 8.F F F 9 2.R.S.P.x v U.R..+&+V.Z.Y.{+Z.b.u [+V c.W.9 _.h k&[&M&)+Z.| 3.r.K.w+ +&+^+b._+#.c@[+V O#N&}@i+.+++o.v V.j.!@b.j.!+A.w+/+ @#.n.]+m+y+q h@q+O&9&N&i@l.i+L+b.u+u ~@l.m+-+w+9+a.",
"x | F 8 : F 8.V.9 0 6.a 5 d |.[.f 8+f 5 g |.* [.[.3+c+3+8+[.g [.[./.|.g * b 0 h * : ; 6 4 6 z & /.g (.- = : } <.; < 6.9 F | i 9./ M.0.U.{+c.Y.Y.A..+W.j.j.f.L.U.v V.W.8.h.6.0 5 8+g+e+e+c+c+@+e+c+3+3+3+g+g+g+3+@+3+@+f 3+c+e+@+c+c+@+@+@+f |.d d [.e 8+@+8+3+3+8+f _ <.- a * A 0 <.E ; <.< 4._ 4.y ; = 6 ; 4 z & c g a a * = c & * a (.* A = <.<.M.F 7 6.y | q.8 ; 6.<.( 9 <._.3.6 - M.X.p.h c 9 ; 5 e 8+5 5 d }.}.a & [.8+& a e g (.- c & z - z & }.5 @+5 e /.|.[.g d [./.a 4.q.i U.w 7 ; 3.( 3.= 4 _.9.A.A.S.R.L.U f.o.d.-+j.",
"3+8+@+3+3+3+@+e+c+e+3+f g+@+3+3+g+@+@+c+c+e |.f @+3+c z c - * f e }.a (._.- * c - 7 4 9 ( 6.6.; ( 6.z A & (.A e 8+/.g 5 6 < |.d & 5 5 g @+3+c+3+* z _ 3.7 h h 4 3 3.M.T < z z 3.7 G 9 3.: : 0 3 ; 4.1.R.P  +m+V. + +2.1.u.Q.1./ ; y 4.r.h.9 _ = _ _.7.( T i 7.x 9.2.E 6 ; / M.y : 6 = < b <.h 9 F < h A _ 3.8.M.8.W.0.r.R.h.( 9.p.Z.A.e.o.Z.x `.U p.U.&+u.h.8 F ( 2./ v.i 9.E | 9 ( 1.0.V.3.< 3.U.<.A g |.[.* a & 5 g a b & & z 6.3 _.h 4 4 <.3.(.z 4 4 z E _.b z b * e a /.5 * d * e /.|.d g }.e e A a d b c * a (.b & a 5 |.g ",
"b 0 < 4 : < b - = _ - e a e 8+8+@+g+g+3+5 & g (.3 i 6.y h ( _.7.M.P 0.} 6.4 h _.3 h 4.( 9.6.| q.q.u.i &&)+%+R.++t#x$)%a@&+P&t.B+b.!#t&b$#+T@T.L.U g.M.7 3.6.Q&E@s&:%R&8.J%c.t#h%0@-+B+G$f.Y.*#d.L.S.Q.U P P.0.z 7.h _.: F 4.} T s&t&u.M.<.Z.Y.u.0.v p.v.8.K.8.M.0.p.q.8.0.0.L.e.w .+ +p.P V.Q.#+2.i P.v f.R.( | / | ; 9.h.r.R.)+h.8 ( F 8 E 3 7.7 7.: F F } ; 9 ( T q.0.8.M.r.| F R.i 0.u.3.< T e.3 /.* ; 8.| ( 7 ; q.E 6.0 6 F | ( 7.6.(.T 8+e (.3 6.7.1.v.K.U.W.E 0 (.}.< ; 3 8.4.: ( h | h.7.E 2.| q.1.3.T E } ; 6._ = = 3 E ",
"8 8 M.y y M.i u.h.M.1.P.T Q.W.2.P.1.u.1.9.} / 1.i : U 2.M.V. +{+m+Z.Y.S.S.p.p.P.0.S.0.u.S.W.Q.8 F x (%I%h 6 u.r.* z 7.h <.} 9 6 6.h 3 < y 1.W.R.h.1.E 9.T p.R.U A.d.J+B+b+x F W.P.x Q.R.f.R.c.Z.&+m+w+)+Z.L.d..+.+v.x Y.u.K.Z.!+-+j.&+J+j u.F h.f./+m..+h .+ +0.q.P.Q.9.8.P.8./ q.R.2.0.W.q.r.W.} M.E 4.9 8 E 7.y 4.7 9.T } / 8 h E / 6.3.4.3.h 9.4.F 3.<.3 7.4.F 3 4.; y T 7.8 q.E q.i j.3 4.x L.* [.3 Q.A. +v A.x y | h.W.U T : 9.h.V.p.0 P B+k.j j.d+Z.o.P 8 M.Q.e.j.++!+P V.h.9.| y U  +0.0.x V.u.j P.Z. +L.h.1.8 0.`.#+!+&+",
"K.p.S.v.x x x Q.S.K.v w W.u.u.#+u.Q.w v.W.P.v.F ( q.x } r.i | W.P.x P 2.i W.2.0.P i A.p.q.| M.i R.r.K.h ; {+{+r.Y.V.P.M.0.u.0.q.2./ } E M.8.8.x Q..+u.2.r./ M.T T F / r.M.w v.9.y | 9.h./ y 7./ 8 | F q.M.r.T / i M.8.T E E 4.6.( M.h.2.8 ( 7 P.m+o w h 7.P.6.E M.8 | F / T } / i h.F T ( M.T } / E ( 4./ T : y ( 6.F 8.3 7.h 4 0 6.9 ( < y F | F 9 F r.( | 8 | 8 8 } 2.7.6.} T 8 1.r.3 t+} 7.q.Y./.6 w &+Z.h.T ( r.f.U h.M.U V. +P.y 8. +.+p.T.&+;+&+P  +P Y.c.F 6.7.2.M.6.r.v.8.q.Q.U.K.P.q.i y } / q.y #+v.E | h.W.v.2.i / | ",
"9.i W.i S.p.Q.R.i | E y | 2.E 8.3 y F v.W.h.i v.V.K.v.M.i 0.u.9.} x 9.q.r.v.y W.W.P.| 7.U.A.v U.u.u.R.j. @G+p._.F E r.T / M.7.7.7.: ; } M.E | y } r.y E F M.y 6.<.y 4.6.9 4.F } M.M./ | F } y r.3 4.7.E y 3 9 } ; 3 4.0 9 9 6.} E 6.<._.3.: 7 U %+*+< r.8.T | } 7.E F r.M.6.E y 6.9 } : } y 7.} 3.3.4.| r.( T 8 ( 3.6.4.6.6.z | 3.8 } : 6.< 3.y 9 9 6.7.3 E 8 E 7.6.} T } } 8 | q.8.8 9.;@F ; | K.& d P 9 / ; R.9.v U h.u.P..+K.q.q.h.r.| h F p.Y.0.K.8.q.8.q.3.* E p.8.r.T F q.8 | F q.9.2.9.F Q.9.2.4.q.Q.M.W.w Q.W.v.i q.1.q.",
"T p.2.Q.h.F | Q.P.2.i P.0.2.1.P.h.P.S..+0.p.1.1.v.w V. +A..+v x P.u.} 9.p.Q.r.R.T Q.L..+&+i ( | x r.v.w n.++3.0.} F M.M.T } 3.7.8 4.4.| y 8 } T T T 7.( 6.6.6.7.F E 9 3.( F E T 7.y | 8.} 3 y 7.( 9.E | E F / 7.F } 4.7.| F T / y 3.8 <.T 3 9 K.t.U.- .+8 ( 4.( r.y F ( 6.E F y F E 8 } 9 ( 7.( E 4.8.F E ( 9.( } 9 ( y 7.4 ( M._.T F ( y F y 8 8 E T E F M.4.9 E 6.4.4.M./ M.8.T 8.8.} !@0 _ | v.@+- 8.4.r.4.v.Q.P P L.w d.`.R.c.R./ | 8.8 h./ ( 4.: 3 3.7 4.= 7 } ( 8.} E i K.9.2.x 8.q./ E 6.| | / T / 0.T 8 6.y / 4.F P.q.E ",
"M.h.P.P. +S.0.2.E r./ / E E E r.u.f.p.1.1.h.F 9./ y h.1.8 q.S.i 1.T M.} 8.y F y w P.9.9.i E 9.1.M.q.1.#+_+T _.9 ; ; ( 3 : F 8 8 : 4.( | 8 q.0.8.1.r.8 7.9 F 3 9 y | ( 7.} y r.i 7.8.M.i : 8 ( 6.F : 9 0.4.h 7.E 3.3.| 8 r.} T } M.2.2.h.M.9 h M.1+} b p.< 0 / / | E ( T T y M.M.q.E 3.; 7.M.F 6.M./ y 7.} } F ( 7.} ( 9 9 8 E < ; 8 7 : : T E 3 ( 6.E } r.8 8 E y M.h.2.9.| r.r./ } M.F w+_ 0 8 v.c+z W./ 3.9.R.q.0.y 8.8.F u.Y.R./ 6.1.8.Q.P `.1.0 b _ h 7 _.h & < ; 4 8 F 1.S.r.| r.1.M.r.4.q.9.9.q.4.: / } 6.6.: / 2.Y.W.F V.",
"T ( ( / 8.( h.q.T T F P.1.v.i 0.p.P.h.P M.M.u.9.8.v.P.F W.u.9.R.P v.S.0. +h.9.P Q.y 8 P.E ( 8 W.p.1.8.h.B+F z z ; 8 / 2.2.F r./ q.y T E M./ ( | 8 8 8 q.r.U.V.8.F E 7.y 7.| q.| q.M.r.T 7.} 4.7.E 9.h.h.4.| F 4.} T 7.M.F r.M.E y 7.: y 4.9 h P.v+F z 8.f 8 T ( 3.8 T y / / 8 8 9 ( 7.h.q.9 0 y 7.q.M.r.i 6.( } } E 7./ F 8 6.8.K.1.h } ( F } 6.T : 7.y T 9 ( r.F q.T r.E 8.8.M.| T y 9 a._.h } T e+3.M.F K.u.E 7.p.x p.y 9.`.y y 9.: 9.i M.R.v U 9 F 4.9 4.T 9 6.y 7 r.; 7.P.M.8 Q.T M.T r.| ( 2.| F p.1.q.2.F T 1.2.0.9.F y 8 ",
"q.i 2./ P.1.W.1.T / 8 T W. +v.V.f.x P.q.u.R.K.P 1.q.0.2.v.9.r.y r.9.u.v 1.} r.M.y 8.1.y T W.P 8.q.0.U L.b.4.= ( ; F ( ( ( ( ( ( <.( ( } E } | F | r.F 7.3 M.( 3.q.8 y / 1.i M.9.i 8.i F 8 y ( M.8 | r.E 7.3 } y 8 9 E F T E r.9 | 3 6.9 M.8 3.p.[+9.0 M.f 9 3./ 9.r.8 q.T T 4.7.9 6.4.( ; ; E y F } E 7.< y y } 4.8 / F M.F / M.| F M.r.| 4./ ( 3 3.8.i E F 2.F / 0.( i / h.i / T } | F i+; 0 6.8 h+/ 8 8 7.4.T V.#+T h.y i 9.} E F y w h.f.2.} 7.6.T ( 2.F 9 h 4._.M.F 2.U W.r.1.F q.u.v.T } v.h.<.R.1.2.#+y y v.i 2.r.y < T 8 ",
"P.q.r.h.0.h.4.6.h.P.1.i E y Q.P W.8 1./ W.2./ E r.9.8 9.r.h.F  +P.i p.r.R.Q.V.W.v.v.V.K.2.7.h.8.M.h.i i x 9 (.= < | 7.T 6.; 6.9 } ( ; 4.8 7.r./ q.M.8.8 M.} | 8 / y / M.M./ i i 2.E v.| / y Q./ M.7.; 3.6.} F ( : 7.E E E 6.< F 7.} 3 9 6.< - q.u x 6 4.|.Q.2.1.9.M.8.8.9.| Q.q.2.M.0.r.9.9./ / q.} } = y 8.8.q.8.q.( | ( 9 ( 9 T 3.6.P.h.U.3 P.h.x u.8.7.P.E / y } 9.P.0.0.P.F y r.q.| [+: h y i g R.T P.p.P  +P i y | } F w u.} | P.v.2.K.y } 8 - 9.9.(.| 1.8 ( r.q.r.Q.3 E v./ 7 M.3 y P.w T T ( r.| | 7.4.E } F ( 8 F y | r.",
"1.2.1.2.S.v.W.W.2.P.K.u.Y.Z.P.F T Q.P.R.R./ E 6.4.F 9.Q.i Q.q.w i p.v.8.v.7.6.| P.v 1.9./ h.i / u.| T r.V.c.b = W.#+x 6.<.3.} y y E : ( 7.} y M.E y 6.6.4./ T y 8.1.h.y 2.8.1.9.| 8 M.} y } E F y 8 3 T ( <.3.6.( 7.4.( y 4.4.: 6.3.( 3.| <.7 9.k+L._ ; * i / P.r./ M.q.r.M.} F | P.h.M.q.T 2.S.8.U c.<.W.8.8 8 M.r.7.T 8 7.7./ 9.8.q.T r.8.8 | | 9./ 9.P.( T E y i q.8 / r.y 6.8 1.1.r.y+4.: y q.@+9 M.Q.M.4.h.| y x Q.i W.K.i 8 1.R./ r.x Q.q.6.w h.F / .+9.; h.8 T w R.v.P.8 9 2.x x q.8.r.T q.8.1./ y p.} y 8.T 1.M.| ( / y ",
"8.8.9.R.1.8.y F 1.9.q.S.P p./ M.T T 7.9.| 7 E 4.} | q.M.q.7.F y 1.M.| q.4.8.T Q.7.9 M.F E } 6.9 3.r.8.8.Y.q.b 7 4.y ; 7.9.q.( ; 6.( : y / } 3.7.h 7.| 8 4.} 7.F } 7.; 0.T 8 | / M.E r.M.8.4.7.E 7.4.4.9 3 : } 9 3 } 4.( ( 4 _ 3.0 <.; 9 E ; _.6.k.{+- M.6 {+r.| h.E i 8.T ( 8 1.i 1./ 1./ 0.0.( 2.4./.4.v.P.h.2.q./ 8.8.y q.r.i r.8.4.8 | 9.| | W.r.i i F i r.r.v.0.q.h.r.| 7.q.0.| 8.E '+/ y y x @+q.P v.| 2.i | P R.0.0.p.w 8.h.0.7.T h.0.8 W.R./ W.M.8.8.P.W.P.K.1.} ( ( | 8 0.P.M.8.2.1.4.y T : 8 E ; r.E 8 F | 3.T ( i R.U.",
"y M.u.U i p.| i 2.V.T.f.&+1.8 r.r.| P.0.T y / / r.2.8 8.9 T < 1.h.r.r.Q. +r.8.W.v.V.q.8 y y P.2.V.S.8.0.v.P z b 4 7.} 4.3 < ( y } : 6.<.4.4.T M.8 8 } 6.| E F | } F 9.r.h.T y | 0.8 T 4.< E | 7.( 4.7.F 3 4.} ; 4.: - 0 < <.( : ( 7.; 9 ( 7 A i ,+Z.- : = 1.F | q.1.0.7.9.P.1.p.v./ | q.r.8./ 3 3.E / c.f.F y 8 E 8 8 7 0.T 8.Q.r.7.Q.S.q.r.M.Q.i q.2.T | P.q.u.w i T T T h.1.2.0.R.q.i 1+M.; < 8 g+W.M.9.0.u.h.w P.T / 0.U.Y.&+V.q.y 1.r.u.9.8 T | A.F ( x .+E 3 M.4.T 8.8 ( u.p.8.r.M.2.T 6.8.8 7.r.9.r.F 6.| | / 8 1.i 0.9.U ",
"q.r.v q.v.Q.W.h.h.i M.4.0 7 8./ q.v R./ r.1.R.0.W.R.2.S.R.x U. +F x i / / r.i / 8.M./ 2.0.u.K.#+V.0.V.R.K.++A b 8.y 6.4.9 7.y 3.6.3 y | | E E 4.E y } 3.y T M.y } T T R./ 8.r.} | E } 3.7.9 3.( ; <.: : ( 7.4.3.6.<.<.| 6.: 9 6.9 3.} } ; < _ r._+U.= 7.& 3.T 0.8.| ( ( #+0.1.9.| 7.E q.q.q.7.& 8 M.9.x 2.v.P.y h.| 4.y 8 M.0.W.r.M.S.x 1.r.8 x W.i  +P.W.7.v.8 P.u.v.i u.q.i / p./ q.i n.6.<.y q.8+r.9.q.h.S.Y.A.V.p.S.w T T < _.; i r./ i 3.i < u.h.6.M.0.0.E ( E 9.8.i 8.W.W.0.i | M.h.h.T h.( 8.W.1.r.p.0.W.S.M.F i 8 8 h.2.",
"h.#+v.8 F T F / 8 M.2.W.T.R.8.1./ 1.h.i M.9.0.v w x V.w v P  +P.q.M.F M.K.Q.q.9.Q.9.1.q.y T 2.h.8.8 T W.2.i b A h E } } ( : 7 9 } y q.; < 4.4.r.6.( 7.F 4.E y y E | 1.8.8.F y F ( : 9 4.} 3 ( - 9 _.; : <.9 3 h <.< M.9 <.h 6.3 4.9 < < : 0 6 } .+x 4 4.- Q.U.i 1.M.3.w p.b / 8.r.r.h.p.8.9.|.6.q.| i } y } 7./ M.7.8 i P.h.h.T 9.|  +0.i } R.v.9.V.x 9.i V.0. +w 1.i V.{+-+m+R.} v 9+8./+7 7 3 F [.0.8.P.S.8.P / 1.p.i | | F 8 1.v.8.} p./ 2.W.( p.9 3.h.Q.E 3.M.K.6.v.w i h.q.q.y M.q.P.9.M.7 <.x M.8.T F 8.W.8 } 8 r.9 ; y r.",
"P.1.R.1.2.T h.P R.U c.K.K.| P.Q.p.0.p.#+v ;+e.&+2.Z.f.R.#+0.1.1.0.U h.e.V.9.9.F 8 1./ T r.| | 8 7.v.K.v.W.W.z A 0 y 3 : 7.4.9 y 9 9 <.< 4.6.( ; 6.4.F 3.9 / | 8 4.( 4.7.- 6 7 4.4.4._.7.6.; ; h _ <.< : E 3.7 } 4.} h 0 7.y 7.8 3 3 4.9 : ; 4 q.J+.+: 3 }.V.p.9.M.: M.U 3 r.i 9./ T 2.W.A.< : : 9 _.1.9.E } P.p.| E h.q.9.q.v 9.1.h.9.8.h.F u.Q.P.q.h.i r.Q.h./ Y.2.2.o.{@&+v } F Y.E P B+6 0 3.r.(.S.0.u.W.T.x 9.9./ q.| 8 8 q.F M.h Q.r.u.M.7 7.E h 1.r.q.3 <.9 8 / q.9 6.r.} 4.E F / 0.8 _ ( r.| _.7.( r.8 } 3.6.9.M./ u.Z.1.",
"h.} M.9.| 2.c.h.x 1.Z.U.x  +K.v V.{+&+u.x w K.K.w i 8 i v.v.8 q.P.v.L.v T E E M.1.0.2.h.8.F | 0./ q.i / : p.6 z A b 7.3 / y : ( 6.3 4.3.( } / 4.| ( 6.( 9.8 ; : y ( 7 8 | / / 7.T 9 4.<.3 < 6 < < ( 7.F 4.6.3.F 0 0 7 h 3.< 3.3 7 6 4.< h 3 7.o.v+&+7 h = )+v p.} i U.h.i u.x K.P.Z.Q. +8 0.v q.r.q. +8 7.d.`.2.h.| W.r.8.i W.S.9.T 8.8.F 8.Q.y Q.P.0.( ( | M.i 6.< y r.P A.= d T 1.6.f.y 5 a b * A E 8.p.U x P./ E : } | ( r.9.( E } / 8.r.y } T | 7.8 3.6.3.8.i | 2.} ( / F 8 | | | M.h.8 6.q.h.P.q.K.t.P.9.6.4.P x x K.o.w 1.",
"M.S.R.h.Q.#+P q.} q..+%+v V.K.u.w U.u.8.| 9.q.A.h.9.9.f.U 4.i Q.F R.q.} F 8 x P.w p.v.R.U.p.i / 2.i q.: 2.A+4 (.6 9 9./ 9 _ <.< < 3.7 ( 3 9 9 K.} ; 3.7 ; 7 h < 7 9 8 9 6.: ( } < ( 3.9 3 A = 6 4 - 0 <.< h = 7 0 < ; ; 9 4 _ 6 _ 7 ; 0 h E j.y+w+1.6 6 * v.9./ P.x q.h.x S.K.p.J+ +E | h w+J@%#;+Z..+/ j S.J+r.6.1.o.8.L.U E ( 7.9 F 6.3 _.6.8.8 } 6.2.W.8 h.h.K.r.T )+T.S&E@X &%T&U&%#w S.K.: r.Q.q.P.o.m+*+V V e.0.h.8 3 h.9 7 .+W.K.E 7.4.} ( / 2.W.F 6.9.i r.u.9 h.V.9.| V.8 7.1.9.u.: y R.Z+I.z+M+| 9 h.| 1.Z.9+n.u `.Z.v ",
"x v 0.i x .+q.W.v.Z.P / b M.P.S.W.P.8.0.w w P r.6.8.W.E 8 S.i 8 9.q.9.q.( r.9.3./ T.2.x 9 } q.#+v.E ( 8.++Y.& }.= F v V.u.8 < h < h <.9 : ( K.m+- F r.8.: r.7.6 3 ( r./ T r.8 F } } } : 7 < 9 3 3 : 7.3 ; 0 ; < 7 ; ; <.; 7.y T i h.x P.~@n&u@0%X%_.6 $ V&)&T%5#E$8$Y.b+g%5%7#W&*+ +;+^$P%c#5#1&v$z@p@/$(+T%7#Q+B@]$p+0#c&+.S%:+$&q#N#N#v#^$/@$+7+j !+e.Y.$+m+b+e.T.~@d.y 4.P.Q.T.e.;+q.3.F } #+s.t+u+X+s+{@k w+Z.e.[+$%w@!&L#k ;@L#@.D+t k.L.&+r&)&W L@y$V@Q h&Z+2@6+P+{@i+[+$.b.9+t+t.++T@L@*%9&n y+v+k {@,+$+=+L#{@X.o d@R%l#",
"#+S.e.{+e.&+#+-+n.x&-+m+&&&+{+;+b.;@1+x+{@y+,+a.]+a.j ~@y&q&W ]%6# $L@t+$+u x+X.z+L+$+P+G#5#X.u v+t+l.k.%+v.p.{+~@l.M+f#A@Z+1&X&T#U P.0.( 9.e.P%r$2%:@O%Z X X%K%8@5#:&~+h%Y&Q =#=#1$!#(#^@y$!+@$L@]+]%9%w#f$`$n#r&J$Z&:+g@1@M$v#{$-.=.K#8&L+_+!+)+&+&+j.j a.f+@.!+1+u b.j.0.7.3 E 9.9.P.( r.7 7 F y A.f.M.h.w 4.: q.9.q.M.r.r.Q.2.v.x v 1.r.r.F 4.4.F q.Q./ : 2.1.F 6.( } 4.; - 0 h = c - 0 0 : 9 0 A < 7.h b = - 4 7 ( 8.9.8.h y 3._ _ = - h.K.v.x i 9.P e.9+A.r.P.i x 8.8.L.#+.+)+_+i+L+q K+@.-+Q.x U #+b.l.l@o+L+A+j K.P.S.V.",
"l. @L+z+y+N+ @#.r n.w+1+N$k.X.!@w+++)+e.++f.U U U P v Y.Z.S.q.v.K.P w R.P.2.1.8 E ( 3.; 7 h < < 0 z b z A (.= _ 8.c.b.w+Y.U.#+++a@$.c@K##.#.m c@G#%%s+d@f+@.;@n+$.t k ;@z+;@u+k u+k y+t+$+V w+9+B+j.{+L.R.r.6 < <.( E M.2.p.2.P.Q.6.2.P u.W.0.0.( 2.M.r./ 9.M.F M.( y 4.: 4.<.< _ _._ z 6 & a c & z = A A 6 z (.a c b - 9 9 6.3.4.7.6.| 0 < 3.} 8.8./ 6.< b _ | 4.0 8 ; 3.; 6 z a 5 b }.- < (.4 - 6 6 _ 5 (.a g c = - 6 a }.}.* 8+f d d e |.e e g |.5 g a A b b z z }.|.d & = & }.c - b _.; <.6 6 - b z - - < < 4.( 6.7 _.0 6 _ ",
"h <.< <.<.< < <.6.6.7 6 0 <.7.E 9 : < h h < <.< < _._ b b b (.A = = A (.(.A (.c A = A = 6 _ _ _ z z = _ z (.b c = - h 9 _ b c 5 a & = 9 6.`& *; = g 6.h & * * z h 3 3.T 8 4.y W.x r.y y | i R.R.V.p.x |$=#d$y$u&R.v.p.x R.M.0.T T F <.c e |.A |.0 h a A }.= = 9 0 } M.T u.r.v.8.0.h.8.h.3 4 = - c }.}.= - _ c b - _ 7 <.3 9 7 _ 4 <.0 A 5 < 4 7 3.: 2.U.} 3.1.h.9.h.W.P F T p.( ( F < < E / 4.6.3._.0 3.F y | M.T T y q.P Q.1.i 8.8.q.6.7.y } } 0 z a < 6.7 - * _ & z 4 0 < = & _.7 z 6 A |.c 5 z 4 : 7 7 * d & A c /./.a * g 5 ",
"g a [.(./.f g * z 6 6 b _.3.- 6 h _._.< < 0 3 _.4 - z = (._.6 z c a a * * & }.d d d A 6 (.= * d f [.g [.f e e e - ; <.U.&+w V#K.c.##!+b.A#.*g@A+k.V#k.p.K.w+.+V.9.E 3.- 4 h 6.F 4.3$+*7$4 - 9 4 & ; } 8 6 b _.3./ 8.r.1.i U.v R.v u.e.1.( P.Z.M.| 9 9./ r.8 p.8 p.8./ 1.M.M.( q.8.h.T i T h.F P.} _ P 2.8.2.x .+v.| y ; < c.} z <.<.r.!+w+S.d+a.)+d.S.S.Y.T.;+K.8.i 7.} 6.0.q.8.2.E 2.( T y 7 T x L.f.8.( r./ y F ( W.M.S.r.q.U.9.Q.p.K.L.Z.0.P.++f.c.R.( 9.b$R ].u.q.u.h.4.h.m+o..+P U v.9.7.0.Y.#+/ F 3 h 3 6 4 & _.7 9 3.4 <.",
"6 = 3.b _ 8.8 6 9.: i 9.i Q.p..+R.p.8.6.h ;+q.( 7 = _ ; ( 3 <.} 3 8 7.<._.9 r.h.h.q.6.; 9 <.F h.9.R.W.} q.r.y } 0.P.)+/ 7 3.<.< 8.p.e.e.j 8.P.F 4.3$( } T y T 9 3 <.: 6.4.E / i M.D / i 9.v ( 4.| v.W.i 8 8 0.w / } q.9.i 8.7.F ( M.4.T A.j.h i / h.r.6.| | i q.8.| 8 v.r.| x 2.r.h./ T < / 8.9.M.t.p.q.9.8 1.F 7.y T 7.6._+y E 4.-+m. +Z.o.f.q.u.S.v Q.( 2.1.S.v } | u.( Q.3 } 3 0.y 3 3 0 | 8.: ( = 9 / y <.7.y w | r._ _.r.4.7 / | 8.0.} 9 P : 1.Q.8 | ( a.{@{+Q.S.w v U.d+V.2.T q.S.P.q..+1.1.| F } i w+d.)+d.A.{+.+A.u.t.B+",
"w 1.A.Z.j.b.b.-+t..+U P.&+.+S.p.P.9.x  +J+o.A.#+F } T x 2.v.w x p.U p.U.c.U U.v.S.Q.W.U x 2.} 4.6 c = / o.u.Y.!+j.1.E / w A.x i p.J+Y.p.0.V.A..+q.u. +q./ F / 8 r.0.0.y | i v.7.E F h.3.9 ( E ( J+ +8.h.0.v.v.#+i 8 P y T 4.E 6.6.: _.M.E 6./ 6.y 8 y 8 7.| q.y <.6 ( r.: : 6.E y E < 6.7./ T | 8.y 7.9 6.( ( 9 3.7.7.7.0.Y.= 6 w @.)+P h.} 9.P.P.2.h.S.M.U.9./ : v.U.| 9.u.i 9.0.| h.6.7 R.L.4.: 7 < <.( 0.W.r.v.} <.( r.6.y 8 r.8.8 0.i T V.p.p.V.v.0.Q.K.`.q.3.7.9 _+k+`.4.P.1./ i v.x P.S.U Q.V.#+U #+ +Y.{+V.f.u.U.A.U v P.",
"S.p.Q.Y.{+v K.R.!+8.x P.p.R.S.S.8.2.i T 8 i q.P.=+h.#+w F F i / 8.P.r.h.F } | ( 9 ; | 2.y } 1.Q./ U.u.R.Q.++9.8 7.E / q.i r.h.Q.q.| w q.q.8 6.} i u.y 6.8 6.y F T / } / Q.R.W.} R.W.i 7 F 8.r.J+R.4.7.h / 3.; _.4.8.9 <.3 3 3 4.E 4.3 F 7 } 9 / y 8 } } E / 4.y 3.h.i 6.; 8 T <.3.< T : | : 6.T q.9.y T q.8.3.4.6.} ( 7.P U } =+o y+V.f.u..+S.P.r.h.i i 2.h.Q.1.;+1.8.9.#+v.P.M.r.T ( : / c.4 1.T 0.h.V.w q.} T q.i 9.} h ; T 3 3 8 F 0.P.T y h.#+8.T v.S.} 8.P.7.T u.;+h 8+} 0.1.x V.A.9.1.F : R.V.K.K.v.V.9.E T M.8 R.q.R.q.| ",
"6.7.r.4 6.M.2.r./ x S.v S.W.1.8./ M.1.r.2.i v.2.r.b / y r.| F 8 r.8 ( F | T ( 7.7.y F y F E y y P.p.P.E / Q.i i 8 8 T y F F y / 9.p.M.E 2.h.w 8.} : ; T y } F 8 8.S.r.U.x 1.T Q.y i 1.A.p+2@1.p.F ( 6.9.E 4.E E < 9 3 ( } 6.8 6.: } 9.y h.; 7.| 7.F 3.} 9.| 4.( } | 8 q.8 6.E ; 0 ( 6.M.E y y 4.| } 6.3 y 3.T R./ 7.M.0.h.A.P.L.w J+R.q.T W.v.h.9.E E F 3.y 9 3.8 x P.h.v.r.( i p.3.F q.u.F h.7.M.r.E 4.6.8 8 T F } 6.4.E M.M.: h r.2.2./ ( i i 1.q.7.S./ 8 0.j y 2.a.<./.< ; r./ M.0.W.q.q.P.Y.0.T M.F q.x 2.Q.P.2.9.4.u.q.F x ",
"E 7.; i r.x 0.M.Q.W.p.M.r.r.0.i i h.h.2.P.q.v.| Q.= | 8.r.y } 8 8.r.y 7.y r.q.| E ( 2./ 3.8 W.8.2.7.y 9 8.q.| h.F x r.| 4.T 2.q.8 8 9.6.} | E 4.} 8 T E y F 2.1.R.| T 8.y E 8 1.p.9.0.< u+r.<.2.3 ; 3.3 3.: 7.y E : 6.| E 3 7.F y 4.8 T F | r.y 8.F F 8.M.} r.: F 9.8 E 8 T 4.3./ h./ 9 F T E F 6.4.8 E F / Q.| 6.Q.r.6.3 T./ i 7.r.9.Q.x 1.Q./ 2.7.T 3 r.r.6.p.R.q.p.v.7.7.y q.r.x h.T 7.v.8 | F q.9.1./ r.E 7.7.4.7.8 T ( y y q.9.9.8 E / q.1.0.7.q.q.q./ P t.8.p.!+/.q.9.K.0.8 1.9.h.1.2.2.0.r.h.q.r.K.E 2.M.h.} 6.U u.x x Q.",
"| 9.R.9.h.x R.K.p.Q.| r.p.9.P.r.8.q.W.x 8.9.T | v.A M.q.F M.M.h.F ( 4.} 8./ W.F 8 | 0.E E r.3.( E y 4.; E h.i 8 y 8.y 8 M.r.( 8 Q.9.q.| 2.y : 3 T ( 4.F ( 9.| M.8 T r.8 8 T / q.F T 9 8 d+_ 0 ( h 9 } 9 3 ; <.| 0 ( / 8 9 8 E | 7.8 : 8.T ( 7 E h.r.8 F y E y F 8.M.7.8 7.} 4.| ( E } E y } T T y y } y 7.q.y 4.8 q.( <.A.!+} _.7 &+K.h.Q.i P.8 4.0.q.P.&+i v U.P.Y.i y i  +2.0.8.i r.x i K.q.y M.i 8 F / / F 9 ( 8 } T F / / T T r.| F i / M.F 9.9.h.P.F 3.K.e.F i *+a _.p.i F v.W.q.0.q.h.} 2.Q.2.| i | P.r.T } 9.c. +r.| P.0.",
"P.q.4 1.{+p.u.p.8.r.q.S.u.W.x Q.0.Q.p./ 8.i v S.h.z E / y y | M.E T r.2.8 6.y 7.y 1.1.F y r.8.8.7.T q.9.9.q.8 8 / T / / | 0.W.1.T E T q.6.E 8 F : 3.3.< y 8.6.r.8 r.7.y E 8 } 1.0.1.0.| t.4 = w 1.8.h.; 4 _ 9 F y < ( T E / 8 q.M.9.2.r.E 8 3./ q.9 4.} F 8 } 4.T 8 7.( q.T ( 4.T 9.y 8 ( 6.6.( E E } 7.9 6.: E 8 8 4.T 0.Z.8 * !+.+1.} y / r.E `.u.Y.v W.V.S. +{+/ _ P.F ( / M.h.Y.9.9.v.E q.8 M.M.} r.T 8 6.E E F T F M./ 9.| 8.M.| r.Q.8.| 8.T 4.q.8 h F #+T.} S.Y.6 0.v.T M.0.W.P.9.q.M.T 9.F 2.P u.9.P.9.u.Q.K.} y E v.K.2.",
"F 2.0.v U.V.x 8./ 1.P.v.9.6.4.| / 9.r.| x W.u.8.4.(.v.8.6.F 2.8.q.9.8.M.i E r.F 1.| 9.2.q.| / u.S.W.0.h.P.h.T r.8 u.i / h.v.y T T F | 7./ F y 3.F M.( y T 1./ y | 4.E 3.4.y h.2.8 i i F s.z - i } F 8 3.4.F 6.7.8 M.9.9 ; : y | 7.E q.Q.r.3 8 2.F E | 4.h.; } F 8.8 / / 7.( 4.M.E 8 E y 9 7.} 3.3 ( E 6.7.F | / 8 8 8 i 7.e.7.h.N+d.y 4.9.q.F K.1.1.R.9.2.8.q.A.y h  +( Q.u.F x P.9 / i W.2.F 9.w q.i Q.u.h.F 8.8.8.r.q.1.9.M./ M.2.q.2.i F 9.P.9.i 8.2.V.W.-+)+} f.r.( E 1.W.v x i Q.8.P.P / v.w P R.R.V.i r.8.r.E E Q. +w / r.",
"r.r.q.0.0.8.1.3.Q.u.P.2./ K.&+<.7.i | P.8.y W.r.c.<.P.8.9.i 8./ 4.q.8.r.8 0./ r.T 8.0.2.W.W.R.i y 8.T q.v.h.W.S.p.P.T / y | y q.E y 8 r.8 / / 7.T y i r.9./ 9./ Q.8 8 / q.i i M.M.| 8 ; a.6 = 8.M.| E 3 T M.R.| ( y 7./ E E q.r.F T r.8 7.: r.y <.; T M.8.F 7.2.8 } 3.8.F / E M.} } / T y q.r.F E F y E 7.E y y M.M.2.M.| J+F 4 L.Z.i P W.W.W.q.0.r.| } E K.P E i R.7.p./ / r.K.w S.8 h.E 8 / q./ M.i 8.2.M.h.S.i 9.i S.0.2.#+f.p.W.8.9./ T h./ 8.r.q.P.h.y b+U.y b+( } h M.1.2.v.v 1.x S.P.U L.Z.1.P.q.R.P.x 9.1.h.W.v R. +1.w ",
" +h./ h.T U.U v x K.Q.p.h.A.9 F !+F 8.8 T 8 ~@V. += / / 8.h.q.| h.8.T 2.1.i F y 7.R.2.8.M./ T h.q.v.i q.T / q.8.h.T T 8 P.9.T 8./ 8.F / q.8./ M./ 8 T ( Q.U.h.M.6.y 8 9.q.1.r.8.| i 4.3.c.- - q.F i E 4.7.M.( 3.8 Q.T 8.1.x 0.4.M.4.( y E r.8 9 2.y r.7.3.T y y y 4.} E | 7.7.6.M.9.h.y E } } T E T T 6.8 | F ( y T y ( 8 L.7.0.y+M.U.w K.h.T W.h.0.i w v.9.T q.8 6.h.h.7.i p.7.<.F y M.r.<.M.T 8.9.E Q./ 8 h.9.7.8.q.2.v.i 8 E | 0.p.#+.+0.h.M.8 h.p.V.q.q.l.P.E w+3 P x P 9.v.8 h.p.V.R.v.W.v.P.W. +Z.w i P.#+.+P #+ +U K.p.Y.",
"6.9 9.x w 7.r.U.p.K.v.1.r.8 r.R./ 2.} x 2.B+h.<.9.& / 8 F y F / 8.x 1.M.F 8 6.9.Q.P.V.Q./ / / 2.q.T 7.r.h.W.E r.| 8 M.8.i 8.i r./ y T 2.F M.9.} 7.r.E y S.8 6.} | 8 2.q.q.| Q.q.Q.v.u.| ~@= 7.v.1.E ( 8 / F E q./ h ; 9 9 3 E Q.2.4.3 F 4.0 7.9.h./ | T / } F q.4.: h.T T 6.8 F T } 9 h | | F M.| E T T F 8 8 | q.i E T | Z.4.x 0.U.w 8 r.R.R.v h.i P.h.v.S.h.F Q.e.P.8.1.0.M.T P.i 8.h.6.| 2.M.p.( S.P.8 8.| | T u.R.U x q.P.w S.i h.2.q.T 0.u.v `.0./ W.Q.i+F ; ;+_.< - z P.S.S.R.P.P.w  +v.P.K.0.9.P.h.M.0.q.9.S.2.0.u.x K.p.",
"6.W.P.K.8 Q.o.x / T 8.8 | i i Q.8 M.9.q.P 3.: r.q.(.: 4.E 7.| } y 7.F y F E F x | S.1.r.M.q.2.2.F | 9.P.r.9.1./ 9.2.0.9.9.q.r.M.T T 1.| T 9./ 6.8.M./ M.K.y E 9.v.P.W.h.P.T W.i q.2.r.h .+& 6.: 9.T } / M.T v.K.1.S.h.q.M.P.v.8 8.4.T T 9.p.h.y q./ 8.1.9 F 8 M.9.8.T 7.} 1.| 1.E 7.} h.M.E F F y 6.T 4.| h.h.8.Q.i 8 F M. +4 e = &+: 7 r./ R.V.V.w U.A.h.P 1. +w d.R.&+9.j &+4.2.x 0.E / W.1.M.P.h.v.Q.v.V.i 1.x #+u.P u.1.v.0.i q.p.w | M.v.R.K.0.8 e.w+]+/+<.7..+3+3+c+7 K.w 8.W.P U.u.p.T i 0.h.u.Q.2.9.S.U.;+h.x 1.Q.w 0.v.",
"2.u.M.y R.P f.q./ x 9.v.W.; }.& r.W.p.q.r.P.8.U W.& 3 v.E E q.0.P.h.h.8.8 q.V.T y 2.4.7.T r./ M./ T r.q.q.i 0.i 1.| / 9.Q.r.2.9.0.8.i | T | M.( p.p.p.V.Q.8 i P q./ 2.M.Q.S.p.R.T 9.U 9 Y.- E 9.u.9.W.h.p.u.w | | / 1.1.x P 4.r.} } 8.9.p.r.h.| 9.| 8.E h.2.2.q.| / | E 9.8 9.8 7.M.v./ y 8.2.h.T 8.Q.r./ F M.9.h.F y 0  +v._.c &+%+: } y 2.M.} F y 8 W.h.h.w p.y | ]+l.m+/+T _. +1.M.y 2.!+R.w W.R. +w Y.x Z.A.i T v.P.Q.2.1.P.y ( < : 9 r.q.T 9.2.8 / &+ +r.7 _.1.e 3.r.T.U.x J+#+u.#+x v.0.u.K.r. +P v #+!+;+.+U.K.Z.J+K.p..+",
"6.v.R.K.v.&+Y.p.9.u.K._.[.4 E w+m+x 0.0.i 0.Q.y _.6 8.2.2.P.2.h.8.9.r.F r.h.M.T P.W.i 9 T 9.8.q.r.P.1.q.8.9.i 9.8.M.Q.9.h.i 1.h.M.| F 8.q.P.A.v.v W.R.x u.v S.K.W.P.P.u.P v.S.2.y W.<.7 U b F i Q.W.9.r.8.i 2.8 0.8.7.F x y } h.u.F Q..+P.E 9 ( y 6.q.8 6.} 8.8 E 6.9 h.h.| / 7 4.r.4.q.M.M.7.F 2.U.F 6.E T q.F 9 < ; d.%+; 6 3 z+x 6 3 T 1.r.M.8.z : (._ 7.h _ ( h.< 0 |. +{+9.| 4 6.F R.3.8 6.| 2.| 2.( T 8.F F K.u.9.F y T q.W.9 y q.8.| } 4.} 0 4 y 3.2.( - 4 Q.d y S.K.P S.1.| h. +w U v.Q.U #+#+L.A.P.w .+u.x .+L.K.0.Y.{+",
"9.A+c./ Z.V.U. +Q.P 2.P Q.w u.u.q.<.F 1.8.S./ P.7.h 8.Q.v.v.w 2.M.| T P.2.x q.h.W.Q.v.p.Q.W.1.P.q./ Q.1.8.1.9.v.W.y 1.T T 9.9.| F 8.r./ Q.Q.i Q.2.W.Q.Q.p.v.P R.p.P.q./ F T <.y 7.b _ h y _.h 3.P q.q.r.R.2.M.M.} 8 | r./ h./ 1./ y x 9.9.8.q.x 1.0.v.8 y W.E / | 8.u.x / 8.: M.E 7.6.<.7 <.( #+b./+m+E E 9.8 7.Q.1.9.3 = 3 _ r.b.6.7 < 6.6 A 7 <.F ( | T 3.3 < | 3 6 |.(.g c+d 0.Z.`.P F : z 9 M.9.F 7.y / F 4.( } 3.3 } T ( o.x+r.v.K.T y / q.3.: 9.i u.b 7 z 9 ( f 2.V.K.u.w W.} x i P.x S.x p.x d.P.x P `.w u.1.T.L.1.A.p.P ",
"3 9 A U.V.P. +p.2.S.p.0..+c.v.( 6 3 <.q.} r.8.r.4.<.T p.V.S.0.0.v S.K.U.S.p.r.2.x 1.2.q.y q./ 8.i x K.2.Q.8.P.Q.M.Q.8.q.Q.S.8.8.r.( 3.F h.i P.2.x P.2.p.Q.V.P  +2.1.P.v.h.P 1.w E 7 < 1.b * 4.y | 0.h.v.p./ 4.y F r.8.1.R.0.T Y&}&X 2#H@}&@*X&f$W&b+++|%j.O V.S.Q.S.Y.U.w h J+v.V.9.( 1.S.x x q.d.( _ 9.*+m+~@~@U b+P.v V.4.W.K.7 e c = a e e @+e+c+e+c+3+f 8+[.A f /.8+e b |.8+e+e <.h.q.P k.y+d.!@m.b+T.$+V J+9+b.&+W.u.W.A.w+c.| `.L.p.#+_+T.7+n.#+1.h ; 6 [.#*B P@o.J+; 1.9.U w+q.} 6.v.r.v.v.S.x f.W.S.9.0.2.2.P #+f.t.e.{+",
"0.K.{+A.U.} .+0.P.u.v.p.1./ Z.U.P.i u.E u.K.T } _ h T  +P./ 8.x V.S.S.1.1.2.8.L.Q.p.P T.v.W.x V.1.v.2.Q.0.2.S.Q.w y 9.1.h.8 <.4._ B k&4$P L.v P.h.i Q.2.1.v.1.1.P.0.1.r.8.9.3.y 4./ w r.9.K.v.f.T.- < c 6 h F 2. +j.J+d.j b.k.P#&+-+f$U%/+w+:@F#_$v.R.O U 1.w i } 7 7 4 7.i : - f g }.:#a $*: h }.d e 3+8+5 @+e a 8+a & 3+a 8+g+@+f @+@+3+8+g e+g+3+l+l+c+c+e+8+@+c+h+e+c+c+3+3+g+g - (.d 6 3._.4 M.<.3.E (.c d d * 4 E R.q.Y.u.<._.p.f.e.]+{+T.`.w  +K.)+{+{+B+t...8@=+| x Y.U S.y x T.Y.Y.v U Y.Y.K./ q.| c.v v e.B+A.V.K.S.w ",
"f.k.o.T 7 b.9+7.i 1. +| 0.x  +4.2.W.v.P.r.6._.M.4 | .+< i x v.9.c.Y.L.P Y.{+t.j.U.P #+0.2.W.1.q.1.q.M.y 4 F U `.P ;+/+j.{+Y.U 7+%+w@%*p@X.v A.S.i i ( E 3.- (.& d [./.f |.e+d a }.[./.}.* f /.e g+e 3+3+[.e c+c+f e e+e A _.h h h A _ A = d <.0 0 6.0 0 4.8.0 <.6.6.R.q.0 A M.h / K.K.V. +l$2.r.7.( 6.7.8.0 3.4 8 4 b 6.4 b & * 6 = A 6 d 8+[.g e c+@+c 8+e [.8+c+c+e+d = c b /.}.5 8+8+/.A A [.g 0 Q.A z 7 4 [./.5 & @+/.g+e+8+3+z g h+/.|.e 8+8+d @+g+8+e e [.d c 4 - a a a d f * 5 * 0 * /.[.8+/.}.c _ F ; 7 4.h z b 4.9 / u.",
"; h.4.4 9.J+< ;+h.7.<.y | <.b F P.y q.E 7 A _.z * (.A <.0.9 3 _.- e e |.|.3+@+c+e+c+@+l+3+3+8+g+c a /.g _ < 3 _ 6.( h 4 9 ; 3.F ; 8 F 6._.- _ /.}.}.5 5 A : (.0 c < ; <.1./ 9 7 0 M.E - 4 _.h 0 < ; 7 3 3.0 6.E E < F / F 9 6 9 | P.h.h a A 6 A >+B P$U B+: 8.M.y c.Q.y } P.r.4.8.F M.r.P.i S.U.x Q.p.P./ x 8.w F h.W.P.W.1.#+u.P.( } / F 9.P.8.9.0.2.M.9 ( E E M.y y 6.( h h : : y } ( 7.Y.Y.#+r.V.w 6 z (.e A ; _ & _ y : | F 8 } / q.T A c c 4 }.& b 4 _ _ | T F 8 } 4.E ; 7 3.F 3.h <.h 4 A a 5 a c z (.A b & e @+@+* A 6 _ ",
"i j.0.*+++U.Q.7 7 4.3 _ A c (.g 3+f & }.[.g b 8+a A A a 5 5 a g |.d d }.c a g }.a * e 8+f _._.: /.g+f g a & A c z (.& }.(.z b 5 a |.g a c (.c * }.4 z (.z 6 & 5 _ 9 3.9.2.4.8 r.2.6.= 3.0.h.i 2.r.6.7.} 8 r.1.9.r.T 3.q.M.8 Q.v.V.K.R.v &+2.Y&e.i+U#N#T.{+} 8 h 9 U.8 0.2.U p.9.1.p.v v S.S.p.w R.0.R.1.u.x V.U.1.L.Y..+.+ + +w e.b+c.U.U x 2..+w v v.f.m+&+A.L.Z.R.e.Y.A.L.{+p.v {+p.v y d.Z.M./ j.e.b.e.a 4 9.8 y q.q.y M.6.(.a 5 g [.5 _ 6.7.T _.E 0.q.( : q.h - 5 |.5 8+c+g a e c g * }.& 7 3 ; 3 _ c }.5 /.}.5 a & }.z 3 8 ",
"e f 3+e f 8+5 * c _ a * z 6 a * _ _ _ c 6 A /.7.|.& = h 6 (.(.6 0 h 4 3.< h : ; 9 1.r./ j P.<.8 R Y -+w+=+%+;+K.9 (.b 4 6 | ~@Z.| h.6.} E 4.U.Q./ Q./ Z.V.M.M.P.Q.q.P.i P.Q.R.1.W.1.M.U.u.v.1.u.1.R.v.V.0.| S.| ( 9.2.| W.u.V.R.w u..+v Y.~+r&.%b+++9+P.| E ( E 1.9.6.1.1.1.r.2.1.R.Q.P.R.K.e.U.9.v M.r.r.2.v.9.9.i / i 9.Q.h.1.q.9.M.P.E 0.1.2.0.r.R.R.w w 0.| 9.; E 1.Q.9./ h.U 9.| ( E %+2./ S.++~@; 3+a R.p.W.p.v x W.v.9./ | 9.i u.u.S.u.W.p.p.R.K.0.i U..+v.w Q.2.8.1.x x p.h.| F K.R. +0.p.L.T.&+Y.Z.d. +P u.K..+P i 9.1.",
"Q.x i Q.2.v i y } 3.} | i P.W.W.K.T.++c.!+{+j .+R.j.Z.v `.*+++U j.m+o.T.Y.!+&+ +o.J+c.%+9+U.{+!+T#Q u.p.Q.T Q.R&G$@.J##%D#L%e.9.L.1.q.4.: 7.E 1.V.S.8.9 6 3.| R.W.w S.U.U 1.M.r.h.F u.u.y T h.W.v.U V.E 8.v.x S.v.2.Q..+V.v.Q.2.p.U.p.v S.8.V.Z.x 2.v.3 6.y & 6.2.7.h.1.| / r.0.T 9.0.| ; h P.8 ( i v.i q.T / 8 r.2.7.9.T ( i 2.2.F T h.S.L.f.u.P.v.v i W.8 F 1.T u.i h.} 8.v.2.8 : 9.2.0.n./ q.9.!+/ 3+8+< 2.2.2.U.h.K..+0.Q.i R.p.w w p.P.1.#+ +v V.x S.8. +#+ +p.x Q.u.p.R.p.p.S.w U 0.i 8 p.v v.P.i P.L. +w u.0.9.S.u.u.0.; ",
"{+Z.T.o.J+#+f.U.!+w+!+B+!+V B+m+_+b+T.o.&+)+V .+=+o.w #+A.u.x V.f.8.i  +u.7.| y y 0.2.L.Q.v.S.2.7 h.V.R.8 E 0.Q.<+&*3%f.j w 8 T } T 8 h.7.r.F <.4 b 3 - 3 E 2.8 7.E h.T M.P Y.U x U T 8 | 8 8.1.1.i } P.v P./ 9./ F h.q.| i M.2.P T 8.v Q.#+0.E / 2.x 7 | 4 3 / r.r.q.h.9./ 8.7.i P.| / v.f.r.8 8 1.8 8 } T Q.9.1.8 0.r.T 6.| q.y } 8 8._.T } | 7./ | y 6.: F y F 6.T / y / 9 M.F w 8.| / n.P.0.1.f.c l+[.r.u.Q.p.Q.i P.i W.u.K.&+Y.Y.S.P.S.&+L.R.R.R.u.x i f.Y. +A.j.c.Y.S.p.P v L.-+)+f.U.w S.p.p.0.h.P.v S.0.1.R.V..+L.V.w Q.",
"p.8.P. +e.f.U d.Y.v #+P A.r.p.#+W.K.W.u.V.S.8.W.h.Q.| q.1.| r.} W.2.v.P i 2.Q.R.++u.Q.Q.M.8.i F W.f.R.q./ x K.Q.$.l#.+r.8.E T 8 T | ( 6.8.Q.9 3.c : 3 0 9.M./ 7.T u.h.M.x R.v.9.r.( q.T 4.| T E 3.T i q.8 r.S.K./ / 2.i Q.9.r.r.y 8.R.u.R.r.y y / P.Q.0 h.3.( r.K.r.r.x 8.9.T h.9.x Q.9.y T y 8 F h.8.9.q.w 0.W.P.0.2.r.| L.v | 8.x K.2.U.9.E | r.8 ( y 9 8 8 h.: T T 8.h.W.v P i r.8.i 1.u+w w p.c.a & = i Q.Q.P.0.u.1.| 8.u.U v u.1.v.w p.W.v.2.Q.1.u.u.| L.U.U Y.v R.i P..+{+A.f.S.h.9.0.P.R.x w U V.P Z.w W.R.w #+#+R.w L.S.",
"r.v.p.S.q.2.0.u.p.w p.0.( .+R.q.p.0.v. +S.W.p.v.2.1.1.1.y | 7.y v.q.F r./ 2.W.E | | h.| 8.2.h.8 u.0.h.T i 2.1.S.A+n u.T v.V./ q.( T 7.8 q.y T 9 _.A h 4.T | 8 / 2.9.E 8 r.x M.9.8.8 i T } 1./ / p.i 7.y F 0.r.E h.9.x 9.W.9.0.R.2.p.p.q.Y.S.u.u.i i 8.6.8.3.0 M.y / 9.M.8.1.| M.r.F M.9.W.S.0.S.2.h.r.9.i K.x q.F T F 9.2.8.3 x E v./ F P.8 8.9.| F 2.9.9.U.q.u.y x p.w W.P.1.h.0.Q.y T 8.D+x x x *+a 3.2.Q.w u.K.W.u.S.w Z.#+R.x K.#+L.R.p.Q.9.P.1.W.S.#+T.++P.R.R.V.p.K.#+T.P .+Z.u.h.Q.h.v.W.P L.&+U L.T.x x R. + +p.A.c. +v.",
"x W.U.0.9.T h.Q.M.9.W.0.U Z.p.w Q.0.p.W.r./ F q.P.W.( } 6./ R.1.2.} / q.F M.M.8 q.r.8 T | r.( y v.i W.2.9.8.P u.t+#.K.| R.8 8.M.h.9.8.9.9.; 7 : | F M.7.F E q.Q.i q.E 1. +Z.u.2.2.8.9.E Q.E i r.| 7.x q.h.U.r.F h.W.q.Q.r.i 8.r.h.1.w {+U 0.i / r.q.E F : y 7 3 T 8.8 | 8.F T 1.1.P.u.2.i i h.8.v.u.x i 8.r.1.h.h.W.W.h.y r.1.M.0.| M.u.i / w r.h.9.Q.M.W.1.h.Q.1.9.8.} / 0.r.1.Q.9.r.W.W.;@S.K.R.e.5 i #+A.K.S.u.P U.w #+f..+P  +V.u.u.0.p.9.W.0.R.v A.V.R.2.R.U.U p.S.p.U.P U v.R.1.q.W.0.h.A..+A.Y.#+.+1.i 8.p.v R.P A.P x p.",
"M.Q.i 8 q.p.0.T 9.v./ i W.9.q.v.9.1.P.h.W.1.Q.x M.} T | 8.0.| M.q.7.3.6.8 r.i v.P.P 9.u./ i 0.x q.h.i 0.1.S.Q.q.~@k U 7.x } r.E | 6.6.F | q.| 8 8 y } ( / E y | E 8 / Q.V.2.S.| 9 : T M./ q.8 1.i P.7.9.1.8.8 r./ F T / x 2.Q.i x S.P 0.W.7.0.q.i P.v ( R._.6 h.8.i x 1.v.2.p.h.v.v.8.P.q.8 W.8.E r./ r.p.1.r.p.v.W.i T M.v.r.Q.W.Q.x h.y u.9.r.h.S.0.P v.8.2.2.8 i 6.8 1.M.9.P.Q.P.q./ v.D+P v p.v /.P.i R.0.V.K.S.Q.u.U.#+0.R.R.W.V.2.h.x U.A.L.A.++v R.0.x P P.U p.h.x A.P L. +0.9.S.w R.A.v W.w R.r.i u.p.Z.V.v w L.U v q.Y.",
"9.Q.T 2.Q.q.8.1.v.h.W.V.v.1.i r.2.0.r.8.2.9.0.q.T v.h.8 0.q.h.2./ 4./ x  +p.r.T 2.0./ i u.S.v.9.R.x K.2.0.r.y 8.A+n+#+6.p./ 9.| E T 8.h.| 9.T 1.i T M./ | y 7.r.y y v.U Q.v.W.q.9.v.} 8.i 2.| 9.r.r.0.T h.9.y / q.r.2.P.Q.0.Q.0.K.W.W.S.P U p.w S.p.W.M.W.3.= E 7.6.; 8 8.| 0.h.8./ | / } 2.1.9.S.0.2.W.h.0.8.r.8.6.W.h.P M.r.2.2.i W.P.W.1.} q.p.S.i Q.r.v.w h.Q.S.x {+K.2.0.h.F 8 y M.&+m.P  +Q.A.b : | S.p.P i q.Q.Q.h.P.A.P U. +P u.1.M.q.#+ + +S.P.P.p.w v.R.P.i U.R.w P.h./ h.K.L.u.P S.p.S.x u.p.U W.A.L.Y.Z.L.P v.S. +P ",
"Q.1.v.P.M.x v.p.r.0.v.Q.2.h.h.K.S.Q.P.x i 9.0.M.h.R.q.8.9.1.Q.T q.R.U A.K.v.8 R.i q.2.S.W.u.0.Q.2.p.0.0.i q.8.u.'+n+A.; w 4 7.E } / E } E } 9 8./ v.M.9 1./ W.q.r.p.Q.w K.P.x | q.T F h.9.8 W.F r./ T 9.9./ F 9.| F h.9.q.x q.P.p.v.u.p.j.Y.K.R.S.v.P.1.y 6.c ; 3.8 M.h.8 R.1.T 9.1.i 0.i 1.P.0.1.i 1.v.S.x Q.i 2.R.8.h.| F K.x r.Q.9.h.8.i p.p.i T F W.W.2.1.9.P.9.Q.x x P.2.1.2.| 9.q.o.n+.+ +1.Y.5 : 9.8.0.8.v.V.V.U U u.Q.R.Q.0.x A.v x v R.u.U.v.w w u. +w U.#+U..+P u.P.0.p.u.w U.U.U.w A.c.{+A.U.U.Y.Y.u.U  +2.p.u.w U.V.",
"2.V.w r.w U 2.Q.0.1.R.x Z.2.r.x W.v.h.| / 2.E } M.v.3.8.r.7.y 9.h.0.1.u.v.v.x u.W.Q.i p.x v.P.W.K.W.R.R.v.V.9.Y.]+l.w 3 K.T y 9 h.M./ / q.q./ 1.T T 0.q.1.M.h.r.u.9.i 2./ Q.w q.q.F 8 8.T 8 r.0.8.0.9.v.0.0.| Q.K.x p.w v.P.0.2.1.Q.V..+-+A.V.K.U.8.K.M.( 9 5 Q.A.0.M.i W.W.i h.S.2.v.i x W.9.u.r.q.R.R.1.Q.M.h.r.8.v.q.9.h.Q.i 1.Q.2.h.P.Q.1.Q.1.2.x h.M.Q.V.Q.q.q.2.0.8.i 0.2.8.8.r.h.&+1+w P Q.2.e q.K.V.q..+K.K.1.R.u.v L.U.S..+Z.K.R.v .+L.v x S.v P v v U.U U L. +w u.x v U L.{+.+K.U..+Z.Y.V.U.U A. +w V.P R.A.Z.L.U.L.w ",
"8 h.v.Q.0.8.P.1.1.P.2.K.9.7.h.W.M.M.8 8.2.Q.h.W.u.r./ 8 E | i / 0.i Q.2.q.p.Q.v.8.9.p.v.P.x h.u.p.0.P.W.0.W.r.x Z.1+i - A.} F M.V.q.q.i 8.1.M.8.r.6.8 8.W.w i Q.L.2.9.W.2.p.u.T M./ r./ T M.8.8.M.i P.2.4.T p.q.R.0.i Q.7.7.q.v.x &+T.-+P #+U.U.R.w w E 8 ; h w K.2.v.P x 1.r.i Q.8.h.1.x U u.M.9.v x w u.x 7.i i 1.W.i | A.h.8.0.1.Q.Q.S.u.0.1.S./ q.T w u.T q.2.U.P.1.u.v.P.2.U.1.2.i &+~@v.w 0.h.E -+s.{+x 1.U Q.P  +2.v v x U.Z.v R.p.v.K.T.U w #+A.U .+{+L.U v W.0.x u.u.v U A.#+ +V.P u.S.S.v U.U u.w V. + +{+&+.+ +{+U e.",
"v.U T T M.q.| 8.W.v K.i q.8.p.v.R.2.2.2.x Q.x q.9.w P.2.Q.2.h.9.P.R.i 1.R.W.W.h.x v U v v  +A. +h.w w x | S.h.&+t.X.q.3 m+7.F v.1.9.8 / } 9 y r.F M.M.1.1.r./ F 9.!+R.8.v.U.p.q.M.M.M.8 M.M.8.h.8.1.0.y 2..+Q.1.p.R.p.Q.P.M. +&+{+!+L.K.`.`.&+w P.{+x r.} 3.z | 8.W.r.W.8 v.Q.1.2.0.P K.0.i 6.P S.u.p.0.x 0.9.p.P.0.v.T 2.h.8.Q.h.9.8.V.p.2.W.P p.R.p.K.x P.V. +K.Q.W.p.S./ w Y.2./ h./ J+%+2.p.M.p.b.m+,+h.i #+u.#+#+P L. +U. +.+ +P u.V.Z.j.d.L.f.v .+L.U A.A.f.S.A.Y.w U.U.V.U..+U.v U f.Z.&+U U.K.V.V.v P.U.R.U A.#+{+Z.P f.",
"&+r.q.8.h.h.Q.P.R.W.S.x 0.x u.K.v.P U v w W.i x x Q.8.i i Q.2.R.R.0.v.K.w K.p.v.K.Q.0.i U.U.R.i 9.R.p.S.v R.M.Q.b.1+8.<.Y.E P.x q.7.T M.| / M.h.i M.0.r.x / M.M.1.]+8.v.2.q.p.h.r.q.T M.9.q.i 2.r.2.h.9.v w 8.2.U S.9.r.W.u.-+ +.+Y.A.1.A.Z.e.U V.Z.v.E 7 3 4.q.; i 8 u.R.v.8 8.2.x i 1.W.1.| 8.i 9.8.0.8.| 9.0./ 9.x y S.p.v.M.1.q.R.1.y v.W.v.v.Q.R.P P S.P.u.P.i i Q.w V.K.1.M.8.2.8.~@*+| P.6.q.u.9 9.U v.Q.x Q.h.1.i p.u.S..+v U. +{+#+R.u.u.U v #+c..+c.Z.P V. +S. +L.v `.`.Y.U.V.w P `.A. +K.w  +p.S.S.P A.{+U .+#+.+&+c.",
"1.v.P./ Q.0.q.Q.v.x P.x x P.W.w v.U v.R..+V.W.S.R.i 2.i h.0.Q.S.S.R.W.v  +v S.S.p.x K..+W.i S.u.p.`.`.T.V.x 2.2.*+~@6.6.%+9.W.i T 8.q.8 r.8.2./ Q.i 9.h.K./ v.Q.i y z p..+i w P r.h./ 1.8.9.i T i Q.r.R.2.q.S.#+L.x u.w u.B+t.P u.**0.R.m+!+.+e.d.L.: g+d 6 E W.9.P M.x v.2.} L.Z.0.| 8 E y 8.P P.Y#P V.T.K.w F h.0.i 2.x T E M.U. +Y&9.v.#+v Q.Q.2.i R.v.S.r.R.x v.w K.Q.2.W.q.y M.F `.L.P ; T h u.T d * & 6 K.p.u.A.V.v U..+A.U u.P w u.v.W.w v .+A.~@d+=+u+s.)+R.x u. +#+P Z.w W.V.A.v m+Y.W.Y.Y.f.U.u. +U K.U .+V.W.#+A.!+++",
"w 1.1.i 9.h.w K.v.| 1.2.h.v.v p.x p.8.v.M.h.x V.v.1.R.0.x P.v p.x Q.8.1.V.x u.9.v.x K.u.v  +w Y.d+x+A+d.9.x T v.7+P 6 - V.8 U.i u.v.0.0.h.9.M.0.1.h.2.p.h.i W.2.0.W..+9+Z.h.v f.h.p.h.W.9.q.8 r.p./ 8 1.K..+i R.i  +i p.V.V.U S.R =*b.!+ @J+W.F <.; _ c.W.u.6.}.x /#-*;*G@T%$&X.e.q.2..+v v +$m (+v&A@>*'$,*'*w+.+o.j.c.y R.M@9+i@T&*#o.)+`.u.9.Z.J+p.U. +!+2.{+n.v+)*(#(+!%&+A.2.S.=+!@b+%+w P )+s.v #+!+%+]+@.v+u _+;+*+c.U #+w R.x W.V.j.d.&+)+j n.k.J+L.p._ & 8.#+Y.A.P. +9.9.P U x _+`. +$+w+*+~@Y.S.v w .+f.P L.d.L.c.!+;+",
"v.9.q.h.S.R.P.0.2.W.S.p.v w  +P Q.8 u.S.S.u.w p.Q.0.K.0.0.q.0.9.R.1.S.U &+S.0.R.w x .+V.v J+;+j i+<+^+]+S.Q.!*b$9./ 4.M.j.L.8.F 8.Q.v P p.1.r.p./ q.8 w h.K. +9+!%B.7+w+*+f.2%=*`+2@++&+.+K.Z.9+m$Z@S@R i$S#V@y@;${%,&&&!+k.%+f+x+t#c.K.y b c a d g }.= 3.r.T e.t.s.e.t.++4.P.P P.9 Z.$+d.j N+[+o.u [+e.v v.7 S.]+l@$+K+_&9&u$,$l@v+i+B@i@!.L+ @^+t+w+r l.'+/+n.B+L.s.v+_+%+7+n+-+s+ @k.7+e.2.R./ 9 3.4.( T T ( ( M.P.S.U.A.`.Y.{+T.p.c.w+-+t.7+a.m+a.o..+#+Z.F Z.;+%+V ;+b+%+7%T&:+/+9+E M@O ~*- 3 0.v.T.Z.Y.;+++U c.o.]+d..+;+",
"c.V.Q.w 0.r.9.2.u.`.f.`.b.%+o.J+T.J+o.m+U p.x W.i 4 h < h.0.9.r.W.w j.t.B+*+~@~@V k.u+k  @l@X.q D+=+A.2.P.-+{%7#D#O&D#9+n.$+A+T.-+u 7+s.~.U&J#K%W&B.%%'%v$,${*,$]*~$o m&E+p x+Q%#.w+o.%+$.#.d@Y+$.'+x+,+,+,+A+w+f.W.4.S.A.S.<.- |.e /./.g d |./.f |.e @+3+[.c+l+@+/.e (.& _ 3.g 7 _ g+e+A F u.< |.c (.}.b a a E < 3.T v 8 M.h.v.| ( 7./ 8./ i M.r.( 9 } 3.: : ( 6.; <.<.<.< <.h 0 9 ( 8 6.3.c }.* : 7 h 3 ; ; 6 b b z - - 6 6 A A (.& - / 4.; 6.3 < 9 ; 6.7 8+}.b.b.,+V s.$+s.j.%+;+e.c.a._+b.b+A+'+~@s.]+=+1+a.d+u+u+=+j b+i+t.",
"X+X+$.{@D+;@k+l.[+N#b%3@4@t.-+A.U.u.S.p.q.0.W.W.2.W.!+j.f.V.P {+Y.U u.9.y 4.: } T / T 4.7.4.3 3 3 0 b A z - < } } M.} ( 3 6.3.: z <.3 4.| S.Z.-+f.V 9+$+t.j.w P U.U.2.8.F z _ } 3.<.3 4 y u.c.#+| 3.h < 4.3 * (.- _ 9.| 0 0 | | v.F 3 7 < 4 6 4 - 3 0 h 6.7.4.8.2./ r.&+6.7 x U.R.L.V t@$%9@u.; J+!& +U q.Q.8.o.;+++w+*+w 7 8 w+a.m+)+L.W.q.v.h.V.A.U.#+S.R.K.v Z.V.p.J+K.1.< 9 8 h.6.= }.[.* * 4 6 (.* 6 a /.[.f g+e |.|././.a a = @+[.}.a f |.g g (.= _.7 8 p.h.( - - 6 z 4 b A 4 - A z h - z z b z 6 z - 6 - 0 h < 7 0 _ 4 7 ",
"} } 3 E M.2.Q.W.p.2.4.6 (.g /.g g g 5 e e /.e f 8+e |.}.c & A & (.c - 6 = (.b 6.< ; F 7.4.b (._ (.a /.(.e g 5 e e a c |.g * |.5 & b |.& & A b A y 0 3 0 4.h F q.7.z _.F E M.y < / 4.( 7.3.i y+8 4 d (.f /.z ; < : 6$o&S u.c.b+b.%+e.U.e.-+u.&+{+!&0@F$%+&+2.6.U.e.t.t+!+Z.t.!@7+A+$+b.j.++T.*+U `.v.2.K.( 3 o.t.Y.Q.v T.o.&+`.R.(.3 ( 6.8.P.4 2.2.( 9 x q.P.0.( E w R.v.P.v.++.+U.;+9.P P..+j.B+%+( h.T._.h.4.} _._ 3 : _ h 4.A F 3 E F ( g & h (.5 /.* - U.K.)+h.c 7 6.E _ ; 4 7 3 < _ ( z & - - (.* * /.c 6 < 4 z 6 0 _.: : c ",
"= |.5 a a (.b z z y - d (.(.a 5 (.A A (.(.& - : A }.h T < <.E W.i V.M&~+t#d.s.m+#+a.A+!+Y..+#+#+v.R.P.( 7.v.V.i q.: w 8 r.6.y y = 9 1.6.q.y } r.K.x 9.R.1.R.a..+0.&+%+.+.+U.R.e.++&+&+}  +j d@M.y 9.$./@'%2&r n.s L+l.L.;+j.S.r./ r.i T q.8 T ( 8.9.9.x Q.P.Z.Q.Q.x K.R.M.} v.i  +w W.i `. +x w W.F v.8.w V .+2.r.i P.8.| #+B+/ 3 .+h.r.| | / K.2.8 | Q.T 8 7.8 R./ / r.8.R.P.w p.9.A.*+8.Q.B+v ( &+Z.9 P  +R.{+ +e.j.u.q.P U. +w Q.R.8.p.d.P.y 7.F u./ #+1+| 3.<.7 : 0.} 8.8 2.q./ } E 9 9 | F T i u.p.R.U.9.2.h.r.A.w 0.E 8.{+",
"M.0.1.9 (.< _.6 4 /.= < F | 3 < b < 7 A 7 _.4 & /.0 F `.s.!+w+++k.V $+t.;+{+e.e.P  +R.T M.8 2.M.8 p.9.P.w R.v.u.p.;+*+f.&+w L.p.v o.A.v f.v A.m+J+v Q.Q.U Y.Z.0.0.M.8.1.r.T w U.v x U d.a.)+&+4.9 v i+J+&+J+U .+U .+v.P.F | q./ i 2.8 0./ E 0.2.W.4.7.8.| 2.2.E M.9.p.q.1.x i h.8 Q.K.U.S.h.w P.1.1.i M.M.r.9.| 0.P.S.i P P.x c 2.Y.E 6.M.M.W.r.r.8.9 q.7 y : 8 | R.R.W.0.q.} 8 i f.v y r.A.`.Q.p.2.q.| .+9.1./ 6.| 2.6.F q.( ( r.i i 2.d.j 0.u.Q.0.8.E W.e.h h ; 6.1.Q.W.Q.u.p.W.i v.v.K.U.K.U.V.V.{+u.U L.J+x h.S.r.Q.v.T M.r.",
"t.T.;+L.S.-+m+]+t.*+w+B+u+U #+j b.[+j.F x {+F$+.%%u+p L#o l.`.j `.{+v u.W.R.i q.0.p.8.8 r.T h.q.8.8.y p.y 9.8.h.W.w F / u.M.r.i u.R.0.8 8.r.h.y F E 8.P.i 0.x i 1.2.P.9.1.K.2.h.1.P.S.S.u.v.U.y 7.{+u.1.1.M.0.q.i M.q./ i i q.Q.q.2.q.r.7.y F 4.7.y Q.h.| v.7.6./ A.U.K.0.| 1.r.M.P M.| h.8 p.8.8.h.8 8 2.r.u.h.2.| 8.1.S.u.R.}.x 8.T 9.q.M.y ( h.| 0.K.T S.W.V.q.r.8.9.9.9.F 0./ 8.; r.4.9.x 2.9.P.1.Q.R.q.F : Q.R./ 8.2.2.x w 2.r.r.9.R.F q.1.| W.2.F #+.+h _.7.u.x #+P.W.#+#+P v .+F #+u.1.w V..+.+Q.M./ 1.P.v.h.i / 9.P  +W.",
"h.p.9.2.w U.8 : 1.L.2.R.v u. +L.J+++b+++k.y+k.w+]+~@9+*+[+a..+0.f. +1.u.V.x R.v U v.1.v.i v.K.u.M.v.u.Q./ p.p.R.u.P.9.V.0.v.8.8.p.9.1.h.Q.q.: 7.0.9.8.y W.w 2.i 9.8 h.h.0.8.2.h.i 9.q.i 2.K.{+_.7 y : | 6.<.8.W./ 1./ h.| T 9 | i i 8.8 | 1.i 9.8.M.: | 9 q./ i K.P 2.v.| q.r.i W.h.R.v.0.i w W.u.8.y  +1.W.W.2.p.2.K.W.K./ 1.d v r.r./ h.h.0.u./ h.q.F 8.9.q./ 8 F / y 8 3.q.8 8 F 0 y z M.W./ | i : 4.M.i ; M.8.6.r.8.Q.v.: T q.F / Q.0.8 Q.h.q.S.p.i ;+!+_.( i ; q.M.0.Q.i y < 2.M.R.8.x Q.S.Q.W.4.6.8 P.u.2.: 7.M.q.h.q.q.2.",
"x h.Q.h.q.y 0.R.0.F v.P h.R.2.9.i P.0.2.U &+w A.x v .+f.u %+u.q.U V.q.V.R.x 0.v.W.i 9.Q.9.x x Q.x P 8./ f.R.v.q.} | 1.h.2.9.7.p.9 } h.: r.y r.R.2.P.Q.u.S.8.8.1.q.1.Q.9.| q./ 8 W.i P.1.9.P.x ( 4 9 7.6.( T h.F 9./ 9 r.6.r.i 8.r.T < P.x F 9.i i Q.p.M.9.r.M.} 8.i R.Q.q.y P.x v.2.9.p.8.q.Q.0.1.8.p.v h.| 3.| F R.2.h.v.9.&+d r.1.M.i } 8 F E E ( / 8 r.r.( : ( 9.| 8.<.: q.F M.0 P r.v.Z.1.r.h.r.9.P.v.P.1.1.: 4.7.9 i y u.K.r.: u.V.i Q.F 8.8.i 7.q./ J+7.< 0.q.2.i q.r.9.3.h.R.u.9.i v.U.Q.S.8 8 8.M.W.( 4.8 9.Q.P.Q.v.q.F ",
"P.R.1.| F i q.v.p.9.2.Q.p.Q.8.2.2.T x p. +u.V.K.x w S.#+Y.b.h.8.K.P u.P P.0.1.S.p.Q.1.2.p.w V.Q.u.2.P.w 9.q.i 8 U S.h.W.0.8 1.9.y w T q.v.F h.W.P.i 2.Q.M.h.P.h.q.M.F 8.0.h.8 r.2.2.h.r.8.T A.6.h 8.q.9 F 9.q./ 8 } } 9.8.8.E T 2.4.0.| 4.y 0.r.p.P.8 7.8.M.y 3 U.Q.R.q.T Q.x r.h.v r.M.E M.v.P.1.x 8.x ( 1.x V.Q.P.1.R.w 0.8.d 2.v.h.i } y h.i / F 6.7.( 9 : 3.F | 7.7 Q.S.Q.T 8.1.V.} K.9.1.h.W.T 7 q.Q.( F 7.8 h.r.1.i 8.i | T #+v.2./ T 9.h.9.| r..+#+w+} x | 3 } / 8.0.2.q.x P.r.h.1.1.h.i 9 < | h.u.i y i h.p.Q.T x K.u.2.",
"u.i P.P.P.0.w x 9.r.x T M.i q.0.1.U S.8.S.1.1.Q.2.w x 9 ~@x+9.8 A.V.S.w y | 9.v.K.h.V.0.Q.u.0.r.R.0.W.8.8.1.P.i 9.F F 0.q.9.8.q.x u.2.u.W.q. +1.h.8.P.1.0.2.9.y R.r.8.Q.1.1.1.U.P.8 M.T / 8 `.8.: | M.<.T T 3.3.q.h.E 2.p.1.P.0./ 8.q.F i P.6.E 6.7.3 q.r.} E Q.9.v T y 1.M.9.r.W.7./ 8.i w R.9.r.i Q.1.i P u.r.h.0.K.i 1./ q.}.} } T 8 / x 9.| 9 y | } T E E r.i q.8.f.i q./ x q.R.| _.W.1.i 8.8.8.y Q.2.9.9 T 8 E / 1.P.W.F | M.9.9.9.M.| P.8.v.2.v / S.j F < 3.9 R.0.#+P W.0.i S.0.h.x 0.2.r.7.h.v.P.r./ W.P.Q.0.8.v. +v.E Q.",
"| 8.i P.K.p.K.2.Q.P.i T u.0.i i v.i 2.x / T W.h.9.i r.U J+!@8.8 {+p.w Q.8.2.x v.q.0.W.v.W.1.r.v.2.q.8.8 2.P.h.i i / 8.h.9.h.| i M.2.u.p.h.S.| 2.W.2.9.T h.h.F 8.p.0.q.p.2.P.W.Q.Q.S.8.y W.9.i i h p.M.y 4.} M.x E T 1.x M.T ( } F 8 W./ M.9 y 9.P.h.| / h.r.F P.p.1.T 9.r.1.8.0.2.p.P K.p.0.2.Q.8.p.i q.R.1.Q.0. +L.i 1.i 9.h.}.9.0.8 8 i 9.h.r.| r.F 8 8.7.h.r.R.2.p.8./ 8 i x h.Q.T R.q.2.W.0.0.M.q.Q.h.P.q./ 8 i .+u.p.V.1.2.h.q.P.Q.| 9.Q.| 1.p.W.9 2.#+R.q.h <.0.h.h.h.r.T V.R.8.2.w } h.M.Q.0.p.q.i R.0.S.i 0.9.u.x Q.1./ ",
"x W.Q.r.9.9.8./ r.( i T r.Q.2.2.h.0.8.r.r.Q.R.Q.x W.u.v.c./+q.( U.u.V.i 1.`.#+0.R.0.F Q.x V.x W.8.r.8.h.p.0.| 9.8.x U u.P.Q.2.Q.r.K.Q.1.W./ 1.Q.Q.i P.1.P 0.0.U.K.| P.h.2.2.9.Q.9.2.1.v.h.y Y.v.< } } / / 9.h.r.T ( 7.T E M.} P.8 9.0./ ( E v.9./ q.F i i q.9.S.w u.R.S.P.R.P.x w p.8.v.W.0.u.W.0.p.Q.P.1.q.W.i x 9.1.S.&+f.b+c x r./ M.4./ 8 E T | r.v.h.0.p. +P.Q.R.9.h.2.9./ 1.h.| M.M.8.8 P.9.M._ 8.P.<.; | q.8.W.i q.7.8.h.i W.2.i F T 9.0.h.q.8 / T.X.u.8 T 1.W.} P.1.9.x K.P.h.W.x r.S.p.Q.2.r.Q.Q.| h.1.P.S.Q.v K. +R.`.",
"i v.q.p.W.1.Q.Q.1.1.1.V.A.p.9.q.Q.h.h.1.1.A.u.R.S.1.L.L.c.i+W.E U P.1.0.{+w 1.y 8.p.v.p.h.Q.P.h.8./ P.h.p.W.2.0.v.W.| w W.W.p.W.M.W.P.x w u.u.W.h.R.R.x r.p.2.0.q.W.h.2.q.r.| 8.2.1.Q.v.| / #+i 3 M.8 M.M./ ( T F T P.8.| 2.8./ T P.0.i v.1.i 2.1.8.K.W.q./ h.r.S.1.w P Q.T r.1.0.1.2.w M.P.R.R.w S.2.h.9.8.0.r.P.P.2.U.i q.o.* y / q.2.r.y 9 M.T q.2.E q.8.i w F W.1.r.v.P.R.i h.y R.u.F 9 7.0.8 i W.U y } 9.0.P.h.S.1.r.r.R.9.w h.h.P.2.Q.8./ 8.9.6.| v.]+x / v.W.S.w w 8.| q.W.u.&+ +R.r.Q.2.q.3.W.2.i S.W.Q.x v.c.p.q.i v.P.",
"P.v.p.h.q.x x P.h.2.W.9.q.R.P.u.x P.w v.U.x i 8.0.Q.U U. +t+v.6.A.v W.#+p.u.0.1.x P 2.Q.0.p.u.p.W. +8.P.p.i S.9.R.i u.R.p.P.8.i S.V. +W.2.P.0.< r.0.i 8.i 0.u.L.A.x v.W.M.T q.1.x 1.p.q.2.2.Y.8.: 8.S.8.r.E 1.| 4.1.9.i P.9.1.P.y q.9 h.8.q.P.Q.0.v.x 9.r.Q.} R.q.W.v.W.P.S.x W.r.9.1.x W. +x 9.M.q.i P.9.1.P.h..+V. +P P 1.++/.M.9.F M.8 8 / T | 3.T h.0.i K.h.r.h.h.u.S.Q.x 9.r.u.T.< _.q.p.S.T } r.i 9.h.0.F 9.P v | 7.u.q.1.0.Q..+v i q.0.p.9.y P.q.9.B+R.E S.i ( 9.E F u.U Q.#+{+K.2.q.q.1.q.R.U x S.p.W.v.S.f.A.h.Q.w 9.W.",
"w x 2.q.i V.M.v.p.q.R.M.2.9.2.9.2.9.2.r.8.i 9.1.S.0.2.1.9.]+W.: p./ v.W.8.p.T 0.x / 2.v.P.P.0.1.h.h.W.R.S.R.v.W.v V.P.K./ i T 0.q.p.w h.W.1.| V.w K.h.0.u.U v.r.M.8.v.P.v.e..+x V.w 0.K.Q.1.U 9.< 1.2.p.P W.9.P.r.2.F 0.Q.R. +#+w W.x W.P.0.P p.p.1.q.} Q.F 8 W.R.p.8.h.r.7.8 q.P..+.+P.0.i 8.h.U.x v p.w p.P.W.v x v.W.2.h.T.A h.7.} / 9.9.q.p./ 1.Q.2.1.p.Q.9.x 8./ 0.W.0.1.i h.v.W.6.i 2.R.0 3.3 6.| / Q.2.v.c.{+p.9 Y.Q.v.8.p.1.W.Q.9.9.i q.W.v.W.2.w k.i 7.8.3 Q.V.p.c.8.S.U P.y 9 } 9 / U.A. +V.U.R.9.W.#+J+A.R.R.R.r.x u.",
"A.1.0.0.x Q.h.q.M.0.h.P.1.v.9./ i 1.v.0.0.q.W.x h.1.S.h.h.7+v.< Q.U Q.1.P.F 2.v.2.w W.W.w U.R.h.S.V.K.p.2.1.P.L./ 1.T ( Q.x y 1.1.v.P.h.q.9.p..+u.h.0.V.v W.W.1.i Z.u.R.1.r.Q.R.P.8.W.W.8.8. +8 3.9.} 9 7.( } T y E 9.2.F i / y r.1.h.h.h.u.h.2.0.1.h.Q.6.R.v..+.+Q.Q.R.q.9.#+Q.K.r.r.P.9.P.w &+U.2.0.1.p.u.2.U.W.q.0.8 M./ P.8+_.8 3.h.| / i P./ h.Q.9.1.q.0.r.h.4.P.W.q.q.9.P.S.u.f./ x U P._ z 9 E 2.| 9.9.u.w E M.v x 8.9.W.0.2.Q.M.9.| 8.0.8./ 8 F V.`.1.6.h 7 E V.0.K..+w T v./ 8 8 | P d.K.w v w U.#+V.K.p.R.#+u.W.W.V.Q.",
"M.2.2.0.i p.r.2.p.8.P.h.h.F F P.R.K.x K.&+S.P v.T Q.r.i Z._+0.< .+v.T 2.9.u.P u.P 8.v.V.v.0.0.8.W.M.M.r.8 9.v.2.x h.6.R.Q.Q.q.U u.0.P.9.i 1.x h.M.h.Q.2.h.2.0..+U K.Q.0.x 1.i h.u.2.2.T } y U.E ( ; 7 8 7.3.E E _.8.P.h.2.2.8.9 2.8 2.9.r.F 8.E y 7.y 8 M.Q.9..+1.P.p.9.i Y.W.A.K.v.q.h.R.&+P p.2.1.2.q.U w x T q.1.8.q.0.q.1.6 8 Q.8 / 1.0.h.Q.q.0.F x q.8.q.1.8.i x 9.0.0.W.p.R.P.U.} F T 0.q.h.p.Q.3 | Q./ U.;+P {+Y.U.W.p.p.q.1.9.v.P.h..+S.R.p.P Q./ {+W.h 7 F P.K.P.2.W.8 i P.| 8.2.W.w d.v.2.8.u.1.S.U.S.w P.p.R.1.( u.4.",
"P.8.i 0.p.8.2.x M.( 8 T / q.U 0.T 9.E : ( y | i q.p.9.i W.7+x 6.0.q.8 F P.2.9.9.r.r.#+Q.P.8.8 9.r.8 8.q.T | r.M.2.: F L.V.x u.K.w 8.0.R.8 p.| r.h.r.M.r.x u.u.P.1.V.0.2.2.2.q.i 1.2.2.8.<.b ( b ; y 2.7.E 8 F } h.8 T 8 S.R.x  +q.} 0.8.y ( M.i y 3.y y K.9.d.a.i &&++'&R$8.9.u.v.v ;+P i u.x d.v+p.j Q.| 8 | M.S.Y.Q$P&P&4 3 z < F W.2.0.h./ i i 2.x 9.W.1.0.W.q.K.v.u.u.p.V.U.x S.S.8.x =+.+w T U : A U w &+~@-+j.~@9+-+d.o.Y.-+a.!+i i T.U ++U v U.u.1.]+F 4.( 6.h.v 9.9.9.0.Q./ 9.8.| h.V.Q.q.| p.2.8.q.i 2.| Z.A.Q.0.v.w w ",
"0.2.i 1.| 8 F 8 r.M.U.8 q.| i 2.T 8.<.v.4.M.W.E 9./ x 1.#+*+| 6 7.E | w i 9.`._+#+j.!+j.b+p.M.| T E r.| ( 1.0.F 7.0.v Q.y 4.T 4.( } E 6.T 9.7.8.q.| 2.P.h.T T M.7.3.6./ 1.4./ W.i i ( y 9 M.1.9 ; 4.7 4.6 | 9 ; h 0$=&G%^*/*c.e..+b.$+d+w+m+V )+f.e.B+d+D+A+{+n.s.K+m+r&&&d+x&*+b.l.{@X.t M+n+t.P 8 b+j *+u A+]+9+c.T.{+o.&+-+++)+`.-+$+w+V b+_+w m+`.!+4.q.V.K. +`.;+P e.J+Y.L.R.9 & A m+9+R._+j.o.u. +c.{+T.b.]+-+w+B+a.~@j 7+$+m+-+P '+u B+o.;+,+d+%+t.l.p.i M.{+u ;+A.W.2.i V.i y P.x )+B+`.r.h.0.i 9.M.h.K.o.&+`.{+u.b+;+f.",
"/ | 9.} E r.8.q.T 8 } 4.y | 8 6.| h.V.p.V.S.q.7.v.F < 2.T.1+i ; < P._+d+B+1+k+c.u.Q.e. +w W.p..+x 2.A.h.6.<.h 3.< q.2.1$c%[%p.Q.U..+A.0.i v.Y.p.K.W.L.p.++&+S.K.v.#+c.&+U 9.&+f.J+U x v 9.S.U.h.R.v.!+!%7+d+~.*+t.7+n$;+V @$o.q.3.8 | : : ( } 7.r.S.P.2.w W.{+B+w R.T.Y.S.C+7+;+e. +E 0 z 7.3.h _.< _.= - 0 - _ 0 - b (.& * h b g 0 | v.P.w p.0.W.Y.u.`.<$`$(+,+=+d+!+i %+U r.u.w d.J+=+t+9+v.x f.t.w+n.$.i+)+`.1.6.9 T 8.9.9.v w .+o.d.w+b+-+A+t+t+d+i+t+++i R.Y.S.M.M.} M.p.U.Q.R..+U. +9.4.E | 9.9.9.0.9.p.h.8.0./ i !+.+P.w ",
"3 3 < <.F 0.q.y 1.( y E h.P.x L.d.B+^+_+.+ +R.j  + +!+d+s n+++| j <+v+0.T 3.A = 4 z * a A * A ; E h.p.P.0.U d+d+B+=+$+`+Y.Y.b+*+-+c.Y.v `.!+L.v L.A..+2.i y 2.W.1.x p.x / F E h z - - z c z 0 _ b 4 (.b & _ _.h _.0 0 z 6 (.(.g }.z 4 - b b = - b - _.< 6.h h 4.7.9 : 3._.3 7 6 6.9 3 4 A - * * (./.5 & * [.& * A = A (.& |.- d /.* b 0 * |.c & - z b A 5 * (.b c c |.d h 6 5 : < - E 8 F - 5 }.y h ; 6.7.6.3 <._ b (.(.(.A b z 0 _._.< <.h 6 5 }._._ _.7 z 6 4 - - - _ b z _ 4 - _ _ 6 6 4 - - - < 0 0 h _.z A 6 - (.7 ( h 7 4 ",
"b+Z.7+a.7+s.w+T B+v.&+t.=+[+/+A+-+`.#+v v.o._+B+!+Z.`.j.v 7.0 _.3.h.r.< }.- 0 A * A * z = = = A b = - 5 b (._ b = A 4 - - _.* /.f a d g a & z z _ - 6 z - A a c c b c = (.}.A b z b c c & - b = & - 3._.c 0 c 5 @+(.e * = 5 c [.c g 5 a & z = = - & A b 6 : 6 } ; g * 3 6 z c c }.|.f 5 /.* /.c |.d g (.(.A z d z b & a = ; 3 <.z * g z g z b b _ _ 0 }.c 0 (.a 5 g /.= = [.g 6.- }.c 5 * & * ( : - 6 ; ; ( < _.4 d g 5 _.<.< <.g 3+c (.|.3+@+8./ ( (.6 c 4 T 6.; h 9 h 4.F 4.( < 3 3 0 < b b - h |.e+@+e 8+4.3.E } F T.R.j._+]+",
"7.q.4.4.4.h z _ 8 r.8.3 ( b 6 (.b }.A (.A = A (.6 b = b (.= a a }.* * * < 7 A * d d d z A a A (.5 |.e |.* 5 f /.f 5 g [.8+d |.@+0 f 3+a 3.0 h z z a & & [.|.a /./.|.[.f f 8+8+f @+e [.f [.f |.e 0 L.- : <.| _ h i 1.8 7 F T M.0..+p.1.T L.P.R.i 8.8.T 8.y 5 4 v.V.c.`.w x q.v.U. +0.r.} E 7 / i x 8.u.R.r.v.9 W.8 : q.6.<.[.a e }.4 2.T F h.i } q.F ( 7.T F } 7.0.E _.7 = a z _ _.8 9 y h.2.9.r.9 _.8.Q.W.U L.R.8.w b+L.j.x q.( ( {+x 7 M.P x (.b f 3.6.9 y - z c 6 ; < 9 * 5 A < 6 z < r.: | U _.}.4.h.6.1.S.7 6 a <./.g+6 : A.",
"q.: b - }.* }./.3+@+|.[.c+d [.d |._._ 7 <.b g @+c+3+0 7 ; g d [.[.(*E _.- g e e 3 _ = 1.& 5 8+/.e 3+g e [.[.d (.5 |.: b l+- & ; E h | W.- }.a 9 c 6.0 < 7 (.|.* } } 6 : 8.} } i q.h.9 h.3 y U.M.J+T ; _ 7.3 0 4 6 h 6 |.6 h _ _.6 3.( f g |.f 5 /.e a a 5 0 M.3 u.; q.2.E | 2.r.E : F y K.S.`.0.0.v.R.Q.| / 1.9.W.A./ 8 y v.`.S.S..+x 0.h.Y.U.9.S.W.u.S.u.e.u.{+P 2.8.K.B+&+m+j d.{+c.v.u.v 0 b 0 S..+W.p.2.E 8.u.1.8 M.0.1.9.V.7.9.p.q.: (.<.T q.x Q.: } M./ F ( } r.F 7.} 6.} | 7.v.F y M.w 4.A u.T.x U.x 1.4.F T i = (.x F : ",
"& < 3.9.9.E 2.2.e.w 7.r.W.u.1.v.2.T. +y q.R. +Z..+J+d.F v.M.b.#+w b+K.7.8 #+T.*+B+3.s.y+0.W.W.&+v.7.Q.9.( V.7.< V {+Z.4 t.$+u.x 7.Q.K.P R./ V.7.<.T Q.q.W.x i .+A.i v u.3._.h.P Q.; E 0.v.&+x ( q.3.b ( 8.T F 9.i } 0 9.Z.E } ; z 8 f 6.4.<.(.* <.; h < E F w j /+8.U.r.1.0.h./ h.8.i u.S.q.9  +V.R.h.q.| 8 i u.1.3.7.| | Y.R.9.8.| 0.9.1.r.6.E r.8 8 M.r.S.1.0./ .+y c.U R.e.K.v.V.v.W.R.9+t v.7.Z.P.| 3 7.3.9 / 6.( Q.9.8 | y 8.0.2.E 9 #+T 8.i 4./ 6.9./ i T 1.p.9.6.M./ M.M.< 9 4.8 0.1.( h.; 4.< q.v.v.q.9.8.4.; 7.6.h./ 7 ",
"U.-+d+J+P .+e.A.T.j.*+]+9+~@d.j `.j w w v.i W.M.i 8.i U #+T R.7 v U.F P / V.i 6.F V.L.Y.q.Q.u.8.{+| ( } u.j.++k+u 1.h.y V.)+7.7 x r.| 0.W.3.T T p.p.V.8.y P.R.L. +6.8 ( z #+: < } 8 i <.9 6.( y 7.9 3.9 ; 6./ r.<.4 6.E T T 7.4.R.r.( 9 4.3.3 M.1.1.r.8 7 W.x A.++f.u./ 1.q.q.9 r.T R.1.9.8.E q.F y M.E 8.| 8 8.E q.1.T q.w q.r.R.Q.S.| 8 / F T 8./ 7.T K.M.9.T 9.8.Q.q.7.: v.8.8.h.Q.2.8 c.t.9.'+v.1./ E y r.: ( q.r.T : 9 7.6.| y T | r.1.8 q.8 7 ; < 8 P.3 q.T 9 _ M.q.8 8 F 3.; M.0 } 3.3 ; & E 9./ } 8 } 1.i 9.| } y 6.9.4 ",
"=+;+v r.E Q.Q.R.M.#+8.0.u.2.E 3.v./ p.0.F h.T ; Q.S.x 8.7.< ( W.w } 3./ / 9 } F x : 7 8./ / T F F Y.M.K.L.c.Z.| T i Q.F e.`.3.8.j.R.x v.7.r.P W.P.( } 8 i T ( 8 T E r.3.p.T 8 M.( / 4 y 8 r.| 8 y F 8.M.W.T h./ h.M.0.v.M.M.4.q.p.6.2.p.T Q.p.r.8.h.1.r.T V.2.B+++9.T h.9 T q.x q.q.1.1.h.| q.p.P.T E / r.v.F / 0.p.q.8 A.r.7.W.1./ T 6.r.h./ / h.| ; U.P.Q.4.| E F 6.3.6./ v.i P.p.P.0./ V V 0 E T .+7.M.9.F 8.S.} g [.= 9 : ( y x p.3 4.q.h.} 7.r.9.i u.y T h.3.y 8.0.h./ q.8./ 8.( p.7.8 r.1.< 7.8 4.7.2.2.1.M.8 T i F 2.!+: ",
";+Q.q.9 8 v.Q.8 S.x x 0.M.i W.2.2.M.Q.4.q.9.P.P.Q.8.r.8.q.8 F : y | Q.h.y y 8.T ( 9 7.R.b 4 4.v.6 3.h 7.q.q.T 7.i S.M.6.1+d.6.W.v.h.Q.P.w U w K.E T F : 3 } E 8.| 8.i 7.T y 7.8.q.E 1.M.E 4.y 3.q.Q.M.9.8./ x 2.h.y 9.| r.8 T r.4.} 9.2.P.T 8 1.0.M.9.M.#+Q.J+ @b+M.E E / M.8 T M.7.i 8 < E 9 2.1.} F h.0.M.M.v.9./ h.0.P.9.} 2.M.8 x W.2.8.q.i 1.Q.| W.3.7.y Q.R.Q.0.u.w K.v.8 ( h.E 6.8.o. +z q.3.g F F 8.9.A.R.4 z `.y x } 6.M.M.- } | P 8.r.E 2.M.| 6.<.9.| _.F M.M.F | E < 8 9 y q.6.r.q.T < 6.( / i T 8.h.F 7.8.q.3.{+*+_.",
"S.Q._ _./ 8.y y R.r.i 9.h.2.T u.Q.h.r.K.h.0.8.q.Q.9.i 0.i 8.E Q.q.h.F 9.4.M.3.8 3 3 3 3 = _ 7.h.6..+c.Z.p.T 3 4.9 E T M.t+_*: 8 u.8.v.W.T 7.8 6.4.y h.F r.F / | E | 4.y 8 y 8 | E E q.q.: 4.y / 1.y M.r.F 9.q.S.v r.9.q./ M.| 7.h.2.r.q.<._.8.8.| 9.F 4.P p.K.!+u.L./ 3 y 6.0.6.v.p.( 8.T 0.y p.T 0.M.h.i ; M./ F 7.0.P.9.F 0.K.v 0.0.p.1.9.8 8.| i p.q.P.i Q.v.x i 2.M.8.1.} / x v.R.V.1.P V.c 4.- 3.M.: ; 8.7.; - V.R.e 0.( W.w T M.| 1.i 9.T q.| : E 8 | h 0 M.i / F 4.7.3.y ( : 0.E ( F 7.( < y M.| | 8.q.F ; q.F | | #+K.4.",
"R.7 ( p.e.i 8.1.p.1.M.M.2.8.0.2.Q.0.p.P.2.9.2.2.8.8./ T y M.8.8./ | r.M.r.7.7.8.P.h.u.#+K.d+U.0.9 U.r.| 7.7.T 8 ( ( y 0.!@:*/ 9.v.q.h./ M.7.E h.q.i h./ 7.r.9.T 4.< } y y } i 3 4.E E 7./ P.9.F T M.T E | } 9.4.0 7 7.4.3 E y y | M.F q.| 9.0.} 7 3 E x V.++'+j.n+/ / 7.y v.9.P.r.h.K.h.8.W.i i | i 2.8 y q.2.1.8.p.0.i M.9  +v.r.8.x 2.E w W.P.x 9.9.Q.2.q.1.1.h.8.W.q.h.q.u.0.v.S.0./ y Z.Z.(.y 4 8 W.R.p.0.F F 4.9.F E u r.Q.6.3.T M.q.F 4.E 8 7 8 q.8.W.i M.0./ T r.Q.6.8.M./ v.r.| 4.r.8.F 7 8 F 8 } 8.4.E 8.2.8.y y R.p.; ",
"q.d.W.M.0.M.9.h.r.9.q.1.9.2.q.i 9.9.r.9.1.0.q./ / r.r./ r.M.| 1.T F r.y ( y f.P.1./ .+`.i q.0.( T W.W.2.F r.y T v.1.9.r.j.<*} ( M.i 8.F 8.9.P.F r./ 8.y | q.F 4.E 1.F T 8.| E ; M.7.8 7.} : 9 y 3.7.: T 4.8 r.} 9 3 } } T E i 9 r.4.4.7.0.2.: 4.T 9.6.P ++j {+`.d+1.T 1.1.0.S.1.8.R.2.2.3 4.9.M.F p.| / 7  +S.w q.u.i 2.i x x p.P.u.1.1.R./ 8 r.r.8.v.2.q.| 8.0.i h.9 | T 1.h.v.W.q.2.Q.V.e.c.c F g 6 = 4 b T r.| ( 9 3.( u.2.y E w P.K.1.h.A.r.h.} F | } E 4.Q.U.| M.1.h.| M.( v q.8.1.w w | : 2.r.q.i h.E 9.} 8 q.T 9.q.P R.1.",
"} : {+4.0./ 2.9.i q.2.1.h.i 1.h.M.9.q.2.h./ | h.q.r.F | 8 8.q.1.i i T q.i ( / E T v.T V.8.T 4.4.x h.q.q.9.M.2.q.2.8 / h.*+[*: 8 9.r.9 W.q.r.1.r.| | } 1.T 7.| 4.6./ T h.y / 3 } 8 ( 6.E y F } E 8 y | } T } ( ( r.F q.F E M./ / 8.r.P.4 T 7.r.8 <.} x U.S.J+*+2.V 0.u.8.8.i 1./ 2.Q.P.q.M.v.0.T Q.S.T 8.U.Q.h.1.2.p.h.i v.Q.0.R..+&+x x 9.h.T h./ q.T 9.8.r.2.h.0.8.7.r.1.u.x v.w w | 8.1.j.Q.|.7 @+7 ; _ r.h.E ( y 1.8.1.2.1.P.U.v.P.M./ M.y : 7.E 8 v.q.( r.h.} 7.3 ( i M.h.Q.2.T 6.E = 2.P.K.i 1.2.E T | q.P.1.M.} r.3.#+w | "};
