/* XPM */
static char * wall_xpm[] = {
"256 256 38490 3",
"   	c #212121",
".  	c #C6BAAD",
"+  	c #C2B2A5",
"@  	c #B9A191",
"#  	c #AE988A",
"$  	c #A59A95",
"%  	c #A09992",
"&  	c #A19288",
"*  	c #AC9288",
"=  	c #A99687",
"-  	c #A39283",
";  	c #A59385",
">  	c #A79386",
",  	c #A99589",
"'  	c #A8958B",
")  	c #A2938C",
"!  	c #A29A90",
"~  	c #9F9A90",
"{  	c #9C948E",
"]  	c #A19792",
"^  	c #A59A93",
"/  	c #A79891",
"(  	c #A89991",
"_  	c #A5968E",
":  	c #A49890",
"<  	c #A99D95",
"[  	c #A3978F",
"}  	c #A0938B",
"|  	c #A39A92",
"1  	c #A7A099",
"2  	c #A7A19D",
"3  	c #A89F99",
"4  	c #A89C95",
"5  	c #AB9E97",
"6  	c #A5A49E",
"7  	c #A6A59F",
"8  	c #A7A5A0",
"9  	c #ADA2A0",
"0  	c #AF9C93",
"a  	c #AB9C94",
"b  	c #A79890",
"c  	c #A89890",
"d  	c #A79C90",
"e  	c #AB9D94",
"f  	c #AF9C95",
"g  	c #B09B93",
"h  	c #AB978E",
"i  	c #AA978E",
"j  	c #A99D94",
"k  	c #A6A09B",
"l  	c #A4A2A0",
"m  	c #A8A29E",
"n  	c #A79A92",
"o  	c #AA968A",
"p  	c #AB988C",
"q  	c #A8958C",
"r  	c #A59188",
"s  	c #A18B7F",
"t  	c #988074",
"u  	c #9A8276",
"v  	c #9D7F6F",
"w  	c #9D7D6D",
"x  	c #A07F6F",
"y  	c #9F8272",
"z  	c #A79084",
"A  	c #A9A698",
"B  	c #A7A6A1",
"C  	c #B0A6A3",
"D  	c #A5958A",
"E  	c #9D8E83",
"F  	c #9A8C85",
"G  	c #9C8F86",
"H  	c #A4948A",
"I  	c #A39086",
"J  	c #9F8C82",
"K  	c #968379",
"L  	c #97867B",
"M  	c #918075",
"N  	c #907F75",
"O  	c #927F76",
"P  	c #907F74",
"Q  	c #917C73",
"R  	c #947D74",
"S  	c #8F796F",
"T  	c #89746B",
"U  	c #816C65",
"V  	c #7E6A63",
"W  	c #7B665E",
"X  	c #786357",
"Y  	c #826B5C",
"Z  	c #866A57",
"`  	c #856350",
" . 	c #8C674C",
".. 	c #996642",
"+. 	c #9E6F4D",
"@. 	c #957260",
"#. 	c #A69D95",
"$. 	c #9F9E97",
"%. 	c #A19F9C",
"&. 	c #A19B98",
"*. 	c #A29792",
"=. 	c #A2948E",
"-. 	c #A4948B",
";. 	c #99897C",
">. 	c #99877F",
",. 	c #9E8A84",
"'. 	c #9A8882",
"). 	c #9F8C85",
"!. 	c #9F8D82",
"~. 	c #9F9283",
"{. 	c #A4988D",
"]. 	c #A1908C",
"^. 	c #9E897D",
"/. 	c #A68F7F",
"(. 	c #A08F85",
"_. 	c #9B8A80",
":. 	c #A29086",
"<. 	c #9B897F",
"[. 	c #9C8A81",
"}. 	c #A28E85",
"|. 	c #A39387",
"1. 	c #A59589",
"2. 	c #A8978A",
"3. 	c #A39182",
"4. 	c #9C8D82",
"5. 	c #9D9087",
"6. 	c #A0938A",
"7. 	c #A49A98",
"8. 	c #A59E98",
"9. 	c #A29C98",
"0. 	c #A09A97",
"a. 	c #9F9995",
"b. 	c #A09B90",
"c. 	c #A1978D",
"d. 	c #A3948C",
"e. 	c #9F8C86",
"f. 	c #998983",
"g. 	c #A1948B",
"h. 	c #9B8C83",
"i. 	c #998982",
"j. 	c #A09089",
"k. 	c #A4938C",
"l. 	c #9F8F87",
"m. 	c #A19087",
"n. 	c #A48D80",
"o. 	c #A98C79",
"p. 	c #A58D7F",
"q. 	c #9D8F85",
"r. 	c #A29085",
"s. 	c #9F897A",
"t. 	c #9D8577",
"u. 	c #9D8678",
"v. 	c #9E897A",
"w. 	c #A38E82",
"x. 	c #A28F83",
"y. 	c #A39185",
"z. 	c #A6958A",
"A. 	c #A4928A",
"B. 	c #A79692",
"C. 	c #A29D9E",
"D. 	c #A19F9A",
"E. 	c #A49A92",
"F. 	c #A69289",
"G. 	c #A8887D",
"H. 	c #A4887E",
"I. 	c #A78F84",
"J. 	c #AA9387",
"K. 	c #AA9586",
"L. 	c #A69485",
"M. 	c #A59384",
"N. 	c #A99688",
"O. 	c #A79586",
"P. 	c #A89186",
"Q. 	c #A98F82",
"R. 	c #AB9280",
"S. 	c #B09684",
"T. 	c #B1988A",
"U. 	c #AE9990",
"V. 	c #AC978D",
"W. 	c #B29C90",
"X. 	c #B19B90",
"Y. 	c #B39F97",
"Z. 	c #B2A39D",
"`. 	c #B2A8A1",
" + 	c #B1A8A2",
".+ 	c #B1A7A2",
"++ 	c #AEA5A0",
"@+ 	c #AFA7A2",
"#+ 	c #AFACAC",
"$+ 	c #B0ACAD",
"%+ 	c #AB9D97",
"&+ 	c #A69183",
"*+ 	c #A08777",
"=+ 	c #A28472",
"-+ 	c #9E8171",
";+ 	c #9D867A",
">+ 	c #9F8A7C",
",+ 	c #9F8874",
"'+ 	c #967F6C",
")+ 	c #967E6B",
"!+ 	c #9A7F6D",
"~+ 	c #9C8676",
"{+ 	c #9D8A7D",
"]+ 	c #A48D7E",
"^+ 	c #A48C7A",
"/+ 	c #9D8E82",
"(+ 	c #A0968D",
"_+ 	c #A39388",
":+ 	c #A49386",
"<+ 	c #A1958B",
"[+ 	c #9E918A",
"}+ 	c #A79C93",
"|+ 	c #AA9F97",
"1+ 	c #A39992",
"2+ 	c #9D948D",
"3+ 	c #A7A19F",
"4+ 	c #A2A1A1",
"5+ 	c #A2A29D",
"6+ 	c #A4A49E",
"7+ 	c #A6A4A0",
"8+ 	c #A9A4A3",
"9+ 	c #A6A1A1",
"0+ 	c #A19D9A",
"a+ 	c #9F9790",
"b+ 	c #9D8E88",
"c+ 	c #A4928E",
"d+ 	c #A59B97",
"e+ 	c #A99A93",
"f+ 	c #AA958D",
"g+ 	c #A8938B",
"h+ 	c #A5958B",
"i+ 	c #A3978B",
"j+ 	c #A09386",
"k+ 	c #A9958A",
"l+ 	c #AB9387",
"m+ 	c #A99182",
"n+ 	c #A99180",
"o+ 	c #AC9485",
"p+ 	c #A89488",
"q+ 	c #AC978B",
"r+ 	c #A79185",
"s+ 	c #AA9185",
"t+ 	c #AB9184",
"u+ 	c #AA9084",
"v+ 	c #AB9689",
"w+ 	c #A9978A",
"x+ 	c #A79488",
"y+ 	c #A69187",
"z+ 	c #A49F98",
"A+ 	c #A59D95",
"B+ 	c #A19890",
"C+ 	c #9D9893",
"D+ 	c #9F9895",
"E+ 	c #A19897",
"F+ 	c #A19695",
"G+ 	c #A19E97",
"H+ 	c #A2A29A",
"I+ 	c #A2A39D",
"J+ 	c #A4A19D",
"K+ 	c #A99E9D",
"L+ 	c #A79C9B",
"M+ 	c #A69A9A",
"N+ 	c #A69C99",
"O+ 	c #A4A09D",
"P+ 	c #A2A29E",
"Q+ 	c #9D9C98",
"R+ 	c #A49F9D",
"S+ 	c #A5A19D",
"T+ 	c #A29F99",
"U+ 	c #A6A39D",
"V+ 	c #A5A19C",
"W+ 	c #A6A19D",
"X+ 	c #A9A5A0",
"Y+ 	c #A6A29D",
"Z+ 	c #A79F9D",
"`+ 	c #A5A09E",
" @ 	c #ABA7A5",
".@ 	c #B1A7A8",
"+@ 	c #ADA8A8",
"@@ 	c #A8A6A6",
"#@ 	c #ABA6A6",
"$@ 	c #AAA4A3",
"%@ 	c #ABA5A4",
"&@ 	c #ABA5A1",
"*@ 	c #AAA6A1",
"=@ 	c #AAA5A1",
"-@ 	c #AAA9A7",
";@ 	c #ACABA7",
">@ 	c #AAA9A5",
",@ 	c #ADAAA6",
"'@ 	c #A8A3A0",
")@ 	c #A9A4A0",
"!@ 	c #ABA5A0",
"~@ 	c #AEAAAA",
"{@ 	c #AFABAF",
"]@ 	c #B1AEAE",
"^@ 	c #AEAEA9",
"/@ 	c #ACACA8",
"(@ 	c #ABA7A3",
"_@ 	c #AFA8A5",
":@ 	c #AEA8A5",
"<@ 	c #ABA9A3",
"[@ 	c #AAA7A2",
"}@ 	c #ABA5A2",
"|@ 	c #A9A4A1",
"1@ 	c #AEAAA9",
"2@ 	c #B0ACAB",
"3@ 	c #AEABAA",
"4@ 	c #AFACAB",
"5@ 	c #ABA6A2",
"6@ 	c #ACA6A1",
"7@ 	c #ADA5A1",
"8@ 	c #AAA39B",
"9@ 	c #A8A4A2",
"0@ 	c #AAA8A6",
"a@ 	c #AEABAB",
"b@ 	c #ACA8AA",
"c@ 	c #A7A3A2",
"d@ 	c #A1A09B",
"e@ 	c #A1A09A",
"f@ 	c #A3A29D",
"g@ 	c #A3A09D",
"h@ 	c #A5A09F",
"i@ 	c #A49F9E",
"j@ 	c #A39C9A",
"k@ 	c #A8A19E",
"l@ 	c #ADA5A2",
"m@ 	c #A6A09E",
"n@ 	c #A59F9F",
"o@ 	c #A49D9A",
"p@ 	c #A49C9A",
"q@ 	c #A9A09E",
"r@ 	c #A79E9B",
"s@ 	c #AAA29D",
"t@ 	c #A79D98",
"u@ 	c #A79F9B",
"v@ 	c #A6A199",
"w@ 	c #A09A93",
"x@ 	c #A19C95",
"y@ 	c #9D9A96",
"z@ 	c #A59E9B",
"A@ 	c #A99891",
"B@ 	c #A59A91",
"C@ 	c #A99995",
"D@ 	c #A69E97",
"E@ 	c #9F9C9A",
"F@ 	c #A89E9D",
"G@ 	c #A79F9E",
"H@ 	c #AAA09F",
"I@ 	c #ADA29C",
"J@ 	c #ABA7A0",
"K@ 	c #A9A69E",
"L@ 	c #A49E99",
"M@ 	c #AAA7A4",
"N@ 	c #ADA9A7",
"O@ 	c #A7A39C",
"P@ 	c #A4A1A4",
"Q@ 	c #A79EA0",
"R@ 	c #A89EA0",
"S@ 	c #A7A3A3",
"T@ 	c #A69F9F",
"U@ 	c #A7A09E",
"V@ 	c #A9A2A0",
"W@ 	c #A99F9D",
"X@ 	c #A59F9A",
"Y@ 	c #A6A09C",
"Z@ 	c #A7A29D",
"`@ 	c #AAA5A0",
" # 	c #A5A09B",
".# 	c #9FA19F",
"+# 	c #A5A1A0",
"@# 	c #A7A09F",
"## 	c #A4A09C",
"$# 	c #A8A09E",
"%# 	c #AAA09D",
"&# 	c #A7A19C",
"*# 	c #A09D97",
"=# 	c #A49F9B",
"-# 	c #A7A19E",
";# 	c #A39E9B",
"># 	c #A09B98",
",# 	c #A39E9A",
"'# 	c #A59F9E",
")# 	c #A4A09F",
"!# 	c #AAA3A0",
"~# 	c #AA9F9B",
"{# 	c #A29D98",
"]# 	c #A29E9A",
"^# 	c #A3A19A",
"/# 	c #A4A0A0",
"(# 	c #ABA6A3",
"_# 	c #A8A3A2",
":# 	c #A6A1A2",
"<# 	c #A39FA4",
"[# 	c #A29FA0",
"}# 	c #A19C9B",
"|# 	c #A29A98",
"1# 	c #A39991",
"2# 	c #A29999",
"3# 	c #A19B9B",
"4# 	c #A6A49A",
"5# 	c #A5A39A",
"6# 	c #A5A19A",
"7# 	c #A6A29C",
"8# 	c #A8A19D",
"9# 	c #A79E9A",
"0# 	c #A79D9B",
"a# 	c #A69E9C",
"b# 	c #A9A2A1",
"c# 	c #A7A1A1",
"d# 	c #AAA4A2",
"e# 	c #ABA7A4",
"f# 	c #ACAAA8",
"g# 	c #AFAAAA",
"h# 	c #ABADAA",
"i# 	c #ABADAB",
"j# 	c #AFABAC",
"k# 	c #ADA9AA",
"l# 	c #ABABA9",
"m# 	c #B1AFAB",
"n# 	c #B4ACA9",
"o# 	c #B1A9A5",
"p# 	c #ACA8A0",
"q# 	c #ADA9A1",
"r# 	c #AFA7A5",
"s# 	c #B0A6A8",
"t# 	c #ABA6A5",
"u# 	c #A9A6A1",
"v# 	c #A9A59F",
"w# 	c #AAA3A1",
"x# 	c #ABA4A2",
"y# 	c #ABA5A3",
"z# 	c #ADA5A0",
"A# 	c #ADA4A0",
"B# 	c #A9A6A3",
"C# 	c #ACA7A4",
"D# 	c #AAA4A1",
"E# 	c #A9A3A0",
"F# 	c #A7A4A1",
"G# 	c #A5A69E",
"H# 	c #A9A49E",
"I# 	c #AAA29E",
"J# 	c #A9A3A1",
"K# 	c #A7A09C",
"L# 	c #A49D96",
"M# 	c #A49E97",
"N# 	c #A4A099",
"O# 	c #A2A098",
"P# 	c #A8A29D",
"Q# 	c #AAA09E",
"R# 	c #A8A09F",
"S# 	c #A9A7A4",
"T# 	c #A6A6A1",
"U# 	c #A9A3A2",
"V# 	c #ABA4A4",
"W# 	c #ADA5A4",
"X# 	c #ACA29D",
"Y# 	c #A7A2A0",
"Z# 	c #A4A4A5",
"`# 	c #A9A5A4",
" $ 	c #A8A29F",
".$ 	c #ACA6A3",
"+$ 	c #ADA7A3",
"@$ 	c #AAA59F",
"#$ 	c #A6A39B",
"$$ 	c #A89389",
"%$ 	c #A99286",
"&$ 	c #A28C82",
"*$ 	c #A18B82",
"=$ 	c #A0897F",
"-$ 	c #9F8479",
";$ 	c #9D8175",
">$ 	c #9B8977",
",$ 	c #A0907F",
"'$ 	c #9C9285",
")$ 	c #9A8979",
"!$ 	c #9E8A7C",
"~$ 	c #A48E80",
"{$ 	c #A7958D",
"]$ 	c #A39D9C",
"^$ 	c #A5A0A1",
"/$ 	c #A69A91",
"($ 	c #A98E7E",
"_$ 	c #AD9383",
":$ 	c #A59787",
"<$ 	c #A69989",
"[$ 	c #A99B8F",
"}$ 	c #B19E96",
"|$ 	c #B09F94",
"1$ 	c #A59587",
"2$ 	c #A29183",
"3$ 	c #A9988C",
"4$ 	c #AF9E97",
"5$ 	c #AE9F99",
"6$ 	c #AB9C95",
"7$ 	c #A8968D",
"8$ 	c #AB988F",
"9$ 	c #A59289",
"0$ 	c #A59284",
"a$ 	c #A99587",
"b$ 	c #AB988B",
"c$ 	c #A89E96",
"d$ 	c #AC9F96",
"e$ 	c #AA9A8E",
"f$ 	c #AA9B91",
"g$ 	c #A89B92",
"h$ 	c #AC9E95",
"i$ 	c #AA9C90",
"j$ 	c #A7A3A0",
"k$ 	c #B4ACAE",
"l$ 	c #AFA49D",
"m$ 	c #AA9C96",
"n$ 	c #AA9D92",
"o$ 	c #AD9F95",
"p$ 	c #B0A49A",
"q$ 	c #A69A8F",
"r$ 	c #A69990",
"s$ 	c #A79991",
"t$ 	c #AC9E96",
"u$ 	c #ADA09A",
"v$ 	c #ACA29E",
"w$ 	c #B0A39E",
"x$ 	c #B5A69D",
"y$ 	c #B1A297",
"z$ 	c #AA9B94",
"A$ 	c #A79B96",
"B$ 	c #A79A96",
"C$ 	c #AC9F9B",
"D$ 	c #A89B96",
"E$ 	c #A99C96",
"F$ 	c #A8A098",
"G$ 	c #A8A398",
"H$ 	c #A6A096",
"I$ 	c #A49C90",
"J$ 	c #A19A93",
"K$ 	c #A19D9B",
"L$ 	c #A7A1A0",
"M$ 	c #A19189",
"N$ 	c #9A8172",
"O$ 	c #9E7F6C",
"P$ 	c #A1826D",
"Q$ 	c #9E826F",
"R$ 	c #987C6A",
"S$ 	c #9E806D",
"T$ 	c #9D8270",
"U$ 	c #A29286",
"V$ 	c #A59B93",
"W$ 	c #A7A199",
"X$ 	c #A7A19A",
"Y$ 	c #AAA49E",
"Z$ 	c #A49F99",
"`$ 	c #9D9895",
" % 	c #A09997",
".% 	c #A59792",
"+% 	c #A8968C",
"@% 	c #A2948A",
"#% 	c #9E8C85",
"$% 	c #A78B7C",
"%% 	c #A18A79",
"&% 	c #AA9987",
"*% 	c #B2A393",
"=% 	c #B19E94",
"-% 	c #AE9C91",
";% 	c #A69389",
">% 	c #9A8A7F",
",% 	c #A59F9C",
"'% 	c #A8A8A4",
")% 	c #A7A5A4",
"!% 	c #A5A19B",
"~% 	c #A5948C",
"{% 	c #A59690",
"]% 	c #A39895",
"^% 	c #A39A96",
"/% 	c #AA9A91",
"(% 	c #AC988D",
"_% 	c #A38B7F",
":% 	c #A3837A",
"<% 	c #A2837C",
"[% 	c #A3877C",
"}% 	c #A68A7E",
"|% 	c #A88C7E",
"1% 	c #A48A79",
"2% 	c #A18D7E",
"3% 	c #A5897F",
"4% 	c #A2867C",
"5% 	c #A48D81",
"6% 	c #A79487",
"7% 	c #A28B80",
"8% 	c #A38577",
"9% 	c #A38372",
"0% 	c #A78D7C",
"a% 	c #AA9080",
"b% 	c #A88E7E",
"c% 	c #A88F85",
"d% 	c #A59487",
"e% 	c #A59488",
"f% 	c #A3958B",
"g% 	c #A19D96",
"h% 	c #9D958D",
"i% 	c #8E8A87",
"j% 	c #9F948F",
"k% 	c #A09995",
"l% 	c #969397",
"m% 	c #9A908E",
"n% 	c #978F8C",
"o% 	c #98928E",
"p% 	c #96908C",
"q% 	c #95908C",
"r% 	c #99908A",
"s% 	c #9D8F87",
"t% 	c #999492",
"u% 	c #948C8B",
"v% 	c #9B8F8A",
"w% 	c #9B9089",
"x% 	c #998F88",
"y% 	c #968B85",
"z% 	c #928981",
"A% 	c #94877B",
"B% 	c #9C8A7A",
"C% 	c #A89083",
"D% 	c #A78D82",
"E% 	c #AA8F83",
"F% 	c #A69082",
"G% 	c #A59183",
"H% 	c #A79287",
"I% 	c #A49488",
"J% 	c #A19B8E",
"K% 	c #A5A098",
"L% 	c #A6958B",
"M% 	c #A98E7B",
"N% 	c #A88770",
"O% 	c #A7897A",
"P% 	c #A08B81",
"Q% 	c #988781",
"R% 	c #A49795",
"S% 	c #A2958F",
"T% 	c #A59E93",
"U% 	c #A6A49C",
"V% 	c #ADA3A1",
"W% 	c #A89C9C",
"X% 	c #A89D9C",
"Y% 	c #A99E9A",
"Z% 	c #A99590",
"`% 	c #A8948F",
" & 	c #A3958E",
".& 	c #A2958E",
"+& 	c #9F988E",
"@& 	c #A49C92",
"#& 	c #A49990",
"$& 	c #AA9F95",
"%& 	c #B0A9A5",
"&& 	c #ADA6A7",
"*& 	c #AB9F9D",
"=& 	c #ABA59B",
"-& 	c #A49C95",
";& 	c #A9A1A3",
">& 	c #ACA6AA",
",& 	c #AAA1A1",
"'& 	c #A99690",
")& 	c #A99791",
"!& 	c #AE9C97",
"~& 	c #A7938C",
"{& 	c #A18A81",
"]& 	c #A48E84",
"^& 	c #A28E84",
"/& 	c #A08E84",
"(& 	c #A39186",
"_& 	c #A59387",
":& 	c #A29083",
"<& 	c #A08D80",
"[& 	c #9B8678",
"}& 	c #A08578",
"|& 	c #A18779",
"1& 	c #9A8071",
"2& 	c #9B8172",
"3& 	c #987F70",
"4& 	c #937B6D",
"5& 	c #957E71",
"6& 	c #9C8476",
"7& 	c #947E70",
"8& 	c #8F796E",
"9& 	c #927C71",
"0& 	c #968276",
"a& 	c #97867C",
"b& 	c #97867D",
"c& 	c #A08E86",
"d& 	c #A39C97",
"e& 	c #A3A4A3",
"f& 	c #A9A49F",
"g& 	c #A99E97",
"h& 	c #A4978F",
"i& 	c #9E9691",
"j& 	c #A39C99",
"k& 	c #A29B99",
"l& 	c #A89D96",
"m& 	c #A49892",
"n& 	c #A89D93",
"o& 	c #A89C92",
"p& 	c #A3978E",
"q& 	c #A3968E",
"r& 	c #AD9689",
"s& 	c #AE9A93",
"t& 	c #A2795A",
"u& 	c #AA7751",
"v& 	c #AD7C5B",
"w& 	c #A77552",
"x& 	c #AA7550",
"y& 	c #AD7F5D",
"z& 	c #BAA285",
"A& 	c #C0B2A5",
"B& 	c #C1B1A3",
"C& 	c #A98B72",
"D& 	c #A98463",
"E& 	c #A47E5D",
"F& 	c #B48D6B",
"G& 	c #AD907A",
"H& 	c #AA9C95",
"I& 	c #B38F75",
"J& 	c #B48057",
"K& 	c #B58557",
"L& 	c #B38D66",
"M& 	c #B38F67",
"N& 	c #AF8C66",
"O& 	c #B28C6D",
"P& 	c #B68C6A",
"Q& 	c #B1845F",
"R& 	c #B38D6B",
"S& 	c #B08B69",
"T& 	c #B18C6B",
"U& 	c #B18C6D",
"V& 	c #AA8467",
"W& 	c #AC8668",
"X& 	c #B28C6E",
"Y& 	c #B99173",
"Z& 	c #B2886A",
"`& 	c #A87F57",
" * 	c #AA8057",
".* 	c #B0845E",
"+* 	c #B2896D",
"@* 	c #B08E76",
"#* 	c #C1A695",
"$* 	c #BEAB9D",
"%* 	c #BFADA0",
"&* 	c #B6A396",
"** 	c #A48871",
"=* 	c #AA9686",
"-* 	c #AAA19C",
";* 	c #ACA39E",
">* 	c #AD8D79",
",* 	c #AA7D66",
"'* 	c #A87D62",
")* 	c #A67B60",
"!* 	c #A07359",
"~* 	c #9F765B",
"{* 	c #A2775C",
"]* 	c #956B52",
"^* 	c #936853",
"/* 	c #996E5B",
"(* 	c #9A6F5D",
"_* 	c #9C7462",
":* 	c #9D735E",
"<* 	c #9C6E55",
"[* 	c #A06F56",
"}* 	c #A27159",
"|* 	c #A6755F",
"1* 	c #A07961",
"2* 	c #A07C65",
"3* 	c #A47E68",
"4* 	c #A17B65",
"5* 	c #9F7962",
"6* 	c #9E7560",
"7* 	c #9F7964",
"8* 	c #A17F69",
"9* 	c #987462",
"0* 	c #9D7563",
"a* 	c #9B7A6C",
"b* 	c #9C897D",
"c* 	c #A39894",
"d* 	c #A8A0A0",
"e* 	c #A69E9E",
"f* 	c #9D7B68",
"g* 	c #9D643B",
"h* 	c #A26B44",
"i* 	c #9E6B42",
"j* 	c #9B6B41",
"k* 	c #9B6C42",
"l* 	c #9E6D41",
"m* 	c #9D7047",
"n* 	c #9A7655",
"o* 	c #9D7E66",
"p* 	c #AB8B77",
"q* 	c #9C7B68",
"r* 	c #9D7C69",
"s* 	c #9B7865",
"t* 	c #95715E",
"u* 	c #987561",
"v* 	c #9C7864",
"w* 	c #9E7A65",
"x* 	c #A27E66",
"y* 	c #9A7355",
"z* 	c #95683D",
"A* 	c #A5805A",
"B* 	c #B19C82",
"C* 	c #C3B39D",
"D* 	c #C9BBAA",
"E* 	c #C9BAB1",
"F* 	c #C8BAB1",
"G* 	c #C0B1A7",
"H* 	c #C4B0A1",
"I* 	c #AA988C",
"J* 	c #A4897B",
"K* 	c #AF907B",
"L* 	c #C7AE9B",
"M* 	c #C7B6AA",
"N* 	c #BBA292",
"O* 	c #AE8F7A",
"P* 	c #A98B76",
"Q* 	c #AA8C78",
"R* 	c #B08468",
"S* 	c #A25D37",
"T* 	c #985739",
"U* 	c #9F6745",
"V* 	c #A66E4B",
"W* 	c #A16A47",
"X* 	c #AD7C56",
"Y* 	c #986D4C",
"Z* 	c #9C6A50",
"`* 	c #9F6B50",
" = 	c #A16D53",
".= 	c #A67257",
"+= 	c #AB7A5E",
"@= 	c #B38267",
"#= 	c #B38368",
"$= 	c #B5856D",
"%= 	c #B38A71",
"&= 	c #B29075",
"*= 	c #B5947C",
"== 	c #B99C83",
"-= 	c #B5927D",
";= 	c #AC897C",
">= 	c #A29692",
",= 	c #A3948F",
"'= 	c #8F7768",
")= 	c #6C6159",
"!= 	c #7C6F66",
"~= 	c #997B68",
"{= 	c #78675F",
"]= 	c #706561",
"^= 	c #726761",
"/= 	c #726660",
"(= 	c #6F645D",
"_= 	c #766560",
":= 	c #7E6860",
"<= 	c #83685C",
"[= 	c #7F685E",
"}= 	c #7D6558",
"|= 	c #836655",
"1= 	c #7C6354",
"2= 	c #7C6558",
"3= 	c #7E6759",
"4= 	c #7F6753",
"5= 	c #8E6C4F",
"6= 	c #A1744F",
"7= 	c #A87951",
"8= 	c #A97A53",
"9= 	c #AC7D56",
"0= 	c #AE805C",
"a= 	c #AC7E5E",
"b= 	c #AB7C61",
"c= 	c #A87F65",
"d= 	c #AC907B",
"e= 	c #A99D91",
"f= 	c #A3A29C",
"g= 	c #A09F99",
"h= 	c #A3856B",
"i= 	c #A97140",
"j= 	c #AA7648",
"k= 	c #B8977F",
"l= 	c #BAAA9D",
"m= 	c #B1A398",
"n= 	c #BAAA9E",
"o= 	c #A08B79",
"p= 	c #9F8771",
"q= 	c #AA9887",
"r= 	c #B19D8F",
"s= 	c #B0988A",
"t= 	c #A68E80",
"u= 	c #A38976",
"v= 	c #97725C",
"w= 	c #88624B",
"x= 	c #89684E",
"y= 	c #8C6952",
"z= 	c #84684F",
"A= 	c #82694F",
"B= 	c #8A6D56",
"C= 	c #927660",
"D= 	c #AF9884",
"E= 	c #B1A696",
"F= 	c #A59583",
"G= 	c #C0B0AA",
"H= 	c #BDA99D",
"I= 	c #A08768",
"J= 	c #A69080",
"K= 	c #A89F94",
"L= 	c #9F8573",
"M= 	c #906045",
"N= 	c #8C5C3F",
"O= 	c #926245",
"P= 	c #915F3E",
"Q= 	c #905B34",
"R= 	c #8E5834",
"S= 	c #905D38",
"T= 	c #905D39",
"U= 	c #93613D",
"V= 	c #91603C",
"W= 	c #8F5E3B",
"X= 	c #8E5C39",
"Y= 	c #8F5C38",
"Z= 	c #925B36",
"`= 	c #8E5732",
" - 	c #905934",
".- 	c #915A36",
"+- 	c #8E5A35",
"@- 	c #8C5834",
"#- 	c #86512E",
"$- 	c #865331",
"%- 	c #895635",
"&- 	c #8C583E",
"*- 	c #8B583F",
"=- 	c #8C5941",
"-- 	c #875841",
";- 	c #8C5D48",
">- 	c #976B55",
",- 	c #A08C7D",
"'- 	c #A59E99",
")- 	c #AD9C8F",
"!- 	c #AC9584",
"~- 	c #AE9480",
"{- 	c #A38B79",
"]- 	c #AC876F",
"^- 	c #A2816B",
"/- 	c #A68470",
"(- 	c #9E7A66",
"_- 	c #A78468",
":- 	c #A58264",
"<- 	c #A68265",
"[- 	c #9D7A61",
"}- 	c #9B7358",
"|- 	c #986A4B",
"1- 	c #A27358",
"2- 	c #A97E5D",
"3- 	c #A77046",
"4- 	c #AB6F4A",
"5- 	c #A96D47",
"6- 	c #A76D44",
"7- 	c #A67148",
"8- 	c #BA9678",
"9- 	c #C2B39F",
"0- 	c #D1C7BE",
"a- 	c #CBC6C3",
"b- 	c #C0B4AA",
"c- 	c #C7B5A2",
"d- 	c #BCA896",
"e- 	c #BEA894",
"f- 	c #B6A190",
"g- 	c #A29891",
"h- 	c #AB9D91",
"i- 	c #B78F67",
"j- 	c #B27848",
"k- 	c #B47A46",
"l- 	c #B47E47",
"m- 	c #B57E46",
"n- 	c #B27A42",
"o- 	c #B3763D",
"p- 	c #B87C4B",
"q- 	c #B87F52",
"r- 	c #B27F4F",
"s- 	c #B17D4D",
"t- 	c #AF7A4B",
"u- 	c #B0794A",
"v- 	c #B1794B",
"w- 	c #AF774A",
"x- 	c #AC774C",
"y- 	c #AF7A4F",
"z- 	c #B17D51",
"A- 	c #AC7748",
"B- 	c #AA7546",
"C- 	c #A97444",
"D- 	c #AB7548",
"E- 	c #A88362",
"F- 	c #C5AF9B",
"G- 	c #CFC1B5",
"H- 	c #D0C3B8",
"I- 	c #CEBFB5",
"J- 	c #B18D6F",
"K- 	c #AB8669",
"L- 	c #AB9F95",
"M- 	c #ACA19E",
"N- 	c #AF8471",
"O- 	c #AA7C5A",
"P- 	c #AF7855",
"Q- 	c #B17655",
"R- 	c #B47958",
"S- 	c #AB7853",
"T- 	c #A77752",
"U- 	c #A5734F",
"V- 	c #9F6E52",
"W- 	c #9C6C55",
"X- 	c #9F7059",
"Y- 	c #9A6C53",
"Z- 	c #99694D",
"`- 	c #9E6B4B",
" ; 	c #A66F4E",
".; 	c #A56C4D",
"+; 	c #A56E51",
"@; 	c #B17E60",
"#; 	c #B07F63",
"$; 	c #B18065",
"%; 	c #B38367",
"&; 	c #AC7A5D",
"*; 	c #A87658",
"=; 	c #AB795B",
"-; 	c #AD7A5B",
";; 	c #A67352",
">; 	c #B68663",
",; 	c #BEA695",
"'; 	c #BCA699",
"); 	c #A9958C",
"!; 	c #A8A2A0",
"~; 	c #9C7A67",
"{; 	c #A06C46",
"]; 	c #9F7252",
"^; 	c #9E7253",
"/; 	c #A37656",
"(; 	c #A17452",
"_; 	c #A57654",
":; 	c #A77B57",
"<; 	c #A88A5F",
"[; 	c #AD9470",
"}; 	c #C0A68A",
"|; 	c #C3A78A",
"1; 	c #AC8968",
"2; 	c #AA805D",
"3; 	c #AF8664",
"4; 	c #A27B55",
"5; 	c #997149",
"6; 	c #AD8C69",
"7; 	c #B79B7D",
"8; 	c #A67E5F",
"9; 	c #9F6C48",
"0; 	c #A88464",
"a; 	c #BAAD93",
"b; 	c #CBC4B4",
"c; 	c #C9C4B8",
"d; 	c #CAC3B7",
"e; 	c #C9C3B6",
"f; 	c #C6BFB0",
"g; 	c #CAB6A4",
"h; 	c #A78C76",
"i; 	c #A89C98",
"j; 	c #A99E98",
"k; 	c #B19589",
"l; 	c #C9B7AC",
"m; 	c #CCC1BC",
"n; 	c #CEC0B9",
"o; 	c #B38C73",
"p; 	c #A8795A",
"q; 	c #A37B5F",
"r; 	c #B2947F",
"s; 	c #AF8D79",
"t; 	c #A46A4D",
"u; 	c #A25D3A",
"v; 	c #9F6037",
"w; 	c #9F6138",
"x; 	c #985831",
"y; 	c #AA6B46",
"z; 	c #A2744F",
"A; 	c #A17755",
"B; 	c #A47656",
"C; 	c #A47053",
"D; 	c #A56D50",
"E; 	c #A77153",
"F; 	c #A7765C",
"G; 	c #A87A63",
"H; 	c #AD735B",
"I; 	c #AC7D60",
"J; 	c #B69675",
"K; 	c #B59C83",
"L; 	c #B7A087",
"M; 	c #B99781",
"N; 	c #B08F80",
"O; 	c #A1928F",
"P; 	c #988274",
"Q; 	c #A6846A",
"R; 	c #79685C",
"S; 	c #70645C",
"T; 	c #886C5B",
"U; 	c #71615B",
"V; 	c #6F635D",
"W; 	c #716158",
"X; 	c #766356",
"Y; 	c #7A6555",
"Z; 	c #756459",
"`; 	c #7D685B",
" > 	c #836958",
".> 	c #7F6758",
"+> 	c #816554",
"@> 	c #856551",
"#> 	c #7D6556",
"$> 	c #7D6A5C",
"%> 	c #816C5D",
"&> 	c #876A53",
"*> 	c #9F7553",
"=> 	c #B27A4B",
"-> 	c #B37A49",
";> 	c #B27A4D",
">> 	c #B27A4E",
",> 	c #B27D52",
"'> 	c #B07D54",
")> 	c #AC7854",
"!> 	c #A97751",
"~> 	c #AF866C",
"{> 	c #AA968E",
"]> 	c #A89D97",
"^> 	c #A47F66",
"/> 	c #AB7546",
"(> 	c #AD7A48",
"_> 	c #9A7959",
":> 	c #AF9F8D",
"<> 	c #B1A391",
"[> 	c #B5A38F",
"}> 	c #A28C74",
"|> 	c #91745C",
"1> 	c #8B735E",
"2> 	c #A38F7B",
"3> 	c #A7907E",
"4> 	c #A38C79",
"5> 	c #A4886C",
"6> 	c #996F4E",
"7> 	c #976B49",
"8> 	c #926E4E",
"9> 	c #8C6951",
"0> 	c #86674D",
"a> 	c #86684C",
"b> 	c #8D6A4F",
"c> 	c #937055",
"d> 	c #947358",
"e> 	c #987E65",
"f> 	c #B7A696",
"g> 	c #C3B2A5",
"h> 	c #AF9885",
"i> 	c #A68367",
"j> 	c #A78875",
"k> 	c #A68C78",
"l> 	c #9F6E43",
"m> 	c #956031",
"n> 	c #945D2E",
"o> 	c #996335",
"p> 	c #9B6133",
"q> 	c #975C2D",
"r> 	c #955A2E",
"s> 	c #93592E",
"t> 	c #986035",
"u> 	c #996237",
"v> 	c #945D35",
"w> 	c #955D36",
"x> 	c #905732",
"y> 	c #905630",
"z> 	c #945933",
"A> 	c #91572F",
"B> 	c #955A32",
"C> 	c #985E36",
"D> 	c #935B35",
"E> 	c #915A33",
"F> 	c #8E5730",
"G> 	c #8C5530",
"H> 	c #89532E",
"I> 	c #8A5531",
"J> 	c #8C5835",
"K> 	c #8C5A37",
"L> 	c #8A5838",
"M> 	c #865334",
"N> 	c #88583A",
"O> 	c #9E7F6A",
"P> 	c #A99F98",
"Q> 	c #A59B95",
"R> 	c #AD937E",
"S> 	c #CBB6A5",
"T> 	c #CDBEB1",
"U> 	c #BEA796",
"V> 	c #AE896E",
"W> 	c #B1825E",
"X> 	c #AE8664",
"Y> 	c #B08766",
"Z> 	c #AD8362",
"`> 	c #AF8662",
" , 	c #B08764",
"., 	c #B78F6E",
"+, 	c #9E7152",
"@, 	c #8E5B39",
"#, 	c #9E6640",
"$, 	c #B4805B",
"%, 	c #A6714C",
"&, 	c #A26A3D",
"*, 	c #A76D45",
"=, 	c #AB7249",
"-, 	c #A36A3E",
";, 	c #A26B3D",
">, 	c #BF9D84",
",, 	c #C4B9AF",
"', 	c #CBC5BE",
"), 	c #CAC5BE",
"!, 	c #CEC9C4",
"~, 	c #CEC9C5",
"{, 	c #CEC5BF",
"], 	c #CEBEB2",
"^, 	c #B39D8C",
"/, 	c #A09891",
"(, 	c #A59889",
"_, 	c #B58A5F",
":, 	c #B87B47",
"<, 	c #B77C3F",
"[, 	c #B88043",
"}, 	c #B98348",
"|, 	c #BA8045",
"1, 	c #BA763D",
"2, 	c #BA7B42",
"3, 	c #B3793F",
"4, 	c #B57840",
"5, 	c #B5743F",
"6, 	c #B4733E",
"7, 	c #B3703C",
"8, 	c #B36E3A",
"9, 	c #B6733F",
"0, 	c #B87943",
"a, 	c #B57A43",
"b, 	c #B57942",
"c, 	c #B67A43",
"d, 	c #B47943",
"e, 	c #B47C49",
"f, 	c #B58356",
"g, 	c #B8997F",
"h, 	c #CAB4A5",
"i, 	c #C8B8A7",
"j, 	c #CBBFB8",
"k, 	c #C5B29C",
"l, 	c #B38F68",
"m, 	c #AB9E8E",
"n, 	c #AA9D97",
"o, 	c #AC836C",
"p, 	c #A97554",
"q, 	c #AE734D",
"r, 	c #AE734C",
"s, 	c #B27650",
"t, 	c #B67853",
"u, 	c #AD734D",
"v, 	c #AA6944",
"w, 	c #A66C45",
"x, 	c #9F6B47",
"y, 	c #A07151",
"z, 	c #9D6B4F",
"A, 	c #A06850",
"B, 	c #AB7B60",
"C, 	c #AB7C59",
"D, 	c #A76D4B",
"E, 	c #A87250",
"F, 	c #A97855",
"G, 	c #A47352",
"H, 	c #A97859",
"I, 	c #B18363",
"J, 	c #AF8161",
"K, 	c #B18466",
"L, 	c #AE8465",
"M, 	c #B18160",
"N, 	c #AD7F57",
"O, 	c #B1815D",
"P, 	c #B59685",
"Q, 	c #CFBFB3",
"R, 	c #AEA29C",
"S, 	c #A5A39F",
"T, 	c #A7A4A0",
"U, 	c #987864",
"V, 	c #9A6942",
"W, 	c #9F7350",
"X, 	c #A07556",
"Y, 	c #A77C5C",
"Z, 	c #A97F59",
"`, 	c #A97F58",
" ' 	c #A87F5C",
".' 	c #AE8965",
"+' 	c #C1AE97",
"@' 	c #C8BDAC",
"#' 	c #BFAE9A",
"$' 	c #B08B6B",
"%' 	c #A5724B",
"&' 	c #B2886B",
"*' 	c #B38D73",
"=' 	c #A5795B",
"-' 	c #A37B5A",
";' 	c #C2AE93",
">' 	c #BDA790",
",' 	c #A17D5E",
"'' 	c #996E49",
")' 	c #B9A493",
"!' 	c #CCC5BA",
"~' 	c #CAC6B9",
"{' 	c #CAC5B9",
"]' 	c #CBC7BA",
"^' 	c #C8C2B3",
"/' 	c #CBBEAE",
"(' 	c #B49F8B",
"_' 	c #A29992",
":' 	c #AA9E9D",
"<' 	c #AD9187",
"[' 	c #C5B2AC",
"}' 	c #CABFC0",
"|' 	c #C8B6B1",
"1' 	c #AE8A7A",
"2' 	c #BD988A",
"3' 	c #B38F78",
"4' 	c #C7B6A8",
"5' 	c #BFA495",
"6' 	c #9C694F",
"7' 	c #9F643C",
"8' 	c #9A6038",
"9' 	c #A0663E",
"0' 	c #A46741",
"a' 	c #A66842",
"b' 	c #A87149",
"c' 	c #A3704A",
"d' 	c #A36F4F",
"e' 	c #A3694C",
"f' 	c #A86B4F",
"g' 	c #A27054",
"h' 	c #A57355",
"i' 	c #A97253",
"j' 	c #AC7055",
"k' 	c #AD8969",
"l' 	c #B59781",
"m' 	c #B79A82",
"n' 	c #B38E76",
"o' 	c #B1927F",
"p' 	c #A19590",
"q' 	c #A18675",
"r' 	c #957258",
"s' 	c #7A6152",
"t' 	c #726258",
"u' 	c #957966",
"v' 	c #756A5D",
"w' 	c #806F5A",
"x' 	c #7E695D",
"y' 	c #937356",
"z' 	c #A97C57",
"A' 	c #8B6955",
"B' 	c #886A57",
"C' 	c #8A6B51",
"D' 	c #896B54",
"E' 	c #8F6A52",
"F' 	c #8A6953",
"G' 	c #7D6A5B",
"H' 	c #76695D",
"I' 	c #816B59",
"J' 	c #A77854",
"K' 	c #BD8759",
"L' 	c #BE8753",
"M' 	c #BC864C",
"N' 	c #B77F4F",
"O' 	c #B67E51",
"P' 	c #B98153",
"Q' 	c #BB8456",
"R' 	c #B68052",
"S' 	c #B07B4C",
"T' 	c #B38362",
"U' 	c #AB968C",
"V' 	c #A2A19A",
"W' 	c #A49F94",
"X' 	c #9A7659",
"Y' 	c #A56F42",
"Z' 	c #AB7648",
"`' 	c #9B6C48",
" ) 	c #9E7653",
".) 	c #AA8A6B",
"+) 	c #B19A82",
"@) 	c #A48E7A",
"#) 	c #A48A76",
"$) 	c #9E8570",
"%) 	c #A38A76",
"&) 	c #A48973",
"*) 	c #A6856C",
"=) 	c #976A41",
"-) 	c #9A6E44",
";) 	c #986E49",
">) 	c #906A4B",
",) 	c #8F684A",
"') 	c #926A4B",
")) 	c #966E4E",
"!) 	c #986F4F",
"~) 	c #9C7454",
"{) 	c #9D7B5F",
"]) 	c #C1AB9B",
"^) 	c #B9A392",
"/) 	c #9A7555",
"() 	c #9F7A59",
"_) 	c #A68A74",
":) 	c #A88D7A",
"<) 	c #A26B3E",
"[) 	c #A16130",
"}) 	c #9C6034",
"|) 	c #9E6337",
"1) 	c #A56939",
"2) 	c #A36833",
"3) 	c #9D622C",
"4) 	c #9A602C",
"5) 	c #975F30",
"6) 	c #9A6133",
"7) 	c #9A6033",
"8) 	c #9A5E31",
"9) 	c #9E6034",
"0) 	c #995A2E",
"a) 	c #9A5B2E",
"b) 	c #9B5C30",
"c) 	c #A06235",
"d) 	c #A06237",
"e) 	c #9F6337",
"f) 	c #A06539",
"g) 	c #A06339",
"h) 	c #9A5F36",
"i) 	c #945F34",
"j) 	c #935F36",
"k) 	c #98633C",
"l) 	c #975F39",
"m) 	c #8E5633",
"n) 	c #9D7B69",
"o) 	c #A9A09D",
"p) 	c #A59994",
"q) 	c #AB957F",
"r) 	c #BCA58F",
"s) 	c #B29C85",
"t) 	c #AF876D",
"u) 	c #B08462",
"v) 	c #B1855D",
"w) 	c #B1865F",
"x) 	c #B28662",
"y) 	c #B28561",
"z) 	c #B08558",
"A) 	c #AE8C67",
"B) 	c #C5AE93",
"C) 	c #A47154",
"D) 	c #A46341",
"E) 	c #A46036",
"F) 	c #9F6237",
"G) 	c #A86E46",
"H) 	c #A46B3D",
"I) 	c #A26C44",
"J) 	c #A8734B",
"K) 	c #A06B43",
"L) 	c #9E6C43",
"M) 	c #AC8262",
"N) 	c #C4A896",
"O) 	c #CEC1B5",
"P) 	c #C9C5C2",
"Q) 	c #CDC5BE",
"R) 	c #C4B7AF",
"S) 	c #CDBAAE",
"T) 	c #B9A18E",
"U) 	c #A58F76",
"V) 	c #9E958F",
"W) 	c #A6978C",
"X) 	c #B98E64",
"Y) 	c #BA7C49",
"Z) 	c #B97C41",
"`) 	c #B7824B",
" ! 	c #B78F63",
".! 	c #B78756",
"+! 	c #B87A3D",
"@! 	c #B8783B",
"#! 	c #B5753A",
"$! 	c #B6753A",
"%! 	c #B7753B",
"&! 	c #B6733A",
"*! 	c #B6733B",
"=! 	c #B57039",
"-! 	c #B56F38",
";! 	c #B9743C",
">! 	c #BC7B42",
",! 	c #BA7E43",
"'! 	c #BB7E44",
")! 	c #BC7D44",
"!! 	c #B87B42",
"~! 	c #BA8955",
"{! 	c #BA8C5A",
"]! 	c #AF8252",
"^! 	c #BB9D80",
"/! 	c #C5AF97",
"(! 	c #C4B3A1",
"_! 	c #C9B79F",
":! 	c #B8946E",
"<! 	c #AA9C8B",
"[! 	c #AB846D",
"}! 	c #A57151",
"|! 	c #A76B45",
"1! 	c #A86C45",
"2! 	c #A56A42",
"3! 	c #AA6D46",
"4! 	c #A75E3A",
"5! 	c #AB6A44",
"6! 	c #A36946",
"7! 	c #9F6A49",
"8! 	c #A26D4F",
"9! 	c #AA7156",
"0! 	c #A97B5A",
"a! 	c #A1724E",
"b! 	c #A36846",
"c! 	c #AA7453",
"d! 	c #AA7956",
"e! 	c #AB7A58",
"f! 	c #A97758",
"g! 	c #AD7B5C",
"h! 	c #B27F61",
"i! 	c #AE7A5E",
"j! 	c #AC7B5E",
"k! 	c #B07D61",
"l! 	c #AF8667",
"m! 	c #C0A187",
"n! 	c #C3ADA1",
"o! 	c #C9B7AE",
"p! 	c #AFA29A",
"q! 	c #A4A29C",
"r! 	c #A3A09A",
"s! 	c #967762",
"t! 	c #9D6B44",
"u! 	c #A47855",
"v! 	c #A67C5A",
"w! 	c #A77D57",
"x! 	c #A77F52",
"y! 	c #AC8154",
"z! 	c #AA7E56",
"A! 	c #B18560",
"B! 	c #CCB598",
"C! 	c #C8B99F",
"D! 	c #BDA187",
"E! 	c #A46F4B",
"F! 	c #A05E32",
"G! 	c #9C663F",
"H! 	c #AA8262",
"I! 	c #A27B60",
"J! 	c #A17652",
"K! 	c #AF9879",
"L! 	c #AD9A81",
"M! 	c #9C7B57",
"N! 	c #9C714A",
"O! 	c #B9A394",
"P! 	c #CCC6BA",
"Q! 	c #CBC5B6",
"R! 	c #CCC2B2",
"S! 	c #CEC4B4",
"T! 	c #C8BEAE",
"U! 	c #CDC0B1",
"V! 	c #BEA996",
"W! 	c #9E9890",
"X! 	c #A6A19E",
"Y! 	c #B49E91",
"Z! 	c #C5B9B1",
"`! 	c #C9C1BC",
" ~ 	c #CEC0B8",
".~ 	c #C8C3BE",
"+~ 	c #C4BDAF",
"@~ 	c #C3B1A1",
"#~ 	c #C3B5AB",
"$~ 	c #B5A393",
"%~ 	c #9D7255",
"&~ 	c #9E6B40",
"*~ 	c #A46D45",
"=~ 	c #A9724B",
"-~ 	c #A46A46",
";~ 	c #AB6A46",
">~ 	c #AC704B",
",~ 	c #A6704C",
"'~ 	c #AF8565",
")~ 	c #B28365",
"!~ 	c #AD795F",
"~~ 	c #BE987F",
"{~ 	c #B08163",
"]~ 	c #AE7650",
"^~ 	c #B1785A",
"/~ 	c #AF8166",
"(~ 	c #B28566",
"_~ 	c #B49078",
":~ 	c #B89A82",
"<~ 	c #B3907B",
"[~ 	c #AF9584",
"}~ 	c #A49993",
"|~ 	c #A7775D",
"1~ 	c #977057",
"2~ 	c #80665C",
"3~ 	c #897264",
"4~ 	c #6E6458",
"5~ 	c #756A59",
"6~ 	c #72625A",
"7~ 	c #856853",
"8~ 	c #A67A54",
"9~ 	c #A17751",
"0~ 	c #967150",
"a~ 	c #8E6D51",
"b~ 	c #906C55",
"c~ 	c #956B50",
"d~ 	c #906953",
"e~ 	c #7B665B",
"f~ 	c #736560",
"g~ 	c #B38459",
"h~ 	c #C28C59",
"i~ 	c #BD8856",
"j~ 	c #B8844B",
"k~ 	c #BA864B",
"l~ 	c #BB884C",
"m~ 	c #BD8952",
"n~ 	c #BE8955",
"o~ 	c #BB8652",
"p~ 	c #B6804B",
"q~ 	c #B7855E",
"r~ 	c #B1978A",
"s~ 	c #A5A29C",
"t~ 	c #996C4F",
"u~ 	c #8B5932",
"v~ 	c #9A683D",
"w~ 	c #A7744B",
"x~ 	c #A4744B",
"y~ 	c #A57D59",
"z~ 	c #AF9376",
"A~ 	c #A68974",
"B~ 	c #A58772",
"C~ 	c #A18572",
"D~ 	c #AB8D76",
"E~ 	c #9E7353",
"F~ 	c #986841",
"G~ 	c #996B43",
"H~ 	c #9A6E46",
"I~ 	c #9A6D48",
"J~ 	c #976A48",
"K~ 	c #986A49",
"L~ 	c #9A6D4B",
"M~ 	c #9B6D49",
"N~ 	c #9A6B48",
"O~ 	c #9F704D",
"P~ 	c #A27858",
"Q~ 	c #AE8B71",
"R~ 	c #977457",
"S~ 	c #9D734F",
"T~ 	c #9C714D",
"U~ 	c #A3866F",
"V~ 	c #AA907F",
"W~ 	c #A66F45",
"X~ 	c #A36332",
"Y~ 	c #9D6332",
"Z~ 	c #A06636",
"`~ 	c #A46936",
" { 	c #A46935",
".{ 	c #9C602D",
"+{ 	c #9E632F",
"@{ 	c #9B5F31",
"#{ 	c #9C6033",
"${ 	c #9D6134",
"%{ 	c #9C5E32",
"&{ 	c #9A5C30",
"*{ 	c #995B2F",
"={ 	c #9B5C2F",
"-{ 	c #A06335",
";{ 	c #A46838",
">{ 	c #A56C3A",
",{ 	c #A66C3A",
"'{ 	c #A16634",
"){ 	c #A16636",
"!{ 	c #9F6435",
"~{ 	c #9A6232",
"{{ 	c #9D6436",
"]{ 	c #9F683C",
"^{ 	c #9D6539",
"/{ 	c #965E34",
"({ 	c #935D35",
"_{ 	c #A79B95",
":{ 	c #B3A28F",
"<{ 	c #D0C4B6",
"[{ 	c #C4B09B",
"}{ 	c #B2866C",
"|{ 	c #B28463",
"1{ 	c #B3855D",
"2{ 	c #BA8C63",
"3{ 	c #B68E69",
"4{ 	c #B99878",
"5{ 	c #B59C81",
"6{ 	c #BEAA93",
"7{ 	c #C5B6A1",
"8{ 	c #B9967B",
"9{ 	c #BA8B70",
"0{ 	c #B27D62",
"a{ 	c #A96C46",
"b{ 	c #A96F48",
"c{ 	c #A56B3C",
"d{ 	c #9C6942",
"e{ 	c #996640",
"f{ 	c #966844",
"g{ 	c #996C46",
"h{ 	c #A27049",
"i{ 	c #A77C59",
"j{ 	c #C7B2A0",
"k{ 	c #CBCBC7",
"l{ 	c #C2B4A8",
"m{ 	c #A5846A",
"n{ 	c #B59A86",
"o{ 	c #B59E88",
"p{ 	c #AC9578",
"q{ 	c #9B918B",
"r{ 	c #A08F87",
"s{ 	c #BB8D63",
"t{ 	c #BE814E",
"u{ 	c #BB7E42",
"v{ 	c #BC8857",
"w{ 	c #CAAC8B",
"x{ 	c #BD9871",
"y{ 	c #B77F3E",
"z{ 	c #B47536",
"A{ 	c #B16E30",
"B{ 	c #B07032",
"C{ 	c #B57437",
"D{ 	c #B57438",
"E{ 	c #B47338",
"F{ 	c #B47137",
"G{ 	c #B57137",
"H{ 	c #BB783E",
"I{ 	c #BC7E41",
"J{ 	c #B97E41",
"K{ 	c #B87F45",
"L{ 	c #B97F44",
"M{ 	c #B78049",
"N{ 	c #C49B72",
"O{ 	c #C3A27B",
"P{ 	c #C19B72",
"Q{ 	c #C09C73",
"R{ 	c #C2A485",
"S{ 	c #B69F83",
"T{ 	c #C3AE92",
"U{ 	c #BA966F",
"V{ 	c #A89B8A",
"W{ 	c #AC856D",
"X{ 	c #A06D4D",
"Y{ 	c #9F633B",
"Z{ 	c #A4673E",
"`{ 	c #A3673E",
" ] 	c #9D643C",
".] 	c #9F5C38",
"+] 	c #9E5C37",
"@] 	c #A5633C",
"#] 	c #9E5E3C",
"$] 	c #985E3E",
"%] 	c #9D6645",
"&] 	c #9F6645",
"*] 	c #9E6D48",
"=] 	c #9D6B45",
"-] 	c #A86D4B",
";] 	c #A57150",
">] 	c #A06F4D",
",] 	c #A27150",
"'] 	c #9E6D4F",
")] 	c #A57054",
"!] 	c #AB7357",
"~] 	c #AA7257",
"{] 	c #A87256",
"]] 	c #AB765D",
"^] 	c #AE8A75",
"/] 	c #C6B5A5",
"(] 	c #BFB3AB",
"_] 	c #BAA69D",
":] 	c #AB9A92",
"<] 	c #A19E98",
"[] 	c #A39F99",
"}] 	c #A0826E",
"|] 	c #A3734D",
"1] 	c #A77A56",
"2] 	c #A57B51",
"3] 	c #A67C4B",
"4] 	c #A67848",
"5] 	c #A06D42",
"6] 	c #A5744B",
"7] 	c #B99B77",
"8] 	c #BFA683",
"9] 	c #B68A69",
"0] 	c #A36D47",
"a] 	c #A8744D",
"b] 	c #93572E",
"c] 	c #A36E4B",
"d] 	c #A9795A",
"e] 	c #AA7F5C",
"f] 	c #BFA78A",
"g] 	c #BDA58B",
"h] 	c #B08A68",
"i] 	c #A27550",
"j] 	c #C2AA99",
"k] 	c #CCC4B8",
"l] 	c #CCC4B5",
"m] 	c #CDC0AD",
"n] 	c #C0B19D",
"o] 	c #B8AA97",
"p] 	c #BFB1A1",
"q] 	c #B5A08B",
"r] 	c #9D978E",
"s] 	c #B8AA9A",
"t] 	c #CBC3B8",
"u] 	c #CAC2B7",
"v] 	c #CBBFB0",
"w] 	c #BAB3A9",
"x] 	c #C5C0B7",
"y] 	c #C5BDB3",
"z] 	c #BCB3AC",
"A] 	c #BAB1A9",
"B] 	c #B29584",
"C] 	c #A88364",
"D] 	c #A77A55",
"E] 	c #AD7E58",
"F] 	c #AE7B56",
"G] 	c #AC6D48",
"H] 	c #AD724D",
"I] 	c #AD7853",
"J] 	c #B28768",
"K] 	c #AD7C61",
"L] 	c #B07D66",
"M] 	c #B89582",
"N] 	c #BD9C87",
"O] 	c #B38C75",
"P] 	c #B89077",
"Q] 	c #AF8266",
"R] 	c #BD937B",
"S] 	c #B79A83",
"T] 	c #BA9B89",
"U] 	c #AB9384",
"V] 	c #A39892",
"W] 	c #A97C59",
"X] 	c #8F6C55",
"Y] 	c #7E685A",
"Z] 	c #76675E",
"`] 	c #6E645A",
" ^ 	c #696459",
".^ 	c #6C615C",
"+^ 	c #7C6458",
"@^ 	c #967252",
"#^ 	c #876A4E",
"$^ 	c #8A6D59",
"%^ 	c #856654",
"&^ 	c #876855",
"*^ 	c #8E6952",
"=^ 	c #896A56",
"-^ 	c #78665B",
";^ 	c #73655D",
">^ 	c #7D6656",
",^ 	c #B18350",
"'^ 	c #BF8A4F",
")^ 	c #B98353",
"!^ 	c #BD894E",
"~^ 	c #BB874A",
"{^ 	c #BD894F",
"]^ 	c #BE8951",
"^^ 	c #BD884F",
"/^ 	c #B5814C",
"(^ 	c #B48661",
"_^ 	c #AC978C",
":^ 	c #A39F9F",
"<^ 	c #9E887D",
"[^ 	c #986547",
"}^ 	c #885935",
"|^ 	c #99683E",
"1^ 	c #A87045",
"2^ 	c #A87042",
"3^ 	c #AE8159",
"4^ 	c #B19070",
"5^ 	c #A5866B",
"6^ 	c #A07D63",
"7^ 	c #A78368",
"8^ 	c #A68368",
"9^ 	c #987356",
"0^ 	c #946948",
"a^ 	c #92643E",
"b^ 	c #976840",
"c^ 	c #996A42",
"d^ 	c #996A44",
"e^ 	c #996A45",
"f^ 	c #986744",
"g^ 	c #9B6A44",
"h^ 	c #9D6D44",
"i^ 	c #A16F47",
"j^ 	c #A2704A",
"k^ 	c #A5754F",
"l^ 	c #A97A56",
"m^ 	c #A0734D",
"n^ 	c #A1744D",
"o^ 	c #A5774F",
"p^ 	c #A6876D",
"q^ 	c #A68E7E",
"r^ 	c #A47047",
"s^ 	c #A26533",
"t^ 	c #9F6731",
"u^ 	c #A26B36",
"v^ 	c #A46C36",
"w^ 	c #A16A34",
"x^ 	c #9D6530",
"y^ 	c #9B622F",
"z^ 	c #98592C",
"A^ 	c #95582A",
"B^ 	c #9A5D30",
"C^ 	c #9B6034",
"D^ 	c #985D31",
"E^ 	c #975C30",
"F^ 	c #985D30",
"G^ 	c #A16838",
"H^ 	c #A16A33",
"I^ 	c #A16B34",
"J^ 	c #A26A35",
"K^ 	c #A16935",
"L^ 	c #A06835",
"M^ 	c #9C6230",
"N^ 	c #9C6432",
"O^ 	c #9D6536",
"P^ 	c #9B6637",
"Q^ 	c #925E2F",
"R^ 	c #936035",
"S^ 	c #9B7D69",
"T^ 	c #A79D96",
"U^ 	c #AF9F90",
"V^ 	c #C9C6C0",
"W^ 	c #BEAD9E",
"X^ 	c #B1856C",
"Y^ 	c #B08464",
"Z^ 	c #B48760",
"`^ 	c #B78A5D",
" / 	c #B49270",
"./ 	c #C4B099",
"+/ 	c #D0C8B9",
"@/ 	c #CEC5B6",
"#/ 	c #BEB5A7",
"$/ 	c #A57E62",
"%/ 	c #A77E61",
"&/ 	c #AC8A6F",
"*/ 	c #B6825E",
"=/ 	c #B38A70",
"-/ 	c #A36A41",
";/ 	c #9C6740",
">/ 	c #966644",
",/ 	c #976A49",
"'/ 	c #996A47",
")/ 	c #9F6E47",
"!/ 	c #A47849",
"~/ 	c #B3967D",
"{/ 	c #C9BFB4",
"]/ 	c #C6B7A8",
"^/ 	c #AB8C71",
"// 	c #B19174",
"(/ 	c #B1977E",
"_/ 	c #A8937E",
":/ 	c #A29487",
"</ 	c #B98F65",
"[/ 	c #BD874C",
"}/ 	c #BE8A4F",
"|/ 	c #BF8B5A",
"1/ 	c #C29871",
"2/ 	c #BF9872",
"3/ 	c #B88244",
"4/ 	c #B57C3D",
"5/ 	c #B2773A",
"6/ 	c #AF743A",
"7/ 	c #B2763D",
"8/ 	c #B97C43",
"9/ 	c #B87B43",
"0/ 	c #B77A43",
"a/ 	c #B97B43",
"b/ 	c #BD7D46",
"c/ 	c #BA8344",
"d/ 	c #BA8A53",
"e/ 	c #C49E7A",
"f/ 	c #BC956A",
"g/ 	c #C1A278",
"h/ 	c #C7A98A",
"i/ 	c #B5905F",
"j/ 	c #B3814B",
"k/ 	c #B67E4E",
"l/ 	c #B18657",
"m/ 	c #BE9F85",
"n/ 	c #AF8C6B",
"o/ 	c #B38D67",
"p/ 	c #A69891",
"q/ 	c #A89792",
"r/ 	c #AB846E",
"s/ 	c #9D6F52",
"t/ 	c #A26440",
"u/ 	c #AB6843",
"v/ 	c #AB6844",
"w/ 	c #A46A45",
"x/ 	c #A66D49",
"y/ 	c #975E3B",
"z/ 	c #9E603C",
"A/ 	c #995A35",
"B/ 	c #915430",
"C/ 	c #9C613C",
"D/ 	c #975E38",
"E/ 	c #9B633D",
"F/ 	c #985C37",
"G/ 	c #9F6744",
"H/ 	c #A07451",
"I/ 	c #9E7254",
"J/ 	c #9D7055",
"K/ 	c #9D6B57",
"L/ 	c #A37053",
"M/ 	c #A57252",
"N/ 	c #A47252",
"O/ 	c #A17455",
"P/ 	c #CDBEB4",
"Q/ 	c #B8A194",
"R/ 	c #A5958C",
"S/ 	c #A39E98",
"T/ 	c #A19C96",
"U/ 	c #9E8C7D",
"V/ 	c #A67654",
"W/ 	c #AA7953",
"X/ 	c #AD7952",
"Y/ 	c #AB7347",
"Z/ 	c #A1683B",
"`/ 	c #996235",
" ( 	c #9D673A",
".( 	c #A77549",
"+( 	c #A47244",
"@( 	c #9E6331",
"#( 	c #9F673A",
"$( 	c #9A663E",
"%( 	c #965E37",
"&( 	c #8D5432",
"*( 	c #895634",
"=( 	c #B39470",
"-( 	c #AA936E",
";( 	c #A57E5F",
">( 	c #A98165",
",( 	c #C1AA92",
"'( 	c #C9BAA8",
")( 	c #CDC3B3",
"!( 	c #CBBEAD",
"~( 	c #B6A18A",
"{( 	c #B9A28A",
"]( 	c #BCA891",
"^( 	c #AB9070",
"/( 	c #A29488",
"(( 	c #A3A19C",
"_( 	c #B5AC9F",
":( 	c #CBC3B9",
"<( 	c #CBC4B9",
"[( 	c #CABDAE",
"}( 	c #C4AFA6",
"|( 	c #CBC1BB",
"1( 	c #C0B9AC",
"2( 	c #BDAFA2",
"3( 	c #C0B3A5",
"4( 	c #C4B4A5",
"5( 	c #BAA593",
"6( 	c #AA8771",
"7( 	c #AC8268",
"8( 	c #AF7E5D",
"9( 	c #B0714B",
"0( 	c #AE704B",
"a( 	c #A96D49",
"b( 	c #9A6144",
"c( 	c #9B6954",
"d( 	c #A77D6D",
"e( 	c #B2917B",
"f( 	c #B59D86",
"g( 	c #B99A89",
"h( 	c #B48E78",
"i( 	c #C5A695",
"j( 	c #B99985",
"k( 	c #BB9B87",
"l( 	c #B59480",
"m( 	c #AE8F80",
"n( 	c #A39C93",
"o( 	c #A27E5A",
"p( 	c #7E6855",
"q( 	c #76655B",
"r( 	c #736761",
"s( 	c #6F635E",
"t( 	c #6E625C",
"u( 	c #6E635C",
"v( 	c #70615A",
"w( 	c #726156",
"x( 	c #705F54",
"y( 	c #766153",
"z( 	c #846958",
"A( 	c #896C56",
"B( 	c #886E59",
"C( 	c #7F6A59",
"D( 	c #74665B",
"E( 	c #756559",
"F( 	c #7B6555",
"G( 	c #A57E51",
"H( 	c #B98746",
"I( 	c #B88448",
"J( 	c #B7844D",
"K( 	c #B8854B",
"L( 	c #BC8950",
"M( 	c #BB884F",
"N( 	c #BB884D",
"O( 	c #B8834D",
"P( 	c #B38761",
"Q( 	c #A5968A",
"R( 	c #9C7956",
"S( 	c #9C6D42",
"T( 	c #A16C41",
"U( 	c #A56C40",
"V( 	c #A97040",
"W( 	c #B18E6E",
"X( 	c #A98769",
"Y( 	c #A78469",
"Z( 	c #A58367",
"`( 	c #A57F63",
" _ 	c #9A6F50",
"._ 	c #9A6A47",
"+_ 	c #99643D",
"@_ 	c #9A613A",
"#_ 	c #9A623C",
"$_ 	c #98643D",
"%_ 	c #94633C",
"&_ 	c #97653F",
"*_ 	c #9C6A41",
"=_ 	c #9F6E40",
"-_ 	c #A26F42",
";_ 	c #A17046",
">_ 	c #A4754B",
",_ 	c #A97E5C",
"'_ 	c #9B724F",
")_ 	c #A37650",
"!_ 	c #AA7A4C",
"~_ 	c #A88666",
"{_ 	c #A29283",
"]_ 	c #A6784F",
"^_ 	c #A86B38",
"/_ 	c #A76E38",
"(_ 	c #A7703A",
"__ 	c #A66F39",
":_ 	c #A36E38",
"<_ 	c #9F6935",
"[_ 	c #9D6133",
"}_ 	c #985C2E",
"|_ 	c #9F6539",
"1_ 	c #9F6838",
"2_ 	c #A26A3A",
"3_ 	c #A56B39",
"4_ 	c #A56C33",
"5_ 	c #A36B31",
"6_ 	c #9F662F",
"7_ 	c #996032",
"8_ 	c #9A6134",
"9_ 	c #9B6334",
"0_ 	c #9A622F",
"a_ 	c #9A6230",
"b_ 	c #9A6233",
"c_ 	c #986031",
"d_ 	c #945F33",
"e_ 	c #9C8069",
"f_ 	c #A9A198",
"g_ 	c #AB9381",
"h_ 	c #C9BBB2",
"i_ 	c #C6B2A6",
"j_ 	c #AD856E",
"k_ 	c #AA8569",
"l_ 	c #AC8C6D",
"m_ 	c #BA987B",
"n_ 	c #BFA793",
"o_ 	c #CABDB2",
"p_ 	c #C1B5A8",
"q_ 	c #B5A28F",
"r_ 	c #C7B6A7",
"s_ 	c #B39880",
"t_ 	c #A68567",
"u_ 	c #B18E6D",
"v_ 	c #C59F7E",
"w_ 	c #B49581",
"x_ 	c #A87C5D",
"y_ 	c #A3795C",
"z_ 	c #9E7A62",
"A_ 	c #9E7A61",
"B_ 	c #A47B5C",
"C_ 	c #A77C5A",
"D_ 	c #B08A61",
"E_ 	c #AD8F75",
"F_ 	c #BFA994",
"G_ 	c #BEAA99",
"H_ 	c #BA9C87",
"I_ 	c #A57E63",
"J_ 	c #A58268",
"K_ 	c #A69280",
"L_ 	c #A59C98",
"M_ 	c #A49A8F",
"N_ 	c #B2937B",
"O_ 	c #C09770",
"P_ 	c #BE986B",
"Q_ 	c #BB9366",
"R_ 	c #BB8F5D",
"S_ 	c #B48553",
"T_ 	c #B18251",
"U_ 	c #AD7D4D",
"V_ 	c #B07F4F",
"W_ 	c #B38253",
"X_ 	c #B58353",
"Y_ 	c #B78650",
"Z_ 	c #B6864F",
"`_ 	c #B5834D",
" : 	c #B9824D",
".: 	c #B6864E",
"+: 	c #BD9465",
"@: 	c #B89770",
"#: 	c #B28757",
"$: 	c #B1875C",
"%: 	c #BD9270",
"&: 	c #AF804E",
"*: 	c #B6814B",
"=: 	c #B9834E",
"-: 	c #AF824D",
";: 	c #A7855E",
">: 	c #A6876E",
",: 	c #A59A96",
"': 	c #A7968E",
"): 	c #AB866F",
"!: 	c #A87C60",
"~: 	c #A5714F",
"{: 	c #AB7552",
"]: 	c #B27B5A",
"^: 	c #AC7A59",
"/: 	c #AE7D5D",
"(: 	c #A77657",
"_: 	c #A37054",
":: 	c #9E694D",
"<: 	c #9C664A",
"[: 	c #9D6845",
"}: 	c #A26C47",
"|: 	c #9C6640",
"1: 	c #A16944",
"2: 	c #AD7855",
"3: 	c #A17152",
"4: 	c #A5795F",
"5: 	c #A07056",
"6: 	c #9D6649",
"7: 	c #A1694E",
"8: 	c #A57A5C",
"9: 	c #A57C5F",
"0: 	c #A77D62",
"a: 	c #AF9385",
"b: 	c #C9BEBD",
"c: 	c #C8C0BF",
"d: 	c #CBBCB5",
"e: 	c #C4AEA4",
"f: 	c #A39D98",
"g: 	c #A6948C",
"h: 	c #A27758",
"i: 	c #A47449",
"j: 	c #A06D43",
"k: 	c #A36D41",
"l: 	c #A06536",
"m: 	c #985D2C",
"n: 	c #945C2B",
"o: 	c #975E2E",
"p: 	c #9C6131",
"q: 	c #9B5F2F",
"r: 	c #9A5D2E",
"s: 	c #9B5F30",
"t: 	c #9B6537",
"u: 	c #A37047",
"v: 	c #7F4D2D",
"w: 	c #916544",
"x: 	c #B1906C",
"y: 	c #AA8E69",
"z: 	c #AA8564",
"A: 	c #A98167",
"B: 	c #AD8D75",
"C: 	c #AF967D",
"D: 	c #B69C82",
"E: 	c #BA9C82",
"F: 	c #C3A78F",
"G: 	c #CBB69F",
"H: 	c #C4AC91",
"I: 	c #A78D79",
"J: 	c #A1998F",
"K: 	c #A89E9E",
"L: 	c #AD9186",
"M: 	c #C7AD9C",
"N: 	c #CBB9A7",
"O: 	c #BFA18C",
"P: 	c #A97A65",
"Q: 	c #C19F96",
"R: 	c #BCA99A",
"S: 	c #A68C76",
"T: 	c #B49988",
"U: 	c #B89E8D",
"V: 	c #B09583",
"W: 	c #AA8773",
"X: 	c #A97F67",
"Y: 	c #A27153",
"Z: 	c #AC7657",
"`: 	c #AA6F4D",
" < 	c #A56744",
".< 	c #9E6C51",
"+< 	c #9F725C",
"@< 	c #9F7662",
"#< 	c #996E54",
"$< 	c #9B694F",
"%< 	c #A3785C",
"&< 	c #A87B5F",
"*< 	c #A77A5E",
"=< 	c #AA7D60",
"-< 	c #B3866A",
";< 	c #B88A6E",
">< 	c #B5896E",
",< 	c #AB8F84",
"'< 	c #AE9884",
")< 	c #947557",
"!< 	c #7F6B5A",
"~< 	c #7C675D",
"{< 	c #756860",
"]< 	c #70655D",
"^< 	c #70645B",
"/< 	c #746860",
"(< 	c #74675D",
"_< 	c #706257",
":< 	c #6E5F56",
"<< 	c #766155",
"[< 	c #866C5C",
"}< 	c #8A715E",
"|< 	c #826D5D",
"1< 	c #77685C",
"2< 	c #76695B",
"3< 	c #917359",
"4< 	c #9E7A5A",
"5< 	c #8E6D50",
"6< 	c #A27347",
"7< 	c #B27E46",
"8< 	c #B9854A",
"9< 	c #BB8748",
"0< 	c #BD8A4B",
"a< 	c #B98547",
"b< 	c #BC8948",
"c< 	c #BB8547",
"d< 	c #BA8E5E",
"e< 	c #B39D92",
"f< 	c #AFA99E",
"g< 	c #AF9C88",
"h< 	c #A88161",
"i< 	c #9B6740",
"j< 	c #9C6840",
"k< 	c #AE7C53",
"l< 	c #AF8967",
"m< 	c #AD8C6D",
"n< 	c #AC896B",
"o< 	c #AB896E",
"p< 	c #A78266",
"q< 	c #9D7253",
"r< 	c #946340",
"s< 	c #935F39",
"t< 	c #945E3A",
"u< 	c #905C38",
"v< 	c #92603A",
"w< 	c #9B6841",
"x< 	c #9E6A41",
"y< 	c #9B6942",
"z< 	c #996A43",
"A< 	c #986C4C",
"B< 	c #956D4B",
"C< 	c #9F714A",
"D< 	c #A8764A",
"E< 	c #AA876A",
"F< 	c #A38F82",
"G< 	c #AA7951",
"H< 	c #AD703E",
"I< 	c #A97342",
"J< 	c #A7713E",
"K< 	c #A97340",
"L< 	c #AB7340",
"M< 	c #A8713C",
"N< 	c #A36D38",
"O< 	c #9E6736",
"P< 	c #996333",
"Q< 	c #9D6838",
"R< 	c #9C6737",
"S< 	c #A06A3C",
"T< 	c #A16B3B",
"U< 	c #A26B3B",
"V< 	c #A56C3B",
"W< 	c #A76C3B",
"X< 	c #A16733",
"Y< 	c #975D2A",
"Z< 	c #945B2E",
"`< 	c #965D30",
" [ 	c #996033",
".[ 	c #9B6332",
"+[ 	c #9C6332",
"@[ 	c #9A622E",
"#[ 	c #99622C",
"$[ 	c #986332",
"%[ 	c #A2876E",
"&[ 	c #A79E93",
"*[ 	c #A9A199",
"=[ 	c #A9917F",
"-[ 	c #BFA491",
";[ 	c #BDA08D",
">[ 	c #B4917C",
",[ 	c #B4957F",
"'[ 	c #B8A089",
")[ 	c #B6A08F",
"![ 	c #C8B2A2",
"~[ 	c #CCB5A4",
"{[ 	c #B49273",
"][ 	c #AA8163",
"^[ 	c #B69A81",
"/[ 	c #B79A85",
"([ 	c #A78065",
"_[ 	c #A77551",
":[ 	c #AB7E59",
"<[ 	c #977660",
"[[ 	c #9E7559",
"}[ 	c #976F54",
"|[ 	c #9E7C66",
"1[ 	c #AA8A74",
"2[ 	c #AB8970",
"3[ 	c #AD8A6E",
"4[ 	c #AD8B66",
"5[ 	c #B68D6D",
"6[ 	c #A37753",
"7[ 	c #A68162",
"8[ 	c #967152",
"9[ 	c #946E4E",
"0[ 	c #977A5E",
"a[ 	c #A69586",
"b[ 	c #B4A097",
"c[ 	c #C6A992",
"d[ 	c #C1A88D",
"e[ 	c #C1A68D",
"f[ 	c #BD9F83",
"g[ 	c #B09070",
"h[ 	c #B08E6D",
"i[ 	c #A98564",
"j[ 	c #AB8664",
"k[ 	c #A8835E",
"l[ 	c #B08C67",
"m[ 	c #AF8A65",
"n[ 	c #B18C61",
"o[ 	c #B38D63",
"p[ 	c #B48C62",
"q[ 	c #B58B5D",
"r[ 	c #B78C60",
"s[ 	c #B38A58",
"t[ 	c #B68A5B",
"u[ 	c #B99373",
"v[ 	c #BC937B",
"w[ 	c #AC8663",
"x[ 	c #AC8763",
"y[ 	c #B0835B",
"z[ 	c #AD825C",
"A[ 	c #AE8E69",
"B[ 	c #AB978A",
"C[ 	c #AA9B95",
"D[ 	c #A68471",
"E[ 	c #AA836A",
"F[ 	c #AC8568",
"G[ 	c #AE876A",
"H[ 	c #AF886B",
"I[ 	c #B1886D",
"J[ 	c #AC846A",
"K[ 	c #A57F66",
"L[ 	c #AA8470",
"M[ 	c #A37E6B",
"N[ 	c #A4806D",
"O[ 	c #9B6D52",
"P[ 	c #966545",
"Q[ 	c #936243",
"R[ 	c #A67854",
"S[ 	c #A17353",
"T[ 	c #97694F",
"U[ 	c #A67B67",
"V[ 	c #92624A",
"W[ 	c #955C3B",
"X[ 	c #9E6444",
"Y[ 	c #B9957A",
"Z[ 	c #B3977E",
"`[ 	c #B69783",
" } 	c #B8A49B",
".} 	c #BAA7A1",
"+} 	c #BCA59B",
"@} 	c #AE9387",
"#} 	c #A58675",
"$} 	c #A49489",
"%} 	c #A29E98",
"&} 	c #A29E97",
"*} 	c #A59286",
"=} 	c #A0877A",
"-} 	c #9E8373",
";} 	c #9D806E",
">} 	c #9F7E68",
",} 	c #966F55",
"'} 	c #8F6548",
")} 	c #966B4E",
"!} 	c #9C7355",
"~} 	c #946E51",
"{} 	c #A07F65",
"]} 	c #A3846D",
"^} 	c #9D7B63",
"/} 	c #997458",
"(} 	c #966C52",
"_} 	c #966A52",
":} 	c #946D53",
"<} 	c #91735A",
"[} 	c #9E8773",
"}} 	c #99826E",
"|} 	c #95796A",
"1} 	c #9A7A6F",
"2} 	c #9B8270",
"3} 	c #9C8570",
"4} 	c #A08573",
"5} 	c #9E8475",
"6} 	c #9E8979",
"7} 	c #A18D7A",
"8} 	c #A2A19D",
"9} 	c #AA9F9F",
"0} 	c #A69590",
"a} 	c #9E8B85",
"b} 	c #9D7F6D",
"c} 	c #9B6F5E",
"d} 	c #9F786B",
"e} 	c #A58274",
"f} 	c #A1816D",
"g} 	c #9E7965",
"h} 	c #A17C6A",
"i} 	c #A88471",
"j} 	c #A3816F",
"k} 	c #A2816E",
"l} 	c #A37E67",
"m} 	c #A97D62",
"n} 	c #A47358",
"o} 	c #A4745C",
"p} 	c #9F735C",
"q} 	c #9C7964",
"r} 	c #9F7A67",
"s} 	c #997563",
"t} 	c #9A7462",
"u} 	c #9A7060",
"v} 	c #9B7664",
"w} 	c #9F7F70",
"x} 	c #A48D83",
"y} 	c #AB8D7E",
"z} 	c #A88979",
"A} 	c #AC8E7E",
"B} 	c #AE9183",
"C} 	c #B19E99",
"D} 	c #ACA7A0",
"E} 	c #AB9B8D",
"F} 	c #957C65",
"G} 	c #85705F",
"H} 	c #886D5E",
"I} 	c #786A5D",
"J} 	c #776C5E",
"K} 	c #776A5C",
"L} 	c #7A6C5C",
"M} 	c #7B6B5C",
"N} 	c #78675E",
"O} 	c #7E685E",
"P} 	c #856A5C",
"Q} 	c #836D5F",
"R} 	c #817065",
"S} 	c #7C6F68",
"T} 	c #7C6D5F",
"U} 	c #AA835E",
"V} 	c #B88A60",
"W} 	c #956E53",
"X} 	c #AB7D5A",
"Y} 	c #B18653",
"Z} 	c #B28856",
"`} 	c #B58B56",
" | 	c #B88F59",
".| 	c #B68D56",
"+| 	c #B98F58",
"@| 	c #B98F56",
"#| 	c #B98D54",
"$| 	c #B89667",
"%| 	c #B0A19E",
"&| 	c #A9A8A4",
"*| 	c #AFAAA3",
"=| 	c #B3A8A2",
"-| 	c #AF9D93",
";| 	c #9C7F6D",
">| 	c #8D5F41",
",| 	c #A97D5D",
"'| 	c #A3876D",
")| 	c #A4876C",
"!| 	c #A28167",
"~| 	c #A4836A",
"{| 	c #A37E64",
"]| 	c #986F52",
"^| 	c #8D5F3E",
"/| 	c #8A5C3D",
"(| 	c #87593A",
"_| 	c #895B3B",
":| 	c #875A38",
"<| 	c #8C5E3B",
"[| 	c #926342",
"}| 	c #916142",
"|| 	c #916042",
"1| 	c #916645",
"2| 	c #8D6547",
"3| 	c #926C4C",
"4| 	c #A27855",
"5| 	c #A67F65",
"6| 	c #ACA099",
"7| 	c #AB8465",
"8| 	c #A9744B",
"9| 	c #A77548",
"0| 	c #9E6D40",
"a| 	c #A27146",
"b| 	c #A17045",
"c| 	c #9E6E43",
"d| 	c #98683B",
"e| 	c #9F6C3C",
"f| 	c #9D6A3B",
"g| 	c #A37143",
"h| 	c #A17142",
"i| 	c #9E6E41",
"j| 	c #9F7041",
"k| 	c #9F7242",
"l| 	c #A37444",
"m| 	c #A57545",
"n| 	c #A37244",
"o| 	c #9A6A3C",
"p| 	c #99683B",
"q| 	c #9C6C3E",
"r| 	c #9A6C3E",
"s| 	c #9E7041",
"t| 	c #A17344",
"u| 	c #9F7142",
"v| 	c #9E7040",
"w| 	c #9C6E3F",
"x| 	c #9E7248",
"y| 	c #A99384",
"z| 	c #AAA8A7",
"A| 	c #AE9D97",
"B| 	c #A68774",
"C| 	c #AD8E7C",
"D| 	c #BA9C8D",
"E| 	c #C3AB9A",
"F| 	c #C4B2A0",
"G| 	c #C0AC9C",
"H| 	c #B3947E",
"I| 	c #B08564",
"J| 	c #A4764C",
"K| 	c #A0745C",
"L| 	c #9F866F",
"M| 	c #A78C7D",
"N| 	c #A68679",
"O| 	c #A98777",
"P| 	c #A58771",
"Q| 	c #A3938C",
"R| 	c #A99892",
"S| 	c #A99992",
"T| 	c #A69791",
"U| 	c #A59790",
"V| 	c #9F938B",
"W| 	c #9E9288",
"X| 	c #A19185",
"Y| 	c #A78C82",
"Z| 	c #A48F83",
"`| 	c #A09086",
" 1 	c #9F8D86",
".1 	c #A3958D",
"+1 	c #A7A097",
"@1 	c #AAA49F",
"#1 	c #A7A3A1",
"$1 	c #A8A09C",
"%1 	c #A8998F",
"&1 	c #A49B96",
"*1 	c #A39C91",
"=1 	c #A39C8C",
"-1 	c #A89E8F",
";1 	c #A49889",
">1 	c #A3968A",
",1 	c #A69C93",
"'1 	c #A99F96",
")1 	c #A99C97",
"!1 	c #A89E94",
"~1 	c #AB9C90",
"{1 	c #AB998D",
"]1 	c #A9988D",
"^1 	c #AC9B90",
"/1 	c #B0A094",
"(1 	c #AB9B92",
"_1 	c #AB9C96",
":1 	c #AEA09A",
"<1 	c #ACA49B",
"[1 	c #A8A59A",
"}1 	c #AC9D8F",
"|1 	c #A79788",
"11 	c #A59687",
"21 	c #A7988D",
"31 	c #AEA8A4",
"41 	c #AFAAA5",
"51 	c #AFA8A4",
"61 	c #AFA7A1",
"71 	c #AAA199",
"81 	c #A89E95",
"91 	c #A4988E",
"01 	c #AE9B90",
"a1 	c #AE9E94",
"b1 	c #A49893",
"c1 	c #A29793",
"d1 	c #A8A09A",
"e1 	c #A8A59C",
"f1 	c #A89D95",
"g1 	c #A1938B",
"h1 	c #A09189",
"i1 	c #9E8E81",
"j1 	c #A39184",
"k1 	c #A39287",
"l1 	c #A79590",
"m1 	c #A69391",
"n1 	c #A38F8C",
"o1 	c #A48B84",
"p1 	c #AD968B",
"q1 	c #AE9F92",
"r1 	c #A4988C",
"s1 	c #A2988E",
"t1 	c #A3988F",
"u1 	c #A3928B",
"v1 	c #A1908B",
"w1 	c #A69B93",
"x1 	c #A4A19F",
"y1 	c #A4A1A0",
"z1 	c #A39E9F",
"A1 	c #A29D9B",
"B1 	c #9C9894",
"C1 	c #A09D96",
"D1 	c #A59F9B",
"E1 	c #A39C9B",
"F1 	c #A59D9B",
"G1 	c #ABA2A0",
"H1 	c #A6A5A2",
"I1 	c #A6A39F",
"J1 	c #A4A09A",
"K1 	c #A49F9A",
"L1 	c #AAA5A3",
"M1 	c #ABA3A2",
"N1 	c #ABA2A1",
"O1 	c #ACA1A0",
"P1 	c #AAA2A0",
"Q1 	c #AEA9A5",
"R1 	c #ACA9A5",
"S1 	c #A9A8A3",
"T1 	c #AAA6A3",
"U1 	c #ACA5A3",
"V1 	c #A49E9B",
"W1 	c #A39F9B",
"X1 	c #ACA2A0",
"Y1 	c #A89D9B",
"Z1 	c #AEA3A1",
"`1 	c #B1A7A5",
" 2 	c #B1A8A5",
".2 	c #ADA59F",
"+2 	c #ACA39B",
"@2 	c #AAA298",
"#2 	c #A9A096",
"$2 	c #A89E9A",
"%2 	c #A89F9C",
"&2 	c #AAA29F",
"*2 	c #ACA5A0",
"=2 	c #ADA39D",
"-2 	c #ADA29D",
";2 	c #ABA39D",
">2 	c #ADA6A0",
",2 	c #AEA6A2",
"'2 	c #B0A89F",
")2 	c #B4ABA8",
"!2 	c #B1AAA5",
"~2 	c #AFAAA4",
"{2 	c #ABA49D",
"]2 	c #A99B8E",
"^2 	c #A7988A",
"/2 	c #A79889",
"(2 	c #A0968B",
"_2 	c #A2978D",
":2 	c #A49991",
"<2 	c #A69B8F",
"[2 	c #A69B8C",
"}2 	c #A79A8F",
"|2 	c #9F938A",
"12 	c #9F978D",
"22 	c #9F988F",
"32 	c #9E938A",
"42 	c #A7988C",
"52 	c #A5968C",
"62 	c #A9998E",
"72 	c #AC9C90",
"82 	c #A8988F",
"92 	c #AB9A8F",
"02 	c #AB9B8A",
"a2 	c #A39381",
"b2 	c #AC9A87",
"c2 	c #AD9985",
"d2 	c #AD9986",
"e2 	c #AB9A8E",
"f2 	c #ABA3A0",
"g2 	c #ACA8A5",
"h2 	c #AEA8A3",
"i2 	c #AFA8A3",
"j2 	c #ABA49F",
"k2 	c #AEA19C",
"l2 	c #A38D88",
"m2 	c #A08C86",
"n2 	c #9C948B",
"o2 	c #9D968E",
"p2 	c #9D8C81",
"q2 	c #9D8E7D",
"r2 	c #9F8F84",
"s2 	c #A08B82",
"t2 	c #98857B",
"u2 	c #97847A",
"v2 	c #96867C",
"w2 	c #9B8F84",
"x2 	c #A1948A",
"y2 	c #A2958B",
"z2 	c #9D9286",
"A2 	c #A3968B",
"B2 	c #A69790",
"C2 	c #A39492",
"D2 	c #A69695",
"E2 	c #AA9A97",
"F2 	c #A4978C",
"G2 	c #A39588",
"H2 	c #A6958D",
"I2 	c #AC9F9C",
"J2 	c #A8A39F",
"K2 	c #ADAAA7",
"L2 	c #AEA298",
"M2 	c #AA9889",
"N2 	c #A99481",
"O2 	c #A5927E",
"P2 	c #A5917E",
"Q2 	c #A49182",
"R2 	c #A99788",
"S2 	c #A89588",
"T2 	c #A79486",
"U2 	c #AA9787",
"V2 	c #AC9A8F",
"W2 	c #AC9A8C",
"X2 	c #A4998F",
"Y2 	c #A69A90",
"Z2 	c #A8998E",
"`2 	c #A4978E",
" 3 	c #A2958D",
".3 	c #A5998B",
"+3 	c #A5998C",
"@3 	c #A29588",
"#3 	c #A69890",
"$3 	c #AA9A93",
"%3 	c #A89A90",
"&3 	c #A79A91",
"*3 	c #A69A92",
"=3 	c #AAA19E",
"-3 	c #ADA9A4",
";3 	c #ABA9A2",
">3 	c #9F968E",
",3 	c #A79B91",
"'3 	c #A69B8E",
")3 	c #A29484",
"!3 	c #A69584",
"~3 	c #A69486",
"{3 	c #A69E9B",
"]3 	c #A39F9C",
"^3 	c #A59F9D",
"/3 	c #A6A19B",
"(3 	c #A89E90",
"_3 	c #A49B90",
":3 	c #A39A93",
"<3 	c #A29A94",
"[3 	c #A49C97",
"}3 	c #A79D9A",
"|3 	c #A89E99",
"13 	c #ABA196",
"23 	c #ACA293",
"33 	c #AA9F92",
"43 	c #AC9F94",
"53 	c #B09C93",
"63 	c #B19D94",
"73 	c #AE9B92",
"83 	c #AA998F",
"93 	c #AA9B8F",
"03 	c #AA9A8F",
"a3 	c #A89989",
"b3 	c #AA9985",
"c3 	c #AB9788",
"d3 	c #A59992",
"e3 	c #A4A09E",
"f3 	c #A49E9D",
"g3 	c #A19894",
"h3 	c #AA9D94",
"i3 	c #A1968D",
"j3 	c #A89D98",
"k3 	c #A69B98",
"l3 	c #A89D9A",
"m3 	c #A89E9B",
"n3 	c #A59B98",
"o3 	c #A99E9B",
"p3 	c #A69F99",
"q3 	c #A29B95",
"r3 	c #A29C95",
"s3 	c #A6A2A2",
"t3 	c #ACA39D",
"u3 	c #B0A8A3",
"v3 	c #B0A9A3",
"w3 	c #B0AAA5",
"x3 	c #AEA9A4",
"y3 	c #ACA6A2",
"z3 	c #ACA6A4",
"A3 	c #ACA5A4",
"B3 	c #A69E9D",
"C3 	c #A69F9E",
"D3 	c #A8A3A1",
"E3 	c #A5A6A2",
"F3 	c #A7A5A2",
"G3 	c #A9A4A2",
"H3 	c #A6A2A0",
"I3 	c #A29E9D",
"J3 	c #A49E9E",
"K3 	c #A9A2A2",
"L3 	c #AAA2A2",
"M3 	c #ACA4A4",
"N3 	c #ACA4A2",
"O3 	c #A09892",
"P3 	c #A0968F",
"Q3 	c #A2968F",
"R3 	c #A69C96",
"S3 	c #A19A94",
"T3 	c #A59C96",
"U3 	c #A89C97",
"V3 	c #A59B94",
"W3 	c #9D938E",
"X3 	c #9C8F8A",
"Y3 	c #998A7F",
"Z3 	c #998E83",
"`3 	c #988F84",
" 4 	c #A49996",
".4 	c #A5A4A6",
"+4 	c #A4A2A2",
"@4 	c #A1948E",
"#4 	c #A29087",
"$4 	c #A29189",
"%4 	c #A19389",
"&4 	c #A79893",
"*4 	c #AA9A94",
"=4 	c #A89996",
"-4 	c #A79996",
";4 	c #A99A97",
">4 	c #AB9E9B",
",4 	c #B0A49F",
"'4 	c #AAA39C",
")4 	c #A8A7A3",
"!4 	c #A8A7A6",
"~4 	c #ACA2A3",
"{4 	c #A99E9F",
"]4 	c #AA9F9E",
"^4 	c #A8A19B",
"/4 	c #A9A39E",
"(4 	c #A8A39E",
"_4 	c #A7A39F",
":4 	c #A9A2A4",
"<4 	c #ADA6A6",
"[4 	c #B0A9A9",
"}4 	c #B2ACAC",
"|4 	c #B0ABAB",
"14 	c #ABA39F",
"24 	c #AE9A8E",
"34 	c #AF9A8E",
"44 	c #A99A8F",
"54 	c #A5978C",
"64 	c #AB9E94",
"74 	c #AEA095",
"84 	c #AFA196",
"94 	c #B09F95",
"04 	c #AB9F98",
"a4 	c #A7A39E",
"b4 	c #A8A39C",
"c4 	c #ACA096",
"d4 	c #ADA49D",
"e4 	c #AEA7A4",
"f4 	c #AEA399",
"g4 	c #A99D93",
"h4 	c #A79D90",
"i4 	c #A89C8C",
"j4 	c #A99C95",
"k4 	c #AC9B93",
"l4 	c #A7978F",
"m4 	c #AC9E9A",
"n4 	c #AEACA5",
"o4 	c #ACA4A3",
"p4 	c #ADA6A5",
"q4 	c #ACA5A5",
"r4 	c #B3ACA9",
"s4 	c #B2A9A5",
"t4 	c #ADA49F",
"u4 	c #AEA49F",
"v4 	c #AEA4A1",
"w4 	c #ABADA7",
"x4 	c #A9A9A5",
"y4 	c #A5A19E",
"z4 	c #A8A09D",
"A4 	c #ADA1A1",
"B4 	c #ACA3A2",
"C4 	c #A9A19D",
"D4 	c #AAA09C",
"E4 	c #AEA49E",
"F4 	c #ABA19B",
"G4 	c #A9A09A",
"H4 	c #A89E98",
"I4 	c #A79F9A",
"J4 	c #9D9894",
"K4 	c #A19F99",
"L4 	c #A4A39D",
"M4 	c #AB9D96",
"N4 	c #AD9786",
"O4 	c #AC9782",
"P4 	c #AD9885",
"Q4 	c #AA9784",
"R4 	c #A89782",
"S4 	c #A69582",
"T4 	c #A89786",
"U4 	c #A89789",
"V4 	c #AE9C8E",
"W4 	c #AA9A8C",
"X4 	c #AEA194",
"Y4 	c #B2A498",
"Z4 	c #B1A396",
"`4 	c #AEA094",
" 5 	c #AEA093",
".5 	c #AEA193",
"+5 	c #AC9E94",
"@5 	c #B2A49B",
"#5 	c #B0A298",
"$5 	c #AEA49A",
"%5 	c #ACA095",
"&5 	c #B4A398",
"*5 	c #B3A59C",
"=5 	c #B1ADA6",
"-5 	c #ACA9A3",
";5 	c #ADAAA3",
">5 	c #B1A294",
",5 	c #B2A092",
"'5 	c #ABA099",
")5 	c #A8A19F",
"!5 	c #A9A3A4",
"~5 	c #ABA19C",
"{5 	c #A79D99",
"]5 	c #A79D95",
"^5 	c #A89F96",
"/5 	c #A99F9B",
"(5 	c #ADA19E",
"_5 	c #B1A59D",
":5 	c #B1A69D",
"<5 	c #B0A49E",
"[5 	c #B0A5A0",
"}5 	c #ACA39A",
"|5 	c #ABA193",
"15 	c #ABA095",
"25 	c #A79C98",
"35 	c #A49C99",
"45 	c #A49D99",
"55 	c #A59D97",
"65 	c #A0998D",
"75 	c #9E9A91",
"85 	c #9D9C97",
"95 	c #A29C96",
"05 	c #A69B97",
"a5 	c #A49490",
"b5 	c #A4928F",
"c5 	c #A4938D",
"d5 	c #A4948C",
"e5 	c #AB8966",
"f5 	c #A28566",
"g5 	c #9C856C",
"h5 	c #9C836B",
"i5 	c #9C8369",
"j5 	c #9F8368",
"k5 	c #A28369",
"l5 	c #A0846D",
"m5 	c #A88968",
"n5 	c #AA8B61",
"o5 	c #A68960",
"p5 	c #AA8760",
"q5 	c #B0865F",
"r5 	c #B7865E",
"s5 	c #B5835B",
"t5 	c #B58259",
"u5 	c #B28059",
"v5 	c #B48864",
"w5 	c #B28A68",
"x5 	c #B28B62",
"y5 	c #AF8856",
"z5 	c #B38B55",
"A5 	c #B58960",
"B5 	c #A88E76",
"C5 	c #A69E95",
"D5 	c #A9A098",
"E5 	c #9F8D85",
"F5 	c #9F8B81",
"G5 	c #A19486",
"H5 	c #A49989",
"I5 	c #A59888",
"J5 	c #A79285",
"K5 	c #8F766B",
"L5 	c #9D877A",
"M5 	c #A69A8A",
"N5 	c #9E8D82",
"O5 	c #A08A7F",
"P5 	c #A99B8D",
"Q5 	c #99897B",
"R5 	c #9D8474",
"S5 	c #927560",
"T5 	c #9A8272",
"U5 	c #AA9A90",
"V5 	c #AC9D92",
"W5 	c #AD9E93",
"X5 	c #AC9C8F",
"Y5 	c #9F8B7E",
"Z5 	c #AF9B8C",
"`5 	c #AA9E99",
" 6 	c #A9968C",
".6 	c #A8A5A1",
"+6 	c #A8A5A3",
"@6 	c #A69A97",
"#6 	c #A69995",
"$6 	c #A29590",
"%6 	c #A39188",
"&6 	c #A59186",
"*6 	c #A49084",
"=6 	c #9F8D7C",
"-6 	c #998571",
";6 	c #9C806F",
">6 	c #9B7E6E",
",6 	c #9B7E6D",
"'6 	c #927667",
")6 	c #86705E",
"!6 	c #887260",
"~6 	c #8C6F5E",
"{6 	c #947F74",
"]6 	c #A99B92",
"^6 	c #AA9C92",
"/6 	c #AD9C92",
"(6 	c #A38B7D",
"_6 	c #A2816C",
":6 	c #856349",
"<6 	c #8F6E52",
"[6 	c #816246",
"}6 	c #7B593F",
"|6 	c #856553",
"16 	c #A18D83",
"26 	c #A29F9F",
"36 	c #A7958A",
"46 	c #996A4F",
"56 	c #925A3D",
"66 	c #8D5539",
"76 	c #935E44",
"86 	c #956349",
"96 	c #8E5F45",
"06 	c #865A43",
"a6 	c #825843",
"b6 	c #8A614C",
"c6 	c #875D49",
"d6 	c #855B46",
"e6 	c #895F4C",
"f6 	c #926951",
"g6 	c #947864",
"h6 	c #9D8475",
"i6 	c #936F60",
"j6 	c #956F5E",
"k6 	c #95705E",
"l6 	c #95725C",
"m6 	c #9B7761",
"n6 	c #A1816C",
"o6 	c #988070",
"p6 	c #9C8575",
"q6 	c #A38D7F",
"r6 	c #A08A83",
"s6 	c #A49087",
"t6 	c #AC9C95",
"u6 	c #ACA7A6",
"v6 	c #ABA7A7",
"w6 	c #B59071",
"x6 	c #B58D6C",
"y6 	c #AC7D53",
"z6 	c #A97A50",
"A6 	c #AD7E55",
"B6 	c #AE7F57",
"C6 	c #A97B53",
"D6 	c #A97B54",
"E6 	c #B19079",
"F6 	c #BBA79A",
"G6 	c #B8B1AB",
"H6 	c #BAB6B1",
"I6 	c #BDB8B3",
"J6 	c #B4ABA1",
"K6 	c #B19177",
"L6 	c #BBA090",
"M6 	c #B7A493",
"N6 	c #B68D6B",
"O6 	c #AB7F5A",
"P6 	c #AB7F5B",
"Q6 	c #AC7F5B",
"R6 	c #AD805B",
"S6 	c #B0815B",
"T6 	c #B08059",
"U6 	c #B38465",
"V6 	c #B29782",
"W6 	c #A9A69D",
"X6 	c #A89F9A",
"Y6 	c #AE9382",
"Z6 	c #AF8D77",
"`6 	c #AD8D7B",
" 7 	c #A98979",
".7 	c #AB8C7C",
"+7 	c #AC907F",
"@7 	c #AD927F",
"#7 	c #B29681",
"$7 	c #B2927B",
"%7 	c #AC8B73",
"&7 	c #AA8970",
"*7 	c #AA9082",
"=7 	c #AC9D96",
"-7 	c #A9A29C",
";7 	c #AE9D8F",
">7 	c #B0947E",
",7 	c #AE907C",
"'7 	c #AF8E7D",
")7 	c #AB8771",
"!7 	c #A17B60",
"~7 	c #9E765A",
"{7 	c #9C745A",
"]7 	c #A7785F",
"^7 	c #A57B5F",
"/7 	c #A78264",
"(7 	c #A7836D",
"_7 	c #ABA29D",
":7 	c #AD9F9D",
"<7 	c #B89478",
"[7 	c #BC8A53",
"}7 	c #BA8B4F",
"|7 	c #BC8B52",
"17 	c #BD8B53",
"27 	c #BE8C54",
"37 	c #BD8B54",
"47 	c #BC8854",
"57 	c #BC8953",
"67 	c #B88956",
"77 	c #B98D5C",
"87 	c #C09462",
"97 	c #BF9461",
"07 	c #BE9360",
"a7 	c #BF9364",
"b7 	c #BA9063",
"c7 	c #B98F64",
"d7 	c #BC8E62",
"e7 	c #BF8D5C",
"f7 	c #BF8B5D",
"g7 	c #BB8B61",
"h7 	c #B78D65",
"i7 	c #B99168",
"j7 	c #BA9168",
"k7 	c #B88E64",
"l7 	c #BB8C62",
"m7 	c #BF8F65",
"n7 	c #C09670",
"o7 	c #B8A28E",
"p7 	c #ABACA8",
"q7 	c #ADA29B",
"r7 	c #BFAB9B",
"s7 	c #C3AD99",
"t7 	c #BCA997",
"u7 	c #BAA38F",
"v7 	c #B39A85",
"w7 	c #B2957B",
"x7 	c #B09278",
"y7 	c #AD9073",
"z7 	c #B29477",
"A7 	c #B4967A",
"B7 	c #B3967B",
"C7 	c #B8987E",
"D7 	c #B7977D",
"E7 	c #BA9B7C",
"F7 	c #BC9C7D",
"G7 	c #BB9A79",
"H7 	c #BB9A73",
"I7 	c #B99677",
"J7 	c #BC9981",
"K7 	c #B79B86",
"L7 	c #AF917A",
"M7 	c #AD8E76",
"N7 	c #AD9078",
"O7 	c #B09179",
"P7 	c #B4957C",
"Q7 	c #B09881",
"R7 	c #A7998B",
"S7 	c #A1A09C",
"T7 	c #A3A1A0",
"U7 	c #A99C98",
"V7 	c #AB9589",
"W7 	c #9E6A52",
"X7 	c #985B40",
"Y7 	c #965A40",
"Z7 	c #9C674B",
"`7 	c #AE7C49",
" 8 	c #A27F5B",
".8 	c #997F6A",
"+8 	c #987D6B",
"@8 	c #9A7C60",
"#8 	c #A17856",
"$8 	c #A97E58",
"%8 	c #A37F5A",
"&8 	c #9C7A62",
"*8 	c #A78066",
"=8 	c #AA825C",
"-8 	c #A98259",
";8 	c #A9825A",
">8 	c #AF804F",
",8 	c #B57E4C",
"'8 	c #B37845",
")8 	c #B87A44",
"!8 	c #BB8049",
"~8 	c #B8824B",
"{8 	c #B7864F",
"]8 	c #B8834E",
"^8 	c #B48455",
"/8 	c #B2845A",
"(8 	c #AF8660",
"_8 	c #A69385",
":8 	c #A8A4A0",
"<8 	c #ACA7A3",
"[8 	c #B2A99F",
"}8 	c #AFA499",
"|8 	c #AEA398",
"18 	c #ADA39A",
"28 	c #B1A89F",
"38 	c #B0A59C",
"48 	c #966E5B",
"58 	c #8B634A",
"68 	c #9F8C7F",
"78 	c #A89481",
"88 	c #A28E7E",
"98 	c #AC8A72",
"08 	c #926442",
"a8 	c #8E613C",
"b8 	c #895F42",
"c8 	c #967361",
"d8 	c #AA8F7E",
"e8 	c #AC988A",
"f8 	c #AC9C92",
"g8 	c #A9978B",
"h8 	c #936852",
"i8 	c #A1775B",
"j8 	c #B29D8C",
"k8 	c #B09E90",
"l8 	c #AC998A",
"m8 	c #A78E7C",
"n8 	c #AB9E98",
"o8 	c #AEA197",
"p8 	c #A38C80",
"q8 	c #997668",
"r8 	c #94695A",
"s8 	c #926854",
"t8 	c #90674B",
"u8 	c #976C4B",
"v8 	c #9C734F",
"w8 	c #9F7753",
"x8 	c #9B7557",
"y8 	c #956D53",
"z8 	c #926F57",
"A8 	c #947055",
"B8 	c #997B64",
"C8 	c #BBB0A7",
"D8 	c #BEB2AA",
"E8 	c #C2B7AF",
"F8 	c #BFB5AD",
"G8 	c #C6BBB3",
"H8 	c #BEB0A7",
"I8 	c #C1B2A7",
"J8 	c #C5B8AF",
"K8 	c #B1A59A",
"L8 	c #B49E87",
"M8 	c #A7907A",
"N8 	c #8D6B4C",
"O8 	c #8D6A4B",
"P8 	c #9D826C",
"Q8 	c #A39A94",
"R8 	c #93715C",
"S8 	c #905937",
"T8 	c #9D5B36",
"U8 	c #A3603A",
"V8 	c #9D613D",
"W8 	c #996441",
"X8 	c #946140",
"Y8 	c #905A3A",
"Z8 	c #8B5536",
"`8 	c #8F5A3B",
" 9 	c #8F5736",
".9 	c #8A4F2B",
"+9 	c #8C522E",
"@9 	c #8E5129",
"#9 	c #9F6338",
"$9 	c #905E3A",
"%9 	c #8C5F41",
"&9 	c #8E5E40",
"*9 	c #946345",
"=9 	c #8E5C3D",
"-9 	c #925F3E",
";9 	c #976342",
">9 	c #996747",
",9 	c #986649",
"'9 	c #9E6E4B",
")9 	c #986F53",
"!9 	c #9D7C62",
"~9 	c #A28575",
"{9 	c #A6A19C",
"]9 	c #ABA9A4",
"^9 	c #B29983",
"/9 	c #B38E6E",
"(9 	c #B2825B",
"_9 	c #AD7544",
":9 	c #AF743E",
"<9 	c #AD723B",
"[9 	c #AE723B",
"}9 	c #AE713B",
"|9 	c #AC6F38",
"19 	c #AC6D39",
"29 	c #AA744E",
"39 	c #BDA793",
"49 	c #BAB6A9",
"59 	c #BDB9B3",
"69 	c #C4BCB6",
"79 	c #BAA18F",
"89 	c #AB7F58",
"99 	c #AF8865",
"09 	c #B69473",
"a9 	c #B17848",
"b9 	c #AF723F",
"c9 	c #B47744",
"d9 	c #B57945",
"e9 	c #B67A47",
"f9 	c #B77B47",
"g9 	c #B57C49",
"h9 	c #B47C4A",
"i9 	c #B47B48",
"j9 	c #B87C4A",
"k9 	c #B38562",
"l9 	c #AA998D",
"m9 	c #AE8B77",
"n9 	c #B9895F",
"o9 	c #B78B5D",
"p9 	c #B48059",
"q9 	c #B38058",
"r9 	c #B07F54",
"s9 	c #B28052",
"t9 	c #B07A4A",
"u9 	c #AF7C4C",
"v9 	c #B17F50",
"w9 	c #B48253",
"x9 	c #B78258",
"y9 	c #B2805A",
"z9 	c #B48A63",
"A9 	c #B4865F",
"B9 	c #B6855F",
"C9 	c #B6845C",
"D9 	c #B37F57",
"E9 	c #B07B54",
"F9 	c #AC7750",
"G9 	c #AF794D",
"H9 	c #AF7443",
"I9 	c #B57C4B",
"J9 	c #B57D4A",
"K9 	c #B67943",
"L9 	c #B38158",
"M9 	c #AD9F98",
"N9 	c #BB8C67",
"O9 	c #BB8142",
"P9 	c #BE8541",
"Q9 	c #BC8340",
"R9 	c #BE8543",
"S9 	c #BD8343",
"T9 	c #BE8540",
"U9 	c #BD823E",
"V9 	c #BB7F3C",
"W9 	c #B97E37",
"X9 	c #BB8139",
"Y9 	c #C08742",
"Z9 	c #C48A4A",
"`9 	c #C48B4C",
" 0 	c #C28B4B",
".0 	c #C28A4B",
"+0 	c #C28B4E",
"@0 	c #BF894F",
"#0 	c #C0894B",
"$0 	c #BE8644",
"%0 	c #BC8440",
"&0 	c #C18947",
"*0 	c #C18949",
"=0 	c #C28C4F",
"-0 	c #C38C4E",
";0 	c #C48D4E",
">0 	c #C48B4D",
",0 	c #C38C4F",
"'0 	c #BB9775",
")0 	c #AEA7A1",
"!0 	c #ACA9A7",
"~0 	c #B2A497",
"{0 	c #C2B3A2",
"]0 	c #CDC5C1",
"^0 	c #C7AF9A",
"/0 	c #BF966C",
"(0 	c #BC8D59",
"_0 	c #B98A5A",
":0 	c #B78758",
"<0 	c #B58655",
"[0 	c #B78956",
"}0 	c #BD8E5D",
"|0 	c #C29666",
"10 	c #BE9871",
"20 	c #C29A74",
"30 	c #BC926C",
"40 	c #BB9068",
"50 	c #BF9166",
"60 	c #C19062",
"70 	c #BF9058",
"80 	c #BF8956",
"90 	c #B88A65",
"00 	c #C19C85",
"a0 	c #BD9474",
"b0 	c #C4A382",
"c0 	c #C1AD94",
"d0 	c #BEA68B",
"e0 	c #AD8F70",
"f0 	c #B89977",
"g0 	c #9E7154",
"h0 	c #9B5936",
"i0 	c #A76238",
"j0 	c #AA6440",
"k0 	c #A86446",
"l0 	c #9E7E62",
"m0 	c #987F6C",
"n0 	c #9C7F68",
"o0 	c #9D7D62",
"p0 	c #9C7D60",
"q0 	c #A18066",
"r0 	c #A38263",
"s0 	c #A47E64",
"t0 	c #A97D64",
"u0 	c #AF805C",
"v0 	c #AE7E57",
"w0 	c #A87E5A",
"x0 	c #AD8050",
"y0 	c #AF7A42",
"z0 	c #AF743C",
"A0 	c #B3763C",
"B0 	c #B67C43",
"C0 	c #B78047",
"D0 	c #B7854B",
"E0 	c #BA854C",
"F0 	c #B88350",
"G0 	c #AC8460",
"H0 	c #AB8361",
"I0 	c #A08C7C",
"J0 	c #ABA6A1",
"K0 	c #B0A79D",
"L0 	c #AEA59A",
"M0 	c #ADA499",
"N0 	c #ABA098",
"O0 	c #B0A69E",
"P0 	c #B1A69E",
"Q0 	c #A48E83",
"R0 	c #895C41",
"S0 	c #855941",
"T0 	c #A07B6C",
"U0 	c #9B7D6E",
"V0 	c #A9907F",
"W0 	c #A1897B",
"X0 	c #996752",
"Y0 	c #98613D",
"Z0 	c #956641",
"`0 	c #916343",
" a 	c #91644C",
".a 	c #94735E",
"+a 	c #AB9281",
"@a 	c #AB978B",
"#a 	c #A68675",
"$a 	c #966649",
"%a 	c #A5856E",
"&a 	c #AE967E",
"*a 	c #A68B74",
"=a 	c #A78873",
"-a 	c #A3968F",
";a 	c #A69E99",
">a 	c #A48968",
",a 	c #9D754B",
"'a 	c #9A6B44",
")a 	c #966446",
"!a 	c #966748",
"~a 	c #976740",
"{a 	c #96673B",
"]a 	c #99693B",
"^a 	c #966438",
"/a 	c #925F38",
"(a 	c #8D5A34",
"_a 	c #8C5833",
":a 	c #8C5B37",
"<a 	c #8A5C38",
"[a 	c #91745E",
"}a 	c #BCAFA5",
"|a 	c #B5ADA7",
"1a 	c #BEB6B0",
"2a 	c #C4BCB5",
"3a 	c #BFB6B0",
"4a 	c #BFB7B0",
"5a 	c #A69386",
"6a 	c #A79383",
"7a 	c #C5BCB4",
"8a 	c #C1BCB5",
"9a 	c #C7BAAA",
"0a 	c #997F66",
"aa 	c #9C7857",
"ba 	c #9E7B5B",
"ca 	c #9E8169",
"da 	c #A59C99",
"ea 	c #A79995",
"fa 	c #88705E",
"ga 	c #8C6242",
"ha 	c #9F633A",
"ia 	c #A1623A",
"ja 	c #9A623E",
"ka 	c #9E6645",
"la 	c #935836",
"ma 	c #945631",
"na 	c #8D5331",
"oa 	c #844B28",
"pa 	c #8F5632",
"qa 	c #8B522C",
"ra 	c #8F5731",
"sa 	c #8A4E28",
"ta 	c #955530",
"ua 	c #996641",
"va 	c #936743",
"wa 	c #946644",
"xa 	c #916040",
"ya 	c #966245",
"za 	c #996548",
"Aa 	c #9D694C",
"Ba 	c #9B6647",
"Ca 	c #9D6843",
"Da 	c #A16E46",
"Ea 	c #986749",
"Fa 	c #976C53",
"Ga 	c #9F7E6C",
"Ha 	c #AFA6A3",
"Ia 	c #A57145",
"Ja 	c #A96F3D",
"Ka 	c #B1713C",
"La 	c #B1753E",
"Ma 	c #AD713A",
"Na 	c #B0723C",
"Oa 	c #AF713B",
"Pa 	c #AD6E38",
"Qa 	c #BEAA97",
"Ra 	c #BCBAB4",
"Sa 	c #C4BBB3",
"Ta 	c #C4B5AB",
"Ua 	c #BA997F",
"Va 	c #AF805D",
"Wa 	c #B1825F",
"Xa 	c #B98B66",
"Ya 	c #AB6F3D",
"Za 	c #A96B37",
"`a 	c #AF713D",
" b 	c #B27742",
".b 	c #B67A46",
"+b 	c #B87C47",
"@b 	c #B77B45",
"#b 	c #B67A44",
"$b 	c #B97B46",
"%b 	c #BA8256",
"&b 	c #AE998A",
"*b 	c #B7875B",
"=b 	c #B68658",
"-b 	c #B78556",
";b 	c #B58152",
">b 	c #B68354",
",b 	c #B5885D",
"'b 	c #B3875C",
")b 	c #B68558",
"!b 	c #B88659",
"~b 	c #B9875A",
"{b 	c #BC835A",
"]b 	c #BC8458",
"^b 	c #BA8856",
"/b 	c #B98857",
"(b 	c #BB895E",
"_b 	c #BC8962",
":b 	c #BB8861",
"<b 	c #BA885E",
"[b 	c #B6845A",
"}b 	c #B6825A",
"|b 	c #B47F58",
"1b 	c #B7825B",
"2b 	c #BA855E",
"3b 	c #B67B4F",
"4b 	c #B87F4A",
"5b 	c #B8773E",
"6b 	c #A77142",
"7b 	c #A69786",
"8b 	c #AC9E97",
"9b 	c #B78661",
"0b 	c #BA7F44",
"ab 	c #BC8144",
"bb 	c #BD8245",
"cb 	c #BF8546",
"db 	c #BC8242",
"eb 	c #BE833F",
"fb 	c #BE8240",
"gb 	c #BD813B",
"hb 	c #C1873E",
"ib 	c #C38A44",
"jb 	c #C48A49",
"kb 	c #C4894A",
"lb 	c #C38649",
"mb 	c #C38548",
"nb 	c #C2864B",
"ob 	c #C2864E",
"pb 	c #BE8346",
"qb 	c #BA803F",
"rb 	c #BC7F3D",
"sb 	c #C08442",
"tb 	c #C28745",
"ub 	c #C68B4C",
"vb 	c #C68C4B",
"wb 	c #C68A49",
"xb 	c #C58847",
"yb 	c #C68B4A",
"zb 	c #BD956C",
"Ab 	c #A69E96",
"Bb 	c #BEAE9F",
"Cb 	c #D4CABA",
"Db 	c #D0CBC8",
"Eb 	c #D6CABA",
"Fb 	c #C19871",
"Gb 	c #BA824D",
"Hb 	c #C1844C",
"Ib 	c #BE8147",
"Jb 	c #C08348",
"Kb 	c #C18548",
"Lb 	c #C5884A",
"Mb 	c #C58D53",
"Nb 	c #CAA885",
"Ob 	c #C9B39B",
"Pb 	c #C9AE93",
"Qb 	c #C39A77",
"Rb 	c #C29169",
"Sb 	c #C08D62",
"Tb 	c #BA946C",
"Ub 	c #B78655",
"Vb 	c #C2A284",
"Wb 	c #D3C0B7",
"Xb 	c #CBB2A0",
"Yb 	c #C6B6A1",
"Zb 	c #CABBA5",
"`b 	c #CEBDA8",
" c 	c #C1B099",
".c 	c #B19875",
"+c 	c #B89570",
"@c 	c #AB998C",
"#c 	c #9E8779",
"$c 	c #9B5935",
"%c 	c #A66237",
"&c 	c #A9643F",
"*c 	c #A66343",
"=c 	c #B07C46",
"-c 	c #A07A5A",
";c 	c #9F7C63",
">c 	c #A77D60",
",c 	c #AA7F56",
"'c 	c #A5805D",
")c 	c #A27E61",
"!c 	c #A97E59",
"~c 	c #AE7D53",
"{c 	c #B07A4F",
"]c 	c #AE7544",
"^c 	c #AA744C",
"/c 	c #A57857",
"(c 	c #A87B51",
"_c 	c #AD7846",
":c 	c #AD7340",
"<c 	c #B0763F",
"[c 	c #B47D45",
"}c 	c #B48046",
"|c 	c #B98146",
"1c 	c #B4814D",
"2c 	c #AA815D",
"3c 	c #A28065",
"4c 	c #A58064",
"5c 	c #A08C7A",
"6c 	c #A29E9B",
"7c 	c #AAA198",
"8c 	c #ACA398",
"9c 	c #ACA29A",
"0c 	c #AFA59C",
"ac 	c #AF9E98",
"bc 	c #A07D6B",
"cc 	c #A48678",
"dc 	c #997E69",
"ec 	c #A59382",
"fc 	c #AC9888",
"gc 	c #A07960",
"hc 	c #98643E",
"ic 	c #91633F",
"jc 	c #955E3D",
"kc 	c #936241",
"lc 	c #9B7053",
"mc 	c #A37D63",
"nc 	c #9B6A50",
"oc 	c #9B6A4D",
"pc 	c #A37A5C",
"qc 	c #9F7759",
"rc 	c #9C7558",
"sc 	c #A17F68",
"tc 	c #A19994",
"uc 	c #A88764",
"vc 	c #A37A51",
"wc 	c #936845",
"xc 	c #9C6E47",
"yc 	c #986B3E",
"zc 	c #93663B",
"Ac 	c #93663C",
"Bc 	c #91643B",
"Cc 	c #93623B",
"Dc 	c #8E5B36",
"Ec 	c #8F5D37",
"Fc 	c #8E5F3C",
"Gc 	c #8D5C36",
"Hc 	c #8D6545",
"Ic 	c #AC9B8F",
"Jc 	c #C2BAB4",
"Kc 	c #C0B9B4",
"Lc 	c #C2BBB4",
"Mc 	c #C0B8B1",
"Nc 	c #9B826F",
"Oc 	c #9E826B",
"Pc 	c #C0B6AE",
"Qc 	c #C2BFBA",
"Rc 	c #C0B8AE",
"Sc 	c #8B6D50",
"Tc 	c #A47E5C",
"Uc 	c #A38061",
"Vc 	c #9D8068",
"Wc 	c #A09994",
"Xc 	c #A59C97",
"Yc 	c #867065",
"Zc 	c #8A634B",
"`c 	c #966139",
" d 	c #996238",
".d 	c #92603D",
"+d 	c #916346",
"@d 	c #8B5E44",
"#d 	c #936244",
"$d 	c #925E3F",
"%d 	c #895435",
"&d 	c #8F5B39",
"*d 	c #905D37",
"=d 	c #915E37",
"-d 	c #97623C",
";d 	c #9C623F",
">d 	c #9D6842",
",d 	c #94633D",
"'d 	c #976842",
")d 	c #91623C",
"!d 	c #966541",
"~d 	c #9A6645",
"{d 	c #9D6948",
"]d 	c #9C6848",
"^d 	c #9C6648",
"/d 	c #A06B46",
"(d 	c #96603A",
"_d 	c #976343",
":d 	c #AA9C97",
"<d 	c #AFA29F",
"[d 	c #A98069",
"}d 	c #A96F41",
"|d 	c #A86F3E",
"1d 	c #B07545",
"2d 	c #B1763F",
"3d 	c #AF733C",
"4d 	c #B3753F",
"5d 	c #B57741",
"6d 	c #B57740",
"7d 	c #B37B45",
"8d 	c #BB9879",
"9d 	c #BFA18B",
"0d 	c #C5AC9B",
"ad 	c #BC9F8A",
"bd 	c #B58668",
"cd 	c #A9724E",
"dd 	c #B0734A",
"ed 	c #AB6C3B",
"fd 	c #A76835",
"gd 	c #B47945",
"hd 	c #B67A45",
"id 	c #B87A43",
"jd 	c #B57640",
"kd 	c #BA7D4A",
"ld 	c #B98A63",
"md 	c #AD9A8C",
"nd 	c #AA8B73",
"od 	c #B48458",
"pd 	c #B47F54",
"qd 	c #B58252",
"rd 	c #B37F4D",
"sd 	c #B68452",
"td 	c #B6885D",
"ud 	c #B3865B",
"vd 	c #B68556",
"wd 	c #B78554",
"xd 	c #B58352",
"yd 	c #B58351",
"zd 	c #B37B4C",
"Ad 	c #B67E50",
"Bd 	c #B88355",
"Cd 	c #B68657",
"Dd 	c #B6865B",
"Ed 	c #BB8A63",
"Fd 	c #BA8861",
"Gd 	c #B9875D",
"Hd 	c #B68459",
"Id 	c #B48058",
"Jd 	c #B37E56",
"Kd 	c #B7835B",
"Ld 	c #BA845D",
"Md 	c #B67C4D",
"Nd 	c #B37C45",
"Od 	c #B17E4B",
"Pd 	c #B57D4E",
"Qd 	c #AF825D",
"Rd 	c #A99E92",
"Sd 	c #AFA19A",
"Td 	c #B58560",
"Ud 	c #B97E44",
"Vd 	c #BC8248",
"Wd 	c #C1864C",
"Xd 	c #C0864A",
"Yd 	c #BD8242",
"Zd 	c #BE843F",
"`d 	c #C18642",
" e 	c #C48846",
".e 	c #C48943",
"+e 	c #C38940",
"@e 	c #C18743",
"#e 	c #C18647",
"$e 	c #C28447",
"%e 	c #BF7E42",
"&e 	c #BE7D41",
"*e 	c #BD7D43",
"=e 	c #BC7D45",
"-e 	c #BE8044",
";e 	c #BB7C3D",
">e 	c #B97A39",
",e 	c #BC7D3B",
"'e 	c #C28341",
")e 	c #C38643",
"!e 	c #C58845",
"~e 	c #C68845",
"{e 	c #C58642",
"]e 	c #C48440",
"^e 	c #C68844",
"/e 	c #BE9164",
"(e 	c #A59990",
"_e 	c #BCAB9B",
":e 	c #CEC8BC",
"<e 	c #D2C7BE",
"[e 	c #C8BBA6",
"}e 	c #C19E7F",
"|e 	c #C89D7A",
"1e 	c #C38850",
"2e 	c #C4894E",
"3e 	c #C48A4D",
"4e 	c #C3894B",
"5e 	c #C68B4E",
"6e 	c #C08A52",
"7e 	c #CCAF93",
"8e 	c #D3BEA8",
"9e 	c #C19B7A",
"0e 	c #C28B61",
"ae 	c #B98962",
"be 	c #C5A285",
"ce 	c #D3B9A4",
"de 	c #BB9268",
"ee 	c #C4B199",
"fe 	c #D5C7C2",
"ge 	c #D0BDAD",
"he 	c #CFC1B1",
"ie 	c #CDBDAA",
"je 	c #CDBFAE",
"ke 	c #C9C0B3",
"le 	c #C3B29F",
"me 	c #BD9C7A",
"ne 	c #B39A91",
"oe 	c #966241",
"pe 	c #A45F36",
"qe 	c #A5613C",
"re 	c #9D5E39",
"se 	c #AF7B48",
"te 	c #A77853",
"ue 	c #A47956",
"ve 	c #AA7F60",
"we 	c #A7815C",
"xe 	c #A6815E",
"ye 	c #AC8158",
"ze 	c #B08056",
"Ae 	c #AF784A",
"Be 	c #A97346",
"Ce 	c #A8754F",
"De 	c #A57A5A",
"Ee 	c #AB784E",
"Fe 	c #AB784A",
"Ge 	c #AC7845",
"He 	c #B17740",
"Ie 	c #B37941",
"Je 	c #B57B43",
"Ke 	c #B67F43",
"Le 	c #B48049",
"Me 	c #9E7E65",
"Ne 	c #9E7D64",
"Oe 	c #A38C7F",
"Pe 	c #A79E9C",
"Qe 	c #9F9B96",
"Re 	c #A9A19A",
"Se 	c #ADA199",
"Te 	c #AEA299",
"Ue 	c #ADA299",
"Ve 	c #AD9F96",
"We 	c #AFA19B",
"Xe 	c #ADA294",
"Ye 	c #A68876",
"Ze 	c #A38871",
"`e 	c #A89179",
" f 	c #94633F",
".f 	c #9E6438",
"+f 	c #9F6947",
"@f 	c #9D6847",
"#f 	c #9E6849",
"$f 	c #9F6949",
"%f 	c #A26D4E",
"&f 	c #A77354",
"*f 	c #A36E4D",
"=f 	c #A07353",
"-f 	c #A5714C",
";f 	c #A2704E",
">f 	c #9E6F50",
",f 	c #A5785B",
"'f 	c #A49388",
")f 	c #A09993",
"!f 	c #9C7F66",
"~f 	c #926E4D",
"{f 	c #956B49",
"]f 	c #A16F46",
"^f 	c #A07046",
"/f 	c #966B44",
"(f 	c #916542",
"_f 	c #906241",
":f 	c #916342",
"<f 	c #8E6241",
"[f 	c #8C6040",
"}f 	c #8F6343",
"|f 	c #926847",
"1f 	c #956A49",
"2f 	c #966D4D",
"3f 	c #9D8570",
"4f 	c #BEB6AE",
"5f 	c #C1BEB8",
"6f 	c #C3BEB9",
"7f 	c #BEBBB3",
"8f 	c #A9947E",
"9f 	c #B09C87",
"0f 	c #BFB8AE",
"af 	c #C0BBB5",
"bf 	c #C7BCB3",
"cf 	c #B1A397",
"df 	c #9D8774",
"ef 	c #9A7B61",
"ff 	c #987960",
"gf 	c #9D9085",
"hf 	c #83685A",
"if 	c #846555",
"jf 	c #88654D",
"kf 	c #8D6549",
"lf 	c #8A674D",
"mf 	c #826653",
"nf 	c #816655",
"of 	c #866853",
"pf 	c #8A6349",
"qf 	c #926648",
"rf 	c #9A6844",
"sf 	c #9C6C48",
"tf 	c #986842",
"uf 	c #9D6A44",
"vf 	c #A16E49",
"wf 	c #9F6C46",
"xf 	c #9E6C45",
"yf 	c #A26C42",
"zf 	c #A06940",
"Af 	c #9F6B43",
"Bf 	c #9F6A47",
"Cf 	c #9E6942",
"Df 	c #9F6A3D",
"Ef 	c #9F663D",
"Ff 	c #9D6946",
"Gf 	c #9F7A61",
"Hf 	c #ABA49B",
"If 	c #ABA59E",
"Jf 	c #A97E67",
"Kf 	c #A96A3F",
"Lf 	c #AE6E42",
"Mf 	c #B17245",
"Nf 	c #B17442",
"Of 	c #B0703E",
"Pf 	c #B16F3D",
"Qf 	c #B2733F",
"Rf 	c #B57642",
"Sf 	c #B57742",
"Tf 	c #B57943",
"Uf 	c #B47A49",
"Vf 	c #B3784A",
"Wf 	c #B27546",
"Xf 	c #B37D59",
"Yf 	c #B18264",
"Zf 	c #AD714B",
"`f 	c #B5754A",
" g 	c #B37245",
".g 	c #AD6F3E",
"+g 	c #AE6F3E",
"@g 	c #B9855E",
"#g 	c #BD9069",
"$g 	c #B57F4C",
"%g 	c #B47743",
"&g 	c #B57744",
"*g 	c #AE723F",
"=g 	c #B47B50",
"-g 	c #BE926F",
";g 	c #AA927A",
">g 	c #B48862",
",g 	c #B7865F",
"'g 	c #B6865C",
")g 	c #B78251",
"!g 	c #B8855C",
"~g 	c #B6845B",
"{g 	c #B48354",
"]g 	c #B88554",
"^g 	c #B5814F",
"/g 	c #B78250",
"(g 	c #B8804E",
"_g 	c #B98152",
":g 	c #B88458",
"<g 	c #B3835A",
"[g 	c #B3835D",
"}g 	c #BA8A65",
"|g 	c #B58359",
"1g 	c #B48259",
"2g 	c #B58059",
"3g 	c #B38054",
"4g 	c #B4855A",
"5g 	c #BA865B",
"6g 	c #B67F51",
"7g 	c #B78459",
"8g 	c #B98158",
"9g 	c #B28563",
"0g 	c #AA9B8D",
"ag 	c #B2895E",
"bg 	c #B27C43",
"cg 	c #BC834A",
"dg 	c #BF864D",
"eg 	c #C1844A",
"fg 	c #C17F43",
"gg 	c #C1803E",
"hg 	c #C38542",
"ig 	c #C18541",
"jg 	c #C58945",
"kg 	c #C68946",
"lg 	c #C68848",
"mg 	c #C3854A",
"ng 	c #C28045",
"og 	c #BF793C",
"pg 	c #BE773F",
"qg 	c #C07B42",
"rg 	c #BF7F40",
"sg 	c #C18141",
"tg 	c #BE7F3F",
"ug 	c #BD7E3F",
"vg 	c #BE7F3B",
"wg 	c #C0813B",
"xg 	c #C0823C",
"yg 	c #C28644",
"zg 	c #C38645",
"Ag 	c #BF8241",
"Bg 	c #C08444",
"Cg 	c #BD9164",
"Dg 	c #A4978B",
"Eg 	c #AC9D94",
"Fg 	c #C5AC9F",
"Gg 	c #D5C5BB",
"Hg 	c #C5A890",
"Ig 	c #C1A68E",
"Jg 	c #D0BDB4",
"Kg 	c #CCB49E",
"Lg 	c #BB8550",
"Mg 	c #C2854A",
"Ng 	c #C1874B",
"Og 	c #C48B4F",
"Pg 	c #C78E57",
"Qg 	c #C59269",
"Rg 	c #D7BFAF",
"Sg 	c #CDA488",
"Tg 	c #BD7847",
"Ug 	c #C07748",
"Vg 	c #C08F6E",
"Wg 	c #D2C1B2",
"Xg 	c #CEBAAA",
"Yg 	c #C09E80",
"Zg 	c #CCBAAB",
"`g 	c #D0BFB0",
" h 	c #CBB19A",
".h 	c #C9B7A5",
"+h 	c #CCBDAD",
"@h 	c #CABDAF",
"#h 	c #CCC0B4",
"$h 	c #D4C1B6",
"%h 	c #C69F83",
"&h 	c #B29A8F",
"*h 	c #A3887A",
"=h 	c #A06443",
"-h 	c #A25E3C",
";h 	c #A86340",
">h 	c #A6613F",
",h 	c #9F603D",
"'h 	c #AD784E",
")h 	c #AA784F",
"!h 	c #A9764B",
"~h 	c #AB7D5C",
"{h 	c #A17F65",
"]h 	c #9E7E64",
"^h 	c #A27E5E",
"/h 	c #A37D5F",
"(h 	c #A47C5E",
"_h 	c #A67957",
":h 	c #A47858",
"<h 	c #9F7A5F",
"[h 	c #A3795A",
"}h 	c #A9784F",
"|h 	c #AA794C",
"1h 	c #AC7946",
"2h 	c #B27740",
"3h 	c #B77C43",
"4h 	c #B88045",
"5h 	c #B17F4B",
"6h 	c #A07D61",
"7h 	c #A38D7E",
"8h 	c #A7A09B",
"9h 	c #A59C95",
"0h 	c #AB9E95",
"ah 	c #AB9889",
"bh 	c #AC9686",
"ch 	c #ADA098",
"dh 	c #A28C7B",
"eh 	c #9A7966",
"fh 	c #AD9283",
"gh 	c #9D765A",
"hh 	c #9C673F",
"ih 	c #9A663B",
"jh 	c #A8734E",
"kh 	c #9D6744",
"lh 	c #9A6441",
"mh 	c #9B6543",
"nh 	c #A16B49",
"oh 	c #9C6744",
"ph 	c #A47457",
"qh 	c #B68F77",
"rh 	c #A87450",
"sh 	c #A56F4A",
"th 	c #A46E49",
"uh 	c #A96F4A",
"vh 	c #A89182",
"wh 	c #A39C96",
"xh 	c #9F826D",
"yh 	c #A48463",
"zh 	c #A57B56",
"Ah 	c #A97850",
"Bh 	c #A47751",
"Ch 	c #936C4C",
"Dh 	c #916A4D",
"Eh 	c #8A6145",
"Fh 	c #8C6348",
"Gh 	c #866248",
"Hh 	c #83634A",
"Ih 	c #94755F",
"Jh 	c #B69A84",
"Kh 	c #9D7B60",
"Lh 	c #A68B73",
"Mh 	c #C1BAB0",
"Nh 	c #BAAEA3",
"Oh 	c #B5AA99",
"Ph 	c #907764",
"Qh 	c #937B62",
"Rh 	c #A28C76",
"Sh 	c #BEB3A7",
"Th 	c #BBB2AA",
"Uh 	c #CABEB5",
"Vh 	c #B8A99C",
"Wh 	c #AA8F7A",
"Xh 	c #AE927E",
"Yh 	c #A4958C",
"Zh 	c #8D7C71",
"`h 	c #816858",
" i 	c #7E6A5D",
".i 	c #836957",
"+i 	c #886F5B",
"@i 	c #816C5B",
"#i 	c #816C5A",
"$i 	c #816D5D",
"%i 	c #806A5A",
"&i 	c #856651",
"*i 	c #966B4D",
"=i 	c #A4724B",
"-i 	c #9E643E",
";i 	c #9F6A42",
">i 	c #A47249",
",i 	c #9E6B46",
"'i 	c #9C6943",
")i 	c #9D6B43",
"!i 	c #A36E42",
"~i 	c #A36C41",
"{i 	c #A67248",
"]i 	c #A9744C",
"^i 	c #A57048",
"/i 	c #A36F48",
"(i 	c #9E6D4A",
"_i 	c #9F6F4D",
":i 	c #9D775D",
"<i 	c #A9A399",
"[i 	c #ABA79E",
"}i 	c #A1653E",
"|i 	c #A56840",
"1i 	c #A96E44",
"2i 	c #AC7245",
"3i 	c #AD6E43",
"4i 	c #AD6C41",
"5i 	c #AE6F40",
"6i 	c #B17243",
"7i 	c #B27244",
"8i 	c #B27444",
"9i 	c #B37445",
"0i 	c #B17446",
"ai 	c #B37D57",
"bi 	c #B4805D",
"ci 	c #AA6B3F",
"di 	c #B06C3E",
"ei 	c #B3754A",
"fi 	c #AC734C",
"gi 	c #AA723F",
"hi 	c #AF7037",
"ii 	c #AA7240",
"ji 	c #AF7C4D",
"ki 	c #B37D49",
"li 	c #B37A3F",
"mi 	c #B57845",
"ni 	c #B07442",
"oi 	c #AE7241",
"pi 	c #B47B51",
"qi 	c #B88B67",
"ri 	c #AB998A",
"si 	c #A99785",
"ti 	c #B08662",
"ui 	c #B48761",
"vi 	c #B4895E",
"wi 	c #B68760",
"xi 	c #B68356",
"yi 	c #B9865D",
"zi 	c #B9875E",
"Ai 	c #B58456",
"Bi 	c #B78557",
"Ci 	c #B88557",
"Di 	c #B98455",
"Ei 	c #B98557",
"Fi 	c #B7885E",
"Gi 	c #B68861",
"Hi 	c #B58762",
"Ii 	c #B78964",
"Ji 	c #B68055",
"Ki 	c #B47A4B",
"Li 	c #B37A4C",
"Mi 	c #B07D52",
"Ni 	c #B4865D",
"Oi 	c #B7845A",
"Pi 	c #BC8D67",
"Qi 	c #B68864",
"Ri 	c #B7815A",
"Si 	c #AF7D5A",
"Ti 	c #A89485",
"Ui 	c #A5998F",
"Vi 	c #B18865",
"Wi 	c #AE7847",
"Xi 	c #B77D4A",
"Yi 	c #B9804D",
"Zi 	c #BC7F4A",
"`i 	c #BC7D46",
" j 	c #BC7D42",
".j 	c #C08244",
"+j 	c #C18545",
"@j 	c #C08446",
"#j 	c #C18549",
"$j 	c #C0834C",
"%j 	c #BF7E46",
"&j 	c #BE793F",
"*j 	c #BD7743",
"=j 	c #BF7C47",
"-j 	c #BD7F43",
";j 	c #C08145",
">j 	c #C08144",
",j 	c #BF813F",
"'j 	c #BF803C",
")j 	c #C1833D",
"!j 	c #C48947",
"~j 	c #C28849",
"{j 	c #BE8242",
"]j 	c #C08445",
"^j 	c #B78A5F",
"/j 	c #A79A8D",
"(j 	c #AEA097",
"_j 	c #C6A493",
":j 	c #C6AA90",
"<j 	c #BE9B71",
"[j 	c #C0A587",
"}j 	c #CEC3B5",
"|j 	c #D3C6B2",
"1j 	c #C09771",
"2j 	c #BF824A",
"3j 	c #BE844E",
"4j 	c #BE864B",
"5j 	c #BF854F",
"6j 	c #BE8557",
"7j 	c #BE8D66",
"8j 	c #BB8052",
"9j 	c #BB7945",
"0j 	c #BC784A",
"aj 	c #BF9575",
"bj 	c #C6B3A2",
"cj 	c #C5A796",
"dj 	c #C3B09F",
"ej 	c #D0C2B2",
"fj 	c #C4AF9A",
"gj 	c #C0B3A4",
"hj 	c #C8BEB4",
"ij 	c #C9C0B6",
"jj 	c #D0C6BC",
"kj 	c #D2BCA9",
"lj 	c #C19877",
"mj 	c #AC9B8E",
"nj 	c #A49D98",
"oj 	c #A07966",
"pj 	c #A66641",
"qj 	c #AB6946",
"rj 	c #AD6B48",
"sj 	c #AC6B48",
"tj 	c #AE724B",
"uj 	c #A36E49",
"vj 	c #A26E49",
"wj 	c #A76D42",
"xj 	c #A4734A",
"yj 	c #9D7D64",
"zj 	c #9A7F6B",
"Aj 	c #987D67",
"Bj 	c #9A7D67",
"Cj 	c #A4795A",
"Dj 	c #9D775C",
"Ej 	c #9E7A60",
"Fj 	c #A47958",
"Gj 	c #A9774E",
"Hj 	c #AA784B",
"Ij 	c #AD733D",
"Jj 	c #AD723C",
"Kj 	c #B0753E",
"Lj 	c #B37B42",
"Mj 	c #AB7E4F",
"Nj 	c #A17C5D",
"Oj 	c #A17C5F",
"Pj 	c #A47D61",
"Qj 	c #A48C79",
"Rj 	c #A09A91",
"Sj 	c #A5928A",
"Tj 	c #B19E93",
"Uj 	c #AFA197",
"Vj 	c #B1A399",
"Wj 	c #AC8F7A",
"Xj 	c #A48368",
"Yj 	c #B1947F",
"Zj 	c #AFA096",
"`j 	c #AFA395",
" k 	c #AF9B8D",
".k 	c #AA9B8C",
"+k 	c #AD998C",
"@k 	c #AC9285",
"#k 	c #A5846D",
"$k 	c #94613C",
"%k 	c #9F663B",
"&k 	c #A36E44",
"*k 	c #9F6B42",
"=k 	c #9D683F",
"-k 	c #9D673F",
";k 	c #986647",
">k 	c #AB7451",
",k 	c #AD744D",
"'k 	c #A96C44",
")k 	c #A67455",
"!k 	c #9F9994",
"~k 	c #9F8164",
"{k 	c #A17556",
"]k 	c #B29378",
"^k 	c #B38F6D",
"/k 	c #AC8565",
"(k 	c #907155",
"_k 	c #8E6D56",
":k 	c #8A6751",
"<k 	c #886752",
"[k 	c #8E7666",
"}k 	c #A18D80",
"|k 	c #A49083",
"1k 	c #B9ADA5",
"2k 	c #C1B3A7",
"3k 	c #AA917D",
"4k 	c #BBA895",
"5k 	c #AFA393",
"6k 	c #887361",
"7k 	c #7B6248",
"8k 	c #7F593D",
"9k 	c #7C5939",
"0k 	c #9F8267",
"ak 	c #B5A390",
"bk 	c #BCB1A5",
"ck 	c #C7BBB1",
"dk 	c #C5B9B0",
"ek 	c #C8BBB1",
"fk 	c #BCA898",
"gk 	c #B7A18F",
"hk 	c #A2928C",
"ik 	c #8D766B",
"jk 	c #817163",
"kk 	c #857063",
"lk 	c #866A58",
"mk 	c #846A59",
"nk 	c #826958",
"ok 	c #846D5E",
"pk 	c #827063",
"qk 	c #836A59",
"rk 	c #956A4D",
"sk 	c #A16841",
"tk 	c #A0683E",
"uk 	c #9B5E34",
"vk 	c #A1693D",
"wk 	c #A26D43",
"xk 	c #A16E47",
"yk 	c #A06D47",
"zk 	c #9E6B43",
"Ak 	c #A26D42",
"Bk 	c #A36B42",
"Ck 	c #A06C42",
"Dk 	c #A77247",
"Ek 	c #A7714C",
"Fk 	c #A57253",
"Gk 	c #9D745A",
"Hk 	c #9E7153",
"Ik 	c #A07B63",
"Jk 	c #ADA79E",
"Kk 	c #A7A39A",
"Lk 	c #AA816A",
"Mk 	c #9E6746",
"Nk 	c #9D6543",
"Ok 	c #9E6744",
"Pk 	c #A16A46",
"Qk 	c #A06543",
"Rk 	c #A36441",
"Sk 	c #A3643B",
"Tk 	c #A6673C",
"Uk 	c #A7673C",
"Vk 	c #A8683E",
"Wk 	c #AA6B41",
"Xk 	c #AA6E45",
"Yk 	c #A97C5A",
"Zk 	c #AD7F5C",
"`k 	c #A7744E",
" l 	c #A46C48",
".l 	c #AE8167",
"+l 	c #BF9E8B",
"@l 	c #AB7D5B",
"#l 	c #AC6E3C",
"$l 	c #AC6E3D",
"%l 	c #AD7045",
"&l 	c #B1794F",
"*l 	c #AD7241",
"=l 	c #B07544",
"-l 	c #AC7242",
";l 	c #A96F40",
">l 	c #B07950",
",l 	c #B78A68",
"'l 	c #A9998B",
")l 	c #AE8767",
"!l 	c #B38B65",
"~l 	c #B38A65",
"{l 	c #B48960",
"]l 	c #B7875C",
"^l 	c #B7845B",
"/l 	c #B78558",
"(l 	c #B68659",
"_l 	c #B6875B",
":l 	c #B7855A",
"<l 	c #B3875F",
"[l 	c #B38661",
"}l 	c #B5845D",
"|l 	c #B57C4F",
"1l 	c #B7743E",
"2l 	c #B37640",
"3l 	c #AE7C50",
"4l 	c #AB7B56",
"5l 	c #B08058",
"6l 	c #B98C69",
"7l 	c #B78D6C",
"8l 	c #B7845E",
"9l 	c #AF7952",
"0l 	c #A68F7D",
"al 	c #B2886D",
"bl 	c #AD774F",
"cl 	c #B17748",
"dl 	c #B17849",
"el 	c #B27547",
"fl 	c #B27643",
"gl 	c #B3773F",
"hl 	c #B6793D",
"il 	c #B77A3D",
"jl 	c #B57A40",
"kl 	c #B88048",
"ll 	c #B87F4B",
"ml 	c #B97841",
"nl 	c #B87745",
"ol 	c #B67744",
"pl 	c #B67D43",
"ql 	c #B97F45",
"rl 	c #BB8047",
"sl 	c #C08048",
"tl 	c #BD7E43",
"ul 	c #BD7F3C",
"vl 	c #BF8342",
"wl 	c #BF8445",
"xl 	c #BD8041",
"yl 	c #BA7D3E",
"zl 	c #C18546",
"Al 	c #BD9065",
"Bl 	c #ACA093",
"Cl 	c #C3A990",
"Dl 	c #C1A788",
"El 	c #C2A48A",
"Fl 	c #C0A689",
"Gl 	c #B99479",
"Hl 	c #B47F57",
"Il 	c #B87B4A",
"Jl 	c #B87D4B",
"Kl 	c #B87F46",
"Ll 	c #BB824D",
"Ml 	c #BB8152",
"Nl 	c #BA824F",
"Ol 	c #B87D49",
"Pl 	c #B87C4D",
"Ql 	c #B79473",
"Rl 	c #CDC6B3",
"Sl 	c #B99A80",
"Tl 	c #B9A391",
"Ul 	c #CBC0B8",
"Vl 	c #CBC2B9",
"Wl 	c #C8C0B7",
"Xl 	c #CDC8C3",
"Yl 	c #CDC9C4",
"Zl 	c #D1CBC4",
"`l 	c #BFA68A",
" m 	c #B69068",
".m 	c #A89F8F",
"+m 	c #A6755A",
"@m 	c #AD6B44",
"#m 	c #AD6F4A",
"$m 	c #AC6F4A",
"%m 	c #B47751",
"&m 	c #AF7349",
"*m 	c #A07052",
"=m 	c #A07050",
"-m 	c #9F6F48",
";m 	c #9B7455",
">m 	c #977B65",
",m 	c #967B65",
"'m 	c #997B66",
")m 	c #9E7964",
"!m 	c #9D7862",
"~m 	c #9D7963",
"{m 	c #9C7962",
"]m 	c #A0795C",
"^m 	c #A7744A",
"/m 	c #AA774C",
"(m 	c #A8744A",
"_m 	c #A8714A",
":m 	c #A57149",
"<m 	c #A3734A",
"[m 	c #A27852",
"}m 	c #9E7C60",
"|m 	c #9A7D68",
"1m 	c #9F7F65",
"2m 	c #997F6C",
"3m 	c #9D8D80",
"4m 	c #A39C94",
"5m 	c #9E8577",
"6m 	c #AB9484",
"7m 	c #AB9A90",
"8m 	c #A7978C",
"9m 	c #A79282",
"0m 	c #A48166",
"am 	c #986F56",
"bm 	c #976D57",
"cm 	c #A18471",
"dm 	c #ADA19A",
"em 	c #ACA197",
"fm 	c #B0A499",
"gm 	c #AE9F94",
"hm 	c #A99389",
"im 	c #A98776",
"jm 	c #A17359",
"km 	c #9A6A48",
"lm 	c #9D6D4A",
"mm 	c #9D6E4A",
"nm 	c #9A6044",
"om 	c #99745F",
"pm 	c #9B8074",
"qm 	c #957262",
"rm 	c #9F7058",
"sm 	c #9B684A",
"tm 	c #986343",
"um 	c #986546",
"vm 	c #A59E9C",
"wm 	c #A29C99",
"xm 	c #9F8B80",
"ym 	c #8C7366",
"zm 	c #8A7467",
"Am 	c #947660",
"Bm 	c #927257",
"Cm 	c #957A5E",
"Dm 	c #907562",
"Em 	c #937C6C",
"Fm 	c #AF9F8E",
"Gm 	c #B0A495",
"Hm 	c #B6AA9B",
"Im 	c #B9AB9E",
"Jm 	c #B8ACA0",
"Km 	c #BAACA1",
"Lm 	c #B7A698",
"Mm 	c #907158",
"Nm 	c #98795E",
"Om 	c #9D8870",
"Pm 	c #84694E",
"Qm 	c #7D5940",
"Rm 	c #967A66",
"Sm 	c #AB9583",
"Tm 	c #A49181",
"Um 	c #BEB1A2",
"Vm 	c #B9AEA1",
"Wm 	c #A89B91",
"Xm 	c #B5A698",
"Ym 	c #A78D76",
"Zm 	c #8C6D5B",
"`m 	c #7D695F",
" n 	c #806558",
".n 	c #826758",
"+n 	c #876858",
"@n 	c #896754",
"#n 	c #8A6754",
"$n 	c #846655",
"%n 	c #826A5E",
"&n 	c #80685B",
"*n 	c #856756",
"=n 	c #8F674E",
"-n 	c #9B6848",
";n 	c #966540",
">n 	c #9D6B46",
",n 	c #A06F4A",
"'n 	c #9D6C46",
")n 	c #9A6542",
"!n 	c #9F725A",
"~n 	c #9B7762",
"{n 	c #8E6A4E",
"]n 	c #906B50",
"^n 	c #8F6B52",
"/n 	c #906851",
"(n 	c #906955",
"_n 	c #AD8B77",
":n 	c #A6765C",
"<n 	c #99684C",
"[n 	c #9F6E51",
"}n 	c #9E6B4E",
"|n 	c #9C694D",
"1n 	c #9E6F56",
"2n 	c #A46E4F",
"3n 	c #9F603A",
"4n 	c #AD7551",
"5n 	c #A46D48",
"6n 	c #A26C48",
"7n 	c #9E6A47",
"8n 	c #BA9A88",
"9n 	c #B18C79",
"0n 	c #AB8471",
"an 	c #BFACA7",
"bn 	c #BDA694",
"cn 	c #A97956",
"dn 	c #A06D4A",
"en 	c #A86947",
"fn 	c #AD8167",
"gn 	c #A87D58",
"hn 	c #B4886A",
"in 	c #B78C72",
"jn 	c #B3896F",
"kn 	c #B69178",
"ln 	c #B28C72",
"mn 	c #AB9B94",
"nn 	c #A6988D",
"on 	c #A58974",
"pn 	c #B28765",
"qn 	c #BC8D64",
"rn 	c #B48557",
"sn 	c #B7845D",
"tn 	c #B5805C",
"un 	c #B88561",
"vn 	c #B17E58",
"wn 	c #B4815B",
"xn 	c #B3815A",
"yn 	c #B3825C",
"zn 	c #B2825C",
"An 	c #B1835F",
"Bn 	c #B68662",
"Cn 	c #B68461",
"Dn 	c #B38260",
"En 	c #B37B56",
"Fn 	c #B5784F",
"Gn 	c #B47748",
"Hn 	c #A97549",
"In 	c #A77852",
"Jn 	c #A97B55",
"Kn 	c #AE7C58",
"Ln 	c #AE7C59",
"Mn 	c #B17D5B",
"Nn 	c #AD7A53",
"On 	c #A87856",
"Pn 	c #AA9283",
"Qn 	c #AC9E92",
"Rn 	c #B3947D",
"Sn 	c #AE8362",
"Tn 	c #AE7F5A",
"Un 	c #AA7B55",
"Vn 	c #B07D58",
"Wn 	c #B27C55",
"Xn 	c #AE7851",
"Yn 	c #B1774B",
"Zn 	c #AF733D",
"`n 	c #B1743E",
" o 	c #B67A4C",
".o 	c #B67A4D",
"+o 	c #B27749",
"@o 	c #B4784A",
"#o 	c #B67B4D",
"$o 	c #B4794B",
"%o 	c #B5784A",
"&o 	c #B6794B",
"*o 	c #B87B4B",
"=o 	c #B77B49",
"-o 	c #B77946",
";o 	c #B87742",
">o 	c #BA7A43",
",o 	c #BC7F46",
"'o 	c #BA7E47",
")o 	c #B37740",
"!o 	c #BA7E49",
"~o 	c #BD9274",
"{o 	c #ADA39F",
"]o 	c #ABA59F",
"^o 	c #B4A890",
"/o 	c #C1AE96",
"(o 	c #C4AF98",
"_o 	c #C8B6A0",
":o 	c #BFAD95",
"<o 	c #B39A82",
"[o 	c #B88E74",
"}o 	c #B78B66",
"|o 	c #B68559",
"1o 	c #BC8C64",
"2o 	c #BC8D69",
"3o 	c #BC8C67",
"4o 	c #B58561",
"5o 	c #BB8C68",
"6o 	c #BD997D",
"7o 	c #D1C2B6",
"8o 	c #CBBBAD",
"9o 	c #B69673",
"0o 	c #B49C81",
"ao 	c #D1C3B6",
"bo 	c #D0C7BF",
"co 	c #D3C8BF",
"do 	c #CDC2BA",
"eo 	c #CCC1B8",
"fo 	c #C8BCB3",
"go 	c #C7B7AD",
"ho 	c #B29176",
"io 	c #A98F77",
"jo 	c #A6A093",
"ko 	c #A6A193",
"lo 	c #A97664",
"mo 	c #A26847",
"no 	c #A26844",
"oo 	c #9E633F",
"po 	c #A16542",
"qo 	c #A16541",
"ro 	c #A28674",
"so 	c #9F836F",
"to 	c #9E806A",
"uo 	c #A38671",
"vo 	c #9D8472",
"wo 	c #917E71",
"xo 	c #978477",
"yo 	c #9D8A7E",
"zo 	c #9D877C",
"Ao 	c #9C867B",
"Bo 	c #9C867A",
"Co 	c #9F897D",
"Do 	c #A28C80",
"Eo 	c #A18A7D",
"Fo 	c #A48878",
"Go 	c #A58A7A",
"Ho 	c #A6887A",
"Io 	c #A08575",
"Jo 	c #9B8475",
"Ko 	c #99867C",
"Lo 	c #99897F",
"Mo 	c #9F9287",
"No 	c #A09287",
"Oo 	c #9E948C",
"Po 	c #9E9591",
"Qo 	c #9F9993",
"Ro 	c #A29A96",
"So 	c #A19995",
"To 	c #A39B95",
"Uo 	c #9C908B",
"Vo 	c #9E918B",
"Wo 	c #A09183",
"Xo 	c #9C9287",
"Yo 	c #9D9691",
"Zo 	c #9E9791",
"`o 	c #9E9892",
" p 	c #A49389",
".p 	c #A69083",
"+p 	c #AC9688",
"@p 	c #AD978A",
"#p 	c #A19083",
"$p 	c #A18D86",
"%p 	c #A29A95",
"&p 	c #9E9D9A",
"*p 	c #A4988F",
"=p 	c #AA988F",
"-p 	c #A5938B",
";p 	c #A4928B",
">p 	c #A39D9A",
",p 	c #A69F9D",
"'p 	c #A79E9E",
")p 	c #A69C9C",
"!p 	c #A59C9A",
"~p 	c #A19C94",
"{p 	c #A0978D",
"]p 	c #97877E",
"^p 	c #97867E",
"/p 	c #96877F",
"(p 	c #998980",
"_p 	c #97887F",
":p 	c #98887E",
"<p 	c #9D8B81",
"[p 	c #9C897E",
"}p 	c #9A867A",
"|p 	c #998373",
"1p 	c #9F8B7B",
"2p 	c #9C8D81",
"3p 	c #9B877A",
"4p 	c #968175",
"5p 	c #9B8B80",
"6p 	c #9F9189",
"7p 	c #A2938B",
"8p 	c #998880",
"9p 	c #93827B",
"0p 	c #95847C",
"ap 	c #9E8E83",
"bp 	c #A3948A",
"cp 	c #A5A19F",
"dp 	c #A39995",
"ep 	c #9F9794",
"fp 	c #A19993",
"gp 	c #A59993",
"hp 	c #A0948D",
"ip 	c #A1958E",
"jp 	c #9F958E",
"kp 	c #A9968A",
"lp 	c #AB9486",
"mp 	c #A99588",
"np 	c #AA9689",
"op 	c #AC978A",
"pp 	c #AB9688",
"qp 	c #A69185",
"rp 	c #ABA09C",
"sp 	c #A19791",
"tp 	c #9E908A",
"up 	c #9E908C",
"vp 	c #A09CA1",
"wp 	c #A3A1A1",
"xp 	c #B29F97",
"yp 	c #AD958B",
"zp 	c #A88E83",
"Ap 	c #A88E82",
"Bp 	c #A78C80",
"Cp 	c #A18679",
"Dp 	c #AC9084",
"Ep 	c #AD9A93",
"Fp 	c #AB9388",
"Gp 	c #A58879",
"Hp 	c #AF917C",
"Ip 	c #A58671",
"Jp 	c #A68874",
"Kp 	c #AB9485",
"Lp 	c #AF9F95",
"Mp 	c #B0A6A0",
"Np 	c #AC9F92",
"Op 	c #ABA8A4",
"Pp 	c #B3ADA9",
"Qp 	c #B19D90",
"Rp 	c #AB8F83",
"Sp 	c #AE9D93",
"Tp 	c #AE9D8E",
"Up 	c #A99484",
"Vp 	c #AF998B",
"Wp 	c #AE998C",
"Xp 	c #AB9B8F",
"Yp 	c #A69F9C",
"Zp 	c #A6A1A0",
"`p 	c #A8A19C",
" q 	c #AD988C",
".q 	c #AC9582",
"+q 	c #A9937B",
"@q 	c #AF9681",
"#q 	c #AE9481",
"$q 	c #AB907F",
"%q 	c #A68972",
"&q 	c #A78970",
"*q 	c #AB8D74",
"=q 	c #AC937F",
"-q 	c #AC9683",
";q 	c #B09986",
">q 	c #AD8E7A",
",q 	c #AF8F7B",
"'q 	c #AE8E76",
")q 	c #AD8E77",
"!q 	c #B19180",
"~q 	c #AF8F7D",
"{q 	c #AD9280",
"]q 	c #AB9487",
"^q 	c #AC9587",
"/q 	c #B09687",
"(q 	c #AE9585",
"_q 	c #B09789",
":q 	c #AB988D",
"<q 	c #A69994",
"[q 	c #AC998C",
"}q 	c #AF988A",
"|q 	c #AC9588",
"1q 	c #AC9386",
"2q 	c #B09586",
"3q 	c #AC9081",
"4q 	c #AE917F",
"5q 	c #AF927B",
"6q 	c #AB8D78",
"7q 	c #AF8C75",
"8q 	c #B48D74",
"9q 	c #B18C73",
"0q 	c #B28D73",
"aq 	c #B08E73",
"bq 	c #AE8D76",
"cq 	c #B0907D",
"dq 	c #B1907E",
"eq 	c #B1907C",
"fq 	c #B1907A",
"gq 	c #B08D77",
"hq 	c #B18973",
"iq 	c #B48973",
"jq 	c #AF9482",
"kq 	c #B28E7A",
"lq 	c #AE8A77",
"mq 	c #AF907F",
"nq 	c #AEA099",
"oq 	c #A7A6A7",
"pq 	c #A9A5A6",
"qq 	c #A9A19C",
"rq 	c #AB9B8B",
"sq 	c #AD9A84",
"tq 	c #A99A8B",
"uq 	c #AB998F",
"vq 	c #A98E7F",
"wq 	c #AD9586",
"xq 	c #AC9687",
"yq 	c #AB9588",
"zq 	c #AD968A",
"Aq 	c #AA9285",
"Bq 	c #A7907D",
"Cq 	c #AE9688",
"Dq 	c #AB9888",
"Eq 	c #AC9E8E",
"Fq 	c #B2A299",
"Gq 	c #AD9B93",
"Hq 	c #A4938E",
"Iq 	c #9E9187",
"Jq 	c #A38F85",
"Kq 	c #A79187",
"Lq 	c #A59085",
"Mq 	c #A08F83",
"Nq 	c #A59D99",
"Oq 	c #A39B98",
"Pq 	c #A9A29E",
"Qq 	c #A69E9A",
"Rq 	c #A59E9A",
"Sq 	c #A49C98",
"Tq 	c #A49B99",
"Uq 	c #A49B9A",
"Vq 	c #A19891",
"Wq 	c #A09390",
"Xq 	c #A09692",
"Yq 	c #A09893",
"Zq 	c #A19B96",
"`q 	c #A39D99",
" r 	c #A49E9A",
".r 	c #9E9793",
"+r 	c #A29B98",
"@r 	c #A39E9D",
"#r 	c #A69D99",
"$r 	c #A39394",
"%r 	c #A09391",
"&r 	c #9C9A92",
"*r 	c #9E9D95",
"=r 	c #A2A29B",
"-r 	c #A3A19D",
";r 	c #A2A19C",
">r 	c #A29F9C",
",r 	c #A29F9B",
"'r 	c #A7A39D",
")r 	c #A8A6A1",
"!r 	c #A9A39D",
"~r 	c #A6A09A",
"{r 	c #A9A29F",
"]r 	c #A69C9A",
"^r 	c #A49B98",
"/r 	c #A39D97",
"(r 	c #A09C94",
"_r 	c #A99C99",
":r 	c #A3A09B",
"<r 	c #A9A39F",
"[r 	c #A9A5A3",
"}r 	c #A9A7A5",
"|r 	c #AFA7A7",
"1r 	c #AEA5A4",
"2r 	c #A6A3A0",
"3r 	c #A7A5A1",
"4r 	c #A5A29F",
"5r 	c #A6A09D",
"6r 	c #A7A2A1",
"7r 	c #A6A29B",
"8r 	c #A4A09B",
"9r 	c #A39F9A",
"0r 	c #A4A19C",
"ar 	c #A6A49F",
"br 	c #AAA8A3",
"cr 	c #A8A6A0",
"dr 	c #A8A4A1",
"er 	c #A9A19F",
"fr 	c #ACA39F",
"gr 	c #ABA39E",
"hr 	c #ADA6A4",
"ir 	c #ADA7A4",
"jr 	c #ABA6A4",
"kr 	c #A7A29F",
"lr 	c #A9A39C",
"mr 	c #AEA7A9",
"nr 	c #ABA8A9",
"or 	c #A8A4A4",
"pr 	c #AAA4A0",
"qr 	c #A8A49E",
"rr 	c #A3A19B",
"sr 	c #A3A099",
"tr 	c #A19B94",
"ur 	c #A6A099",
"vr 	c #A5A199",
"wr 	c #A6A29A",
"xr 	c #A5A39D",
"yr 	c #A09E98",
"zr 	c #A09D98",
"Ar 	c #A6A2A3",
"Br 	c #A8A5A4",
"Cr 	c #A9A8A1",
"Dr 	c #ADA6A1",
"Er 	c #A9A7A0",
"Fr 	c #A8A59E",
"Gr 	c #A3A098",
"Hr 	c #A19D98",
"Ir 	c #A5A09C",
"Jr 	c #AFA59F",
"Kr 	c #A7A2A4",
"Lr 	c #A7A5A6",
"Mr 	c #A5A6A1",
"Nr 	c #A4A59F",
"Or 	c #A6A5A0",
"Pr 	c #ABA29F",
"Qr 	c #A8A09B",
"Rr 	c #A8A29C",
"Sr 	c #ABA39C",
"Tr 	c #A39F97",
"Ur 	c #A7A49D",
"Vr 	c #ACA7A1",
"Wr 	c #ADA7A2",
"Xr 	c #A9A59D",
"Yr 	c #ACA0A1",
"Zr 	c #ABA3A1",
"`r 	c #A8A49D",
" s 	c #A6A49E",
".s 	c #AAA099",
"+s 	c #A8A199",
"@s 	c #A59B9B",
"#s 	c #A99C9D",
"$s 	c #A9A5A2",
"%s 	c #A99F9F",
"&s 	c #A89E9F",
"*s 	c #ACA3A3",
"=s 	c #ACA3A0",
"-s 	c #ABA4A1",
";s 	c #A8A6A4",
">s 	c #A8A5A2",
",s 	c #A0A19B",
"'s 	c #A2A09C",
")s 	c #AA9D9F",
"!s 	c #A49A9B",
"~s 	c #9E9A98",
"{s 	c #A19E99",
"]s 	c #A19C97",
"^s 	c #A19D97",
"/s 	c #A79A94",
"(s 	c #A79993",
"_s 	c #AB9B93",
":s 	c #A79A93",
"<s 	c #A8988D",
"[s 	c #A28678",
"}s 	c #A48C7F",
"|s 	c #A28D79",
"1s 	c #A0816A",
"2s 	c #A4816C",
"3s 	c #A47C66",
"4s 	c #A37C67",
"5s 	c #A27D67",
"6s 	c #A17E66",
"7s 	c #9F7D68",
"8s 	c #9F8571",
"9s 	c #A78B81",
"0s 	c #A58776",
"as 	c #A58A78",
"bs 	c #A68A76",
"cs 	c #A88B74",
"ds 	c #AA856B",
"es 	c #B2926E",
"fs 	c #A99282",
"gs 	c #A29B96",
"hs 	c #A09E9C",
"is 	c #A1938D",
"js 	c #A1887C",
"ks 	c #A2897C",
"ls 	c #A08878",
"ms 	c #9A8472",
"ns 	c #957E6E",
"os 	c #A08672",
"ps 	c #A0887B",
"qs 	c #A6918C",
"rs 	c #A79F92",
"ss 	c #A9A396",
"ts 	c #A7A095",
"us 	c #A79E95",
"vs 	c #9F958D",
"ws 	c #9D8B77",
"xs 	c #A38E7A",
"ys 	c #A39080",
"zs 	c #AD9E8F",
"As 	c #B3A395",
"Bs 	c #B1A092",
"Cs 	c #A79483",
"Ds 	c #A38C7B",
"Es 	c #AAA3A2",
"Fs 	c #A9A09B",
"Gs 	c #ACA199",
"Hs 	c #A69B92",
"Is 	c #ABA299",
"Js 	c #B0A097",
"Ks 	c #AD9991",
"Ls 	c #A7958B",
"Ms 	c #A89992",
"Ns 	c #AC9B94",
"Os 	c #AE9D91",
"Ps 	c #AC9A8A",
"Qs 	c #A99786",
"Rs 	c #AC9788",
"Ss 	c #AB9186",
"Ts 	c #AE9488",
"Us 	c #A88F7C",
"Vs 	c #A8957F",
"Ws 	c #A59586",
"Xs 	c #A89380",
"Ys 	c #A58E7C",
"Zs 	c #A79485",
"`s 	c #A79385",
" t 	c #A6968F",
".t 	c #A3A19F",
"+t 	c #9F9086",
"@t 	c #A08C7F",
"#t 	c #A38E83",
"$t 	c #AA8A78",
"%t 	c #AD866D",
"&t 	c #AC886C",
"*t 	c #AB8770",
"=t 	c #AD8874",
"-t 	c #AA856E",
";t 	c #AC8770",
">t 	c #AC8A74",
",t 	c #AD907F",
"'t 	c #A98C7B",
")t 	c #A88B7A",
"!t 	c #A89589",
"~t 	c #A79790",
"{t 	c #A69288",
"]t 	c #AA958C",
"^t 	c #AA9786",
"/t 	c #AE9682",
"(t 	c #B1967F",
"_t 	c #B09B89",
":t 	c #A6A0A2",
"<t 	c #ADA7AA",
"[t 	c #AAA4A7",
"}t 	c #A6A3A3",
"|t 	c #9E9689",
"1t 	c #9D907F",
"2t 	c #A18D82",
"3t 	c #9A8578",
"4t 	c #978478",
"5t 	c #958277",
"6t 	c #9B887B",
"7t 	c #9E8A7E",
"8t 	c #A49085",
"9t 	c #A89689",
"0t 	c #9F8E82",
"at 	c #A19085",
"bt 	c #978377",
"ct 	c #9C8273",
"dt 	c #9A897C",
"et 	c #9E8F86",
"ft 	c #9D9086",
"gt 	c #A5988B",
"ht 	c #A2948C",
"it 	c #B0ADAA",
"jt 	c #AAA7A3",
"kt 	c #9F8F83",
"lt 	c #A49384",
"mt 	c #B2A8A2",
"nt 	c #B2A79B",
"ot 	c #AB8E7F",
"pt 	c #AA8A7B",
"qt 	c #A48E82",
"rt 	c #A4968B",
"st 	c #A3938A",
"tt 	c #A98E82",
"ut 	c #AE9389",
"vt 	c #AA958B",
"wt 	c #A59791",
"xt 	c #AA9990",
"yt 	c #A89187",
"zt 	c #B29986",
"At 	c #B09783",
"Bt 	c #AF9887",
"Ct 	c #AB998B",
"Dt 	c #A8988E",
"Et 	c #AA9B92",
"Ft 	c #ADA4A3",
"Gt 	c #AD9C90",
"Ht 	c #9E9280",
"It 	c #A0988D",
"Jt 	c #A09B92",
"Kt 	c #A9A297",
"Lt 	c #A9A295",
"Mt 	c #A59B8C",
"Nt 	c #A69A8C",
"Ot 	c #A09289",
"Pt 	c #A0928C",
"Qt 	c #A4968A",
"Rt 	c #A7958C",
"St 	c #A6938A",
"Tt 	c #A69287",
"Ut 	c #A69383",
"Vt 	c #A79382",
"Wt 	c #AB9684",
"Xt 	c #A9937F",
"Yt 	c #A49077",
"Zt 	c #A08E76",
"`t 	c #A28F81",
" u 	c #AB958A",
".u 	c #A48E81",
"+u 	c #A28F78",
"@u 	c #9E8976",
"#u 	c #9F8A71",
"$u 	c #A39E9C",
"%u 	c #A7A49F",
"&u 	c #A79E98",
"*u 	c #A4958B",
"=u 	c #A19188",
"-u 	c #A39187",
";u 	c #A99289",
">u 	c #A89189",
",u 	c #A28B84",
"'u 	c #A48C85",
")u 	c #A48E86",
"!u 	c #A28D83",
"~u 	c #A08B80",
"{u 	c #A39084",
"]u 	c #A58F84",
"^u 	c #A28B83",
"/u 	c #A48D87",
"(u 	c #A58E88",
"_u 	c #9D887F",
":u 	c #A08981",
"<u 	c #AC948C",
"[u 	c #A38B83",
"}u 	c #B38669",
"|u 	c #B18062",
"1u 	c #B87F5F",
"2u 	c #B98161",
"3u 	c #B58A70",
"4u 	c #A6988E",
"5u 	c #A39D9B",
"6u 	c #A89C9B",
"7u 	c #AC9181",
"8u 	c #A2724E",
"9u 	c #AB713C",
"0u 	c #AC784E",
"au 	c #AE7643",
"bu 	c #B2723D",
"cu 	c #B17140",
"du 	c #AE713F",
"eu 	c #AD713E",
"fu 	c #AA6D3A",
"gu 	c #AC6D3A",
"hu 	c #AB6F3E",
"iu 	c #A87043",
"ju 	c #A16E40",
"ku 	c #A47042",
"lu 	c #A67142",
"mu 	c #AC7545",
"nu 	c #AE7748",
"ou 	c #AC7644",
"pu 	c #A97743",
"qu 	c #AA7847",
"ru 	c #AC794D",
"su 	c #AB7A53",
"tu 	c #B98A59",
"uu 	c #BA8E65",
"vu 	c #AE9A8A",
"wu 	c #A17A60",
"xu 	c #9F7151",
"yu 	c #A1734F",
"zu 	c #A0724E",
"Au 	c #9E6F4A",
"Bu 	c #9E6C47",
"Cu 	c #9E6F4F",
"Du 	c #A1775D",
"Eu 	c #A2856F",
"Fu 	c #A89381",
"Gu 	c #9D7F67",
"Hu 	c #A37F62",
"Iu 	c #A27F62",
"Ju 	c #9E7C5F",
"Ku 	c #9F7D60",
"Lu 	c #A1876F",
"Mu 	c #A5836B",
"Nu 	c #9D7559",
"Ou 	c #A47553",
"Pu 	c #AD8D72",
"Qu 	c #B7A594",
"Ru 	c #C3BDB5",
"Su 	c #C8C3BC",
"Tu 	c #C9C2BA",
"Uu 	c #CBC3BC",
"Vu 	c #BEAD9F",
"Wu 	c #B69D89",
"Xu 	c #A6988F",
"Yu 	c #A09C9A",
"Zu 	c #9D9897",
"`u 	c #AE907B",
" v 	c #B68C6E",
".v 	c #B08765",
"+v 	c #B38E6D",
"@v 	c #B18C6A",
"#v 	c #AF8868",
"$v 	c #AE8668",
"%v 	c #AE8667",
"&v 	c #B18A6A",
"*v 	c #B48D6C",
"=v 	c #B48C69",
"-v 	c #B08967",
";v 	c #B08864",
">v 	c #AD8258",
",v 	c #B18155",
"'v 	c #B8855B",
")v 	c #A87E59",
"!v 	c #A88060",
"~v 	c #AA8160",
"{v 	c #AE8363",
"]v 	c #AF8462",
"^v 	c #B28661",
"/v 	c #B18158",
"(v 	c #A77F63",
"_v 	c #A49A93",
":v 	c #A99F9E",
"<v 	c #A9A099",
"[v 	c #AA9E92",
"}v 	c #AA948B",
"|v 	c #A1867B",
"1v 	c #957963",
"2v 	c #A8856C",
"3v 	c #AD876E",
"4v 	c #A98770",
"5v 	c #B38262",
"6v 	c #B5825A",
"7v 	c #B08459",
"8v 	c #AF8259",
"9v 	c #AD7F59",
"0v 	c #AD7D5A",
"av 	c #AE7D5B",
"bv 	c #AC7D5D",
"cv 	c #A47F61",
"dv 	c #A57F62",
"ev 	c #AA8367",
"fv 	c #AF8262",
"gv 	c #B0845F",
"hv 	c #B08466",
"iv 	c #AC8865",
"jv 	c #AE8A66",
"kv 	c #BA9771",
"lv 	c #B89A76",
"mv 	c #B39B81",
"nv 	c #A6A3A2",
"ov 	c #A7A09D",
"pv 	c #9B8F87",
"qv 	c #977F6A",
"rv 	c #927358",
"sv 	c #926C4E",
"tv 	c #92694E",
"uv 	c #956A51",
"vv 	c #966B50",
"wv 	c #94684D",
"xv 	c #906448",
"yv 	c #93654B",
"zv 	c #95674D",
"Av 	c #95674E",
"Bv 	c #966951",
"Cv 	c #9A6F56",
"Dv 	c #956C52",
"Ev 	c #93694F",
"Fv 	c #94694F",
"Gv 	c #926246",
"Hv 	c #965F3F",
"Iv 	c #986742",
"Jv 	c #8C603D",
"Kv 	c #865E42",
"Lv 	c #896046",
"Mv 	c #8B5F46",
"Nv 	c #8C6147",
"Ov 	c #8E6147",
"Pv 	c #90674F",
"Qv 	c #866350",
"Rv 	c #948179",
"Sv 	c #AC9F99",
"Tv 	c #AD9181",
"Uv 	c #C2AD9D",
"Vv 	c #C9BBB3",
"Wv 	c #C8BBB5",
"Xv 	c #C6BCB3",
"Yv 	c #C8C0B5",
"Zv 	c #CBC3B6",
"`v 	c #B99176",
" w 	c #AA633A",
".w 	c #A26644",
"+w 	c #B68F75",
"@w 	c #A4836C",
"#w 	c #AC866D",
"$w 	c #C09376",
"%w 	c #9F6F4F",
"&w 	c #A88361",
"*w 	c #A48467",
"=w 	c #AA8369",
"-w 	c #B39079",
";w 	c #C2AC9C",
">w 	c #C6B0A2",
",w 	c #C6AD9A",
"'w 	c #C2AB91",
")w 	c #C6AC93",
"!w 	c #C2A592",
"~w 	c #BB9F8E",
"{w 	c #C1A08B",
"]w 	c #B38E71",
"^w 	c #AAA2A1",
"/w 	c #C2B39E",
"(w 	c #C0B4A5",
"_w 	c #C0B7A5",
":w 	c #B5A389",
"<w 	c #9F8063",
"[w 	c #987757",
"}w 	c #967350",
"|w 	c #94714F",
"1w 	c #936E4F",
"2w 	c #A9845F",
"3w 	c #A37F56",
"4w 	c #A58058",
"5w 	c #A68058",
"6w 	c #A07A53",
"7w 	c #A07A51",
"8w 	c #A0794F",
"9w 	c #A47C4D",
"0w 	c #A67944",
"aw 	c #A27546",
"bw 	c #A77856",
"cw 	c #9E724B",
"dw 	c #A17A4C",
"ew 	c #A6825A",
"fw 	c #9A7653",
"gw 	c #9C7A50",
"hw 	c #94785A",
"iw 	c #A19F96",
"jw 	c #A69F8F",
"kw 	c #A07F69",
"lw 	c #986852",
"mw 	c #95644A",
"nw 	c #936046",
"ow 	c #946145",
"pw 	c #956143",
"qw 	c #945E3F",
"rw 	c #965E3E",
"sw 	c #925838",
"tw 	c #925736",
"uw 	c #965C39",
"vw 	c #9B613D",
"ww 	c #955D3B",
"xw 	c #9A623F",
"yw 	c #9C6443",
"zw 	c #9B6241",
"Aw 	c #9B6240",
"Bw 	c #9C6440",
"Cw 	c #9C643E",
"Dw 	c #99623B",
"Ew 	c #99613A",
"Fw 	c #965F37",
"Gw 	c #985E37",
"Hw 	c #9E633D",
"Iw 	c #9B5F39",
"Jw 	c #C8895A",
"Kw 	c #C58555",
"Lw 	c #C88554",
"Mw 	c #C58251",
"Nw 	c #BB8762",
"Ow 	c #A9978C",
"Pw 	c #B29078",
"Qw 	c #B8865A",
"Rw 	c #B27C47",
"Sw 	c #B98750",
"Tw 	c #B98148",
"Uw 	c #B87D42",
"Vw 	c #B6793F",
"Ww 	c #B07642",
"Xw 	c #B27641",
"Yw 	c #B2743F",
"Zw 	c #AD7440",
"`w 	c #AB7542",
" x 	c #AF7644",
".x 	c #AB7446",
"+x 	c #A97647",
"@x 	c #AF7946",
"#x 	c #B77B4E",
"$x 	c #B4824C",
"%x 	c #B3834C",
"&x 	c #B4834F",
"*x 	c #B3825F",
"=x 	c #BA895D",
"-x 	c #BE8D5F",
";x 	c #AF9A85",
">x 	c #A49E92",
",x 	c #A17B5B",
"'x 	c #A17D5F",
")x 	c #A37D5E",
"!x 	c #A88061",
"~x 	c #A07758",
"{x 	c #A1765C",
"]x 	c #A57D63",
"^x 	c #AB896D",
"/x 	c #B28F6F",
"(x 	c #C3AA92",
"_x 	c #C2AA92",
":x 	c #B48F70",
"<x 	c #AE8565",
"[x 	c #A47B57",
"}x 	c #9C7D5D",
"|x 	c #B29E87",
"1x 	c #B8A88F",
"2x 	c #A28667",
"3x 	c #A98B73",
"4x 	c #CBB8AB",
"5x 	c #CDC1B9",
"6x 	c #CCC7C3",
"7x 	c #CCC7C2",
"8x 	c #CBC5BF",
"9x 	c #C9C4BE",
"0x 	c #C9BCB2",
"ax 	c #C2AF9F",
"bx 	c #A99485",
"cx 	c #A29D95",
"dx 	c #A29789",
"ex 	c #A68D75",
"fx 	c #B08C6F",
"gx 	c #B88F6F",
"hx 	c #B68A67",
"ix 	c #B38964",
"jx 	c #B68F69",
"kx 	c #B48E67",
"lx 	c #B48D66",
"mx 	c #B48C66",
"nx 	c #B58D65",
"ox 	c #B78D68",
"px 	c #B88C6A",
"qx 	c #B78C6A",
"rx 	c #B78C69",
"sx 	c #B48B67",
"tx 	c #B38D69",
"ux 	c #B18860",
"vx 	c #B37F4E",
"wx 	c #B37D45",
"xx 	c #B07E52",
"yx 	c #AE805F",
"zx 	c #B08261",
"Ax 	c #B48566",
"Bx 	c #B68D71",
"Cx 	c #B59176",
"Dx 	c #B59171",
"Ex 	c #B5875E",
"Fx 	c #AF8460",
"Gx 	c #A7998C",
"Hx 	c #A59E9E",
"Ix 	c #A99D90",
"Jx 	c #B1957E",
"Kx 	c #AE927A",
"Lx 	c #A18266",
"Mx 	c #B08A6B",
"Nx 	c #B0896B",
"Ox 	c #A5886F",
"Px 	c #AC856A",
"Qx 	c #AC8467",
"Rx 	c #AC8468",
"Sx 	c #AB8462",
"Tx 	c #AB825E",
"Ux 	c #AE7F5F",
"Vx 	c #AF7F61",
"Wx 	c #AF8164",
"Xx 	c #A98464",
"Yx 	c #A88463",
"Zx 	c #A78465",
"`x 	c #A78669",
" y 	c #AE8867",
".y 	c #B48A64",
"+y 	c #BB8A62",
"@y 	c #BB8B62",
"#y 	c #BC8E68",
"$y 	c #BA8F6F",
"%y 	c #BA9575",
"&y 	c #BA9872",
"*y 	c #C09D7D",
"=y 	c #A99B91",
"-y 	c #93735C",
";y 	c #937157",
">y 	c #987053",
",y 	c #9C6F51",
"'y 	c #9B7151",
")y 	c #9E7255",
"!y 	c #9D7152",
"~y 	c #9A6E4E",
"{y 	c #9B6D4D",
"]y 	c #9B6C4E",
"^y 	c #9A6D4F",
"/y 	c #996D4F",
"(y 	c #976D4E",
"_y 	c #9A6F51",
":y 	c #9C7052",
"<y 	c #996849",
"[y 	c #97613E",
"}y 	c #945D3A",
"|y 	c #925E3E",
"1y 	c #926248",
"2y 	c #926347",
"3y 	c #966549",
"4y 	c #9A6A4D",
"5y 	c #976C51",
"6y 	c #936D55",
"7y 	c #846450",
"8y 	c #8A7365",
"9y 	c #AEA098",
"0y 	c #C0AB9C",
"ay 	c #D0C2B9",
"by 	c #CDC8C6",
"cy 	c #CFCDC8",
"dy 	c #CDC8C2",
"ey 	c #CCC5BF",
"fy 	c #CDC4BD",
"gy 	c #CDC4B9",
"hy 	c #C0A08C",
"iy 	c #AA7051",
"jy 	c #A97553",
"ky 	c #B08768",
"ly 	c #C4A993",
"my 	c #C7B5A3",
"ny 	c #B49579",
"oy 	c #AB846A",
"py 	c #C9B7A6",
"qy 	c #CABCAF",
"ry 	c #C8AC9B",
"sy 	c #C4AB9C",
"ty 	c #C8B9B5",
"uy 	c #C7BCB4",
"vy 	c #C7BAA8",
"wy 	c #C7B9A2",
"xy 	c #CCBEAD",
"yy 	c #C7B7AC",
"zy 	c #C0AB9B",
"Ay 	c #C7B0A0",
"By 	c #B89781",
"Cy 	c #ABA09D",
"Dy 	c #AD937F",
"Ey 	c #C4AE94",
"Fy 	c #C8B7A5",
"Gy 	c #CABDAB",
"Hy 	c #BBA893",
"Iy 	c #B69E85",
"Jy 	c #9C7A58",
"Ky 	c #9B6C41",
"Ly 	c #9C693A",
"My 	c #A07245",
"Ny 	c #A97B49",
"Oy 	c #AE7E49",
"Py 	c #AB7B47",
"Qy 	c #A57642",
"Ry 	c #A37340",
"Sy 	c #A57744",
"Ty 	c #A47744",
"Uy 	c #A47440",
"Vy 	c #A36C37",
"Wy 	c #A06A31",
"Xy 	c #A56F36",
"Yy 	c #A8713D",
"Zy 	c #A7733E",
"`y 	c #B78A57",
" z 	c #B5916B",
".z 	c #BD9979",
"+z 	c #A37F58",
"@z 	c #A0754F",
"#z 	c #A18771",
"$z 	c #A6938B",
"%z 	c #A06F54",
"&z 	c #925B3F",
"*z 	c #915C39",
"=z 	c #925C38",
"-z 	c #97603A",
";z 	c #955B34",
">z 	c #975B32",
",z 	c #975932",
"'z 	c #9A5B34",
")z 	c #9C5D36",
"!z 	c #A2633C",
"~z 	c #9F623A",
"{z 	c #995C33",
"]z 	c #9B5F36",
"^z 	c #975B31",
"/z 	c #9E6236",
"(z 	c #A06337",
"_z 	c #A06436",
":z 	c #9E6232",
"<z 	c #9C602E",
"[z 	c #9F6330",
"}z 	c #A06532",
"|z 	c #A36735",
"1z 	c #A46735",
"2z 	c #C3875C",
"3z 	c #C28359",
"4z 	c #C38457",
"5z 	c #C08154",
"6z 	c #B6876A",
"7z 	c #A39B93",
"8z 	c #B78455",
"9z 	c #B77E4E",
"0z 	c #BB8557",
"az 	c #BD8451",
"bz 	c #BC8446",
"cz 	c #B77F43",
"dz 	c #AD773F",
"ez 	c #A97440",
"fz 	c #B07643",
"gz 	c #AC7340",
"hz 	c #AD7643",
"iz 	c #AF7947",
"jz 	c #B07A48",
"kz 	c #B57A4C",
"lz 	c #B17A4B",
"mz 	c #AB7748",
"nz 	c #B17E4D",
"oz 	c #B37F51",
"pz 	c #B58251",
"qz 	c #B88354",
"rz 	c #B68553",
"sz 	c #B78857",
"tz 	c #B88A61",
"uz 	c #B28559",
"vz 	c #B88B5C",
"wz 	c #BC8F65",
"xz 	c #AE9882",
"yz 	c #A19A91",
"zz 	c #9F795C",
"Az 	c #A1714D",
"Bz 	c #A27C5B",
"Cz 	c #A98062",
"Dz 	c #AA8366",
"Ez 	c #B89A85",
"Fz 	c #A98972",
"Gz 	c #B89D88",
"Hz 	c #C8B5A6",
"Iz 	c #CCC1BB",
"Jz 	c #C2B1A7",
"Kz 	c #B29076",
"Lz 	c #A97D58",
"Mz 	c #B6967D",
"Nz 	c #B09277",
"Oz 	c #A18368",
"Pz 	c #A28870",
"Qz 	c #C5B4A2",
"Rz 	c #BFB3A5",
"Sz 	c #C3BAB1",
"Tz 	c #C6C0BA",
"Uz 	c #CCC6C0",
"Vz 	c #B8B1A8",
"Wz 	c #C2BAB0",
"Xz 	c #C7BEB4",
"Yz 	c #B5A294",
"Zz 	c #A7998E",
"`z 	c #AF8A6D",
" A 	c #B38968",
".A 	c #B48A66",
"+A 	c #B38962",
"@A 	c #B58A63",
"#A 	c #B78F6B",
"$A 	c #B58C67",
"%A 	c #B78A64",
"&A 	c #B88B63",
"*A 	c #B88D61",
"=A 	c #B88C65",
"-A 	c #B88D68",
";A 	c #B98F6A",
">A 	c #BB8F6D",
",A 	c #B98C6D",
"'A 	c #B78A6C",
")A 	c #B78B69",
"!A 	c #B68962",
"~A 	c #B78760",
"{A 	c #B3845E",
"]A 	c #B28361",
"^A 	c #B78C66",
"/A 	c #B59169",
"(A 	c #B29373",
"_A 	c #B58F69",
":A 	c #B38861",
"<A 	c #AE886A",
"[A 	c #A29C9D",
"}A 	c #A8998D",
"|A 	c #B7916F",
"1A 	c #B08461",
"2A 	c #A9836B",
"3A 	c #B08C69",
"4A 	c #B98D5F",
"5A 	c #BC8D63",
"6A 	c #AE8769",
"7A 	c #A9856B",
"8A 	c #A98365",
"9A 	c #A98363",
"0A 	c #AA8161",
"aA 	c #AC8465",
"bA 	c #AA886A",
"cA 	c #A9876A",
"dA 	c #AA866A",
"eA 	c #AE8367",
"fA 	c #B88A68",
"gA 	c #BD916C",
"hA 	c #BE936A",
"iA 	c #C19872",
"jA 	c #BE9672",
"kA 	c #BC9572",
"lA 	c #BF9B74",
"mA 	c #BF9C79",
"nA 	c #AAA09A",
"oA 	c #987358",
"pA 	c #966F53",
"qA 	c #9B7255",
"rA 	c #A07457",
"sA 	c #A37453",
"tA 	c #A17759",
"uA 	c #A07553",
"vA 	c #A07149",
"wA 	c #9F6E49",
"xA 	c #9D6C47",
"yA 	c #9B6A46",
"zA 	c #9B6D48",
"AA 	c #9E7051",
"BA 	c #9C6F50",
"CA 	c #9D7052",
"DA 	c #9E7155",
"EA 	c #9A6C4F",
"FA 	c #976947",
"GA 	c #936143",
"HA 	c #936144",
"IA 	c #956448",
"JA 	c #9D6F54",
"KA 	c #976A4D",
"LA 	c #8F684F",
"MA 	c #84624D",
"NA 	c #B49F91",
"OA 	c #CEC3BC",
"PA 	c #CAC9C3",
"QA 	c #CCCCC7",
"RA 	c #CECAC5",
"SA 	c #D0C7BE",
"TA 	c #D2C4BC",
"UA 	c #C9BFB5",
"VA 	c #B19683",
"WA 	c #A2755A",
"XA 	c #A88768",
"YA 	c #A87E5B",
"ZA 	c #BFAA99",
"`A 	c #C6B6A9",
" B 	c #C8BAAF",
".B 	c #CCC7BD",
"+B 	c #C9C6B9",
"@B 	c #CAC3B5",
"#B 	c #CDC2BC",
"$B 	c #CFC5C7",
"%B 	c #CDC7C3",
"&B 	c #CCC7BA",
"*B 	c #CAC7B8",
"=B 	c #CBC7BC",
"-B 	c #CFC6BD",
";B 	c #CABBAF",
">B 	c #BDA795",
",B 	c #B6937E",
"'B 	c #A9958F",
")B 	c #A7896A",
"!B 	c #A67F5A",
"~B 	c #AC8966",
"{B 	c #BB9778",
"]B 	c #AA8767",
"^B 	c #C3A78D",
"/B 	c #A87F5B",
"(B 	c #A26F40",
"_B 	c #A56D37",
":B 	c #A5733C",
"<B 	c #AC7B45",
"[B 	c #AC743C",
"}B 	c #AE733E",
"|B 	c #AA713F",
"1B 	c #A9703C",
"2B 	c #A1693A",
"3B 	c #A36F43",
"4B 	c #A77444",
"5B 	c #9C642E",
"6B 	c #9C632D",
"7B 	c #9F6732",
"8B 	c #A16731",
"9B 	c #A8703A",
"0B 	c #B68454",
"aB 	c #C09F77",
"bB 	c #BEA07C",
"cB 	c #B0936E",
"dB 	c #A77F5A",
"eB 	c #A8845E",
"fB 	c #A69991",
"gB 	c #A18D84",
"hB 	c #9A6646",
"iB 	c #905930",
"jB 	c #9D5F38",
"kB 	c #A1633A",
"lB 	c #9F5F36",
"mB 	c #A06036",
"nB 	c #A5653A",
"oB 	c #A7683A",
"pB 	c #A7683B",
"qB 	c #A7673A",
"rB 	c #A7653B",
"sB 	c #A7663B",
"tB 	c #A56339",
"uB 	c #A46034",
"vB 	c #A25F33",
"wB 	c #A36436",
"xB 	c #A46435",
"yB 	c #A36233",
"zB 	c #A76637",
"AB 	c #A66539",
"BB 	c #A56435",
"CB 	c #A66633",
"DB 	c #A96835",
"EB 	c #AC6C39",
"FB 	c #AA6A37",
"GB 	c #A66632",
"HB 	c #BC7C4F",
"IB 	c #C07E51",
"JB 	c #BB7A4D",
"KB 	c #BB7C51",
"LB 	c #B68970",
"MB 	c #ADA29F",
"NB 	c #AD896C",
"OB 	c #A97546",
"PB 	c #A36F3F",
"QB 	c #BC834B",
"RB 	c #BA8348",
"SB 	c #BC844A",
"TB 	c #B7804B",
"UB 	c #AD7948",
"VB 	c #AA7848",
"WB 	c #AE7747",
"XB 	c #AD7745",
"YB 	c #B07B48",
"ZB 	c #B27C4B",
"`B 	c #B77F56",
" C 	c #B37E55",
".C 	c #AE7F54",
"+C 	c #B08156",
"@C 	c #B18257",
"#C 	c #B68258",
"$C 	c #B48459",
"%C 	c #B7895D",
"&C 	c #B6895A",
"*C 	c #B18357",
"=C 	c #B2845C",
"-C 	c #B09782",
";C 	c #A69F97",
">C 	c #9B7B5D",
",C 	c #A67653",
"'C 	c #AB7E61",
")C 	c #A87F5F",
"!C 	c #A67D5C",
"~C 	c #A47D5E",
"{C 	c #B69B87",
"]C 	c #BDA089",
"^C 	c #C0A896",
"/C 	c #CABAAC",
"(C 	c #C7B9B0",
"_C 	c #B9A090",
":C 	c #A37556",
"<C 	c #A1683E",
"[C 	c #A77454",
"}C 	c #B28B6B",
"|C 	c #A88262",
"1C 	c #A27E5F",
"2C 	c #CEC4B9",
"3C 	c #CBC7C2",
"4C 	c #D0C8BF",
"5C 	c #D0C3B7",
"6C 	c #C8BAAE",
"7C 	c #C9BCB1",
"8C 	c #CDC0B5",
"9C 	c #BFB3A2",
"0C 	c #C3BCAE",
"aC 	c #B6AB9B",
"bC 	c #9C8E82",
"cC 	c #B18F79",
"dC 	c #B18A6F",
"eC 	c #B68B6B",
"fC 	c #B68C66",
"gC 	c #B58C62",
"hC 	c #B68D69",
"iC 	c #B68C68",
"jC 	c #B78963",
"kC 	c #B88A62",
"lC 	c #B5885B",
"mC 	c #B88B60",
"nC 	c #BB8D65",
"oC 	c #B68A68",
"pC 	c #B78A65",
"qC 	c #B48660",
"rC 	c #B78863",
"sC 	c #B68863",
"tC 	c #B48663",
"uC 	c #B88D6D",
"vC 	c #B68B65",
"wC 	c #B48A5D",
"xC 	c #B48D6A",
"yC 	c #B58B67",
"zC 	c #B08C71",
"AC 	c #B38C6B",
"BC 	c #AA7854",
"CC 	c #A67A52",
"DC 	c #C09060",
"EC 	c #C6915F",
"FC 	c #C59163",
"GC 	c #B88C67",
"HC 	c #B18968",
"IC 	c #AB8668",
"JC 	c #AA866B",
"KC 	c #AB8569",
"LC 	c #AA8468",
"MC 	c #AB866A",
"NC 	c #AC896E",
"OC 	c #AB876C",
"PC 	c #B3896C",
"QC 	c #B88B69",
"RC 	c #B78F6C",
"SC 	c #B88E6B",
"TC 	c #BA906D",
"UC 	c #BB926D",
"VC 	c #C19974",
"WC 	c #C09974",
"XC 	c #BD9671",
"YC 	c #B9946E",
"ZC 	c #BD9B78",
"`C 	c #A79A90",
" D 	c #A39993",
".D 	c #957662",
"+D 	c #916C51",
"@D 	c #977052",
"#D 	c #9F7558",
"$D 	c #A27659",
"%D 	c #A67751",
"&D 	c #AA7D59",
"*D 	c #A57C5A",
"=D 	c #A67A59",
"-D 	c #9F6E45",
";D 	c #9A6842",
">D 	c #9C6A44",
",D 	c #9B6B45",
"'D 	c #9A6B4C",
")D 	c #986B4C",
"!D 	c #9E7052",
"~D 	c #986A4E",
"{D 	c #986A4C",
"]D 	c #97684B",
"^D 	c #956649",
"/D 	c #9C7056",
"(D 	c #996647",
"_D 	c #996A4D",
":D 	c #92694F",
"<D 	c #8A6652",
"[D 	c #877568",
"}D 	c #AEA49B",
"|D 	c #BFAEA3",
"1D 	c #CEC6C0",
"2D 	c #C8C4BB",
"3D 	c #CEC7BF",
"4D 	c #CFC7C2",
"5D 	c #D0C6C0",
"6D 	c #CABFB6",
"7D 	c #BBAA9B",
"8D 	c #BCA18E",
"9D 	c #C8B0A0",
"0D 	c #B3927B",
"aD 	c #BB977E",
"bD 	c #CCB8AB",
"cD 	c #CFC2BB",
"dD 	c #C6ADA1",
"eD 	c #CEC6BB",
"fD 	c #CFC6C0",
"gD 	c #D1C7C9",
"hD 	c #D0C9C5",
"iD 	c #CFC9BE",
"jD 	c #CCC6BE",
"kD 	c #CFC5BD",
"lD 	c #B8A18F",
"mD 	c #BA9682",
"nD 	c #A99693",
"oD 	c #A3958A",
"pD 	c #A17F5B",
"qD 	c #A7774C",
"rD 	c #A97848",
"sD 	c #A56E3F",
"tD 	c #A87444",
"uD 	c #B4845E",
"vD 	c #A86D3D",
"wD 	c #A96D36",
"xD 	c #AA6D32",
"yD 	c #A97038",
"zD 	c #B38352",
"AD 	c #B98759",
"BD 	c #AA6D3C",
"CD 	c #A2622E",
"DD 	c #9F5E2C",
"ED 	c #9F5E33",
"FD 	c #A06A40",
"GD 	c #9E7039",
"HD 	c #9C662C",
"ID 	c #9B5E2A",
"JD 	c #9F5F2D",
"KD 	c #A36631",
"LD 	c #A86B36",
"MD 	c #A56D39",
"ND 	c #B2885A",
"OD 	c #B59771",
"PD 	c #BCA58A",
"QD 	c #C4A289",
"RD 	c #AC8B65",
"SD 	c #A49B8E",
"TD 	c #A28F84",
"UD 	c #9D6949",
"VD 	c #976032",
"WD 	c #A5663B",
"XD 	c #A9693E",
"YD 	c #A8693D",
"ZD 	c #A76539",
"`D 	c #A66438",
" E 	c #AB6A3C",
".E 	c #AA6B39",
"+E 	c #AC6D3B",
"@E 	c #AD6E3C",
"#E 	c #AE6D3D",
"$E 	c #AC6A3B",
"%E 	c #A76436",
"&E 	c #A45D31",
"*E 	c #A45F32",
"=E 	c #A46436",
"-E 	c #A86736",
";E 	c #A76636",
">E 	c #A76632",
",E 	c #A96935",
"'E 	c #AE6D3A",
")E 	c #AA6A35",
"!E 	c #BD7948",
"~E 	c #BE7746",
"{E 	c #BA7344",
"]E 	c #A59E96",
"^E 	c #AC8B6F",
"/E 	c #AC774F",
"(E 	c #A6703B",
"_E 	c #B3804A",
":E 	c #BB8752",
"<E 	c #BA8750",
"[E 	c #B8844F",
"}E 	c #AD794C",
"|E 	c #A9794F",
"1E 	c #A4754C",
"2E 	c #A67447",
"3E 	c #A87548",
"4E 	c #AC784A",
"5E 	c #B27D4B",
"6E 	c #B37E4E",
"7E 	c #B6815B",
"8E 	c #B18059",
"9E 	c #AD8058",
"0E 	c #AB8058",
"aE 	c #AF855C",
"bE 	c #AF835B",
"cE 	c #B58C63",
"dE 	c #AF8258",
"eE 	c #AE8154",
"fE 	c #B6895D",
"gE 	c #B68961",
"hE 	c #AD9480",
"iE 	c #A08471",
"jE 	c #A97957",
"kE 	c #AA7954",
"lE 	c #A77B53",
"mE 	c #A37950",
"nE 	c #A57B52",
"oE 	c #A5815E",
"pE 	c #A07852",
"qE 	c #A98767",
"rE 	c #C7B39E",
"sE 	c #B28E6E",
"tE 	c #A77654",
"uE 	c #AA7651",
"vE 	c #9C6039",
"wE 	c #AE8461",
"xE 	c #C6B09E",
"yE 	c #CCC2B8",
"zE 	c #C9C4BF",
"AE 	c #CAC6C1",
"BE 	c #CBBEB2",
"CE 	c #C7B09A",
"DE 	c #B1937B",
"EE 	c #B1947B",
"FE 	c #B4977F",
"GE 	c #AE9076",
"HE 	c #C3AE9C",
"IE 	c #B3A091",
"JE 	c #99887E",
"KE 	c #B18E77",
"LE 	c #B78F73",
"ME 	c #B78C6C",
"NE 	c #B68A63",
"OE 	c #B9906D",
"PE 	c #B78D69",
"QE 	c #B78961",
"RE 	c #B5875A",
"SE 	c #B28156",
"TE 	c #BA8E67",
"UE 	c #BA8D66",
"VE 	c #BB8D66",
"WE 	c #B98A65",
"XE 	c #B58664",
"YE 	c #B78C6B",
"ZE 	c #B58755",
"`E 	c #B58358",
" F 	c #AF8769",
".F 	c #A89C96",
"+F 	c #A59E9F",
"@F 	c #B59072",
"#F 	c #B07E53",
"$F 	c #B58552",
"%F 	c #C28E60",
"&F 	c #C49062",
"*F 	c #C69462",
"=F 	c #BB8B5F",
"-F 	c #B0855C",
";F 	c #A28269",
">F 	c #A4846C",
",F 	c #A5856D",
"'F 	c #A7856B",
")F 	c #A7866C",
"!F 	c #AA886E",
"~F 	c #AC896F",
"{F 	c #AE8C71",
"]F 	c #AB886E",
"^F 	c #B28C6F",
"/F 	c #B58B69",
"(F 	c #B7926D",
"_F 	c #B89069",
":F 	c #BA916E",
"<F 	c #BC9271",
"[F 	c #C19876",
"}F 	c #BF9774",
"|F 	c #BE9674",
"1F 	c #BA9471",
"2F 	c #BA9777",
"3F 	c #A59A94",
"4F 	c #8E6F5C",
"5F 	c #926D52",
"6F 	c #976F52",
"7F 	c #9D7458",
"8F 	c #A07557",
"9F 	c #A67754",
"0F 	c #A47A5C",
"aF 	c #A57957",
"bF 	c #9B6842",
"cF 	c #996741",
"dF 	c #91603A",
"eF 	c #9B6C4D",
"fF 	c #996C4E",
"gF 	c #A17358",
"hF 	c #9B6D50",
"iF 	c #9A6E4D",
"jF 	c #976C4D",
"kF 	c #946A4A",
"lF 	c #936849",
"mF 	c #986D52",
"nF 	c #98694D",
"oF 	c #956444",
"pF 	c #8E654C",
"qF 	c #86624E",
"rF 	c #8A786C",
"sF 	c #CABDB4",
"tF 	c #CDC7C1",
"uF 	c #C3B5A7",
"vF 	c #C9BDB4",
"wF 	c #CAC4BD",
"xF 	c #C3BFB3",
"yF 	c #BCB8AF",
"zF 	c #C1BBB0",
"AF 	c #C8C1B7",
"BF 	c #CBBDBB",
"CF 	c #C6B0A7",
"DF 	c #CFB8AA",
"EF 	c #D3C3BC",
"FF 	c #D1BFB6",
"GF 	c #C09480",
"HF 	c #B6866F",
"IF 	c #C6AB9E",
"JF 	c #BFB3A6",
"KF 	c #C7BFB2",
"LF 	c #D4CCC6",
"MF 	c #CDC5C0",
"NF 	c #CAC3BB",
"OF 	c #CDC7BF",
"PF 	c #CBC5BB",
"QF 	c #CEC4B7",
"RF 	c #C0B09F",
"SF 	c #BEA691",
"TF 	c #BE9A86",
"UF 	c #A79490",
"VF 	c #A49487",
"WF 	c #A27B52",
"XF 	c #A46F41",
"YF 	c #A26E3C",
"ZF 	c #A36D40",
"`F 	c #A56933",
" G 	c #A3632E",
".G 	c #A76633",
"+G 	c #A56A34",
"@G 	c #A36C33",
"#G 	c #A76D31",
"$G 	c #A87137",
"%G 	c #A46B3A",
"&G 	c #A46C3C",
"*G 	c #A16333",
"=G 	c #A0602E",
"-G 	c #A77C50",
";G 	c #C3A487",
">G 	c #B2906F",
",G 	c #A87A53",
"'G 	c #A57144",
")G 	c #AF8055",
"!G 	c #A6774B",
"~G 	c #B2885F",
"{G 	c #BA9F7D",
"]G 	c #C1AC8E",
"^G 	c #C5B49C",
"/G 	c #B89E83",
"(G 	c #A28669",
"_G 	c #9F9B95",
":G 	c #9E6A49",
"<G 	c #996233",
"[G 	c #A66838",
"}G 	c #A96B3A",
"|G 	c #A96A3A",
"1G 	c #A66634",
"2G 	c #AE6D3B",
"3G 	c #AD6F38",
"4G 	c #AE6E39",
"5G 	c #AB6B36",
"6G 	c #AA6936",
"7G 	c #A66032",
"8G 	c #A35F32",
"9G 	c #A26234",
"0G 	c #A46333",
"aG 	c #A66635",
"bG 	c #A16030",
"cG 	c #A05E31",
"dG 	c #A36232",
"eG 	c #A86833",
"fG 	c #AC6B38",
"gG 	c #AE6E3B",
"hG 	c #AF6E3B",
"iG 	c #AC6C37",
"jG 	c #C17B47",
"kG 	c #C27741",
"lG 	c #B7713D",
"mG 	c #B2774D",
"nG 	c #B18C78",
"oG 	c #AD9B8B",
"pG 	c #AB7E58",
"qG 	c #B78349",
"rG 	c #B8844E",
"sG 	c #AE7E4E",
"tG 	c #B48350",
"uG 	c #B8824E",
"vG 	c #AA7949",
"wG 	c #A6744C",
"xG 	c #9E7049",
"yG 	c #A87344",
"zG 	c #AF7B4A",
"AG 	c #B07D4E",
"BG 	c #B4845D",
"CG 	c #AE835E",
"DG 	c #A77F5C",
"EG 	c #A47E5B",
"FG 	c #A7815E",
"GG 	c #A9825F",
"HG 	c #AD8461",
"IG 	c #B18A64",
"JG 	c #B58E68",
"KG 	c #C2946B",
"LG 	c #B98A5C",
"MG 	c #BA8B61",
"NG 	c #BB8F6A",
"OG 	c #AB937F",
"PG 	c #A19B95",
"QG 	c #A17858",
"RG 	c #A87954",
"SG 	c #A57856",
"TG 	c #A87755",
"UG 	c #A16E45",
"VG 	c #9D693E",
"WG 	c #A4744C",
"XG 	c #B18E6F",
"YG 	c #A98560",
"ZG 	c #9E6E3B",
"`G 	c #AC7348",
" H 	c #A06C47",
".H 	c #9B6538",
"+H 	c #905B31",
"@H 	c #BEA28E",
"#H 	c #C9BBB0",
"$H 	c #B8AB9E",
"%H 	c #BFB5A5",
"&H 	c #C7B5A7",
"*H 	c #B2977E",
"=H 	c #AE8B68",
"-H 	c #A98B66",
";H 	c #AF987E",
">H 	c #BAA192",
",H 	c #B29283",
"'H 	c #A48B86",
")H 	c #B48F6E",
"!H 	c #BB916C",
"~H 	c #B98F6C",
"{H 	c #B68F6A",
"]H 	c #BA936D",
"^H 	c #B88E69",
"/H 	c #B68E6D",
"(H 	c #B48B68",
"_H 	c #B78962",
":H 	c #B8885B",
"<H 	c #B88760",
"[H 	c #B98A60",
"}H 	c #BA8D62",
"|H 	c #B88E65",
"1H 	c #BB9168",
"2H 	c #BA9069",
"3H 	c #B98E6A",
"4H 	c #B98C68",
"5H 	c #B88B66",
"6H 	c #B58964",
"7H 	c #B78A69",
"8H 	c #B98B6A",
"9H 	c #B38356",
"0H 	c #B38350",
"aH 	c #BB8658",
"bH 	c #B47B4E",
"cH 	c #AB7F65",
"dH 	c #A79C97",
"eH 	c #A79F97",
"fH 	c #B79A7F",
"gH 	c #BE8C60",
"hH 	c #C2905B",
"iH 	c #BF8C64",
"jH 	c #B68660",
"kH 	c #BD8E60",
"lH 	c #BB8A59",
"mH 	c #AE8354",
"nH 	c #AC845F",
"oH 	c #A78365",
"pH 	c #A1836E",
"qH 	c #A0836E",
"rH 	c #A5826B",
"sH 	c #A7826C",
"tH 	c #A88570",
"uH 	c #A88873",
"vH 	c #AE8D78",
"wH 	c #AA8B76",
"xH 	c #A78A73",
"yH 	c #AD8C71",
"zH 	c #B18E71",
"AH 	c #B29070",
"BH 	c #B69573",
"CH 	c #B99774",
"DH 	c #BC9575",
"EH 	c #BA9474",
"FH 	c #BC9676",
"GH 	c #BD9A7C",
"HH 	c #BB9E82",
"IH 	c #AB9F99",
"JH 	c #A79A95",
"KH 	c #92705C",
"LH 	c #8E6A54",
"MH 	c #8D6857",
"NH 	c #8C6957",
"OH 	c #977056",
"PH 	c #9D7355",
"QH 	c #A17658",
"RH 	c #A17656",
"SH 	c #9C6F4A",
"TH 	c #9D704C",
"UH 	c #9B6E4C",
"VH 	c #9A6A45",
"WH 	c #9F6B45",
"XH 	c #9F6F51",
"YH 	c #9D6E53",
"ZH 	c #9F6F56",
"`H 	c #9A7051",
" I 	c #986D4E",
".I 	c #96684A",
"+I 	c #956549",
"@I 	c #936347",
"#I 	c #8C6244",
"$I 	c #8E6244",
"%I 	c #8D634A",
"&I 	c #835E4A",
"*I 	c #887163",
"=I 	c #A99C93",
"-I 	c #C9BAAC",
";I 	c #D0C7BC",
">I 	c #CCC6BB",
",I 	c #C3B3A2",
"'I 	c #CCC0B3",
")I 	c #C8C1B8",
"!I 	c #C2B5AD",
"~I 	c #C5B6B0",
"{I 	c #C9BFB7",
"]I 	c #CFBFB4",
"^I 	c #B49789",
"/I 	c #B58A71",
"(I 	c #B1866A",
"_I 	c #C4A999",
":I 	c #C9B6A6",
"<I 	c #B99078",
"[I 	c #A46C50",
"}I 	c #A28069",
"|I 	c #AA9581",
"1I 	c #C3AE9D",
"2I 	c #AA907E",
"3I 	c #B39380",
"4I 	c #C3A998",
"5I 	c #C0AB99",
"6I 	c #C7B4A0",
"7I 	c #BBA38E",
"8I 	c #BC9C82",
"9I 	c #B9947E",
"0I 	c #9B724E",
"aI 	c #996036",
"bI 	c #9E6739",
"cI 	c #99653C",
"dI 	c #9D5D2F",
"eI 	c #9D6531",
"fI 	c #9C662F",
"gI 	c #A16330",
"hI 	c #9F6534",
"iI 	c #9E6637",
"jI 	c #A76F42",
"kI 	c #A46E46",
"lI 	c #A6704A",
"mI 	c #A47D57",
"nI 	c #C6B39D",
"oI 	c #AB8E73",
"pI 	c #BA9D85",
"qI 	c #BFA48C",
"rI 	c #B59A7D",
"sI 	c #B2977B",
"tI 	c #C0A78B",
"uI 	c #C5B39B",
"vI 	c #C5B5A0",
"wI 	c #C5B59F",
"xI 	c #AB8768",
"yI 	c #A48062",
"zI 	c #A39994",
"AI 	c #A5938C",
"BI 	c #9C6D4A",
"CI 	c #9F6231",
"DI 	c #A86837",
"EI 	c #A96937",
"FI 	c #A46430",
"GI 	c #A66631",
"HI 	c #A86932",
"II 	c #A86931",
"JI 	c #AC6D35",
"KI 	c #AE6E37",
"LI 	c #AA6A3A",
"MI 	c #A76837",
"NI 	c #A76938",
"OI 	c #A86C3D",
"PI 	c #A56736",
"QI 	c #A3612E",
"RI 	c #A4612C",
"SI 	c #A76732",
"TI 	c #A86D37",
"UI 	c #AC723D",
"VI 	c #B17541",
"WI 	c #B1733F",
"XI 	c #AF733F",
"YI 	c #C47D4E",
"ZI 	c #C37743",
"`I 	c #B4703C",
" J 	c #B07E58",
".J 	c #B0917D",
"+J 	c #AA9F94",
"@J 	c #BC864A",
"#J 	c #B9834C",
"$J 	c #AB784D",
"%J 	c #AD7B51",
"&J 	c #B37D4D",
"*J 	c #B17C47",
"=J 	c #A56F43",
"-J 	c #A37247",
";J 	c #957049",
">J 	c #9D7145",
",J 	c #AB7647",
"'J 	c #AE7B4D",
")J 	c #AA8055",
"!J 	c #A9835C",
"~J 	c #A3805D",
"{J 	c #9E7E60",
"]J 	c #A07F62",
"^J 	c #A38264",
"/J 	c #B08762",
"(J 	c #B5895D",
"_J 	c #BA8C5D",
":J 	c #B88A5A",
"<J 	c #B98B5D",
"[J 	c #B89067",
"}J 	c #9C9C97",
"|J 	c #A18F82",
"1J 	c #A6774F",
"2J 	c #A3744D",
"3J 	c #A8734A",
"4J 	c #A36C40",
"5J 	c #9E6539",
"6J 	c #9C6438",
"7J 	c #9E673D",
"8J 	c #9F6C40",
"9J 	c #9F6837",
"0J 	c #A2672E",
"aJ 	c #A56832",
"bJ 	c #A56D44",
"cJ 	c #AD7A51",
"dJ 	c #9D6742",
"eJ 	c #845536",
"fJ 	c #927053",
"gJ 	c #B6A084",
"hJ 	c #BEAB97",
"iJ 	c #AE917B",
"jJ 	c #A58567",
"kJ 	c #B38F79",
"lJ 	c #A58065",
"mJ 	c #A57C5D",
"nJ 	c #AE876B",
"oJ 	c #A48565",
"pJ 	c #B89C82",
"qJ 	c #B59B81",
"rJ 	c #AD9385",
"sJ 	c #A6928C",
"tJ 	c #AD8F6D",
"uJ 	c #B99366",
"vJ 	c #B9936B",
"wJ 	c #B48F68",
"xJ 	c #B59069",
"yJ 	c #B68A62",
"zJ 	c #B58966",
"AJ 	c #B58864",
"BJ 	c #B98559",
"CJ 	c #B98963",
"DJ 	c #B88963",
"EJ 	c #B58863",
"FJ 	c #B58C69",
"GJ 	c #B98D67",
"HJ 	c #B78C67",
"IJ 	c #B28560",
"JJ 	c #B0835C",
"KJ 	c #B07F59",
"LJ 	c #B37C4E",
"MJ 	c #B98251",
"NJ 	c #B98255",
"OJ 	c #B47E54",
"PJ 	c #B28871",
"QJ 	c #A69D98",
"RJ 	c #B89B84",
"SJ 	c #C39165",
"TJ 	c #C6935E",
"UJ 	c #BB885A",
"VJ 	c #B78A60",
"WJ 	c #BB8B5C",
"XJ 	c #AB805B",
"YJ 	c #A2846C",
"ZJ 	c #9D8471",
"`J 	c #A2836E",
" K 	c #A2826E",
".K 	c #A48773",
"+K 	c #A28976",
"@K 	c #A38A78",
"#K 	c #A38B78",
"$K 	c #9F8774",
"%K 	c #A48B76",
"&K 	c #A68D77",
"*K 	c #AA8F76",
"=K 	c #B49577",
"-K 	c #B9926F",
";K 	c #B8926D",
">K 	c #BC9773",
",K 	c #BC9B7D",
"'K 	c #B79E83",
")K 	c #A69D93",
"!K 	c #A79B97",
"~K 	c #94705D",
"{K 	c #92684F",
"]K 	c #806354",
"^K 	c #846755",
"/K 	c #8C6950",
"(K 	c #966E50",
"_K 	c #996B48",
":K 	c #936242",
"<K 	c #976748",
"[K 	c #986F50",
"}K 	c #956B4A",
"|K 	c #9B6E4E",
"1K 	c #9C7157",
"2K 	c #996D53",
"3K 	c #9D6E52",
"4K 	c #996C4D",
"5K 	c #96694A",
"6K 	c #95654C",
"7K 	c #95644C",
"8K 	c #93634A",
"9K 	c #8E604A",
"0K 	c #8A5D45",
"aK 	c #8D6145",
"bK 	c #926647",
"cK 	c #8E654A",
"dK 	c #85634C",
"eK 	c #907D73",
"fK 	c #B69B89",
"gK 	c #C7AD9B",
"hK 	c #C4AC9E",
"iK 	c #AC7F65",
"jK 	c #B48A73",
"kK 	c #C3A394",
"lK 	c #BB9788",
"mK 	c #B49282",
"nK 	c #B69B88",
"oK 	c #BC9B85",
"pK 	c #B48A6D",
"qK 	c #B88463",
"rK 	c #B37959",
"sK 	c #B07C61",
"tK 	c #B68B70",
"uK 	c #A76E4B",
"vK 	c #AD6D49",
"wK 	c #A87359",
"xK 	c #AA7B62",
"yK 	c #A6785C",
"zK 	c #A17357",
"AK 	c #A37557",
"BK 	c #B18468",
"CK 	c #AB836B",
"DK 	c #B0846B",
"EK 	c #B88869",
"FK 	c #BD9271",
"GK 	c #BA8F6A",
"HK 	c #B88F75",
"IK 	c #A79C8F",
"JK 	c #AAA093",
"KK 	c #A07E63",
"LK 	c #956442",
"MK 	c #956642",
"NK 	c #936747",
"OK 	c #95694A",
"PK 	c #986847",
"QK 	c #965E39",
"RK 	c #976135",
"SK 	c #9D6B41",
"TK 	c #9B6D47",
"UK 	c #9F6940",
"VK 	c #BC9880",
"WK 	c #BA9F90",
"XK 	c #B69984",
"YK 	c #BFAC93",
"ZK 	c #927654",
"`K 	c #A68F76",
" L 	c #C5B29E",
".L 	c #BCAB96",
"+L 	c #C3B29C",
"@L 	c #C1B29E",
"#L 	c #C3B9AA",
"$L 	c #C3B5A2",
"%L 	c #BEA992",
"&L 	c #926E51",
"*L 	c #A38874",
"=L 	c #A0714E",
"-L 	c #A26332",
";L 	c #A66836",
">L 	c #A46734",
",L 	c #A56835",
"'L 	c #A66935",
")L 	c #A56734",
"!L 	c #A36531",
"~L 	c #9E612C",
"{L 	c #9E612B",
"]L 	c #AA6D36",
"^L 	c #AB6D3A",
"/L 	c #AB6D3E",
"(L 	c #AA6E3F",
"_L 	c #AA6F40",
":L 	c #A66D40",
"<L 	c #A66B3C",
"[L 	c #A66837",
"}L 	c #A56836",
"|L 	c #AC703E",
"1L 	c #AD723F",
"2L 	c #AD7641",
"3L 	c #AF7943",
"4L 	c #AD7741",
"5L 	c #AE7843",
"6L 	c #B97442",
"7L 	c #BB703D",
"8L 	c #B6784D",
"9L 	c #B39A88",
"0L 	c #AF9D96",
"aL 	c #A89F97",
"bL 	c #B28E6D",
"cL 	c #BF864A",
"dL 	c #BB8349",
"eL 	c #AA7A51",
"fL 	c #AB7B4A",
"gL 	c #AA7A49",
"hL 	c #9C6B42",
"iL 	c #97673C",
"jL 	c #956840",
"kL 	c #966942",
"lL 	c #9A6D46",
"mL 	c #9F724E",
"nL 	c #A27551",
"oL 	c #A27753",
"pL 	c #9F7957",
"qL 	c #A27F60",
"rL 	c #A08063",
"sL 	c #9B7E63",
"tL 	c #A5886E",
"uL 	c #A88B73",
"vL 	c #AA8D72",
"wL 	c #AA8E6F",
"xL 	c #AA8E6E",
"yL 	c #A88B6F",
"zL 	c #A98D6E",
"AL 	c #AA937C",
"BL 	c #A3A19E",
"CL 	c #9D7A5E",
"DL 	c #9C7862",
"EL 	c #9A7258",
"FL 	c #956B48",
"GL 	c #966B49",
"HL 	c #9D7352",
"IL 	c #A07D5D",
"JL 	c #9C6E53",
"KL 	c #9D7153",
"LL 	c #9D7E67",
"ML 	c #9B755B",
"NL 	c #99755F",
"OL 	c #967865",
"PL 	c #997E6B",
"QL 	c #9A8779",
"RL 	c #998270",
"SL 	c #997865",
"TL 	c #9B7C75",
"UL 	c #987F77",
"VL 	c #9C7D6F",
"WL 	c #A18372",
"XL 	c #9E8774",
"YL 	c #A38A74",
"ZL 	c #A38D80",
"`L 	c #A99A9A",
" M 	c #A49999",
".M 	c #A79181",
"+M 	c #B08C6A",
"@M 	c #AD8B6D",
"#M 	c #AE8A6C",
"$M 	c #AA8667",
"%M 	c #AD8666",
"&M 	c #A98669",
"*M 	c #A98567",
"=M 	c #AC8563",
"-M 	c #A58871",
";M 	c #A99487",
">M 	c #A9917C",
",M 	c #A98B74",
"'M 	c #AA8A72",
")M 	c #A8866E",
"!M 	c #A4826A",
"~M 	c #9E7C64",
"{M 	c #99755D",
"]M 	c #99745B",
"^M 	c #A1795E",
"/M 	c #A0795E",
"(M 	c #A47B5D",
"_M 	c #A98366",
":M 	c #A59F96",
"<M 	c #B59A83",
"[M 	c #BE8E61",
"}M 	c #C2925B",
"|M 	c #BC8C58",
"1M 	c #B58861",
"2M 	c #B2875F",
"3M 	c #B0875B",
"4M 	c #A68056",
"5M 	c #9E8062",
"6M 	c #988475",
"7M 	c #99867B",
"8M 	c #9A8676",
"9M 	c #9E8673",
"0M 	c #A08875",
"aM 	c #9C8673",
"bM 	c #998775",
"cM 	c #9B8978",
"dM 	c #9D8A7A",
"eM 	c #9B8A7D",
"fM 	c #998C80",
"gM 	c #9C8E80",
"hM 	c #A28D7E",
"iM 	c #B19582",
"jM 	c #B2937C",
"kM 	c #B5967D",
"lM 	c #BA9B83",
"mM 	c #B49C8C",
"nM 	c #AAA29C",
"oM 	c #A9A2A3",
"pM 	c #A18C84",
"qM 	c #997966",
"rM 	c #85745F",
"sM 	c #7B7065",
"tM 	c #806D64",
"uM 	c #806A5F",
"vM 	c #907769",
"wM 	c #987A69",
"xM 	c #967866",
"yM 	c #937563",
"zM 	c #8A6B5A",
"AM 	c #8F7163",
"BM 	c #A0887D",
"CM 	c #AC9992",
"DM 	c #AA9D98",
"EM 	c #A99489",
"FM 	c #A0816D",
"GM 	c #957761",
"HM 	c #917560",
"IM 	c #886655",
"JM 	c #825E4F",
"KM 	c #7C5949",
"LM 	c #805E4F",
"MM 	c #82604F",
"NM 	c #82624C",
"OM 	c #886956",
"PM 	c #846B5C",
"QM 	c #8E7A70",
"RM 	c #A08774",
"SM 	c #9B7C64",
"TM 	c #977360",
"UM 	c #A28073",
"VM 	c #A88271",
"WM 	c #A87F6C",
"XM 	c #A37F6D",
"YM 	c #A2836F",
"ZM 	c #A68873",
"`M 	c #A6846F",
" N 	c #A78570",
".N 	c #A78372",
"+N 	c #AB826A",
"@N 	c #A37C5F",
"#N 	c #A47B63",
"$N 	c #A67A66",
"%N 	c #A5806F",
"&N 	c #A27E6A",
"*N 	c #A27D65",
"=N 	c #9C775E",
"-N 	c #9A7864",
";N 	c #A38475",
">N 	c #AA9187",
",N 	c #A88B78",
"'N 	c #AD8F7B",
")N 	c #AB8F7B",
"!N 	c #ACA79C",
"~N 	c #A8917E",
"{N 	c #9D7860",
"]N 	c #A27F64",
"^N 	c #A98A72",
"/N 	c #A78770",
"(N 	c #A2836D",
"_N 	c #A0826A",
":N 	c #967358",
"<N 	c #966F50",
"[N 	c #A07A5B",
"}N 	c #9F7C60",
"|N 	c #A8886F",
"1N 	c #A1836C",
"2N 	c #997A62",
"3N 	c #AE9E93",
"4N 	c #B3A693",
"5N 	c #97836C",
"6N 	c #967D63",
"7N 	c #AB9D8E",
"8N 	c #ACA091",
"9N 	c #AA9D8B",
"0N 	c #968874",
"aN 	c #9D8C78",
"bN 	c #9C8C7B",
"cN 	c #AA9F96",
"dN 	c #AB7E5D",
"eN 	c #A66B3B",
"fN 	c #A66F3C",
"gN 	c #A8723E",
"hN 	c #A66F3E",
"iN 	c #A76F3F",
"jN 	c #A36C3C",
"kN 	c #A26C3B",
"lN 	c #A26B3A",
"mN 	c #A06937",
"nN 	c #A46D3B",
"oN 	c #AB7445",
"pN 	c #AC7449",
"qN 	c #AA7448",
"rN 	c #A97448",
"sN 	c #A87247",
"tN 	c #A47248",
"uN 	c #AB764A",
"vN 	c #AA7143",
"wN 	c #A77044",
"xN 	c #A4704B",
"yN 	c #A87858",
"zN 	c #A8774B",
"AN 	c #A9764A",
"BN 	c #AF7646",
"CN 	c #A98C78",
"DN 	c #AC8E79",
"EN 	c #A89084",
"FN 	c #ABA3A3",
"GN 	c #B09178",
"HN 	c #AF8B6B",
"IN 	c #A98B6A",
"JN 	c #A48670",
"KN 	c #A38875",
"LN 	c #9F8E7F",
"MN 	c #9C8C81",
"NN 	c #9A897D",
"ON 	c #988A7F",
"PN 	c #9B8D83",
"QN 	c #9C8E83",
"RN 	c #A19487",
"SN 	c #A49992",
"TN 	c #A79892",
"UN 	c #ABA09A",
"VN 	c #AAA09B",
"WN 	c #A8A099",
"XN 	c #A5A097",
"YN 	c #A19B92",
"ZN 	c #A19B91",
"`N 	c #A9A5A1",
" O 	c #A89C99",
".O 	c #AA9D9A",
"+O 	c #AB9E99",
"@O 	c #A69A94",
"#O 	c #AAA29B",
"$O 	c #ACA59F",
"%O 	c #AA9F9A",
"&O 	c #A89B98",
"*O 	c #A89B9A",
"=O 	c #A7A29C",
"-O 	c #A6A19F",
";O 	c #A29B97",
">O 	c #B0A5A3",
",O 	c #ADA19C",
"'O 	c #A9A29B",
")O 	c #ABA097",
"!O 	c #AA9E97",
"~O 	c #A29E9F",
"{O 	c #A39DA3",
"]O 	c #A3A2A4",
"^O 	c #A4A39F",
"/O 	c #A79F98",
"(O 	c #A79C99",
"_O 	c #A29892",
":O 	c #9E938D",
"<O 	c #A19690",
"[O 	c #9F9891",
"}O 	c #A39F98",
"|O 	c #AA9D96",
"1O 	c #A99780",
"2O 	c #A2907D",
"3O 	c #A19080",
"4O 	c #A6968C",
"5O 	c #A1988D",
"6O 	c #A29994",
"7O 	c #A39E99",
"8O 	c #9E9690",
"9O 	c #ACA09C",
"0O 	c #ADA09B",
"aO 	c #A69B96",
"bO 	c #A99D98",
"cO 	c #A8A29B",
"dO 	c #AAA2A7",
"eO 	c #A7A6A4",
"fO 	c #AEA89D",
"gO 	c #AAA39E",
"hO 	c #AEA6A4",
"iO 	c #AEA7A5",
"jO 	c #ACA6A5",
"kO 	c #A29B93",
"lO 	c #A79E9D",
"mO 	c #A19A95",
"nO 	c #A59E9D",
"oO 	c #A69C98",
"pO 	c #A7A29E",
"qO 	c #ABA29B",
"rO 	c #AAA49D",
"sO 	c #AEA8A1",
"tO 	c #AEA3A0",
"uO 	c #ABA29E",
"vO 	c #B1AAA7",
"wO 	c #B3AEAB",
"xO 	c #B2ACA9",
"yO 	c #ADA5A3",
"zO 	c #AAA19B",
"AO 	c #A59A8F",
"BO 	c #A59C93",
"CO 	c #A79E94",
"DO 	c #A59D94",
"EO 	c #A19B93",
"FO 	c #A59A92",
"GO 	c #A59E95",
"HO 	c #ACA59D",
"IO 	c #A69F98",
"JO 	c #A69F9A",
"KO 	c #A7A09A",
"LO 	c #A49D95",
"MO 	c #A6A29E",
"NO 	c #A59081",
"OO 	c #A5907D",
"PO 	c #A58F7D",
"QO 	c #A5907F",
"RO 	c #A7968A",
"SO 	c #A79283",
"TO 	c #A68D7C",
"UO 	c #A38E81",
"VO 	c #A69286",
"WO 	c #A69282",
"XO 	c #A99586",
"YO 	c #A9978F",
"ZO 	c #A99689",
"`O 	c #A78E7F",
" P 	c #AB9F96",
".P 	c #A59A8D",
"+P 	c #A49B91",
"@P 	c #ACA097",
"#P 	c #AB9F97",
"$P 	c #A99E96",
"%P 	c #A5998D",
"&P 	c #A99889",
"*P 	c #A99991",
"=P 	c #AEA59F",
"-P 	c #A49E9C",
";P 	c #A8A2A1",
">P 	c #A7A4A4",
",P 	c #A8A5A5",
"'P 	c #A5A2A2",
")P 	c #A19F9B",
"!P 	c #9E9B96",
"~P 	c #A19D99",
"{P 	c #A29D99",
"]P 	c #AAA39F",
"^P 	c #A09C9B",
"/P 	c #A6A69E",
"(P 	c #AF9E96",
"_P 	c #B09E97",
":P 	c #B3A199",
"<P 	c #A9998D",
"[P 	c #AD9E91",
"}P 	c #A4A3A0",
"|P 	c #A4A49F",
"1P 	c #A3A39C",
"2P 	c #A39C98",
"3P 	c #ABA09B",
"4P 	c #AEA69B",
"5P 	c #ACA49D",
"6P 	c #A79898",
"7P 	c #9F9F9B",
"8P 	c #A29D97",
"9P 	c #A29E99",
"0P 	c #A3A29F",
"aP 	c #A4A29F",
"bP 	c #A3A09F",
"cP 	c #A5A29E",
"dP 	c #ABA4A7",
"eP 	c #AAA5A4",
"fP 	c #9E9897",
"gP 	c #A59D9C",
"hP 	c #AAA1A0",
"iP 	c #AAA49C",
"jP 	c #A7A29B",
"kP 	c #ABA4A0",
"lP 	c #AAA39D",
"mP 	c #AA9E9A",
"nP 	c #ABA19A",
"oP 	c #A9A69B",
"pP 	c #AAA79D",
"qP 	c #ABA69E",
"rP 	c #B2A6A2",
"sP 	c #B1A4A1",
"tP 	c #B3A6A5",
"uP 	c #B1A6A6",
"vP 	c #B1ADA8",
"wP 	c #B2AFA9",
"xP 	c #B1ADA9",
"yP 	c #B1ADAD",
"zP 	c #AAA4A4",
"AP 	c #AFA5A0",
"BP 	c #B1A5A2",
"CP 	c #ACA1A1",
"DP 	c #A6A4A2",
"EP 	c #A89F98",
"FP 	c #A0918D",
"GP 	c #A59692",
"HP 	c #A89A95",
"IP 	c #A79994",
"JP 	c #A29088",
"KP 	c #A49289",
"LP 	c #A6A29F",
"MP 	c #AFA7A6",
"NP 	c #ADA6A2",
"OP 	c #AFA89D",
"PP 	c #B0A99E",
"QP 	c #AFA99F",
"RP 	c #AFAAA0",
"SP 	c #ADA69E",
"TP 	c #AEA49D",
"UP 	c #AFA59E",
"VP 	c #B2A8A0",
"WP 	c #B4ABA2",
"XP 	c #B5AAA1",
"YP 	c #B2A59C",
"ZP 	c #ADA198",
"`P 	c #AFA299",
" Q 	c #AFA097",
".Q 	c #AD9D92",
"+Q 	c #AD9D93",
"@Q 	c #AE9D92",
"#Q 	c #B19F91",
"$Q 	c #AB9A8B",
"%Q 	c #AA9988",
"&Q 	c #AB9A8A",
"*Q 	c #A69C95",
"=Q 	c #A5A09D",
"-Q 	c #A39890",
";Q 	c #A79C95",
">Q 	c #A99F99",
",Q 	c #A49B95",
"'Q 	c #A29A93",
")Q 	c #A29C93",
"!Q 	c #A8A49F",
"~Q 	c #A1968F",
"{Q 	c #A49A96",
"]Q 	c #A49B97",
"^Q 	c #A59F99",
"/Q 	c #AE8E6A",
"(Q 	c #AF8E68",
"_Q 	c #AF8D69",
":Q 	c #B4906E",
"<Q 	c #B08B6A",
"[Q 	c #AA8969",
"}Q 	c #A3886A",
"|Q 	c #A48563",
"1Q 	c #A78766",
"2Q 	c #AC8D6A",
"3Q 	c #9F8769",
"4Q 	c #A5988E",
"5Q 	c #9C9086",
"6Q 	c #A89C94",
"7Q 	c #A48D7F",
"8Q 	c #A78F7F",
"9Q 	c #A48879",
"0Q 	c #A08474",
"aQ 	c #A48677",
"bQ 	c #A18575",
"cQ 	c #A08073",
"dQ 	c #9F7F78",
"eQ 	c #A2827B",
"fQ 	c #A2837B",
"gQ 	c #A28477",
"hQ 	c #9F8173",
"iQ 	c #9F8273",
"jQ 	c #A18171",
"kQ 	c #AE9783",
"lQ 	c #B98A62",
"mQ 	c #B78B65",
"nQ 	c #B98E68",
"oQ 	c #B1865C",
"pQ 	c #B48A5F",
"qQ 	c #B48B61",
"rQ 	c #B09075",
"sQ 	c #B09987",
"tQ 	c #AC9C8E",
"uQ 	c #AC9881",
"vQ 	c #B29B85",
"wQ 	c #B79E8B",
"xQ 	c #B19D87",
"yQ 	c #B09D85",
"zQ 	c #AE9C85",
"AQ 	c #AE9B84",
"BQ 	c #A9967F",
"CQ 	c #B28E6C",
"DQ 	c #BC9774",
"EQ 	c #B9A189",
"FQ 	c #BEB0A2",
"GQ 	c #C6BBB1",
"HQ 	c #C6BAB1",
"IQ 	c #C4B8AD",
"JQ 	c #BDB0A3",
"KQ 	c #BAADA1",
"LQ 	c #ADA39B",
"MQ 	c #A8A195",
"NQ 	c #AA8C83",
"OQ 	c #A79082",
"PQ 	c #A88D80",
"QQ 	c #A69388",
"RQ 	c #A78E80",
"SQ 	c #AC8F7E",
"TQ 	c #AD917F",
"UQ 	c #AE9381",
"VQ 	c #AC907E",
"WQ 	c #AD917E",
"XQ 	c #B29581",
"YQ 	c #B19580",
"ZQ 	c #AB8F7A",
"`Q 	c #AB8F79",
" R 	c #AA8D78",
".R 	c #AD8F7C",
"+R 	c #AB8D7C",
"@R 	c #AA8E7D",
"#R 	c #AA8E7F",
"$R 	c #AB9080",
"%R 	c #AF9383",
"&R 	c #AC958B",
"*R 	c #A28C83",
"=R 	c #938578",
"-R 	c #8F786E",
";R 	c #957B6F",
">R 	c #967C70",
",R 	c #967D70",
"'R 	c #9F8374",
")R 	c #A08271",
"!R 	c #A38773",
"~R 	c #A48874",
"{R 	c #A58572",
"]R 	c #A9806C",
"^R 	c #AC826E",
"/R 	c #B08670",
"(R 	c #B0886D",
"_R 	c #AD866C",
":R 	c #A98369",
"<R 	c #AB856C",
"[R 	c #AD876F",
"}R 	c #AB8A7C",
"|R 	c #A9897C",
"1R 	c #AD8E82",
"2R 	c #AE988D",
"3R 	c #ABA399",
"4R 	c #ABA79F",
"5R 	c #B2ACAA",
"6R 	c #AAA59D",
"7R 	c #A08E85",
"8R 	c #9D8476",
"9R 	c #8E7466",
"0R 	c #93796A",
"aR 	c #997761",
"bR 	c #A47E6F",
"cR 	c #A37B75",
"dR 	c #8E695B",
"eR 	c #886C5F",
"fR 	c #97847E",
"gR 	c #926D54",
"hR 	c #8F684E",
"iR 	c #845847",
"jR 	c #875747",
"kR 	c #865546",
"lR 	c #885D4C",
"mR 	c #815949",
"nR 	c #7E5547",
"oR 	c #7E543E",
"pR 	c #8C5E45",
"qR 	c #87553C",
"rR 	c #88553C",
"sR 	c #8E5B43",
"tR 	c #9E8A81",
"uR 	c #B1A18A",
"vR 	c #B59B80",
"wR 	c #B8987C",
"xR 	c #B5926F",
"yR 	c #B79572",
"zR 	c #B79675",
"AR 	c #B69676",
"BR 	c #B39374",
"CR 	c #B59370",
"DR 	c #B6916B",
"ER 	c #BA956E",
"FR 	c #BC9873",
"GR 	c #B79370",
"HR 	c #BA9673",
"IR 	c #B9956F",
"JR 	c #B9946B",
"KR 	c #B9956C",
"LR 	c #B99368",
"MR 	c #B78F61",
"NR 	c #B48B5E",
"OR 	c #B88D60",
"PR 	c #B88A5C",
"QR 	c #BD8E5F",
"RR 	c #BC8E5C",
"SR 	c #BC8D5B",
"TR 	c #BC8E5B",
"UR 	c #BB8F57",
"VR 	c #B88C52",
"WR 	c #B8905B",
"XR 	c #A17C5E",
"YR 	c #A7764B",
"ZR 	c #A06D45",
"`R 	c #956D4E",
" S 	c #91694A",
".S 	c #916C50",
"+S 	c #8B6D5B",
"@S 	c #816654",
"#S 	c #806654",
"$S 	c #7F6A56",
"%S 	c #887261",
"&S 	c #8D7465",
"*S 	c #8B7364",
"=S 	c #8A7465",
"-S 	c #8E7C6D",
";S 	c #8C7B6B",
">S 	c #8B7B6B",
",S 	c #8A7D6D",
"'S 	c #8D806F",
")S 	c #9A8C7B",
"!S 	c #A08F7E",
"~S 	c #A08D7D",
"{S 	c #A28F80",
"]S 	c #A18C81",
"^S 	c #A08B7F",
"/S 	c #9F8B7F",
"(S 	c #A6A19A",
"_S 	c #B89273",
":S 	c #B39172",
"<S 	c #B49A80",
"[S 	c #B49B82",
"}S 	c #B19984",
"|S 	c #B09983",
"1S 	c #AA937F",
"2S 	c #B3A293",
"3S 	c #B2A293",
"4S 	c #AF9E8F",
"5S 	c #AFA08E",
"6S 	c #A49684",
"7S 	c #A69886",
"8S 	c #AA9E93",
"9S 	c #B0804E",
"0S 	c #B4804A",
"aS 	c #B38454",
"bS 	c #B17E4E",
"cS 	c #B27A44",
"dS 	c #B37D43",
"eS 	c #B5864D",
"fS 	c #B18145",
"gS 	c #B98A52",
"hS 	c #AB885F",
"iS 	c #A47F57",
"jS 	c #9F8D79",
"kS 	c #9E9E95",
"lS 	c #A99080",
"mS 	c #A1755D",
"nS 	c #9E705A",
"oS 	c #9E6F59",
"pS 	c #9B6C57",
"qS 	c #986B56",
"rS 	c #9B7260",
"sS 	c #9E715B",
"tS 	c #97664B",
"uS 	c #9B684E",
"vS 	c #A06D53",
"wS 	c #9F6C50",
"xS 	c #9C6742",
"yS 	c #985E3A",
"zS 	c #9C5F3D",
"AS 	c #9C6546",
"BS 	c #9A6445",
"CS 	c #9A5E3A",
"DS 	c #955D42",
"ES 	c #975C40",
"FS 	c #955637",
"GS 	c #9B5736",
"HS 	c #9C5334",
"IS 	c #9E5A3A",
"JS 	c #9E613C",
"KS 	c #9F623E",
"LS 	c #9D603B",
"MS 	c #A16239",
"NS 	c #9E6240",
"OS 	c #A37361",
"PS 	c #B49379",
"QS 	c #BD8D5D",
"RS 	c #C0946A",
"SS 	c #BC9166",
"TS 	c #BC9263",
"US 	c #BA9065",
"VS 	c #BC9268",
"WS 	c #BD936A",
"XS 	c #BA9574",
"YS 	c #BC9A7B",
"ZS 	c #C1A281",
"`S 	c #C09C7A",
" T 	c #C2966A",
".T 	c #BA8C5B",
"+T 	c #B98B60",
"@T 	c #B9926B",
"#T 	c #B9A186",
"$T 	c #BDA890",
"%T 	c #BA9C7D",
"&T 	c #BF9978",
"*T 	c #C9AF97",
"=T 	c #D0C4B8",
"-T 	c #D3CFC9",
";T 	c #D6D2CE",
">T 	c #D6D1CD",
",T 	c #D6D1CB",
"'T 	c #D3CDC6",
")T 	c #D3CCC5",
"!T 	c #BDB1A2",
"~T 	c #A49C94",
"{T 	c #AF9281",
"]T 	c #AE7C5B",
"^T 	c #B48162",
"/T 	c #B58264",
"(T 	c #AA7C5E",
"_T 	c #AA7D61",
":T 	c #B07956",
"<T 	c #B27E5A",
"[T 	c #B5835C",
"}T 	c #B5825B",
"|T 	c #B57D55",
"1T 	c #B37448",
"2T 	c #B37749",
"3T 	c #B37E54",
"4T 	c #B27F56",
"5T 	c #B0754B",
"6T 	c #AF754B",
"7T 	c #AE734E",
"8T 	c #AB6D44",
"9T 	c #B16D42",
"0T 	c #AF693F",
"aT 	c #B27145",
"bT 	c #B4754A",
"cT 	c #B47449",
"dT 	c #B3734A",
"eT 	c #B7764D",
"fT 	c #B0774E",
"gT 	c #AE9685",
"hT 	c #9D7867",
"iT 	c #846D59",
"jT 	c #8E7160",
"kT 	c #8F7764",
"lT 	c #8D735F",
"mT 	c #99745C",
"nT 	c #94725D",
"oT 	c #95735F",
"pT 	c #9F795E",
"qT 	c #A77B5E",
"rT 	c #AB7B5B",
"sT 	c #AF7C55",
"tT 	c #AE7953",
"uT 	c #B37A54",
"vT 	c #B7794E",
"wT 	c #B3784F",
"xT 	c #B67C54",
"yT 	c #B87D53",
"zT 	c #B3784C",
"AT 	c #B1774A",
"BT 	c #AF7549",
"CT 	c #B1774F",
"DT 	c #AD7A59",
"ET 	c #AE7D5E",
"FT 	c #A9795C",
"GT 	c #AB7B5F",
"HT 	c #B08266",
"IT 	c #AA8B78",
"JT 	c #A79C96",
"KT 	c #A6856E",
"LT 	c #A68267",
"MT 	c #A1795C",
"NT 	c #9C6A4C",
"OT 	c #976445",
"PT 	c #966444",
"QT 	c #9A6543",
"RT 	c #945E3E",
"ST 	c #8F5A3F",
"TT 	c #8A5C42",
"UT 	c #7F5640",
"VT 	c #805A45",
"WT 	c #8A6146",
"XT 	c #945E35",
"YT 	c #905530",
"ZT 	c #88482A",
"`T 	c #8E4C2E",
" U 	c #905A38",
".U 	c #875533",
"+U 	c #855234",
"@U 	c #81523A",
"#U 	c #8E5D42",
"$U 	c #925B39",
"%U 	c #965B36",
"&U 	c #8C5636",
"*U 	c #794D34",
"=U 	c #7C6152",
"-U 	c #A09991",
";U 	c #B0A092",
">U 	c #BD976B",
",U 	c #C3945E",
"'U 	c #C3925D",
")U 	c #C08F5B",
"!U 	c #C0905B",
"~U 	c #BF8E57",
"{U 	c #BE8A52",
"]U 	c #BE8950",
"^U 	c #BC884F",
"/U 	c #C18D53",
"(U 	c #BC8B57",
"_U 	c #BD8B57",
":U 	c #BF8B53",
"<U 	c #BE8A51",
"[U 	c #BF8A4C",
"}U 	c #BD8644",
"|U 	c #B7803E",
"1U 	c #B78141",
"2U 	c #B98346",
"3U 	c #BB854A",
"4U 	c #B9854B",
"5U 	c #B8864C",
"6U 	c #B88648",
"7U 	c #B88847",
"8U 	c #B78445",
"9U 	c #B0957C",
"0U 	c #A99887",
"aU 	c #A67344",
"bU 	c #AD743C",
"cU 	c #9B6737",
"dU 	c #956540",
"eU 	c #97683E",
"fU 	c #8D623C",
"gU 	c #826042",
"hU 	c #7A5E46",
"iU 	c #785C46",
"jU 	c #7B5B43",
"kU 	c #835F45",
"lU 	c #886346",
"mU 	c #8A6548",
"nU 	c #896549",
"oU 	c #87674D",
"pU 	c #856851",
"qU 	c #7F6653",
"rU 	c #7C6652",
"sU 	c #826952",
"tU 	c #8E7157",
"uU 	c #927051",
"vU 	c #997352",
"wU 	c #9C7351",
"xU 	c #9A7050",
"yU 	c #9C7552",
"zU 	c #9D7A5B",
"AU 	c #947E6E",
"BU 	c #A29995",
"CU 	c #BA9774",
"DU 	c #C39460",
"EU 	c #BC9362",
"FU 	c #BE9369",
"GU 	c #BF9369",
"HU 	c #C2966C",
"IU 	c #C19268",
"JU 	c #BD9775",
"KU 	c #CBB7A4",
"LU 	c #CCC0B2",
"MU 	c #C9BCB0",
"NU 	c #CBBDB1",
"OU 	c #C9BCAD",
"PU 	c #C6B9AA",
"QU 	c #C5BBAB",
"RU 	c #C8C1B4",
"SU 	c #B17C46",
"TU 	c #B27B44",
"UU 	c #B47C45",
"VU 	c #B48654",
"WU 	c #BF9C72",
"XU 	c #AE7B48",
"YU 	c #B07533",
"ZU 	c #B48042",
"`U 	c #BC8B54",
" V 	c #BC8B4E",
".V 	c #B58A50",
"+V 	c #CAA98C",
"@V 	c #B39680",
"#V 	c #AB865D",
"$V 	c #AC906D",
"%V 	c #AA755B",
"&V 	c #AE6F47",
"*V 	c #B07752",
"=V 	c #A97258",
"-V 	c #A26A52",
";V 	c #A56F56",
">V 	c #9F674A",
",V 	c #A27052",
"'V 	c #A77659",
")V 	c #A07053",
"!V 	c #9E6C4D",
"~V 	c #A06943",
"{V 	c #9F623D",
"]V 	c #985836",
"^V 	c #9E6E4E",
"/V 	c #AA7C5D",
"(V 	c #9E6742",
"_V 	c #976145",
":V 	c #93593C",
"<V 	c #955735",
"[V 	c #A0623B",
"}V 	c #A25D39",
"|V 	c #A76945",
"1V 	c #A76C45",
"2V 	c #A76C46",
"3V 	c #A36842",
"4V 	c #9E663C",
"5V 	c #9D613E",
"6V 	c #9E7561",
"7V 	c #A0928E",
"8V 	c #B08F75",
"9V 	c #BC8F60",
"0V 	c #BE956F",
"aV 	c #BC956D",
"bV 	c #BD976A",
"cV 	c #BE9770",
"dV 	c #C19A75",
"eV 	c #BC9570",
"fV 	c #BF9A77",
"gV 	c #C19B78",
"hV 	c #C5A384",
"iV 	c #C5A68A",
"jV 	c #C3A782",
"kV 	c #CCB191",
"lV 	c #C4AA95",
"mV 	c #B4987D",
"nV 	c #C0A593",
"oV 	c #D0BDB5",
"pV 	c #C2AEA6",
"qV 	c #C0B0A2",
"rV 	c #D6CFC4",
"sV 	c #D2D3CF",
"tV 	c #D3D4D1",
"uV 	c #D6D4D0",
"vV 	c #D6D2CD",
"wV 	c #D5D2CA",
"xV 	c #D2CCC5",
"yV 	c #BFB19F",
"zV 	c #B9886F",
"AV 	c #C4845A",
"BV 	c #C08B65",
"CV 	c #BC8B66",
"DV 	c #BA835D",
"EV 	c #B78667",
"FV 	c #B5815F",
"GV 	c #B5805A",
"HV 	c #B68A64",
"IV 	c #BB906D",
"JV 	c #B68560",
"KV 	c #B3825D",
"LV 	c #B68058",
"MV 	c #B97848",
"NV 	c #B17141",
"OV 	c #B37E59",
"PV 	c #BA8F6C",
"QV 	c #B47E5A",
"RV 	c #AF7851",
"SV 	c #AE734B",
"TV 	c #B17044",
"UV 	c #BC7847",
"VV 	c #B87641",
"WV 	c #B87C48",
"XV 	c #C08359",
"YV 	c #BC7E54",
"ZV 	c #BD7D51",
"`V 	c #B67949",
" W 	c #B18161",
".W 	c #A88B77",
"+W 	c #967660",
"@W 	c #8B6F5D",
"#W 	c #907362",
"$W 	c #8D7361",
"%W 	c #8B735F",
"&W 	c #90715B",
"*W 	c #8C6E59",
"=W 	c #947561",
"-W 	c #9D7961",
";W 	c #B37B51",
">W 	c #B87B51",
",W 	c #BA774E",
"'W 	c #BD7848",
")W 	c #BC7B4F",
"!W 	c #BD8056",
"~W 	c #BB8256",
"{W 	c #B77F4E",
"]W 	c #B67F4D",
"^W 	c #B67E4D",
"/W 	c #B57D4D",
"(W 	c #B07849",
"_W 	c #AF7B50",
":W 	c #B07B51",
"<W 	c #B27C52",
"[W 	c #AB7B59",
"}W 	c #A37456",
"|W 	c #9F7C64",
"1W 	c #A58978",
"2W 	c #9C785E",
"3W 	c #A0785B",
"4W 	c #A67757",
"5W 	c #9F6A4C",
"6W 	c #986345",
"7W 	c #976345",
"8W 	c #966244",
"9W 	c #966344",
"0W 	c #916041",
"aW 	c #8A5D43",
"bW 	c #705040",
"cW 	c #7E5740",
"dW 	c #906641",
"eW 	c #915937",
"fW 	c #864C2E",
"gW 	c #8E5232",
"hW 	c #894C2B",
"iW 	c #905132",
"jW 	c #85492B",
"kW 	c #884D2C",
"lW 	c #8D532E",
"mW 	c #7A4D32",
"nW 	c #84553C",
"oW 	c #975B3E",
"pW 	c #935A3B",
"qW 	c #825234",
"rW 	c #734B34",
"sW 	c #765743",
"tW 	c #B39C8B",
"uW 	c #C39261",
"vW 	c #C48F54",
"wW 	c #C48F56",
"xW 	c #C38F58",
"yW 	c #C39059",
"zW 	c #C29159",
"AW 	c #C08E54",
"BW 	c #C08A4D",
"CW 	c #BD864A",
"DW 	c #B88246",
"EW 	c #BE8952",
"FW 	c #BC8853",
"GW 	c #BD8852",
"HW 	c #C18A51",
"IW 	c #C28C52",
"JW 	c #C28C4E",
"KW 	c #C18A48",
"LW 	c #BC8543",
"MW 	c #B88242",
"NW 	c #B98347",
"OW 	c #B98449",
"PW 	c #BB874C",
"QW 	c #B9874A",
"RW 	c #B6814A",
"SW 	c #B48154",
"TW 	c #A48C74",
"UW 	c #A57043",
"VW 	c #AA723C",
"WW 	c #9C6C3A",
"XW 	c #98653A",
"YW 	c #9F6B40",
"ZW 	c #99683C",
"`W 	c #886038",
" X 	c #826141",
".X 	c #7B5F45",
"+X 	c #785C47",
"@X 	c #815F46",
"#X 	c #876042",
"$X 	c #8E6542",
"%X 	c #916745",
"&X 	c #926947",
"*X 	c #946D4D",
"=X 	c #8C6B4F",
"-X 	c #82654E",
";X 	c #81664F",
">X 	c #89694E",
",X 	c #936F4F",
"'X 	c #977452",
")X 	c #9C7550",
"!X 	c #9F744D",
"~X 	c #9F744E",
"{X 	c #9F774F",
"]X 	c #997555",
"^X 	c #8B7460",
"/X 	c #A39B92",
"(X 	c #BB946C",
"_X 	c #B7874B",
":X 	c #BB8750",
"<X 	c #BB8651",
"[X 	c #BC8852",
"}X 	c #BC8652",
"|X 	c #BC8E64",
"1X 	c #D1BFAA",
"2X 	c #CFC9BD",
"3X 	c #C5BFB4",
"4X 	c #C0BBB0",
"5X 	c #D1CAC8",
"6X 	c #CFC9C6",
"7X 	c #CEC8C2",
"8X 	c #AE7238",
"9X 	c #AB7239",
"0X 	c #A87641",
"aX 	c #B08357",
"bX 	c #C0966E",
"cX 	c #A8723C",
"dX 	c #A97030",
"eX 	c #B68B53",
"fX 	c #C5A577",
"gX 	c #C0A173",
"hX 	c #C3A67F",
"iX 	c #C8B39E",
"jX 	c #C2B2A1",
"kX 	c #C3A786",
"lX 	c #B08E5E",
"mX 	c #A1958C",
"nX 	c #A87356",
"oX 	c #A67153",
"pX 	c #A67052",
"qX 	c #A97359",
"rX 	c #A46E55",
"sX 	c #A8745A",
"tX 	c #A7775A",
"uX 	c #A67156",
"vX 	c #A37154",
"wX 	c #996649",
"xX 	c #9E6D4C",
"yX 	c #9A6342",
"zX 	c #9A6041",
"AX 	c #9E7256",
"BX 	c #9C7258",
"CX 	c #9D6A47",
"DX 	c #915E3E",
"EX 	c #945D39",
"FX 	c #9A6139",
"GX 	c #995834",
"HX 	c #A36643",
"IX 	c #9E623E",
"JX 	c #9E623C",
"KX 	c #985D3A",
"LX 	c #9A5B40",
"MX 	c #997B69",
"NX 	c #A19692",
"OX 	c #B08E74",
"PX 	c #B98C5E",
"QX 	c #BE966F",
"RX 	c #BE976F",
"SX 	c #BB9568",
"TX 	c #C29A75",
"UX 	c #BC956F",
"VX 	c #BC9673",
"WX 	c #BE9876",
"XX 	c #C19C79",
"YX 	c #C49976",
"ZX 	c #BD8E5B",
"`X 	c #BC9366",
" Y 	c #C7AA93",
".Y 	c #BA9B82",
"+Y 	c #B79072",
"@Y 	c #CDB5A6",
"#Y 	c #D6CBC7",
"$Y 	c #D8D3CF",
"%Y 	c #D6D5D2",
"&Y 	c #D5D4D1",
"*Y 	c #D7D3CF",
"=Y 	c #D5D1CA",
"-Y 	c #CABBA9",
";Y 	c #A49B93",
">Y 	c #A89A97",
",Y 	c #B98A71",
"'Y 	c #C0896B",
")Y 	c #BB8B65",
"!Y 	c #BD8D69",
"~Y 	c #B78561",
"{Y 	c #BD8B69",
"]Y 	c #BA8963",
"^Y 	c #B88B64",
"/Y 	c #B38963",
"(Y 	c #AF7D58",
"_Y 	c #B07E59",
":Y 	c #B6855D",
"<Y 	c #B37D50",
"[Y 	c #B3774B",
"}Y 	c #B78461",
"|Y 	c #B18A68",
"1Y 	c #B3815E",
"2Y 	c #AE754D",
"3Y 	c #AF7145",
"4Y 	c #B2723E",
"5Y 	c #B17438",
"6Y 	c #B9814E",
"7Y 	c #B67E52",
"8Y 	c #B8784D",
"9Y 	c #B8794E",
"0Y 	c #B6784C",
"aY 	c #B07549",
"bY 	c #AB826E",
"cY 	c #A6998F",
"dY 	c #A98D79",
"eY 	c #93705B",
"fY 	c #907663",
"gY 	c #917462",
"hY 	c #8D7462",
"iY 	c #8C745F",
"jY 	c #90745B",
"kY 	c #947457",
"lY 	c #9A7759",
"mY 	c #9B775B",
"nY 	c #AA7C57",
"oY 	c #B67F53",
"pY 	c #BB7E50",
"qY 	c #BF7E52",
"rY 	c #BF7A4D",
"sY 	c #BD7945",
"tY 	c #BE7F4D",
"uY 	c #C08455",
"vY 	c #C18655",
"wY 	c #C28853",
"xY 	c #C18751",
"yY 	c #C08651",
"zY 	c #BF8551",
"AY 	c #BA804C",
"BY 	c #BA804D",
"CY 	c #B58256",
"DY 	c #A77D5A",
"EY 	c #8E715A",
"FY 	c #7D6E5F",
"GY 	c #AAA19F",
"HY 	c #997053",
"IY 	c #9A6B4A",
"JY 	c #9F6D49",
"KY 	c #A26C4D",
"LY 	c #9D6749",
"MY 	c #9B6749",
"NY 	c #976546",
"OY 	c #8C5B3E",
"PY 	c #80553B",
"QY 	c #8D5E41",
"RY 	c #895E3E",
"SY 	c #7F5339",
"TY 	c #8D583A",
"UY 	c #935D3B",
"VY 	c #8D5634",
"WY 	c #86502F",
"XY 	c #8C5533",
"YY 	c #8F5836",
"ZY 	c #7D4D34",
"`Y 	c #6F442F",
" Z 	c #7B4D38",
".Z 	c #7C523B",
"+Z 	c #754C36",
"@Z 	c #744C36",
"#Z 	c #71503B",
"$Z 	c #A49A90",
"%Z 	c #B29985",
"&Z 	c #C48E59",
"*Z 	c #C58B4C",
"=Z 	c #C58A4E",
"-Z 	c #C58C51",
";Z 	c #C58C52",
">Z 	c #C28E54",
",Z 	c #BE8B50",
"'Z 	c #BB8345",
")Z 	c #B67E41",
"!Z 	c #B57E42",
"~Z 	c #BD844D",
"{Z 	c #BB814D",
"]Z 	c #B97E4B",
"^Z 	c #B9814A",
"/Z 	c #BD864C",
"(Z 	c #C0884F",
"_Z 	c #BF894C",
":Z 	c #BE8B4A",
"<Z 	c #BE8B4B",
"[Z 	c #C08B4C",
"}Z 	c #BF884C",
"|Z 	c #BE874B",
"1Z 	c #BA8446",
"2Z 	c #BA8648",
"3Z 	c #BD884E",
"4Z 	c #BC874E",
"5Z 	c #B37F54",
"6Z 	c #B3907E",
"7Z 	c #9B7757",
"8Z 	c #925C36",
"9Z 	c #A1683A",
"0Z 	c #A26F3F",
"aZ 	c #A66E3A",
"bZ 	c #AC7446",
"cZ 	c #9C683F",
"dZ 	c #86623F",
"eZ 	c #876541",
"fZ 	c #806041",
"gZ 	c #7E5E49",
"hZ 	c #846047",
"iZ 	c #8D6243",
"jZ 	c #996942",
"kZ 	c #9D6D45",
"lZ 	c #9D704A",
"mZ 	c #936B4A",
"nZ 	c #8D694C",
"oZ 	c #8B694B",
"pZ 	c #936D4C",
"qZ 	c #976D49",
"rZ 	c #9D7450",
"sZ 	c #A1764F",
"tZ 	c #A77A51",
"uZ 	c #A47A51",
"vZ 	c #9E7751",
"wZ 	c #937054",
"xZ 	c #8B7464",
"yZ 	c #A09A94",
"zZ 	c #BC9675",
"AZ 	c #BC834E",
"BZ 	c #BB8042",
"CZ 	c #BC8146",
"DZ 	c #B97D44",
"EZ 	c #B67B47",
"FZ 	c #CECBC2",
"GZ 	c #CECCC5",
"HZ 	c #CAC8C0",
"IZ 	c #CCCAC5",
"JZ 	c #CECBC6",
"KZ 	c #CECCC7",
"LZ 	c #C9CBC3",
"MZ 	c #AD754C",
"NZ 	c #B28864",
"OZ 	c #C7B194",
"PZ 	c #C0A286",
"QZ 	c #AA7A43",
"RZ 	c #AC7536",
"SZ 	c #AF7F44",
"TZ 	c #BF9B6B",
"UZ 	c #C0A17B",
"VZ 	c #C9AE8E",
"WZ 	c #C9B197",
"XZ 	c #C5B29D",
"YZ 	c #C9BCA8",
"ZZ 	c #C5AC89",
"`Z 	c #AE8B5D",
" ` 	c #9F9588",
".` 	c #9F9489",
"+` 	c #A47E69",
"@` 	c #A57D6A",
"#` 	c #A57965",
"$` 	c #A8775D",
"%` 	c #A47258",
"&` 	c #A27055",
"*` 	c #A26C51",
"=` 	c #A46E53",
"-` 	c #A16A50",
";` 	c #9E674C",
">` 	c #A06A50",
",` 	c #9B674D",
"'` 	c #976646",
")` 	c #925E3C",
"!` 	c #936343",
"~` 	c #97674A",
"{` 	c #946040",
"]` 	c #915A3D",
"^` 	c #90583A",
"/` 	c #925738",
"(` 	c #975637",
"_` 	c #914D2F",
":` 	c #925231",
"<` 	c #935532",
"[` 	c #975733",
"}` 	c #9B5732",
"|` 	c #915433",
"1` 	c #935A41",
"2` 	c #A28B7E",
"3` 	c #AB907A",
"4` 	c #BA936B",
"5` 	c #C19A76",
"6` 	c #C29C75",
"7` 	c #BF9972",
"8` 	c #C0996F",
"9` 	c #C29B71",
"0` 	c #BD956A",
"a` 	c #BD946C",
"b` 	c #BD9673",
"c` 	c #BF9675",
"d` 	c #C2916C",
"e` 	c #C18C63",
"f` 	c #BD8A56",
"g` 	c #BC854B",
"h` 	c #C09978",
"i` 	c #C29E86",
"j` 	c #C4A186",
"k` 	c #C6B6A5",
"l` 	c #D2CEC7",
"m` 	c #D3D4CF",
"n` 	c #D3D5D1",
"o` 	c #D4D4CF",
"p` 	c #D6D3CE",
"q` 	c #D6D2CF",
"r` 	c #D4D0CD",
"s` 	c #D6D1CC",
"t` 	c #D5CEC7",
"u` 	c #D9D1CA",
"v` 	c #D2C4B8",
"w` 	c #A99B96",
"x` 	c #B49382",
"y` 	c #B8917F",
"z` 	c #B58F77",
"A` 	c #B68D73",
"B` 	c #B58A69",
"C` 	c #B3805F",
"D` 	c #B98461",
"E` 	c #B4815C",
"F` 	c #B17D56",
"G` 	c #B6815A",
"H` 	c #B07E57",
"I` 	c #B17E56",
"J` 	c #AF754D",
"K` 	c #AF7A54",
"L` 	c #AF805A",
"M` 	c #AE7751",
"N` 	c #A97249",
"O` 	c #A96F46",
"P` 	c #AC6F41",
"Q` 	c #AC6832",
"R` 	c #AF6C38",
"S` 	c #AD6F43",
"T` 	c #B27044",
"U` 	c #B27142",
"V` 	c #AF6F47",
"W` 	c #AB714F",
"X` 	c #AC9185",
"Y` 	c #A89F9B",
"Z` 	c #A27658",
"`` 	c #9E785D",
"  .	c #937560",
". .	c #8B7261",
"+ .	c #937360",
"@ .	c #9C795A",
"# .	c #9D7754",
"$ .	c #A47957",
"% .	c #A37352",
"& .	c #B07B4F",
"* .	c #B47E4E",
"= .	c #B87D51",
"- .	c #BC7D4F",
"; .	c #BA7949",
"> .	c #BA7B47",
", .	c #C0824F",
"' .	c #C28551",
") .	c #C38A51",
"! .	c #C58B52",
"~ .	c #C58A50",
"{ .	c #C2874F",
"] .	c #C18552",
"^ .	c #BE8149",
"/ .	c #BE8347",
"( .	c #B58454",
"_ .	c #836C59",
": .	c #746661",
"< .	c #7C6C69",
"[ .	c #837067",
"} .	c #9E938B",
"| .	c #9F806B",
"1 .	c #9F6B4A",
"2 .	c #9F6846",
"3 .	c #A16A45",
"4 .	c #9E6A48",
"5 .	c #996A49",
"6 .	c #9B6744",
"7 .	c #9E6945",
"8 .	c #9E6946",
"9 .	c #9F6547",
"0 .	c #A06948",
"a .	c #9B6B46",
"b .	c #8A5839",
"c .	c #93603F",
"d .	c #9A6D47",
"e .	c #9B6541",
"f .	c #97603D",
"g .	c #935F3F",
"h .	c #8F593A",
"i .	c #8B5839",
"j .	c #8C5436",
"k .	c #734935",
"l .	c #5F4435",
"m .	c #66473A",
"n .	c #704B3C",
"o .	c #764E3B",
"p .	c #6F4B37",
"q .	c #90837A",
"r .	c #B79F89",
"s .	c #C38D5A",
"t .	c #BF8549",
"u .	c #BF844A",
"v .	c #C1884E",
"w .	c #C0884E",
"x .	c #BF884D",
"y .	c #BC8548",
"z .	c #BB8346",
"A .	c #B98043",
"B .	c #B97F43",
"C .	c #BC8246",
"D .	c #BE8249",
"E .	c #BD7E49",
"F .	c #BB7B47",
"G .	c #BB7C44",
"H .	c #BC7F45",
"I .	c #C0854E",
"J .	c #C0894F",
"K .	c #C18B50",
"L .	c #C28C50",
"M .	c #C08A4F",
"N .	c #BB844B",
"O .	c #B9834A",
"P .	c #BA854E",
"Q .	c #BC8752",
"R .	c #B9814C",
"S .	c #B47D50",
"T .	c #966842",
"U .	c #8B5633",
"V .	c #8F5D31",
"W .	c #A87343",
"X .	c #A97339",
"Y .	c #AC753E",
"Z .	c #A36E3C",
"` .	c #966640",
" ..	c #906240",
"...	c #8B6243",
"+..	c #86624A",
"@..	c #846347",
"#..	c #8F6540",
"$..	c #99653D",
"%..	c #9D6941",
"&..	c #9F6C43",
"*..	c #9F6E44",
"=..	c #966D4B",
"-..	c #936A48",
";..	c #916A49",
">..	c #9B6F49",
",..	c #9B6F48",
"'..	c #A0734B",
")..	c #A87A51",
"!..	c #9B7453",
"~..	c #886A52",
"{..	c #877263",
"]..	c #9D9992",
"^..	c #A49F96",
"/..	c #B79276",
"(..	c #B97F4C",
"_..	c #B8793B",
":..	c #B77D44",
"<..	c #B97F46",
"[..	c #B47A3E",
"}..	c #B67840",
"|..	c #BB997E",
"1..	c #C8C4BE",
"2..	c #CCCBC6",
"3..	c #CAC8BE",
"4..	c #CEC9BF",
"5..	c #CECABD",
"6..	c #CDCABA",
"7..	c #CDCAC1",
"8..	c #C8B5AE",
"9..	c #C8BBAF",
"0..	c #C8C0A9",
"a..	c #C4AF9B",
"b..	c #B79569",
"c..	c #BC956C",
"d..	c #AB7541",
"e..	c #C0966B",
"f..	c #B49A7D",
"g..	c #C2AE96",
"h..	c #C4B3A0",
"i..	c #C9B8A6",
"j..	c #D0C0AA",
"k..	c #BEA179",
"l..	c #AA8961",
"m..	c #A09890",
"n..	c #A28270",
"o..	c #A68472",
"p..	c #A5816D",
"q..	c #A4785D",
"r..	c #A07156",
"s..	c #99654B",
"t..	c #9D664B",
"u..	c #9C664B",
"v..	c #996348",
"w..	c #976249",
"x..	c #925D43",
"y..	c #966047",
"z..	c #935F46",
"A..	c #956445",
"B..	c #975C3C",
"C..	c #925A3A",
"D..	c #8D5334",
"E..	c #8E5236",
"F..	c #86492B",
"G..	c #905235",
"H..	c #945538",
"I..	c #8D4C2F",
"J..	c #965838",
"K..	c #925734",
"L..	c #975834",
"M..	c #9E5833",
"N..	c #8C502D",
"O..	c #8B573F",
"P..	c #A39B99",
"Q..	c #A89386",
"R..	c #B89675",
"S..	c #BC9978",
"T..	c #C2A07D",
"U..	c #C3A07E",
"V..	c #BF986D",
"W..	c #C09362",
"X..	c #BE8B56",
"Y..	c #BD8C5A",
"Z..	c #BE9267",
"`..	c #C29468",
" +.	c #C68E57",
".+.	c #C59161",
"++.	c #CDA37E",
"@+.	c #B8804A",
"#+.	c #BA8251",
"$+.	c #C1895B",
"%+.	c #B98B62",
"&+.	c #CCB6A0",
"*+.	c #D7D0C7",
"=+.	c #D3D2CB",
"-+.	c #D3D3CB",
";+.	c #D3D0C9",
">+.	c #D4D1C9",
",+.	c #D5D3CC",
"'+.	c #D4D1CB",
")+.	c #C5BAB0",
"!+.	c #C2AFA3",
"~+.	c #C8B4A9",
"{+.	c #C4B0A0",
"]+.	c #AD9F94",
"^+.	c #A89D94",
"/+.	c #AF9585",
"(+.	c #B89986",
"_+.	c #B79784",
":+.	c #B48666",
"<+.	c #B07E5B",
"[+.	c #B17F5E",
"}+.	c #B17C5C",
"|+.	c #B07B5B",
"1+.	c #B07A59",
"2+.	c #AA7551",
"3+.	c #AE7956",
"4+.	c #AB7855",
"5+.	c #B17D57",
"6+.	c #B0764B",
"7+.	c #AF7448",
"8+.	c #AE7249",
"9+.	c #A86942",
"0+.	c #AC6A41",
"a+.	c #A46236",
"b+.	c #AD6A3E",
"c+.	c #AF6D40",
"d+.	c #A96638",
"e+.	c #B16D3F",
"f+.	c #B47344",
"g+.	c #B27140",
"h+.	c #AB6A42",
"i+.	c #A9714F",
"j+.	c #B1937C",
"k+.	c #C18B5A",
"l+.	c #C08858",
"m+.	c #A27757",
"n+.	c #AB8163",
"o+.	c #AE845F",
"p+.	c #AF7A4C",
"q+.	c #AD7650",
"r+.	c #B47F4F",
"s+.	c #B98256",
"t+.	c #BB8153",
"u+.	c #BB7E4C",
"v+.	c #BD824D",
"w+.	c #C38852",
"x+.	c #C48953",
"y+.	c #C1894D",
"z+.	c #C1884C",
"A+.	c #C2874B",
"B+.	c #C2874E",
"C+.	c #C28552",
"D+.	c #BA8346",
"E+.	c #B88654",
"F+.	c #91745A",
"G+.	c #756762",
"H+.	c #776865",
"I+.	c #7F6D69",
"J+.	c #9F9294",
"K+.	c #A27A67",
"L+.	c #A66A46",
"M+.	c #A46842",
"N+.	c #A56A43",
"O+.	c #A66D46",
"P+.	c #A26D4A",
"Q+.	c #986848",
"R+.	c #966543",
"S+.	c #9A6742",
"T+.	c #9C653E",
"U+.	c #9C6345",
"V+.	c #996343",
"W+.	c #9F6C45",
"X+.	c #9C6A40",
"Y+.	c #9A603B",
"Z+.	c #9D6841",
"`+.	c #A36E4A",
" @.	c #A06545",
".@.	c #935E43",
"+@.	c #94613D",
"@@.	c #725041",
"#@.	c #594941",
"$@.	c #5D463C",
"%@.	c #6F4F41",
"&@.	c #775241",
"*@.	c #77523E",
"=@.	c #766255",
"-@.	c #A69F96",
";@.	c #B49C85",
">@.	c #BE8957",
",@.	c #BE854C",
"'@.	c #BC8249",
")@.	c #BD874E",
"!@.	c #C18B52",
"~@.	c #C1894F",
"{@.	c #BC8447",
"]@.	c #BC8348",
"^@.	c #BA8249",
"/@.	c #BD824B",
"(@.	c #BD7F4D",
"_@.	c #BB7D4B",
":@.	c #BB7C47",
"<@.	c #BB7E46",
"[@.	c #BC844F",
"}@.	c #BD8651",
"|@.	c #BE8750",
"1@.	c #BD8650",
"2@.	c #BC854F",
"3@.	c #B9814D",
"4@.	c #B6804D",
"5@.	c #B78152",
"6@.	c #B98355",
"7@.	c #A19186",
"8@.	c #9A704C",
"9@.	c #95623C",
"0@.	c #9C6B3E",
"a@.	c #A36F3D",
"b@.	c #A36D36",
"c@.	c #A9733B",
"d@.	c #A56E39",
"e@.	c #9C6637",
"f@.	c #936137",
"g@.	c #8F613C",
"h@.	c #8B6344",
"i@.	c #876344",
"j@.	c #8F623C",
"k@.	c #99623C",
"l@.	c #9B643E",
"m@.	c #9B683E",
"n@.	c #956741",
"o@.	c #906442",
"p@.	c #976B47",
"q@.	c #8F6748",
"r@.	c #A1714B",
"s@.	c #A87952",
"t@.	c #A37853",
"u@.	c #917154",
"v@.	c #887465",
"w@.	c #9E9A92",
"x@.	c #A4A096",
"y@.	c #B59177",
"z@.	c #B88050",
"A@.	c #B5783E",
"B@.	c #B77C3E",
"C@.	c #B97E42",
"D@.	c #B5793D",
"E@.	c #B4753E",
"F@.	c #CEB8AA",
"G@.	c #CDBAAB",
"H@.	c #C7BBAA",
"I@.	c #CDC1B7",
"J@.	c #CBC0B1",
"K@.	c #C9BEAA",
"L@.	c #CBC0AC",
"M@.	c #C7C5BF",
"N@.	c #C8C4B7",
"O@.	c #C6C2B1",
"P@.	c #C8B8AA",
"Q@.	c #A5855E",
"R@.	c #C1A385",
"S@.	c #BFA389",
"T@.	c #BCA185",
"U@.	c #C5B6A5",
"V@.	c #C2B8AC",
"W@.	c #CDC1B1",
"X@.	c #C7B6A0",
"Y@.	c #A58358",
"Z@.	c #AB8969",
"`@.	c #A89C9A",
" #.	c #A18774",
".#.	c #A78B76",
"+#.	c #A88A74",
"@#.	c #A58163",
"##.	c #98674C",
"$#.	c #9A6149",
"%#.	c #956248",
"&#.	c #905E44",
"*#.	c #8E5E43",
"=#.	c #8E5F44",
"-#.	c #8F6045",
";#.	c #906246",
">#.	c #936142",
",#.	c #925133",
"'#.	c #854527",
")#.	c #8C4D30",
"!#.	c #88482B",
"~#.	c #87482B",
"{#.	c #8A4C2F",
"]#.	c #8F5536",
"^#.	c #9D6343",
"/#.	c #985B3B",
"(#.	c #9E5C39",
"_#.	c #9F5932",
":#.	c #8B4C2A",
"<#.	c #8C573F",
"[#.	c #9B877D",
"}#.	c #A5988D",
"|#.	c #B29375",
"1#.	c #BE9978",
"2#.	c #BF9A79",
"3#.	c #C29D7B",
"4#.	c #C39365",
"5#.	c #BE8855",
"6#.	c #BE844D",
"7#.	c #C08753",
"8#.	c #C08C5A",
"9#.	c #C28C55",
"0#.	c #C28843",
"a#.	c #BE8B42",
"b#.	c #C3925A",
"c#.	c #C49967",
"d#.	c #C38F5A",
"e#.	c #B67640",
"f#.	c #AE7C54",
"g#.	c #C6AE97",
"h#.	c #D4C9BC",
"i#.	c #D3CDC1",
"j#.	c #D3CBBF",
"k#.	c #D3CABE",
"l#.	c #D8CEC4",
"m#.	c #D5CCC3",
"n#.	c #D4C7BF",
"o#.	c #D5C7BF",
"p#.	c #C5AF9C",
"q#.	c #AA9A87",
"r#.	c #AE9C8B",
"s#.	c #B89E89",
"t#.	c #B79E89",
"u#.	c #B6957C",
"v#.	c #B07E5F",
"w#.	c #AF7756",
"x#.	c #AD7958",
"y#.	c #AB7857",
"z#.	c #A97656",
"A#.	c #AA7757",
"B#.	c #AA7957",
"C#.	c #AD7851",
"D#.	c #A45B2D",
"E#.	c #AA643B",
"F#.	c #A8683F",
"G#.	c #A0603A",
"H#.	c #A5633D",
"I#.	c #AC6941",
"J#.	c #B67653",
"K#.	c #B7724A",
"L#.	c #B77341",
"M#.	c #B4713B",
"N#.	c #AA673B",
"O#.	c #A66F47",
"P#.	c #B59782",
"Q#.	c #C2915E",
"R#.	c #BB8A57",
"S#.	c #BA8D60",
"T#.	c #AF8861",
"U#.	c #A37E5D",
"V#.	c #A77A54",
"W#.	c #B27F55",
"X#.	c #B17C51",
"Y#.	c #B48054",
"Z#.	c #BB895B",
"`#.	c #BE8859",
" $.	c #BF8753",
".$.	c #C18B53",
"+$.	c #C18B54",
"@$.	c #C28C54",
"#$.	c #C38B4F",
"$$.	c #C2884C",
"%$.	c #BC8145",
"&$.	c #BA7F47",
"*$.	c #BF824F",
"=$.	c #C0844B",
"-$.	c #B78552",
";$.	c #AC7C54",
">$.	c #93755E",
",$.	c #88715F",
"'$.	c #837164",
")$.	c #9F9593",
"!$.	c #A59D9D",
"~$.	c #937E75",
"{$.	c #946349",
"]$.	c #946043",
"^$.	c #9B674C",
"/$.	c #92674D",
"($.	c #87624C",
"_$.	c #705140",
":$.	c #6A4C3A",
"<$.	c #805B42",
"[$.	c #956646",
"}$.	c #9B694B",
"|$.	c #A36A43",
"1$.	c #9C693C",
"2$.	c #9A6035",
"3$.	c #9A663A",
"4$.	c #966945",
"5$.	c #885D3D",
"6$.	c #976045",
"7$.	c #945940",
"8$.	c #89553C",
"9$.	c #7D543D",
"0$.	c #7B4F38",
"a$.	c #5C4235",
"b$.	c #4E4239",
"c$.	c #584639",
"d$.	c #634A3A",
"e$.	c #6F503C",
"f$.	c #75503A",
"g$.	c #7B5C47",
"h$.	c #A59789",
"i$.	c #B29A82",
"j$.	c #BF8B59",
"k$.	c #B98047",
"l$.	c #BB844C",
"m$.	c #BF884F",
"n$.	c #B88044",
"o$.	c #B77F42",
"p$.	c #BA844B",
"q$.	c #B67D4D",
"r$.	c #B57A48",
"s$.	c #B57B47",
"t$.	c #B47F4E",
"u$.	c #B8804D",
"v$.	c #B47D4A",
"w$.	c #B27B49",
"x$.	c #B27A4A",
"y$.	c #B07848",
"z$.	c #AF784E",
"A$.	c #B17A50",
"B$.	c #AC784F",
"C$.	c #AA7650",
"D$.	c #AD7A5C",
"E$.	c #B29082",
"F$.	c #9E7E5E",
"G$.	c #A46F3E",
"H$.	c #9E6D37",
"I$.	c #A16B39",
"J$.	c #A26C3A",
"K$.	c #9D6836",
"L$.	c #936135",
"M$.	c #916237",
"N$.	c #92653B",
"O$.	c #8B613F",
"P$.	c #93603C",
"Q$.	c #966039",
"R$.	c #97613A",
"S$.	c #97623B",
"T$.	c #966338",
"U$.	c #90633C",
"V$.	c #8C613F",
"W$.	c #956946",
"X$.	c #9D6F4B",
"Y$.	c #9F7049",
"Z$.	c #A0714B",
"`$.	c #A1734E",
" %.	c #9D7455",
".%.	c #8F715A",
"+%.	c #826E62",
"@%.	c #9E9993",
"#%.	c #A6A097",
"$%.	c #B2927D",
"%%.	c #B27F54",
"&%.	c #AC753F",
"*%.	c #B47940",
"=%.	c #B57A41",
"-%.	c #B2783E",
";%.	c #AF763D",
">%.	c #B3886D",
",%.	c #B08664",
"'%.	c #C4AC94",
")%.	c #CCB29E",
"!%.	c #C0A58C",
"~%.	c #BEA485",
"{%.	c #C2A58B",
"]%.	c #C3B6A3",
"^%.	c #C9C0AE",
"/%.	c #C8C3B0",
"(%.	c #BEAB93",
"_%.	c #A5845B",
":%.	c #B69A7B",
"<%.	c #C9BCA9",
"[%.	c #C7BCAB",
"}%.	c #C7BAA9",
"|%.	c #C2B6A6",
"1%.	c #BCB0A0",
"2%.	c #C0AC96",
"3%.	c #B2977A",
"4%.	c #997656",
"5%.	c #AB9083",
"6%.	c #A49D9B",
"7%.	c #A38B7A",
"8%.	c #AA8D77",
"9%.	c #A98870",
"0%.	c #9F775B",
"a%.	c #99684E",
"b%.	c #976147",
"c%.	c #956145",
"d%.	c #975F44",
"e%.	c #935A3D",
"f%.	c #8E573A",
"g%.	c #875939",
"h%.	c #875B3F",
"i%.	c #8E5737",
"j%.	c #A15E3A",
"k%.	c #8D4E30",
"l%.	c #88492D",
"m%.	c #874A2E",
"n%.	c #864F34",
"o%.	c #8E5D40",
"p%.	c #864F35",
"q%.	c #895034",
"r%.	c #91593B",
"s%.	c #975E40",
"t%.	c #9B5B3F",
"u%.	c #9B583A",
"v%.	c #965232",
"w%.	c #93593A",
"x%.	c #A27866",
"y%.	c #A2908E",
"z%.	c #A7A098",
"A%.	c #B5997A",
"B%.	c #BB936C",
"C%.	c #B78E63",
"D%.	c #BA8D5C",
"E%.	c #BE884F",
"F%.	c #BD834C",
"G%.	c #BB814E",
"H%.	c #BC844D",
"I%.	c #BE874F",
"J%.	c #BF864B",
"K%.	c #BD8641",
"L%.	c #BE873F",
"M%.	c #C28944",
"N%.	c #BE8C4D",
"O%.	c #B5844E",
"P%.	c #AC7D55",
"Q%.	c #B39175",
"R%.	c #BBA590",
"S%.	c #BFAF9C",
"T%.	c #C1AF9C",
"U%.	c #BEAA98",
"V%.	c #B59F8B",
"W%.	c #BA9E8A",
"X%.	c #BC9C80",
"Y%.	c #BD9F87",
"Z%.	c #C3AC9A",
"`%.	c #C8B4A3",
" &.	c #AE9E8F",
".&.	c #A8A095",
"+&.	c #A8A39B",
"@&.	c #BC9D89",
"#&.	c #AE8B75",
"$&.	c #AC8067",
"%&.	c #AD795E",
"&&.	c #AF7656",
"*&.	c #B2744F",
"=&.	c #AE704A",
"-&.	c #AA6C48",
";&.	c #A86F4B",
">&.	c #A5704E",
",&.	c #A77049",
"'&.	c #AA6633",
")&.	c #AA6433",
"!&.	c #A66334",
"~&.	c #A76940",
"{&.	c #AB7150",
"]&.	c #A26947",
"^&.	c #A76C4A",
"/&.	c #AE7555",
"(&.	c #B3744C",
"_&.	c #B7723E",
":&.	c #B36F3A",
"<&.	c #AD6B3D",
"[&.	c #AD7D5B",
"}&.	c #A99888",
"|&.	c #AAA69F",
"1&.	c #B19C8B",
"2&.	c #B18A66",
"3&.	c #AA8763",
"4&.	c #A57F5D",
"5&.	c #A17C5C",
"6&.	c #B1875E",
"7&.	c #AC8255",
"8&.	c #B58355",
"9&.	c #B7885B",
"0&.	c #BB8A5C",
"a&.	c #BC8A5A",
"b&.	c #BF8D57",
"c&.	c #C28F59",
"d&.	c #C08D55",
"e&.	c #BE894F",
"f&.	c #BB824A",
"g&.	c #B88148",
"h&.	c #B98149",
"i&.	c #BD844F",
"j&.	c #BE854D",
"k&.	c #BB8552",
"l&.	c #B28257",
"m&.	c #9B785A",
"n&.	c #8A7466",
"o&.	c #887B72",
"p&.	c #765C50",
"q&.	c #7F5A4C",
"r&.	c #715040",
"s&.	c #634D44",
"t&.	c #716462",
"u&.	c #614E47",
"v&.	c #563C31",
"w&.	c #6A4C3E",
"x&.	c #795644",
"y&.	c #73533D",
"z&.	c #8D633D",
"A&.	c #93643D",
"B&.	c #93623E",
"C&.	c #976845",
"D&.	c #745342",
"E&.	c #514034",
"F&.	c #6F5247",
"G&.	c #92604B",
"H&.	c #8D583E",
"I&.	c #794C36",
"J&.	c #6A4C41",
"K&.	c #64534B",
"L&.	c #524A3C",
"M&.	c #544638",
"N&.	c #594637",
"O&.	c #644F3E",
"P&.	c #75523C",
"Q&.	c #947461",
"R&.	c #AA9A92",
"S&.	c #B39D89",
"T&.	c #BB8858",
"U&.	c #B57D4C",
"V&.	c #B47B45",
"W&.	c #BA824E",
"X&.	c #B9804C",
"Y&.	c #B57D46",
"Z&.	c #B37B43",
"`&.	c #B47E4B",
" *.	c #B47F50",
".*.	c #B27C4F",
"+*.	c #AF7950",
"@*.	c #B37C51",
"#*.	c #AE784A",
"$*.	c #B07B4E",
"%*.	c #B37F50",
"&*.	c #B07B49",
"**.	c #AF7948",
"=*.	c #AB764C",
"-*.	c #AC774D",
";*.	c #AD7B54",
">*.	c #AB7D59",
",*.	c #AC7E5B",
"'*.	c #A97C5B",
")*.	c #AD8263",
"!*.	c #B18C72",
"~*.	c #B29B8C",
"{*.	c #A5A29D",
"]*.	c #ADA091",
"^*.	c #9F7E5D",
"/*.	c #96673F",
"(*.	c #8E5F31",
"_*.	c #A2693C",
":*.	c #A06839",
"<*.	c #9C6736",
"[*.	c #976434",
"}*.	c #946336",
"|*.	c #91603B",
"1*.	c #8D5D3C",
"2*.	c #8E5D3A",
"3*.	c #905F36",
"4*.	c #906037",
"5*.	c #8E5C32",
"6*.	c #905C32",
"7*.	c #895F3D",
"8*.	c #825E43",
"9*.	c #8B6448",
"0*.	c #8A6449",
"a*.	c #90664A",
"b*.	c #926444",
"c*.	c #8E664B",
"d*.	c #896752",
"e*.	c #816752",
"f*.	c #7B6653",
"g*.	c #786758",
"h*.	c #897E78",
"i*.	c #A8A39D",
"j*.	c #AA9481",
"k*.	c #B2855C",
"l*.	c #B07F53",
"m*.	c #B5835A",
"n*.	c #B48159",
"o*.	c #A67C59",
"p*.	c #A97D5B",
"q*.	c #A87C5C",
"r*.	c #AA8665",
"s*.	c #A88363",
"t*.	c #AB8660",
"u*.	c #A48B7F",
"v*.	c #A89388",
"w*.	c #A89A91",
"x*.	c #A38C7D",
"y*.	c #A68D7D",
"z*.	c #A39288",
"A*.	c #A2968E",
"B*.	c #A19483",
"C*.	c #9C8D7C",
"D*.	c #998979",
"E*.	c #A49185",
"F*.	c #A49690",
"G*.	c #9E928F",
"H*.	c #A1978E",
"I*.	c #9B8B81",
"J*.	c #9E8A7D",
"K*.	c #957B70",
"L*.	c #907267",
"M*.	c #9D806F",
"N*.	c #997667",
"O*.	c #976F62",
"P*.	c #93695D",
"Q*.	c #8C6759",
"R*.	c #8C6D5F",
"S*.	c #977D73",
"T*.	c #917165",
"U*.	c #946E5D",
"V*.	c #906C5F",
"W*.	c #886759",
"X*.	c #89695C",
"Y*.	c #91766C",
"Z*.	c #8F776C",
"`*.	c #82675D",
" =.	c #886153",
".=.	c #8A6251",
"+=.	c #966B59",
"@=.	c #956857",
"#=.	c #8C5F4E",
"$=.	c #906350",
"%=.	c #9B735E",
"&=.	c #9F857A",
"*=.	c #AB9F9F",
"==.	c #AAA5A6",
"-=.	c #AA9E94",
";=.	c #AB9C8F",
">=.	c #AC9988",
",=.	c #AA9484",
"'=.	c #A9937D",
")=.	c #AD967F",
"!=.	c #AE9380",
"~=.	c #AC917E",
"{=.	c #B09581",
"]=.	c #B29582",
"^=.	c #B19B85",
"/=.	c #AD9983",
"(=.	c #AD9783",
"_=.	c #A9917E",
":=.	c #A3907E",
"<=.	c #A79A88",
"[=.	c #AA9E91",
"}=.	c #AA9C93",
"|=.	c #A99A92",
"1=.	c #A99E94",
"2=.	c #AAA6A0",
"3=.	c #AAA098",
"4=.	c #AA978D",
"5=.	c #A7948B",
"6=.	c #A29186",
"7=.	c #A0867A",
"8=.	c #A98674",
"9=.	c #AE856F",
"0=.	c #AA826C",
"a=.	c #A67E68",
"b=.	c #A5816B",
"c=.	c #A28471",
"d=.	c #A78C7C",
"e=.	c #A78576",
"f=.	c #A77E6C",
"g=.	c #AC8771",
"h=.	c #A37F69",
"i=.	c #9F7861",
"j=.	c #A2755D",
"k=.	c #9C7158",
"l=.	c #9D6F55",
"m=.	c #9F6D52",
"n=.	c #AB775A",
"o=.	c #A97251",
"p=.	c #A76744",
"q=.	c #A96845",
"r=.	c #AD7658",
"s=.	c #AD9484",
"t=.	c #AAAAA8",
"u=.	c #A59185",
"v=.	c #9A8575",
"w=.	c #977D6A",
"x=.	c #A28873",
"y=.	c #A18671",
"z=.	c #AF8D6F",
"A=.	c #B4936F",
"B=.	c #B18E73",
"C=.	c #AE886E",
"D=.	c #AE886D",
"E=.	c #AD886C",
"F=.	c #AF8A69",
"G=.	c #B5906E",
"H=.	c #B4926D",
"I=.	c #B79571",
"J=.	c #B89774",
"K=.	c #B79676",
"L=.	c #B58F6A",
"M=.	c #B29071",
"N=.	c #B5916F",
"O=.	c #B79271",
"P=.	c #B89370",
"Q=.	c #B8946A",
"R=.	c #B8936F",
"S=.	c #B69172",
"T=.	c #AF8D72",
"U=.	c #927C6C",
"V=.	c #89807C",
"W=.	c #A19E9B",
"X=.	c #9D8F83",
"Y=.	c #A29C9A",
"Z=.	c #A1938E",
"`=.	c #9A8A84",
" -.	c #9F8E88",
".-.	c #948C86",
"+-.	c #9E8E82",
"@-.	c #A18F86",
"#-.	c #A5958D",
"$-.	c #A0958F",
"%-.	c #9A938D",
"&-.	c #968D87",
"*-.	c #A0948A",
"=-.	c #A3968C",
"--.	c #9F928A",
";-.	c #A59793",
">-.	c #9B9B95",
",-.	c #9B9893",
"'-.	c #9A928F",
")-.	c #A39B96",
"!-.	c #A89E97",
"~-.	c #B1A79A",
"{-.	c #B39072",
"]-.	c #AF7F5E",
"^-.	c #AE7D58",
"/-.	c #AE8463",
"(-.	c #AF825F",
"_-.	c #AD825F",
":-.	c #AE835F",
"<-.	c #B08667",
"[-.	c #B1876E",
"}-.	c #B2876E",
"|-.	c #AE876E",
"1-.	c #B28D78",
"2-.	c #B38E79",
"3-.	c #B08C74",
"4-.	c #AE8A71",
"5-.	c #AA866D",
"6-.	c #B38F77",
"7-.	c #AA8571",
"8-.	c #A88872",
"9-.	c #AA8E75",
"0-.	c #AB927E",
"a-.	c #A89384",
"b-.	c #AE9F96",
"c-.	c #ACA69E",
"d-.	c #ACABA4",
"e-.	c #ABAAA4",
"f-.	c #ADA7A1",
"g-.	c #9E8C88",
"h-.	c #927262",
"i-.	c #976E59",
"j-.	c #987C64",
"k-.	c #916751",
"l-.	c #946A54",
"m-.	c #946B55",
"n-.	c #8C6954",
"o-.	c #8A6752",
"p-.	c #8A6853",
"q-.	c #8B6855",
"r-.	c #8D6B58",
"s-.	c #90705D",
"t-.	c #8F735E",
"u-.	c #846F5F",
"v-.	c #8F7D73",
"w-.	c #96847B",
"x-.	c #8D7C72",
"y-.	c #917E73",
"z-.	c #92796B",
"A-.	c #907566",
"B-.	c #87725E",
"C-.	c #87725F",
"D-.	c #948171",
"E-.	c #ADA9A5",
"F-.	c #ACA297",
"G-.	c #AA8B74",
"H-.	c #A88C74",
"I-.	c #A99385",
"J-.	c #AA9589",
"K-.	c #B09889",
"L-.	c #A88F7F",
"M-.	c #A58D7B",
"N-.	c #A48D7A",
"O-.	c #A7917B",
"P-.	c #AA937E",
"Q-.	c #AB937E",
"R-.	c #AA8F7B",
"S-.	c #AC927C",
"T-.	c #A29D9C",
"U-.	c #A49D9D",
"V-.	c #A89D9F",
"W-.	c #A59B9A",
"X-.	c #A59D9A",
"Y-.	c #A4A19E",
"Z-.	c #A1A19E",
"`-.	c #A1A1A1",
" ;.	c #A3A0A0",
".;.	c #A6A2A1",
"+;.	c #A8AA9E",
"@;.	c #A5A49B",
"#;.	c #A5A4A0",
"$;.	c #ACA2A1",
"%;.	c #A9A7A2",
"&;.	c #A9A09F",
"*;.	c #AB9EA0",
"=;.	c #A79C9D",
"-;.	c #A7A0A0",
";;.	c #ADA4A6",
">;.	c #ADA7A8",
",;.	c #AAA7A6",
"';.	c #A6A39C",
");.	c #A5A29A",
"!;.	c #AAA9A3",
"~;.	c #ADA2A2",
"{;.	c #A6A39E",
"];.	c #AAA5A5",
"^;.	c #A8A1A1",
"/;.	c #A59F98",
"(;.	c #A59F97",
"_;.	c #A6A198",
":;.	c #ABA0A0",
"<;.	c #AFA6A4",
"[;.	c #ADA6A3",
"};.	c #AA9999",
"|;.	c #A89896",
"1;.	c #A89793",
"2;.	c #A99792",
"3;.	c #A0A09D",
"4;.	c #A9A6A2",
"5;.	c #ADA3A0",
"6;.	c #AA9FA1",
"7;.	c #ABA1A0",
"8;.	c #A69C9B",
"9;.	c #A39997",
"0;.	c #A79E99",
"a;.	c #A79F99",
"b;.	c #A9A19B",
"c;.	c #ACA4A0",
"d;.	c #ADA69C",
"e;.	c #A89F9F",
"f;.	c #A49D97",
"g;.	c #9E9D97",
"h;.	c #A29F9A",
"i;.	c #A8A79F",
"j;.	c #A6A4A4",
"k;.	c #A59E97",
"l;.	c #A9A29D",
"m;.	c #A7A19B",
"n;.	c #A5A099",
"o;.	c #AAA5A2",
"p;.	c #ADA8A4",
"q;.	c #ACA8A3",
"r;.	c #AD9E9A",
"s;.	c #B0A19A",
"t;.	c #ABA19D",
"u;.	c #ACA19D",
"v;.	c #AFA39C",
"w;.	c #ADA39C",
"x;.	c #AAA6A2",
"y;.	c #AAA6A5",
"z;.	c #AAA6A4",
"A;.	c #ACA8A6",
"B;.	c #AAA7A0",
"C;.	c #A9A8A0",
"D;.	c #ABABA6",
"E;.	c #ADA8A7",
"F;.	c #ABA4A3",
"G;.	c #A29F97",
"H;.	c #A5A299",
"I;.	c #A69E98",
"J;.	c #A2A2A1",
"K;.	c #AAA7A5",
"L;.	c #A5A3A1",
"M;.	c #A2A1A0",
"N;.	c #A49F97",
"O;.	c #9C9892",
"P;.	c #9D9A93",
"Q;.	c #A39891",
"R;.	c #A09C93",
"S;.	c #AAA196",
"T;.	c #A99F93",
"U;.	c #A69B95",
"V;.	c #AA9D95",
"W;.	c #A99C92",
"X;.	c #A79C92",
"Y;.	c #A69D96",
"Z;.	c #A09F9B",
"`;.	c #A69D9A",
" >.	c #ABA7A2",
".>.	c #AAA19D",
"+>.	c #A49A95",
"@>.	c #A69F94",
"#>.	c #A49A91",
"$>.	c #A49C96",
"%>.	c #A5A1A1",
"&>.	c #A99C94",
"*>.	c #AE9E95",
"=>.	c #A8968A",
"->.	c #AA998C",
";>.	c #AA998E",
">>.	c #AD9E92",
",>.	c #B19C92",
"'>.	c #A8988B",
")>.	c #A89A92",
"!>.	c #AA948E",
"~>.	c #AC9A92",
"{>.	c #AC9D93",
"]>.	c #A9988F",
"^>.	c #AA9C94",
"/>.	c #A29D9A",
"(>.	c #A79484",
"_>.	c #AA8F7D",
":>.	c #AE8E81",
"<>.	c #AB8D81",
"[>.	c #A78B7F",
"}>.	c #AB958B",
"|>.	c #AAA59B",
"1>.	c #A6908C",
"2>.	c #A28E87",
"3>.	c #AB9088",
"4>.	c #A5867D",
"5>.	c #9F8680",
"6>.	c #A28986",
"7>.	c #A29089",
"8>.	c #99867A",
"9>.	c #9F7F6F",
"0>.	c #A78B7D",
"a>.	c #A49589",
"b>.	c #AB9B91",
"c>.	c #AA9992",
"d>.	c #A8958F",
"e>.	c #A8928C",
"f>.	c #A99692",
"g>.	c #ACA0A2",
"h>.	c #A2998D",
"i>.	c #A59B96",
"j>.	c #9E938C",
"k>.	c #A49691",
"l>.	c #9E9287",
"m>.	c #9F8E85",
"n>.	c #A5978F",
"o>.	c #A99790",
"p>.	c #A6958F",
"q>.	c #A2978A",
"r>.	c #9D9383",
"s>.	c #A2978F",
"t>.	c #A79F93",
"u>.	c #9F978E",
"v>.	c #A09691",
"w>.	c #A09A99",
"x>.	c #A19C9C",
"y>.	c #A5A4A1",
"z>.	c #A59D9E",
"A>.	c #A49692",
"B>.	c #A98A78",
"C>.	c #AA826A",
"D>.	c #A67E69",
"E>.	c #AD8974",
"F>.	c #AD8676",
"G>.	c #A58173",
"H>.	c #A7857B",
"I>.	c #A7877C",
"J>.	c #A8887A",
"K>.	c #A78877",
"L>.	c #A98877",
"M>.	c #AC8A7A",
"N>.	c #B08C7C",
"O>.	c #AB9084",
"P>.	c #AD9381",
"Q>.	c #AE917D",
"R>.	c #AF907E",
"S>.	c #B08F81",
"T>.	c #B19085",
"U>.	c #B09287",
"V>.	c #AC958C",
"W>.	c #A89590",
"X>.	c #A99B97",
"Y>.	c #AC9D95",
"Z>.	c #B09C92",
"`>.	c #ABA298",
" ,.	c #A89688",
".,.	c #ADA090",
"+,.	c #AB9F92",
"@,.	c #A9A39B",
"#,.	c #ADA49A",
"$,.	c #AC9F8D",
"%,.	c #AD9B88",
"&,.	c #B19F95",
"*,.	c #B09D8F",
"=,.	c #AC9E90",
"-,.	c #AA9C8D",
";,.	c #A59A8E",
">,.	c #AA9E8F",
",,.	c #A69B8D",
"',.	c #A2998C",
"),.	c #A79A8B",
"!,.	c #AEA195",
"~,.	c #B0A79F",
"{,.	c #ACA194",
"],.	c #A99787",
"^,.	c #B0A59D",
"/,.	c #ACA7A5",
"(,.	c #A9988B",
"_,.	c #A8907E",
":,.	c #AD907B",
"<,.	c #A78A76",
"[,.	c #AC8D78",
"},.	c #AA9485",
"|,.	c #ADA8A5",
"1,.	c #ACA19A",
"2,.	c #AAA194",
"3,.	c #AAA397",
"4,.	c #A89D92",
"5,.	c #AA8F78",
"6,.	c #AB957D",
"7,.	c #A99684",
"8,.	c #B6A694",
"9,.	c #B6A293",
"0,.	c #B49F92",
"a,.	c #B19C8F",
"b,.	c #A4A4A0",
"c,.	c #A69E91",
"d,.	c #AD9483",
"e,.	c #A78D7B",
"f,.	c #A58C7A",
"g,.	c #A28C7E",
"h,.	c #A7998A",
"i,.	c #A27A64",
"j,.	c #9F7455",
"k,.	c #A67B5C",
"l,.	c #A87D5D",
"m,.	c #A68973",
"n,.	c #A49080",
"o,.	c #AF978A",
"p,.	c #A57C5E",
"q,.	c #A57B5E",
"r,.	c #A67D5E",
"s,.	c #AA7E5E",
"t,.	c #A09E9B",
"u,.	c #9C8573",
"v,.	c #947A67",
"w,.	c #9D836F",
"x,.	c #9E836F",
"y,.	c #9B8070",
"z,.	c #9C8071",
"A,.	c #997E6E",
"B,.	c #9B806F",
"C,.	c #9B8170",
"D,.	c #A28777",
"E,.	c #A08776",
"F,.	c #A38A7A",
"G,.	c #A28A7B",
"H,.	c #A69283",
"I,.	c #A18976",
"J,.	c #9F7D62",
"K,.	c #A07E65",
"L,.	c #9F7E64",
"M,.	c #9D7C61",
"N,.	c #9F7E63",
"O,.	c #A07F66",
"P,.	c #A17F61",
"Q,.	c #A88163",
"R,.	c #A48268",
"S,.	c #A3988B",
"T,.	c #B1937E",
"U,.	c #B79175",
"V,.	c #B3896A",
"W,.	c #B58C6E",
"X,.	c #C4B3A7",
"Y,.	c #BEAC9F",
"Z,.	c #BFA99A",
"`,.	c #BFA490",
" '.	c #B39982",
".'.	c #BBA791",
"+'.	c #C2B3A1",
"@'.	c #BFA08A",
"#'.	c #B8967E",
"$'.	c #C3AA99",
"%'.	c #B79F92",
"&'.	c #C2AA9D",
"*'.	c #C0B4A4",
"='.	c #BBA99E",
"-'.	c #C8B8B0",
";'.	c #C0A694",
">'.	c #B59580",
",'.	c #B49A88",
"''.	c #B29781",
")'.	c #A28E81",
"!'.	c #A49797",
"~'.	c #AB8174",
"{'.	c #B18A73",
"]'.	c #B1957A",
"^'.	c #A68060",
"/'.	c #B88F74",
"('.	c #BB9681",
"_'.	c #BEA497",
":'.	c #BBA69B",
"<'.	c #A08275",
"['.	c #957363",
"}'.	c #9B7A66",
"|'.	c #B49583",
"1'.	c #8E6E60",
"2'.	c #A99383",
"3'.	c #9D7B6B",
"4'.	c #8A5434",
"5'.	c #975934",
"6'.	c #AE7D60",
"7'.	c #AC876A",
"8'.	c #AF8A71",
"9'.	c #B28875",
"0'.	c #AE8874",
"a'.	c #AE7F69",
"b'.	c #A26F58",
"c'.	c #A3867B",
"d'.	c #A3A3A1",
"e'.	c #A48B72",
"f'.	c #9F877C",
"g'.	c #AD9A8A",
"h'.	c #B19F97",
"i'.	c #B4A092",
"j'.	c #A98D7A",
"k'.	c #A3775D",
"l'.	c #94674E",
"m'.	c #885D44",
"n'.	c #8A6047",
"o'.	c #916950",
"p'.	c #91694F",
"q'.	c #8F624A",
"r'.	c #906349",
"s'.	c #9A6F54",
"t'.	c #957B61",
"u'.	c #937E66",
"v'.	c #A5927D",
"w'.	c #A08D7F",
"x'.	c #A6968B",
"y'.	c #B4A69D",
"z'.	c #AF988E",
"A'.	c #B39B90",
"B'.	c #9F8A7F",
"C'.	c #917C72",
"D'.	c #917B73",
"E'.	c #9B8679",
"F'.	c #AF9181",
"G'.	c #B3764F",
"H'.	c #B76D42",
"I'.	c #B46E46",
"J'.	c #B97751",
"K'.	c #B47A58",
"L'.	c #AD7354",
"M'.	c #A96B51",
"N'.	c #AC6852",
"O'.	c #AE7759",
"P'.	c #AA6C40",
"Q'.	c #AB6D41",
"R'.	c #B87C4F",
"S'.	c #AB7351",
"T'.	c #A77558",
"U'.	c #A77352",
"V'.	c #AC7251",
"W'.	c #AD6F50",
"X'.	c #B27350",
"Y'.	c #B57A56",
"Z'.	c #B27C5C",
"`'.	c #B17E62",
" ).	c #B0826A",
".).	c #B18C75",
"+).	c #B59280",
"@).	c #BD9C89",
"#).	c #A48B75",
"$).	c #B48E6E",
"%).	c #AC886B",
"&).	c #AE8764",
"*).	c #AD8260",
"=).	c #B48E75",
"-).	c #B89681",
";).	c #B4936C",
">).	c #B39066",
",).	c #B89475",
"').	c #B99779",
")).	c #B79372",
"!).	c #B19479",
"~).	c #B59A80",
"{).	c #B29982",
"]).	c #B79F87",
"^).	c #AC9278",
"/).	c #A38A71",
"().	c #A58F79",
"_).	c #A8896E",
":).	c #B0957F",
"<).	c #B6A69A",
"[).	c #CAC1BB",
"}).	c #C0AA96",
"|).	c #BCA897",
"1).	c #B1A298",
"2).	c #B0A096",
"3).	c #AA7D58",
"4).	c #AE774C",
"5).	c #AB7A51",
"6).	c #AB794F",
"7).	c #A9764C",
"8).	c #A97246",
"9).	c #A8856B",
"0).	c #A78263",
"a).	c #A8855F",
"b).	c #A8825D",
"c).	c #A8815E",
"d).	c #A58566",
"e).	c #A78769",
"f).	c #AD8E6F",
"g).	c #A98768",
"h).	c #A97A58",
"i).	c #AF8156",
"j).	c #B49D81",
"k).	c #BDAD9A",
"l).	c #CDC0B6",
"m).	c #C6B6A8",
"n).	c #C2AD9C",
"o).	c #A6A4A1",
"p).	c #AD8665",
"q).	c #9B7454",
"r).	c #B19379",
"s).	c #AC886D",
"t).	c #AC8264",
"u).	c #AB7D5F",
"v).	c #AB7F5F",
"w).	c #AD7D59",
"x).	c #AF805B",
"y).	c #B07F5B",
"z).	c #B0805B",
"A).	c #AF7C54",
"B).	c #B28D6F",
"C).	c #B49983",
"D).	c #B2967B",
"E).	c #B38A69",
"F).	c #A9744A",
"G).	c #AF7B54",
"H).	c #AB7E5E",
"I).	c #A87A55",
"J).	c #AB7F57",
"K).	c #B08363",
"L).	c #B18562",
"M).	c #B37F56",
"N).	c #A59285",
"O).	c #9F8D80",
"P).	c #9E7F68",
"Q).	c #9C7E68",
"R).	c #9D7F6A",
"S).	c #9F7D66",
"T).	c #A38069",
"U).	c #A5826A",
"V).	c #A58266",
"W).	c #A58267",
"X).	c #A4836B",
"Y).	c #A7876F",
"Z).	c #A68971",
"`).	c #A4876F",
" !.	c #A4846F",
".!.	c #A47D60",
"+!.	c #A67A53",
"@!.	c #A3784F",
"#!.	c #A97D54",
"$!.	c #A77E5A",
"%!.	c #A47D59",
"&!.	c #AA8464",
"*!.	c #AE8267",
"=!.	c #AE815E",
"-!.	c #AA805B",
";!.	c #A28D7D",
">!.	c #BAA48F",
",!.	c #BD9D7F",
"'!.	c #BF956F",
")!.	c #BA997D",
"!!.	c #CFBFB2",
"~!.	c #D1C6BC",
"{!.	c #CDC4BF",
"]!.	c #D0C7C5",
"^!.	c #D3C9C7",
"/!.	c #D2CBC5",
"(!.	c #CFCCC7",
"_!.	c #CCCBC7",
":!.	c #D0CBC7",
"<!.	c #D0CCC9",
"[!.	c #C2B6AF",
"}!.	c #BAACA2",
"|!.	c #CEC2BA",
"1!.	c #C8BCB5",
"2!.	c #C8C4BA",
"3!.	c #CECBC3",
"4!.	c #C7BFB8",
"5!.	c #CDBFB4",
"6!.	c #C5B5A4",
"7!.	c #D0CAC2",
"8!.	c #D2CDC6",
"9!.	c #D5CAC4",
"0!.	c #CDBAB1",
"a!.	c #BC9C84",
"b!.	c #B59A87",
"c!.	c #A39390",
"d!.	c #AC8375",
"e!.	c #AE866F",
"f!.	c #B9987B",
"g!.	c #B99276",
"h!.	c #C9AF99",
"i!.	c #C6AD9C",
"j!.	c #C4B1A7",
"k!.	c #C1B2A8",
"l!.	c #BDAC9D",
"m!.	c #AC998B",
"n!.	c #C0AFA2",
"o!.	c #C5B7AA",
"p!.	c #C4B7AB",
"q!.	c #C0B2A8",
"r!.	c #C5B5A9",
"s!.	c #BFA796",
"t!.	c #C6A896",
"u!.	c #A97B61",
"v!.	c #A57352",
"w!.	c #A4714E",
"x!.	c #9E734E",
"y!.	c #A4795E",
"z!.	c #AB8066",
"A!.	c #B88468",
"B!.	c #BC8A6E",
"C!.	c #A98B7B",
"D!.	c #9EA39C",
"E!.	c #A69D97",
"F!.	c #B2937D",
"G!.	c #C1A794",
"H!.	c #C9B8B4",
"I!.	c #C3BFB9",
"J!.	c #C0BDB7",
"K!.	c #B7AAA1",
"L!.	c #B2978A",
"M!.	c #9D6F51",
"N!.	c #916243",
"O!.	c #8C5E40",
"P!.	c #8A5E40",
"Q!.	c #855A3C",
"R!.	c #885E3F",
"S!.	c #8F5F41",
"T!.	c #976848",
"U!.	c #986D4D",
"V!.	c #937259",
"W!.	c #A78E7B",
"X!.	c #876E5C",
"Y!.	c #B2A297",
"Z!.	c #CAC2BE",
"`!.	c #C9C0C0",
" ~.	c #CCC2C3",
".~.	c #CAC0BF",
"+~.	c #C8B9AF",
"@~.	c #B9A08D",
"#~.	c #99725B",
"$~.	c #997860",
"%~.	c #A8958A",
"&~.	c #A97B5D",
"*~.	c #B97144",
"=~.	c #BD774C",
"-~.	c #BA7951",
";~.	c #B67E5C",
">~.	c #AE7452",
",~.	c #B16E4C",
"'~.	c #B2674A",
")~.	c #AB6945",
"!~.	c #B46D44",
"~~.	c #AF6638",
"{~.	c #AF6737",
"]~.	c #A75F2F",
"^~.	c #B36F43",
"/~.	c #B57A59",
"(~.	c #B07C60",
"_~.	c #AF7E60",
":~.	c #AE7A5D",
"<~.	c #B1775C",
"[~.	c #B07A58",
"}~.	c #B27F5C",
"|~.	c #B48164",
"1~.	c #B47D5F",
"2~.	c #B58164",
"3~.	c #BE9176",
"4~.	c #BB947D",
"5~.	c #BA967E",
"6~.	c #B29A86",
"7~.	c #ABA296",
"8~.	c #AC8765",
"9~.	c #B98A69",
"0~.	c #B37F5A",
"a~.	c #B98354",
"b~.	c #B78151",
"c~.	c #B28254",
"d~.	c #B68A65",
"e~.	c #B9997C",
"f~.	c #B18761",
"g~.	c #B9997D",
"h~.	c #C6AF9F",
"i~.	c #CEB8A9",
"j~.	c #B99A82",
"k~.	c #BD9C80",
"l~.	c #B69478",
"m~.	c #BD9E83",
"n~.	c #BDA38B",
"o~.	c #CBB099",
"p~.	c #B1957C",
"q~.	c #AD9781",
"r~.	c #B09781",
"s~.	c #BDADA2",
"t~.	c #CBC1BC",
"u~.	c #CEC6C1",
"v~.	c #B8A492",
"w~.	c #AB8B70",
"x~.	c #AE937E",
"y~.	c #AA7952",
"z~.	c #AF7E56",
"A~.	c #AA835F",
"B~.	c #B18A63",
"C~.	c #AC845D",
"D~.	c #A98159",
"E~.	c #AD8561",
"F~.	c #B7906F",
"G~.	c #B68E67",
"H~.	c #C5A88B",
"I~.	c #B69677",
"J~.	c #B58F6D",
"K~.	c #B8906B",
"L~.	c #D2C7B7",
"M~.	c #D0CBC3",
"N~.	c #CCCDC6",
"O~.	c #CECCC2",
"P~.	c #CCCABF",
"Q~.	c #CBC8BD",
"R~.	c #CBC4BC",
"S~.	c #C0AD9E",
"T~.	c #A9A19E",
"U~.	c #B2987F",
"V~.	c #AF855A",
"W~.	c #A9815B",
"X~.	c #A37C57",
"Y~.	c #A27A54",
"Z~.	c #A8784C",
"`~.	c #AD7D55",
" {.	c #B1825B",
".{.	c #AD7C53",
"+{.	c #AC7B54",
"@{.	c #AD7E57",
"#{.	c #AE7F56",
"${.	c #B18259",
"%{.	c #B2825A",
"&{.	c #B1805B",
"*{.	c #B17F5A",
"={.	c #AF7E55",
"-{.	c #B18B6B",
";{.	c #B3957E",
">{.	c #B5967C",
",{.	c #B69274",
"'{.	c #B1835D",
"){.	c #B08055",
"!{.	c #B1825D",
"~{.	c #AE8361",
"{{.	c #AC805D",
"]{.	c #A38E7F",
"^{.	c #9D795D",
"/{.	c #A47B5F",
"({.	c #AA7F5F",
"_{.	c #AD8564",
":{.	c #A97D5E",
"<{.	c #A87D60",
"[{.	c #AA805F",
"}{.	c #A88366",
"|{.	c #A68469",
"1{.	c #A28569",
"2{.	c #A3866A",
"3{.	c #A38668",
"4{.	c #A38163",
"5{.	c #A27F65",
"6{.	c #A88365",
"7{.	c #A97E5E",
"8{.	c #AC8360",
"9{.	c #B0825E",
"0{.	c #B18765",
"a{.	c #AF8466",
"b{.	c #AD8160",
"c{.	c #A98260",
"d{.	c #A58D7D",
"e{.	c #A6988B",
"f{.	c #B8A18C",
"g{.	c #BA9670",
"h{.	c #B5916E",
"i{.	c #CEB6A5",
"j{.	c #C0A18D",
"k{.	c #C6AC9C",
"l{.	c #D0C7C2",
"m{.	c #CDC9C6",
"n{.	c #CFC9C2",
"o{.	c #D2CDC8",
"p{.	c #D1CDCA",
"q{.	c #D0CECD",
"r{.	c #D0CECC",
"s{.	c #CFCECD",
"t{.	c #CAC6C4",
"u{.	c #CEC8C3",
"v{.	c #CCC5C0",
"w{.	c #CDC4BE",
"x{.	c #CECCC9",
"y{.	c #D0CDCB",
"z{.	c #CEC8C7",
"A{.	c #C8C0BA",
"B{.	c #D3D1CD",
"C{.	c #D5D1CD",
"D{.	c #D0CBCA",
"E{.	c #D0C6C5",
"F{.	c #CDB5A7",
"G{.	c #BFA08B",
"H{.	c #A7968C",
"I{.	c #AC8671",
"J{.	c #A4765B",
"K{.	c #AF8465",
"L{.	c #AB8467",
"M{.	c #B99E8D",
"N{.	c #C8BBB2",
"O{.	c #C3B7AD",
"P{.	c #CDC0B8",
"Q{.	c #C9BCB3",
"R{.	c #C1B3A8",
"S{.	c #B79E8E",
"T{.	c #C2B5AE",
"U{.	c #C4B8B4",
"V{.	c #BDAA9C",
"W{.	c #B69D87",
"X{.	c #A78067",
"Y{.	c #A5745A",
"Z{.	c #A07254",
"`{.	c #A97959",
" ].	c #AA7555",
".].	c #A77653",
"+].	c #AA7753",
"@].	c #A9724F",
"#].	c #B07856",
"$].	c #AC7555",
"%].	c #AE7B60",
"&].	c #AB8B7C",
"*].	c #A9846A",
"=].	c #B59B8D",
"-].	c #BBB1A5",
";].	c #AF9989",
">].	c #B08F7A",
",].	c #986642",
"'].	c #855533",
")].	c #86583A",
"!].	c #855537",
"~].	c #825133",
"{].	c #865535",
"]].	c #8C5839",
"^].	c #925E3D",
"/].	c #996646",
"(].	c #9C6D50",
"_].	c #9D745D",
":].	c #907260",
"<].	c #BDB2AA",
"[].	c #C9C6C2",
"}].	c #C8C4C3",
"|].	c #C4BFBF",
"1].	c #C6C1BF",
"2].	c #C7BFB7",
"3].	c #C6C2B6",
"4].	c #AE9883",
"5].	c #A78268",
"6].	c #A48269",
"7].	c #A79998",
"8].	c #AD6F45",
"9].	c #B97346",
"0].	c #BB7648",
"a].	c #B67649",
"b].	c #B9794F",
"c].	c #AD6A40",
"d].	c #B37046",
"e].	c #A8643C",
"f].	c #AE6D45",
"g].	c #AF6B44",
"h].	c #B1714D",
"i].	c #B3704B",
"j].	c #B6754D",
"k].	c #B67F5A",
"l].	c #AF7E5A",
"m].	c #B17E5E",
"n].	c #AE795C",
"o].	c #B27B5E",
"p].	c #B47E60",
"q].	c #B48062",
"r].	c #B68166",
"s].	c #B68062",
"t].	c #B98465",
"u].	c #BC8B6C",
"v].	c #BA8C6F",
"w].	c #BE8C72",
"x].	c #B5917B",
"y].	c #B6895E",
"z].	c #BF8E69",
"A].	c #B9875F",
"B].	c #B68351",
"C].	c #B8854D",
"D].	c #B7824F",
"E].	c #B58455",
"F].	c #BE956D",
"G].	c #B38862",
"H].	c #C4AA93",
"I].	c #D0C7BD",
"J].	c #CDC5B9",
"K].	c #CBBCAD",
"L].	c #CCB9AB",
"M].	c #CCB7A8",
"N].	c #C0A78F",
"O].	c #B59476",
"P].	c #BBA085",
"Q].	c #BFAB96",
"R].	c #CEBFB3",
"S].	c #CCC2BD",
"T].	c #CFC6C2",
"U].	c #D4C9C2",
"V].	c #BCA189",
"W].	c #B58D6B",
"X].	c #B38D6E",
"Y].	c #A37951",
"Z].	c #AC7F57",
"`].	c #AC8664",
" ^.	c #AC896A",
".^.	c #C3A78B",
"+^.	c #BF9F86",
"@^.	c #AF835F",
"#^.	c #AF815A",
"$^.	c #AE865E",
"%^.	c #B39270",
"&^.	c #BC9B79",
"*^.	c #B88C61",
"=^.	c #B78960",
"-^.	c #C2A185",
";^.	c #B38E73",
">^.	c #AE876C",
",^.	c #B7967D",
"'^.	c #CABCA9",
")^.	c #C9C5BA",
"!^.	c #CECCC1",
"~^.	c #CECCC6",
"{^.	c #CDCDC6",
"]^.	c #CECABE",
"^^.	c #C5BDB4",
"/^.	c #C0B2A0",
"(^.	c #AC937E",
"_^.	c #AF9685",
":^.	c #AE855F",
"<^.	c #AE875F",
"[^.	c #A8805A",
"}^.	c #A98254",
"|^.	c #B08254",
"1^.	c #AF7D53",
"2^.	c #B18159",
"3^.	c #AE7D56",
"4^.	c #AD7D56",
"5^.	c #AE7E56",
"6^.	c #AF7F56",
"7^.	c #B18057",
"8^.	c #B27F57",
"9^.	c #AD7B52",
"0^.	c #AF7D55",
"a^.	c #AE7A50",
"b^.	c #AC805F",
"c^.	c #B59279",
"d^.	c #B29177",
"e^.	c #B29073",
"f^.	c #B79374",
"g^.	c #B48D6E",
"h^.	c #AC7D5B",
"i^.	c #B3865D",
"j^.	c #B37F59",
"k^.	c #B07D5A",
"l^.	c #B1805D",
"m^.	c #AC8260",
"n^.	c #AA8466",
"o^.	c #9E8C7E",
"p^.	c #A1877A",
"q^.	c #AA7F5B",
"r^.	c #AA7B57",
"s^.	c #AC7E59",
"t^.	c #AD855E",
"u^.	c #AD7F5B",
"v^.	c #AD7F61",
"w^.	c #AA7D5D",
"x^.	c #AB8263",
"y^.	c #A88467",
"z^.	c #9D8165",
"A^.	c #9C7F62",
"B^.	c #A37C5C",
"C^.	c #A77F5F",
"D^.	c #A97F5F",
"E^.	c #AA7F5D",
"F^.	c #AD805F",
"G^.	c #AF7D59",
"H^.	c #AF8360",
"I^.	c #AB8160",
"J^.	c #BA947A",
"K^.	c #B2845F",
"L^.	c #A77C5D",
"M^.	c #D3B8A7",
"N^.	c #C9AA94",
"O^.	c #C6AB99",
"P^.	c #D0C8C1",
"Q^.	c #CDC3BB",
"R^.	c #C8BCAF",
"S^.	c #D0CCC8",
"T^.	c #D1CECD",
"U^.	c #D1CFCD",
"V^.	c #D2D0CF",
"W^.	c #CFCECC",
"X^.	c #CBC7BE",
"Y^.	c #CEC8C4",
"Z^.	c #D1D1CE",
"`^.	c #D3D1D0",
" /.	c #D4D2D1",
"./.	c #D5D3D2",
"+/.	c #D3D0CF",
"@/.	c #D1CFCE",
"#/.	c #D3D1CF",
"$/.	c #CDC8C5",
"%/.	c #CABDB6",
"&/.	c #C1A89A",
"*/.	c #A89A8F",
"=/.	c #AC8871",
"-/.	c #A27559",
";/.	c #A47657",
">/.	c #AC866C",
",/.	c #C1AC9F",
"'/.	c #C7BBB8",
")/.	c #C1BAB5",
"!/.	c #C7C0BC",
"~/.	c #C6C3BC",
"{/.	c #C5C1B6",
"]/.	c #C6B4A6",
"^/.	c #A2826F",
"//.	c #AD8067",
"(/.	c #B89483",
"_/.	c #C5B2A6",
":/.	c #C3B8AB",
"</.	c #C0AD9C",
"[/.	c #A88C75",
"}/.	c #A87E67",
"|/.	c #AB7C66",
"1/.	c #A7755E",
"2/.	c #AC7C62",
"3/.	c #A67453",
"4/.	c #A87453",
"5/.	c #B2805F",
"6/.	c #A97E60",
"7/.	c #AF896F",
"8/.	c #AB8F7E",
"9/.	c #AFA39E",
"0/.	c #A3836E",
"a/.	c #9B7050",
"b/.	c #865E43",
"c/.	c #C6BFB4",
"d/.	c #B9A38D",
"e/.	c #9C6841",
"f/.	c #8D5C3A",
"g/.	c #895C3E",
"h/.	c #885737",
"i/.	c #895636",
"j/.	c #8C5A3A",
"k/.	c #915D3C",
"l/.	c #9B6849",
"m/.	c #9D694B",
"n/.	c #976548",
"o/.	c #9E7F6D",
"p/.	c #BAB3AE",
"q/.	c #C7C7C3",
"r/.	c #C5C1BD",
"s/.	c #C6C3BB",
"t/.	c #C7C6BD",
"u/.	c #B2A291",
"v/.	c #A58870",
"w/.	c #AD9D96",
"x/.	c #AE816A",
"y/.	c #B16E4A",
"z/.	c #B97149",
"A/.	c #B77349",
"B/.	c #B27246",
"C/.	c #B26E3F",
"D/.	c #B0693C",
"E/.	c #B5734D",
"F/.	c #B27045",
"G/.	c #B07046",
"H/.	c #B07550",
"I/.	c #B47854",
"J/.	c #B37D5D",
"K/.	c #B47A59",
"L/.	c #B57A53",
"M/.	c #B7805A",
"N/.	c #B3805A",
"O/.	c #B88362",
"P/.	c #B47E5E",
"Q/.	c #B78161",
"R/.	c #BA8263",
"S/.	c #B77E60",
"T/.	c #B98260",
"U/.	c #BB8461",
"V/.	c #BA8461",
"W/.	c #B9855F",
"X/.	c #BA8364",
"Y/.	c #B98B74",
"Z/.	c #AF9F97",
"`/.	c #AEA5A2",
" (.	c #B3957A",
".(.	c #BB8757",
"+(.	c #B78155",
"@(.	c #BC875A",
"#(.	c #B68451",
"$(.	c #B8854E",
"%(.	c #BC8453",
"&(.	c #BF8C60",
"*(.	c #C4956B",
"=(.	c #B9875B",
"-(.	c #B98E67",
";(.	c #D2C0B0",
">(.	c #C8C7BC",
",(.	c #CFC8C4",
"'(.	c #CDC6BE",
")(.	c #CAB1A1",
"!(.	c #C29E84",
"~(.	c #C2A68A",
"{(.	c #CDC1AF",
"](.	c #C3B5A8",
"^(.	c #C5B9AE",
"/(.	c #BEA290",
"((.	c #BC9682",
"_(.	c #C7AB9D",
":(.	c #C8B2A5",
"<(.	c #B99375",
"[(.	c #C19879",
"}(.	c #B38E6B",
"|(.	c #B49980",
"1(.	c #A29990",
"2(.	c #9F784E",
"3(.	c #AE8257",
"4(.	c #B08964",
"5(.	c #AE8C6D",
"6(.	c #BB9D81",
"7(.	c #BF9F85",
"8(.	c #B18967",
"9(.	c #AF8058",
"0(.	c #AD815F",
"a(.	c #B68B67",
"b(.	c #BC9372",
"c(.	c #B99170",
"d(.	c #AE784B",
"e(.	c #B78965",
"f(.	c #B18D69",
"g(.	c #B18C69",
"h(.	c #C6B9A6",
"i(.	c #CDCCC3",
"j(.	c #CDCCC2",
"k(.	c #D0CCC4",
"l(.	c #D0CCC3",
"m(.	c #CBC9C2",
"n(.	c #CCC9C2",
"o(.	c #CEC7BE",
"p(.	c #CDC5B5",
"q(.	c #B6A290",
"r(.	c #AE9789",
"s(.	c #AF8362",
"t(.	c #A97F5A",
"u(.	c #AA825B",
"v(.	c #AD8757",
"w(.	c #AE8459",
"x(.	c #AF7D52",
"y(.	c #B68358",
"z(.	c #AC7E58",
"A(.	c #AA7C55",
"B(.	c #AC7B55",
"C(.	c #AE7A53",
"D(.	c #AF7D56",
"E(.	c #AB7B54",
"F(.	c #AF815B",
"G(.	c #B28159",
"H(.	c #B28A6A",
"I(.	c #B5957E",
"J(.	c #B2937A",
"K(.	c #B19276",
"L(.	c #B69678",
"M(.	c #B69479",
"N(.	c #B0886A",
"O(.	c #B38C69",
"P(.	c #B18664",
"Q(.	c #AC7D59",
"R(.	c #A78265",
"S(.	c #AC8B72",
"T(.	c #A97E5A",
"U(.	c #AA805A",
"V(.	c #AC835C",
"W(.	c #AF845E",
"X(.	c #AC7E5A",
"Y(.	c #B18962",
"Z(.	c #AC7E5C",
"`(.	c #A97D57",
" _.	c #A87C54",
"._.	c #A97D5A",
"+_.	c #A67D5D",
"@_.	c #A98467",
"#_.	c #A3836C",
"$_.	c #A2826B",
"%_.	c #A9805F",
"&_.	c #AC815D",
"*_.	c #AB805C",
"=_.	c #AA8159",
"-_.	c #AC8161",
";_.	c #AF805F",
">_.	c #AD7C57",
",_.	c #AB7E5C",
"'_.	c #AB805F",
")_.	c #AB815F",
"!_.	c #A88569",
"~_.	c #A39286",
"{_.	c #A79E96",
"]_.	c #B89578",
"^_.	c #CCB5A6",
"/_.	c #D1C3BB",
"(_.	c #CECAC3",
"__.	c #BBA692",
":_.	c #BCA594",
"<_.	c #D1CCC8",
"[_.	c #D2CDCC",
"}_.	c #CFC8C3",
"|_.	c #C4B6B4",
"1_.	c #D5D2D1",
"2_.	c #D5D1CB",
"3_.	c #D5CDC4",
"4_.	c #C8B6A6",
"5_.	c #A99C8E",
"6_.	c #A9856F",
"7_.	c #A5775C",
"8_.	c #9F6F4E",
"9_.	c #B7937B",
"0_.	c #C7B5A9",
"a_.	c #C9B7AF",
"b_.	c #C5B7AD",
"c_.	c #C0B3AA",
"d_.	c #C7C0B4",
"e_.	c #C7C2B2",
"f_.	c #B6A390",
"g_.	c #A87D68",
"h_.	c #A9745C",
"i_.	c #BBA28F",
"j_.	c #C7C1BA",
"k_.	c #BCAB9A",
"l_.	c #C1AE9E",
"m_.	c #BDA898",
"n_.	c #B9A495",
"o_.	c #B99F8D",
"p_.	c #A37A62",
"q_.	c #A06E51",
"r_.	c #A67458",
"s_.	c #AA7B5F",
"t_.	c #A8856A",
"u_.	c #B2947E",
"v_.	c #976C4C",
"w_.	c #875734",
"x_.	c #8C674D",
"y_.	c #C2AC9A",
"z_.	c #B08B70",
"A_.	c #AB7953",
"B_.	c #A46D44",
"C_.	c #976440",
"D_.	c #8C5B3B",
"E_.	c #905C35",
"F_.	c #945E38",
"G_.	c #915D36",
"H_.	c #8D5B36",
"I_.	c #8F5E3A",
"J_.	c #92603E",
"K_.	c #956346",
"L_.	c #9C7E6D",
"M_.	c #C4BCB7",
"N_.	c #C8C6C3",
"O_.	c #C7C3C0",
"P_.	c #C9C5C1",
"Q_.	c #C7C5BD",
"R_.	c #C7C4C1",
"S_.	c #BCB6AD",
"T_.	c #C4B3A9",
"U_.	c #BDA496",
"V_.	c #AC9A90",
"W_.	c #B09182",
"X_.	c #B27A5B",
"Y_.	c #B7744F",
"Z_.	c #BB7954",
"`_.	c #B77852",
" :.	c #B47952",
".:.	c #B87D57",
"+:.	c #B87246",
"@:.	c #BB7348",
"#:.	c #B6774F",
"$:.	c #B27752",
"%:.	c #B47F5D",
"&:.	c #B48260",
"*:.	c #B58B6E",
"=:.	c #B78969",
"-:.	c #B17A51",
";:.	c #B67F56",
">:.	c #B98663",
",:.	c #B68161",
"':.	c #B57F5F",
"):.	c #B7815E",
"!:.	c #B8805C",
"~:.	c #B57D5A",
"{:.	c #B67D58",
"]:.	c #B87E58",
"^:.	c #B87F58",
"/:.	c #B77E56",
"(:.	c #B87C58",
"_:.	c #B88469",
"::.	c #B2957A",
"<:.	c #BE8856",
"[:.	c #BC8151",
"}:.	c #BD8252",
"|:.	c #BE874D",
"1:.	c #C18D5D",
"2:.	c #C28C5E",
"3:.	c #B47742",
"4:.	c #B77A44",
"5:.	c #BE9473",
"6:.	c #CBBAAD",
"7:.	c #CABCB3",
"8:.	c #C8B5A5",
"9:.	c #B5865B",
"0:.	c #C0997A",
"a:.	c #D2C5B8",
"b:.	c #CEC3B1",
"c:.	c #C0AA90",
"d:.	c #B4865B",
"e:.	c #B88054",
"f:.	c #C7A183",
"g:.	c #BC926E",
"h:.	c #BB8D62",
"i:.	c #BB8E6A",
"j:.	c #B79B82",
"k:.	c #A47E55",
"l:.	c #B1855A",
"m:.	c #B18D66",
"n:.	c #BA9873",
"o:.	c #AF885F",
"p:.	c #AD8256",
"q:.	c #AD7A4A",
"r:.	c #AC7F55",
"s:.	c #B0825B",
"t:.	c #B4835A",
"u:.	c #B07C50",
"v:.	c #AC7445",
"w:.	c #A96F42",
"x:.	c #B18056",
"y:.	c #BC9169",
"z:.	c #CBBFAC",
"A:.	c #CCCAC1",
"B:.	c #CCCCC1",
"C:.	c #CECAC2",
"D:.	c #D0CDC4",
"E:.	c #CAC1B6",
"F:.	c #C3B2A2",
"G:.	c #C5B1A0",
"H:.	c #B29D8A",
"I:.	c #AA7E5D",
"J:.	c #B1885C",
"K:.	c #B38B5E",
"L:.	c #AE8661",
"M:.	c #AF7F5B",
"N:.	c #B07D59",
"O:.	c #AB7A56",
"P:.	c #AA6F48",
"Q:.	c #AF704A",
"R:.	c #AE7A54",
"S:.	c #B0805A",
"T:.	c #AF7C57",
"U:.	c #AD8365",
"V:.	c #B7957E",
"W:.	c #B08B6D",
"X:.	c #B29379",
"Y:.	c #B39985",
"Z:.	c #B49984",
"`:.	c #B69A85",
" <.	c #B59985",
".<.	c #B6977F",
"+<.	c #B5977D",
"@<.	c #B29179",
"#<.	c #A9805D",
"$<.	c #A8825F",
"%<.	c #B09681",
"&<.	c #B49E90",
"*<.	c #AB8360",
"=<.	c #AE8561",
"-<.	c #B08661",
";<.	c #AA805E",
"><.	c #AA7D5C",
",<.	c #A67245",
"'<.	c #A8794E",
")<.	c #A87C59",
"!<.	c #AA8162",
"~<.	c #A88369",
"{<.	c #A6836A",
"]<.	c #A58469",
"^<.	c #AC8263",
"/<.	c #AD8261",
"(<.	c #AC825D",
"_<.	c #AD825A",
":<.	c #AD8159",
"<<.	c #AD8262",
"[<.	c #AA7D5A",
"}<.	c #A57B58",
"|<.	c #A58165",
"1<.	c #B79B7E",
"2<.	c #BD9169",
"3<.	c #B68F6E",
"4<.	c #C2A28E",
"5<.	c #C0AA9D",
"6<.	c #D0C5B9",
"7<.	c #BFA895",
"8<.	c #D3CECD",
"9<.	c #CFCED0",
"0<.	c #D0CDCD",
"a<.	c #CECBCB",
"b<.	c #CAC7C6",
"c<.	c #CDCAC7",
"d<.	c #D0CFCE",
"e<.	c #D3D0D0",
"f<.	c #D4D2D2",
"g<.	c #D4D3D2",
"h<.	c #D3D2D1",
"i<.	c #CCCFCA",
"j<.	c #D0D2CD",
"k<.	c #D3CDCB",
"l<.	c #D2BFB6",
"m<.	c #C0A387",
"n<.	c #BDA186",
"o<.	c #A29389",
"p<.	c #A0806E",
"q<.	c #9E7054",
"r<.	c #9D694D",
"s<.	c #BFA08C",
"t<.	c #A78470",
"u<.	c #A5806A",
"v<.	c #936E57",
"w<.	c #B29280",
"x<.	c #AA8C7E",
"y<.	c #93675A",
"z<.	c #8A5C48",
"A<.	c #87593C",
"B<.	c #996B55",
"C<.	c #B39582",
"D<.	c #BDA296",
"E<.	c #AD8F84",
"F<.	c #A28173",
"G<.	c #A5887A",
"H<.	c #B6A291",
"I<.	c #A88677",
"J<.	c #A07560",
"K<.	c #9C6A53",
"L<.	c #9B674F",
"M<.	c #A98168",
"N<.	c #A98F75",
"O<.	c #B39B88",
"P<.	c #AD9C91",
"Q<.	c #ACA5A2",
"R<.	c #A58B79",
"S<.	c #9F7557",
"T<.	c #9D6D49",
"U<.	c #9A6B47",
"V<.	c #AA896E",
"W<.	c #B79880",
"X<.	c #AD8161",
"Y<.	c #97633F",
"Z<.	c #895937",
"`<.	c #8E5830",
" [.	c #915B32",
".[.	c #905833",
"+[.	c #905C36",
"@[.	c #925F37",
"#[.	c #955F3A",
"$[.	c #93603E",
"%[.	c #A7968D",
"&[.	c #CBC4C0",
"*[.	c #C8C5C2",
"=[.	c #C8C4C0",
"-[.	c #C3BFBB",
";[.	c #C1BEB9",
">[.	c #C7C5C0",
",[.	c #C6C1BB",
"'[.	c #C1BBAD",
")[.	c #AE9784",
"![.	c #AE8E79",
"~[.	c #AE988B",
"{[.	c #B68875",
"][.	c #B87D5B",
"^[.	c #B98058",
"/[.	c #BE8261",
"([.	c #BC835F",
"_[.	c #BE8760",
":[.	c #BF845D",
"<[.	c #BB7749",
"[[.	c #BC7A4D",
"}[.	c #B5784E",
"|[.	c #B1764E",
"1[.	c #BB8661",
"2[.	c #BF9A80",
"3[.	c #B89171",
"4[.	c #B3784D",
"5[.	c #BA7C54",
"6[.	c #BD8361",
"7[.	c #BA8363",
"8[.	c #B88262",
"9[.	c #B07A5B",
"0[.	c #B57E57",
"a[.	c #B88159",
"b[.	c #B47C58",
"c[.	c #B9815F",
"d[.	c #BB7E59",
"e[.	c #BB7E55",
"f[.	c #B87A4E",
"g[.	c #B88668",
"h[.	c #B2957C",
"i[.	c #C08E62",
"j[.	c #C38959",
"k[.	c #C58A53",
"l[.	c #C18C56",
"m[.	c #BE8C5B",
"n[.	c #BE8854",
"o[.	c #BC8048",
"p[.	c #B57A49",
"q[.	c #B37748",
"r[.	c #B77D4D",
"s[.	c #B4865E",
"t[.	c #B88359",
"u[.	c #BB9476",
"v[.	c #CEBDAD",
"w[.	c #C8B3A0",
"x[.	c #C4A996",
"y[.	c #CCB3A2",
"z[.	c #BC9D80",
"A[.	c #B9926E",
"B[.	c #B58153",
"C[.	c #B67F4C",
"D[.	c #B37D48",
"E[.	c #B78757",
"F[.	c #B5885C",
"G[.	c #B68353",
"H[.	c #B78456",
"I[.	c #BC9B7E",
"J[.	c #AF815D",
"K[.	c #B18A5F",
"L[.	c #B7916B",
"M[.	c #BD8E65",
"N[.	c #B08052",
"O[.	c #AB7743",
"P[.	c #AA733D",
"Q[.	c #AE7A48",
"R[.	c #B07F52",
"S[.	c #AC7945",
"T[.	c #AA7739",
"U[.	c #B48552",
"V[.	c #B4875A",
"W[.	c #A3723F",
"X[.	c #A66A36",
"Y[.	c #A16836",
"Z[.	c #A2744E",
"`[.	c #C7B9AA",
" }.	c #CEC6BA",
".}.	c #CEC7BD",
"+}.	c #CDC5BC",
"@}.	c #CFC9BF",
"#}.	c #CFCAC4",
"$}.	c #C9BCAE",
"%}.	c #C3AC96",
"&}.	c #C9B5A2",
"*}.	c #C2AF9B",
"=}.	c #AB9179",
"-}.	c #B18568",
";}.	c #B68B66",
">}.	c #A98765",
",}.	c #AC7C5C",
"'}.	c #A57353",
")}.	c #A6734F",
"!}.	c #A86F47",
"~}.	c #AD6F44",
"{}.	c #AC6F44",
"]}.	c #AB7650",
"^}.	c #B1886A",
"/}.	c #B28E75",
"(}.	c #B5A090",
"_}.	c #B39D90",
":}.	c #B49C90",
"<}.	c #B69D8C",
"[}.	c #B29989",
"}}.	c #B29888",
"|}.	c #B49885",
"1}.	c #B48F75",
"2}.	c #AE825C",
"3}.	c #AB8F80",
"4}.	c #A79C91",
"5}.	c #A38572",
"6}.	c #AA7A56",
"7}.	c #AD825E",
"8}.	c #AC8363",
"9}.	c #A88367",
"0}.	c #9F7B5E",
"a}.	c #A47152",
"b}.	c #AA7446",
"c}.	c #A6744A",
"d}.	c #A27851",
"e}.	c #A87F58",
"f}.	c #AB815B",
"g}.	c #A98468",
"h}.	c #AA8264",
"i}.	c #AA825F",
"j}.	c #A8805F",
"k}.	c #A77D5B",
"l}.	c #AB7D56",
"m}.	c #AA7F58",
"n}.	c #A7815D",
"o}.	c #A37F5F",
"p}.	c #A68B78",
"q}.	c #B69D83",
"r}.	c #B5926D",
"s}.	c #C7A98B",
"t}.	c #B09076",
"u}.	c #AF9279",
"v}.	c #CEBEB4",
"w}.	c #CBBFB9",
"x}.	c #D2CDD0",
"y}.	c #D2CCCC",
"z}.	c #D2CCC8",
"A}.	c #D1CBC7",
"B}.	c #CFCAC6",
"C}.	c #CECBCA",
"D}.	c #CDCBCC",
"E}.	c #D4D2D3",
"F}.	c #D4D2D0",
"G}.	c #D4D2CE",
"H}.	c #D0CDC9",
"I}.	c #CAC4BC",
"J}.	c #C5B6A6",
"K}.	c #BA9E85",
"L}.	c #AF8F72",
"M}.	c #AA9F93",
"N}.	c #A3897D",
"O}.	c #A06F52",
"P}.	c #A87352",
"Q}.	c #9B6C4F",
"R}.	c #9D6D57",
"S}.	c #966851",
"T}.	c #8B5E48",
"U}.	c #8D614D",
"V}.	c #976A53",
"W}.	c #95684F",
"X}.	c #8D5D3F",
"Y}.	c #98694E",
"Z}.	c #9C6F56",
"`}.	c #986A54",
" |.	c #A37762",
".|.	c #A37B65",
"+|.	c #A18269",
"@|.	c #9A745C",
"#|.	c #9B6C56",
"$|.	c #9C6853",
"%|.	c #9B654E",
"&|.	c #9A6348",
"*|.	c #A97E68",
"=|.	c #AD8A75",
"-|.	c #AE907D",
";|.	c #A59182",
">|.	c #9E8879",
",|.	c #956F54",
"'|.	c #9C7050",
")|.	c #A1704C",
"!|.	c #A57C60",
"~|.	c #C4A691",
"{|.	c #A97A59",
"]|.	c #AA7147",
"^|.	c #A16D48",
"/|.	c #9B6D4C",
"(|.	c #9C6B4A",
"_|.	c #9E6D4B",
":|.	c #9B6948",
"<|.	c #9B6545",
"[|.	c #986846",
"}|.	c #966B48",
"||.	c #966D4E",
"1|.	c #926E56",
"2|.	c #C2B7B2",
"3|.	c #C7BFBC",
"4|.	c #C8C3C0",
"5|.	c #C6C0B9",
"6|.	c #BFB8B2",
"7|.	c #B9ABA6",
"8|.	c #A69387",
"9|.	c #9C806E",
"0|.	c #AC9E99",
"a|.	c #B6886E",
"b|.	c #B87F59",
"c|.	c #BC8357",
"d|.	c #BC8159",
"e|.	c #BE825B",
"f|.	c #BD8152",
"g|.	c #B97C4E",
"h|.	c #B97344",
"i|.	c #BB794C",
"j|.	c #B7754F",
"k|.	c #B67750",
"l|.	c #B67C53",
"m|.	c #B47A4A",
"n|.	c #B58260",
"o|.	c #B57850",
"p|.	c #B4754C",
"q|.	c #BC7F57",
"r|.	c #BF8763",
"s|.	c #BE8967",
"t|.	c #B88260",
"u|.	c #BA7F5B",
"v|.	c #B47858",
"w|.	c #AF7961",
"x|.	c #B07F66",
"y|.	c #B68163",
"z|.	c #B9835E",
"A|.	c #B97753",
"B|.	c #BA7554",
"C|.	c #B19380",
"D|.	c #A9A59E",
"E|.	c #AE9985",
"F|.	c #AF8866",
"G|.	c #BF9C7E",
"H|.	c #C8A182",
"I|.	c #C1956D",
"J|.	c #BE946A",
"K|.	c #BD9268",
"L|.	c #BC9063",
"M|.	c #BD8F62",
"N|.	c #B8885F",
"O|.	c #B4815A",
"P|.	c #B99269",
"Q|.	c #BB9064",
"R|.	c #BC9973",
"S|.	c #CBB9A3",
"T|.	c #C2B5A1",
"U|.	c #BCA084",
"V|.	c #BE9976",
"W|.	c #B89068",
"X|.	c #B5885A",
"Y|.	c #B88B5D",
"Z|.	c #B6885A",
"`|.	c #B58756",
" 1.	c #BA8D5D",
".1.	c #B89063",
"+1.	c #BB9F86",
"@1.	c #A78F7E",
"#1.	c #AF8155",
"$1.	c #B28152",
"%1.	c #AC733B",
"&1.	c #AB7238",
"*1.	c #A76D35",
"=1.	c #A97130",
"-1.	c #AE752E",
";1.	c #956441",
">1.	c #AA8469",
",1.	c #C5AE98",
"'1.	c #C7B19C",
")1.	c #C6B09B",
"!1.	c #BEA994",
"~1.	c #B8A38E",
"{1.	c #B7A28D",
"]1.	c #BEA38D",
"^1.	c #BAA492",
"/1.	c #CCB9A9",
"(1.	c #BEA48F",
"_1.	c #A78E7A",
":1.	c #A89484",
"<1.	c #AB8A64",
"[1.	c #B18B67",
"}1.	c #A07D5F",
"|1.	c #9E7A5B",
"11.	c #A47959",
"21.	c #AF7C53",
"31.	c #A7744D",
"41.	c #A47453",
"51.	c #A8816A",
"61.	c #AC8F7B",
"71.	c #A7836A",
"81.	c #AB8F7C",
"91.	c #A6907E",
"01.	c #AC9382",
"a1.	c #AC9383",
"b1.	c #AB9183",
"c1.	c #AC948A",
"d1.	c #AA927F",
"e1.	c #A38971",
"f1.	c #AA8363",
"g1.	c #9F846D",
"h1.	c #A0928F",
"i1.	c #A7A49E",
"j1.	c #A59083",
"k1.	c #A07962",
"l1.	c #A47A5E",
"m1.	c #9F7F67",
"n1.	c #9C8472",
"o1.	c #9A8674",
"p1.	c #967B63",
"q1.	c #A27050",
"r1.	c #A6744B",
"s1.	c #A17650",
"t1.	c #A27954",
"u1.	c #A77D58",
"v1.	c #A97F5C",
"w1.	c #A6836D",
"x1.	c #A0836A",
"y1.	c #A1775A",
"z1.	c #A27959",
"A1.	c #9D7557",
"B1.	c #A37D60",
"C1.	c #A28062",
"D1.	c #A27E5C",
"E1.	c #A37A56",
"F1.	c #AC8364",
"G1.	c #A78B77",
"H1.	c #A4978D",
"I1.	c #B39D84",
"J1.	c #AA8A64",
"K1.	c #AB855A",
"L1.	c #B58B64",
"M1.	c #B8926F",
"N1.	c #B48963",
"O1.	c #C6A68C",
"P1.	c #CEB19A",
"Q1.	c #CBBEB3",
"R1.	c #CDBEBB",
"S1.	c #CFBBB5",
"T1.	c #BEAC9E",
"U1.	c #AF9987",
"V1.	c #B19985",
"W1.	c #B49D89",
"X1.	c #BEAEA3",
"Y1.	c #C8BEB7",
"Z1.	c #C8C0B9",
"`1.	c #BFBBB3",
" 2.	c #BEB8B2",
".2.	c #B7AFAA",
"+2.	c #ACA49F",
"@2.	c #A19793",
"#2.	c #A69C92",
"$2.	c #A69C8F",
"%2.	c #A8A597",
"&2.	c #A7ABA1",
"*2.	c #A9A7A8",
"=2.	c #AF9D97",
"-2.	c #A88C80",
";2.	c #A28A7A",
">2.	c #9E8871",
",2.	c #9A806D",
"'2.	c #A18573",
")2.	c #9A7D6D",
"!2.	c #977B6C",
"~2.	c #947667",
"{2.	c #9A796B",
"]2.	c #967466",
"^2.	c #997665",
"/2.	c #977260",
"(2.	c #946E5B",
"_2.	c #966F5D",
":2.	c #9C7463",
"<2.	c #9F7768",
"[2.	c #9C7766",
"}2.	c #947B66",
"|2.	c #967A65",
"12.	c #96725F",
"22.	c #A07A68",
"32.	c #A18374",
"42.	c #9F8178",
"52.	c #946C5D",
"62.	c #9C7A6B",
"72.	c #A38A80",
"82.	c #A99993",
"92.	c #ACA7A2",
"02.	c #A59283",
"a2.	c #87664F",
"b2.	c #845E42",
"c2.	c #8C6141",
"d2.	c #986947",
"e2.	c #A07150",
"f2.	c #A57755",
"g2.	c #AC8367",
"h2.	c #A9846B",
"i2.	c #99735B",
"j2.	c #8C644C",
"k2.	c #90654F",
"l2.	c #8A644C",
"m2.	c #96755C",
"n2.	c #A5866E",
"o2.	c #B09D91",
"p2.	c #B3A7A2",
"q2.	c #B3AAA5",
"r2.	c #B2A69C",
"s2.	c #9E9289",
"t2.	c #A4958E",
"u2.	c #A4A098",
"v2.	c #ABA4A6",
"w2.	c #AAA3A3",
"x2.	c #B6978F",
"y2.	c #B08979",
"z2.	c #AE8871",
"A2.	c #AE886F",
"B2.	c #A88264",
"C2.	c #AE8165",
"D2.	c #B07A5D",
"E2.	c #AF7D62",
"F2.	c #B17F67",
"G2.	c #B5866D",
"H2.	c #B2896E",
"I2.	c #B48969",
"J2.	c #B2896C",
"K2.	c #B48F78",
"L2.	c #B7927F",
"M2.	c #B28B76",
"N2.	c #B58B74",
"O2.	c #B18E78",
"P2.	c #B08C76",
"Q2.	c #AC826D",
"R2.	c #AC8777",
"S2.	c #AD968D",
"T2.	c #A99486",
"U2.	c #B19181",
"V2.	c #B08779",
"W2.	c #AF8B81",
"X2.	c #A38368",
"Y2.	c #AB8C72",
"Z2.	c #B79F8B",
"`2.	c #AE947B",
" 3.	c #B49979",
".3.	c #B69B7C",
"+3.	c #BA9F84",
"@3.	c #B59880",
"#3.	c #B09478",
"$3.	c #AC8C6F",
"%3.	c #B39778",
"&3.	c #B59E80",
"*3.	c #B19579",
"=3.	c #B69477",
"-3.	c #BAA185",
";3.	c #B69C84",
">3.	c #B49576",
",3.	c #B79574",
"'3.	c #B59678",
")3.	c #B69C87",
"!3.	c #B89C87",
"~3.	c #B89C85",
"{3.	c #BA9E80",
"]3.	c #B19273",
"^3.	c #B3987A",
"/3.	c #AFA091",
"(3.	c #A8A2A2",
"_3.	c #AA8568",
":3.	c #A3815F",
"<3.	c #A57C56",
"[3.	c #A47750",
"}3.	c #A0734C",
"|3.	c #A97C53",
"13.	c #A4774C",
"23.	c #A7794D",
"33.	c #A97951",
"43.	c #AA8165",
"53.	c #A27C5A",
"63.	c #A27357",
"73.	c #A17861",
"83.	c #9E7E6C",
"93.	c #A18876",
"03.	c #A9927F",
"a3.	c #A38B7B",
"b3.	c #A58D7C",
"c3.	c #A7907F",
"d3.	c #AA917E",
"e3.	c #A58C78",
"f3.	c #AA9788",
"g3.	c #A99B90",
"h3.	c #A28D73",
"i3.	c #A98D6F",
"j3.	c #A7886C",
"k3.	c #A4866E",
"l3.	c #A4876E",
"m3.	c #A19991",
"n3.	c #A39487",
"o3.	c #A38F81",
"p3.	c #9F8F7F",
"q3.	c #A19184",
"r3.	c #A3928C",
"s3.	c #A49B92",
"t3.	c #A69D92",
"u3.	c #A69D90",
"v3.	c #A79D92",
"w3.	c #A19A92",
"x3.	c #9C958F",
"y3.	c #A89D99",
"z3.	c #A99C91",
"A3.	c #AB988E",
"B3.	c #AE9E90",
"C3.	c #A79183",
"D3.	c #A79388",
"E3.	c #A29485",
"F3.	c #A29689",
"G3.	c #A59A90",
"H3.	c #A79589",
"I3.	c #A79588",
"J3.	c #A6978D",
"K3.	c #ABA096",
"L3.	c #A2A29F",
"M3.	c #A5A39E",
"N3.	c #A79D91",
"O3.	c #9F9082",
"P3.	c #9E8B7B",
"Q3.	c #A68D7F",
"R3.	c #A78976",
"S3.	c #A88A72",
"T3.	c #AC9177",
"U3.	c #A79886",
"V3.	c #A39386",
"W3.	c #A49385",
"X3.	c #A89687",
"Y3.	c #9F9087",
"Z3.	c #A89891",
"`3.	c #A59891",
" 4.	c #A39D95",
".4.	c #A8A1A0",
"+4.	c #A59C9D",
"@4.	c #ABA8A2",
"#4.	c #B1A8A4",
"$4.	c #B0A8A4",
"%4.	c #AAA8A5",
"&4.	c #ACA5A1",
"*4.	c #AEA7A3",
"=4.	c #B0AAA7",
"-4.	c #AEA3A2",
";4.	c #AFAAA6",
">4.	c #AFA49C",
",4.	c #9D877B",
"'4.	c #988173",
")4.	c #998172",
"!4.	c #9C8574",
"~4.	c #9F9085",
"{4.	c #A39189",
"]4.	c #A28F88",
"^4.	c #A1918A",
"/4.	c #9C8E86",
"(4.	c #9D8E87",
"_4.	c #9F948E",
":4.	c #A7A6A2",
"<4.	c #ABA3A4",
"[4.	c #A4A19B",
"}4.	c #ACA29F",
"|4.	c #ABA2A2",
"14.	c #AEA8A2",
"24.	c #A7A4A3",
"34.	c #A49B94",
"44.	c #A5978A",
"54.	c #A59C8D",
"64.	c #A79F94",
"74.	c #A39C92",
"84.	c #A59C90",
"94.	c #A6988C",
"04.	c #AFA9A4",
"a4.	c #ADA49E",
"b4.	c #ACA098",
"c4.	c #B0A5A4",
"d4.	c #AFA39F",
"e4.	c #B0A39A",
"f4.	c #ADA9A8",
"g4.	c #A6A098",
"h4.	c #A9A097",
"i4.	c #AAA097",
"j4.	c #A79992",
"k4.	c #AB9D98",
"l4.	c #AB9B97",
"m4.	c #B0AAA2",
"n4.	c #B0ABA3",
"o4.	c #B0ABA5",
"p4.	c #B1ABA6",
"q4.	c #ABA49C",
"r4.	c #ABA59C",
"s4.	c #AAA297",
"t4.	c #A8A299",
"u4.	c #A09C98",
"v4.	c #9D9D98",
"w4.	c #9F9188",
"x4.	c #A09286",
"y4.	c #A5988A",
"z4.	c #A7A197",
"A4.	c #A8A197",
"B4.	c #A9A196",
"C4.	c #A99F94",
"D4.	c #9F948A",
"E4.	c #A09592",
"F4.	c #A19A97",
"G4.	c #A1A09F",
"H4.	c #A59D96",
"I4.	c #ABA7A6",
"J4.	c #A79C9A",
"K4.	c #A49E98",
"L4.	c #A3A3A2",
"M4.	c #A9A09C",
"N4.	c #AA9F99",
"O4.	c #9F9792",
"P4.	c #AC9E98",
"Q4.	c #AB9E96",
"R4.	c #ACA09A",
"S4.	c #ADA4A1",
"T4.	c #A5A8A2",
"U4.	c #A5A69F",
"V4.	c #AD9C95",
"W4.	c #AA9E96",
"X4.	c #AB9F93",
"Y4.	c #A5998E",
"Z4.	c #A89B90",
"`4.	c #A89B8F",
" 5.	c #AA9E98",
".5.	c #AFA29C",
"+5.	c #AFA29B",
"@5.	c #AC9F98",
"#5.	c #AC9F9A",
"$5.	c #ACA1A3",
"%5.	c #A89F9E",
"&5.	c #A79F9F",
"*5.	c #A49E96",
"=5.	c #ACA39C",
"-5.	c #ACA29B",
";5.	c #A69F9B",
">5.	c #A3A49F",
",5.	c #A3A1A2",
"'5.	c #A6A3A1",
")5.	c #A4A1A1",
"!5.	c #AA9F9C",
"~5.	c #AA9E9C",
"{5.	c #AAA299",
"]5.	c #AFA6A2",
"^5.	c #A79F9C",
"/5.	c #A89B95",
"(5.	c #A99E99",
"_5.	c #ADA39E",
":5.	c #A79D93",
"<5.	c #A9A5A7",
"[5.	c #A7A2A5",
"}5.	c #AEA7A2",
"|5.	c #AFA9A3",
"15.	c #AEA9A3",
"25.	c #ADA8A1",
"35.	c #ACA49E",
"45.	c #AAA29A",
"55.	c #A59B91",
"65.	c #A39A8F",
"75.	c #AAA3A4",
"85.	c #ACAAA6",
"95.	c #B0ABA7",
"05.	c #B0AAA6",
"a5.	c #AFA9A6",
"b5.	c #A8A29A",
"c5.	c #9D816C",
"d5.	c #9D826B",
"e5.	c #A38873",
"f5.	c #A69285",
"g5.	c #A28F7C",
"h5.	c #A3784B",
"i5.	c #A37B4F",
"j5.	c #A8815F",
"k5.	c #AE9276",
"l5.	c #AF8E76",
"m5.	c #AC8C75",
"n5.	c #AC8C74",
"o5.	c #A07F5F",
"p5.	c #A47854",
"q5.	c #A57854",
"r5.	c #A67A58",
"s5.	c #A7805E",
"t5.	c #A37E57",
"u5.	c #B29074",
"v5.	c #AC9D91",
"w5.	c #AAA195",
"x5.	c #AC9985",
"y5.	c #AC9E93",
"z5.	c #AFA198",
"A5.	c #ADA096",
"B5.	c #AEA19B",
"C5.	c #AEA39D",
"D5.	c #A5A09A",
"E5.	c #A78D81",
"F5.	c #AD8672",
"G5.	c #AC8064",
"H5.	c #A4795C",
"I5.	c #AB8064",
"J5.	c #A27C64",
"K5.	c #A27E67",
"L5.	c #A58676",
"M5.	c #AD9082",
"N5.	c #AF9284",
"O5.	c #AC9486",
"P5.	c #A98F7D",
"Q5.	c #AA917F",
"R5.	c #A89081",
"S5.	c #A89082",
"T5.	c #A69184",
"U5.	c #AD998B",
"V5.	c #AD9687",
"W5.	c #AC8368",
"X5.	c #A1765B",
"Y5.	c #A38371",
"Z5.	c #AF9386",
"`5.	c #AB8E80",
" 6.	c #A28374",
".6.	c #9F7C69",
"+6.	c #946B58",
"@6.	c #936652",
"#6.	c #976550",
"$6.	c #98644C",
"%6.	c #A26D56",
"&6.	c #A16E52",
"*6.	c #A57556",
"=6.	c #9F7966",
"-6.	c #9E7460",
";6.	c #A26F5E",
">6.	c #A26E5D",
",6.	c #AB7F6B",
"'6.	c #AC816D",
")6.	c #AB8774",
"!6.	c #9F8370",
"~6.	c #B09587",
"{6.	c #AA9182",
"]6.	c #AF9688",
"^6.	c #A7A299",
"/6.	c #AE968A",
"(6.	c #A57251",
"_6.	c #AA724B",
":6.	c #AA7B5B",
"<6.	c #AB7B57",
"[6.	c #A1704A",
"}6.	c #A4724D",
"|6.	c #A56E4C",
"16.	c #A36D4A",
"26.	c #9E6B45",
"36.	c #A2714E",
"46.	c #A57A60",
"56.	c #9E745A",
"66.	c #9B795F",
"76.	c #A17F67",
"86.	c #A3816A",
"96.	c #A8846B",
"06.	c #A78369",
"a6.	c #A98368",
"b6.	c #AF8B71",
"c6.	c #AD9887",
"d6.	c #A89C90",
"e6.	c #A99A91",
"f6.	c #9E7F72",
"g6.	c #957560",
"h6.	c #97745E",
"i6.	c #94715C",
"j6.	c #9A7963",
"k6.	c #9A7862",
"l6.	c #9D7C63",
"m6.	c #9C7A5F",
"n6.	c #947257",
"o6.	c #967760",
"p6.	c #A3856D",
"q6.	c #A0826B",
"r6.	c #A48D7B",
"s6.	c #9E8573",
"t6.	c #927564",
"u6.	c #917160",
"v6.	c #967767",
"w6.	c #9F8675",
"x6.	c #A4937F",
"y6.	c #AA9A8A",
"z6.	c #9D836C",
"A6.	c #A0A0A0",
"B6.	c #ADA9A6",
"C6.	c #AA988A",
"D6.	c #B19480",
"E6.	c #B79681",
"F6.	c #B99A85",
"G6.	c #BA9B87",
"H6.	c #B39480",
"I6.	c #AE8C78",
"J6.	c #B89F94",
"K6.	c #B1998F",
"L6.	c #B09686",
"M6.	c #A68066",
"N6.	c #A9856D",
"O6.	c #B0917A",
"P6.	c #AA8973",
"Q6.	c #B49987",
"R6.	c #AB866D",
"S6.	c #B07A55",
"T6.	c #B3805E",
"U6.	c #C3B4A9",
"V6.	c #B9ADA4",
"W6.	c #B3A296",
"X6.	c #B29889",
"Y6.	c #B79B8B",
"Z6.	c #AC8E76",
"`6.	c #A79B93",
" 7.	c #A89F92",
".7.	c #AB9780",
"+7.	c #B1997E",
"@7.	c #AE9B82",
"#7.	c #AB9880",
"$7.	c #AB967F",
"%7.	c #A58C79",
"&7.	c #9B806D",
"*7.	c #A68C74",
"=7.	c #A99076",
"-7.	c #A99075",
";7.	c #A68B6F",
">7.	c #AB8F72",
",7.	c #AA8E71",
"'7.	c #B09272",
")7.	c #B18E6B",
"!7.	c #AA8866",
"~7.	c #AD8C6B",
"{7.	c #AA8D6C",
"]7.	c #A78A71",
"^7.	c #A78462",
"/7.	c #A5825F",
"(7.	c #A78562",
"_7.	c #A78867",
":7.	c #A8978B",
"<7.	c #A9968B",
"[7.	c #968880",
"}7.	c #898078",
"|7.	c #978980",
"17.	c #9A877E",
"27.	c #9C897C",
"37.	c #9A8678",
"47.	c #988273",
"57.	c #9E8775",
"67.	c #A08676",
"77.	c #A18576",
"87.	c #987C6E",
"97.	c #907669",
"07.	c #856D62",
"a7.	c #7D675F",
"b7.	c #77645D",
"c7.	c #896B5C",
"d7.	c #94745C",
"e7.	c #A17A61",
"f7.	c #A78061",
"g7.	c #A88259",
"h7.	c #B28459",
"i7.	c #A4785B",
"j7.	c #9A7154",
"k7.	c #A78466",
"l7.	c #997A66",
"m7.	c #A78B75",
"n7.	c #A47043",
"o7.	c #A1784C",
"p7.	c #AB896A",
"q7.	c #A3825F",
"r7.	c #A47D5A",
"s7.	c #9F693A",
"t7.	c #9E6836",
"u7.	c #9B6431",
"v7.	c #A36B35",
"w7.	c #A86F39",
"x7.	c #A67441",
"y7.	c #A5733E",
"z7.	c #A87C53",
"A7.	c #B69E8B",
"B7.	c #B39F90",
"C7.	c #B6A598",
"D7.	c #B2A191",
"E7.	c #A68A6C",
"F7.	c #B0967D",
"G7.	c #B4A18C",
"H7.	c #B5A695",
"I7.	c #B5A89F",
"J7.	c #B4A9A1",
"K7.	c #B5A9A1",
"L7.	c #B4AAA2",
"M7.	c #B58051",
"N7.	c #B98553",
"O7.	c #BB8455",
"P7.	c #B47B4B",
"Q7.	c #B27E50",
"R7.	c #B27D55",
"S7.	c #B57F59",
"T7.	c #B5845B",
"U7.	c #B98960",
"V7.	c #BC8960",
"W7.	c #B98864",
"X7.	c #B58C6B",
"Y7.	c #B59178",
"Z7.	c #B28B6A",
"`7.	c #B68762",
" 8.	c #BB885C",
".8.	c #B98558",
"+8.	c #B58155",
"@8.	c #B17E55",
"#8.	c #B6815D",
"$8.	c #B7835E",
"%8.	c #B4855D",
"&8.	c #B68860",
"*8.	c #B9885B",
"=8.	c #B78861",
"-8.	c #AD8F79",
";8.	c #A99F97",
">8.	c #A5846C",
",8.	c #A6663F",
"'8.	c #AC683A",
")8.	c #AE6E45",
"!8.	c #AB704B",
"~8.	c #A4714A",
"{8.	c #A06D48",
"]8.	c #A16645",
"^8.	c #9E6242",
"/8.	c #A36C4B",
"(8.	c #A0633D",
"_8.	c #9E5B31",
":8.	c #A15F35",
"<8.	c #A05C2E",
"[8.	c #B07043",
"}8.	c #A36C48",
"|8.	c #A06E4E",
"18.	c #A06B4F",
"28.	c #A56A50",
"38.	c #A46A4E",
"48.	c #A46D4E",
"58.	c #A87554",
"68.	c #A57554",
"78.	c #B18668",
"88.	c #B48F72",
"98.	c #A09996",
"08.	c #B58C6F",
"a8.	c #AF7C58",
"b8.	c #B0723D",
"c8.	c #C2814B",
"d8.	c #BA7C47",
"e8.	c #B87842",
"f8.	c #B47642",
"g8.	c #AD7140",
"h8.	c #AD7240",
"i8.	c #AC7141",
"j8.	c #A96D3E",
"k8.	c #A96B3D",
"l8.	c #AB6E3D",
"m8.	c #AB7043",
"n8.	c #A66B45",
"o8.	c #A86D47",
"p8.	c #A96E46",
"q8.	c #B17649",
"r8.	c #AE7347",
"s8.	c #AE744A",
"t8.	c #AE754B",
"u8.	c #AC744B",
"v8.	c #AA774F",
"w8.	c #AF9580",
"x8.	c #9C877A",
"y8.	c #956645",
"z8.	c #986B4D",
"A8.	c #966C51",
"B8.	c #976A4B",
"C8.	c #936443",
"D8.	c #8F5F3F",
"E8.	c #8F5E3D",
"F8.	c #946037",
"G8.	c #94603C",
"H8.	c #A0785C",
"I8.	c #A18067",
"J8.	c #9A7459",
"K8.	c #976F51",
"L8.	c #976F4E",
"M8.	c #986F4E",
"N8.	c #986D4A",
"O8.	c #986B49",
"P8.	c #976948",
"Q8.	c #9C704C",
"R8.	c #9A7657",
"S8.	c #A38369",
"T8.	c #A0714A",
"U8.	c #A37551",
"V8.	c #967A60",
"W8.	c #93806F",
"X8.	c #A39D96",
"Y8.	c #A9A6A6",
"Z8.	c #AFA39B",
"`8.	c #B99A81",
" 9.	c #C2987B",
".9.	c #BF9A7F",
"+9.	c #BD9B83",
"@9.	c #BD9A84",
"#9.	c #BB937B",
"$9.	c #B8927A",
"%9.	c #C0A999",
"&9.	c #C8BAB0",
"*9.	c #C5B2A5",
"=9.	c #B99D8D",
"-9.	c #BCA292",
";9.	c #CAB7A7",
">9.	c #BBAB9A",
",9.	c #C1B3A5",
"'9.	c #CCBCAE",
")9.	c #CFC2B9",
"!9.	c #BFA799",
"~9.	c #B08065",
"{9.	c #BA8F75",
"]9.	c #C6AE9F",
"^9.	c #C7B8AD",
"/9.	c #CFC6C1",
"(9.	c #C3B4A6",
"_9.	c #BCA68C",
":9.	c #C0A284",
"<9.	c #BBA187",
"[9.	c #BC9A77",
"}9.	c #BA9971",
"|9.	c #B7966E",
"19.	c #AD835A",
"29.	c #A97A57",
"39.	c #A6734E",
"49.	c #A7764F",
"59.	c #A6774C",
"69.	c #AF8153",
"79.	c #B28454",
"89.	c #B38455",
"99.	c #B28455",
"09.	c #AC7D4E",
"a9.	c #AD7E4E",
"b9.	c #B08152",
"c9.	c #B1804E",
"d9.	c #B07E47",
"e9.	c #AB7945",
"f9.	c #A7784A",
"g9.	c #B58A65",
"h9.	c #AE8457",
"i9.	c #B0874F",
"j9.	c #B58657",
"k9.	c #B38257",
"l9.	c #AB7C54",
"m9.	c #A98157",
"n9.	c #A18772",
"o9.	c #AD8C73",
"p9.	c #B17C5A",
"q9.	c #8D644E",
"r9.	c #654B3D",
"s9.	c #524332",
"t9.	c #866952",
"u9.	c #8D6A52",
"v9.	c #99775E",
"w9.	c #99765D",
"x9.	c #9A765B",
"y9.	c #9D775A",
"z9.	c #A07455",
"A9.	c #906244",
"B9.	c #80553A",
"C9.	c #764F37",
"D9.	c #714B37",
"E9.	c #684635",
"F9.	c #6D4935",
"G9.	c #855B3C",
"H9.	c #A9784C",
"I9.	c #A5734D",
"J9.	c #A67450",
"K9.	c #A77749",
"L9.	c #B2804A",
"M9.	c #A16E4B",
"N9.	c #9E6E4D",
"O9.	c #A57F61",
"P9.	c #A68062",
"Q9.	c #9C683E",
"R9.	c #9F6D3E",
"S9.	c #A07444",
"T9.	c #A4713D",
"U9.	c #A46E36",
"V9.	c #A16A32",
"W9.	c #9D672E",
"X9.	c #A56E36",
"Y9.	c #AB723C",
"Z9.	c #AB723E",
"`9.	c #AA7140",
" 0.	c #A9713F",
".0.	c #AF8B6D",
"+0.	c #AE8F77",
"@0.	c #AE9581",
"#0.	c #B09B86",
"$0.	c #AE8D6A",
"%0.	c #A77E50",
"&0.	c #AD8F71",
"*0.	c #B6A089",
"=0.	c #B5A696",
"-0.	c #B5A79E",
";0.	c #B5A69E",
">0.	c #B4A59C",
",0.	c #A69893",
"'0.	c #AF775A",
")0.	c #B57C4C",
"!0.	c #BD8757",
"~0.	c #BE8D69",
"{0.	c #BA8966",
"]0.	c #B78662",
"^0.	c #BC8E65",
"/0.	c #BD8F65",
"(0.	c #BF8D63",
"_0.	c #BE8C62",
":0.	c #BF8A60",
"<0.	c #BE8B5C",
"[0.	c #BE8D63",
"}0.	c #BE8F63",
"|0.	c #BB8C5E",
"10.	c #BA8A61",
"20.	c #BB8A66",
"30.	c #BC8B61",
"40.	c #BA8C60",
"50.	c #B49079",
"60.	c #A1603A",
"70.	c #AE6A3D",
"80.	c #AE6F49",
"90.	c #9F6740",
"00.	c #A4643F",
"a0.	c #A15F3A",
"b0.	c #9A5833",
"c0.	c #A3633A",
"d0.	c #A16137",
"e0.	c #A3653A",
"f0.	c #9B5A2F",
"g0.	c #A8734F",
"h0.	c #A77455",
"i0.	c #A77258",
"j0.	c #A26E54",
"k0.	c #A26E52",
"l0.	c #A57153",
"m0.	c #A87456",
"n0.	c #A77453",
"o0.	c #AB7757",
"p0.	c #B28362",
"q0.	c #AB886B",
"r0.	c #A39790",
"s0.	c #9F9899",
"t0.	c #AC9281",
"u0.	c #B4875C",
"v0.	c #B68150",
"w0.	c #B5804C",
"x0.	c #BC7E42",
"y0.	c #BD7B40",
"z0.	c #BB7B46",
"A0.	c #B07342",
"B0.	c #A76D3D",
"C0.	c #AB7040",
"D0.	c #AD7242",
"E0.	c #AA6F3F",
"F0.	c #AB6F40",
"G0.	c #AD7041",
"H0.	c #AD734B",
"I0.	c #AC724A",
"J0.	c #AB7149",
"K0.	c #AD744A",
"L0.	c #B2794E",
"M0.	c #B57D54",
"N0.	c #B38259",
"O0.	c #B9855D",
"P0.	c #B1937A",
"Q0.	c #9C8879",
"R0.	c #946441",
"S0.	c #9D6E4E",
"T0.	c #9B765C",
"U0.	c #996D4E",
"V0.	c #9B694A",
"W0.	c #976647",
"X0.	c #966345",
"Y0.	c #966038",
"Z0.	c #A37B60",
"`0.	c #9A755A",
" a.	c #A1795F",
".a.	c #9F7255",
"+a.	c #9E714C",
"@a.	c #9F734D",
"#a.	c #9C7357",
"$a.	c #957158",
"%a.	c #9B7961",
"&a.	c #997052",
"*a.	c #94745E",
"=a.	c #BD9C85",
"-a.	c #C29674",
";a.	c #C19777",
">a.	c #BF977A",
",a.	c #BF9474",
"'a.	c #BF9273",
")a.	c #BB9B84",
"!a.	c #CCBFB7",
"~a.	c #CFC8C2",
"{a.	c #C9C1BB",
"]a.	c #C0AC9E",
"^a.	c #BFAB9D",
"/a.	c #CFCDC6",
"(a.	c #D0CDC7",
"_a.	c #D1CDC7",
":a.	c #CFC7C3",
"<a.	c #D1CCC7",
"[a.	c #CFC9C4",
"}a.	c #CDB9AF",
"|a.	c #C4A590",
"1a.	c #C8AE9A",
"2a.	c #CEB8A8",
"3a.	c #CCBEB7",
"4a.	c #D5C7C1",
"5a.	c #C4A997",
"6a.	c #BFA081",
"7a.	c #A69D9B",
"8a.	c #A9937C",
"9a.	c #BB9876",
"0a.	c #AF7D48",
"aa.	c #A87A47",
"ba.	c #AA7A4A",
"ca.	c #AA7345",
"da.	c #A97139",
"ea.	c #AE7939",
"fa.	c #B17C3F",
"ga.	c #B47E41",
"ha.	c #B68041",
"ia.	c #B5794A",
"ja.	c #AE7846",
"ka.	c #AB7038",
"la.	c #A96F3A",
"ma.	c #BC8D65",
"na.	c #B8855F",
"oa.	c #B27F4B",
"pa.	c #B48148",
"qa.	c #B48248",
"ra.	c #B88352",
"sa.	c #B68257",
"ta.	c #AA845C",
"ua.	c #A79B8E",
"va.	c #B28E74",
"wa.	c #AA7F62",
"xa.	c #906950",
"ya.	c #554138",
"za.	c #483A35",
"Aa.	c #524030",
"Ba.	c #967053",
"Ca.	c #A4795B",
"Da.	c #9F775E",
"Ea.	c #9E765D",
"Fa.	c #9C755C",
"Ga.	c #9B7458",
"Ha.	c #A87D5E",
"Ia.	c #A87A58",
"Ja.	c #9C6C4A",
"Ka.	c #8B5F3F",
"La.	c #7E563C",
"Ma.	c #7A5439",
"Na.	c #73513B",
"Oa.	c #866046",
"Pa.	c #886241",
"Qa.	c #8C633F",
"Ra.	c #A6754F",
"Sa.	c #A27053",
"Ta.	c #A97954",
"Ua.	c #B28451",
"Va.	c #AA7248",
"Wa.	c #A5744C",
"Xa.	c #B6957E",
"Ya.	c #B59175",
"Za.	c #986637",
"`a.	c #A26C3D",
" b.	c #A87143",
".b.	c #A46F3C",
"+b.	c #A36A32",
"@b.	c #A96E35",
"#b.	c #A77037",
"$b.	c #A77138",
"%b.	c #A87139",
"&b.	c #A86F3A",
"*b.	c #AA713B",
"=b.	c #AB703D",
"-b.	c #A96C3D",
";b.	c #A46738",
">b.	c #A16737",
",b.	c #9F693E",
"'b.	c #9E6D49",
")b.	c #A77F5E",
"!b.	c #A98E6D",
"~b.	c #A78663",
"{b.	c #AE8865",
"]b.	c #B09375",
"^b.	c #B39D86",
"/b.	c #B4A494",
"(b.	c #B4A296",
"_b.	c #B3A094",
":b.	c #B0A196",
"<b.	c #B4896C",
"[b.	c #BB835B",
"}b.	c #BC8355",
"|b.	c #BC8C66",
"1b.	c #BE8D6A",
"2b.	c #B88763",
"3b.	c #BA8965",
"4b.	c #B98B63",
"5b.	c #BC8A60",
"6b.	c #BA8961",
"7b.	c #B88658",
"8b.	c #B68155",
"9b.	c #BA8A5D",
"0b.	c #BA8B5E",
"ab.	c #BB8A64",
"bb.	c #B98860",
"cb.	c #BD8C66",
"db.	c #BE8C64",
"eb.	c #B8865C",
"fb.	c #B88A5E",
"gb.	c #B18D75",
"hb.	c #A79D94",
"ib.	c #9F745B",
"jb.	c #A4633E",
"kb.	c #AF6A40",
"lb.	c #AA6A42",
"mb.	c #A26339",
"nb.	c #A76840",
"ob.	c #A5633E",
"pb.	c #9F5D39",
"qb.	c #A26540",
"rb.	c #A26A44",
"sb.	c #A56D45",
"tb.	c #A66F43",
"ub.	c #A77348",
"vb.	c #A97650",
"wb.	c #A77452",
"xb.	c #A97555",
"yb.	c #A47050",
"zb.	c #A97653",
"Ab.	c #AB7755",
"Bb.	c #AB7756",
"Cb.	c #AA7756",
"Db.	c #AE7B5A",
"Eb.	c #AF7C5B",
"Fb.	c #AB7B5A",
"Gb.	c #A97D60",
"Hb.	c #A69992",
"Ib.	c #A39D9D",
"Jb.	c #A9774C",
"Kb.	c #9F6B41",
"Lb.	c #AE7C4D",
"Mb.	c #B7824E",
"Nb.	c #BE7E45",
"Ob.	c #AF7649",
"Pb.	c #A97347",
"Qb.	c #AA7347",
"Rb.	c #B0794D",
"Sb.	c #A97245",
"Tb.	c #AA7146",
"Ub.	c #AC744A",
"Vb.	c #AE764B",
"Wb.	c #AE794F",
"Xb.	c #AF7A51",
"Yb.	c #AA764C",
"Zb.	c #AE794E",
"`b.	c #B37F53",
" c.	c #B8845A",
".c.	c #B5855C",
"+c.	c #B07F56",
"@c.	c #B0927A",
"#c.	c #9F8B7C",
"$c.	c #976844",
"%c.	c #996B49",
"&c.	c #9D724E",
"*c.	c #966B47",
"=c.	c #A87757",
"-c.	c #9E6C4E",
";c.	c #966448",
">c.	c #9A694C",
",c.	c #A0785E",
"'c.	c #A48168",
")c.	c #9B755A",
"!c.	c #A17558",
"~c.	c #A37152",
"{c.	c #A06D46",
"]c.	c #A06E47",
"^c.	c #B79F8F",
"/c.	c #A4846D",
"(c.	c #A68976",
"_c.	c #9B7356",
":c.	c #997A65",
"<c.	c #A29893",
"[c.	c #BE9F88",
"}c.	c #BF987B",
"|c.	c #BC9577",
"1c.	c #C09574",
"2c.	c #BE916D",
"3c.	c #BF9579",
"4c.	c #C8B2A1",
"5c.	c #D3CDCA",
"6c.	c #CECBC9",
"7c.	c #BAAB9B",
"8c.	c #CFBDB2",
"9c.	c #D1CDC8",
"0c.	c #D1CEC8",
"ac.	c #CECFC8",
"bc.	c #D1CFC8",
"cc.	c #CECDC7",
"dc.	c #C0B9A7",
"ec.	c #B2916C",
"fc.	c #C1A287",
"gc.	c #BC987E",
"hc.	c #C6B2A5",
"ic.	c #C3A897",
"jc.	c #C1A797",
"kc.	c #C6A892",
"lc.	c #BD9773",
"mc.	c #B99778",
"nc.	c #AE8F72",
"oc.	c #AF8D6B",
"pc.	c #AC7842",
"qc.	c #B2895B",
"rc.	c #BC9870",
"sc.	c #AF7F4E",
"tc.	c #B0793C",
"uc.	c #AE793B",
"vc.	c #AD793C",
"wc.	c #AA783E",
"xc.	c #B17F47",
"yc.	c #B2743D",
"zc.	c #AF6D3A",
"Ac.	c #A96E3D",
"Bc.	c #AB7140",
"Cc.	c #AB6F3B",
"Dc.	c #BA885F",
"Ec.	c #AD7645",
"Fc.	c #B17841",
"Gc.	c #B47A42",
"Hc.	c #BA8355",
"Ic.	c #C6A37E",
"Jc.	c #B28A60",
"Kc.	c #A89987",
"Lc.	c #A99D97",
"Mc.	c #B08C73",
"Nc.	c #9C7354",
"Oc.	c #6D4F35",
"Pc.	c #5F4C3A",
"Qc.	c #3B3631",
"Rc.	c #544333",
"Sc.	c #916C4F",
"Tc.	c #A67B5D",
"Uc.	c #A57A5D",
"Vc.	c #A5795C",
"Wc.	c #A67A5B",
"Xc.	c #A16F4C",
"Yc.	c #926445",
"Zc.	c #885B3D",
"`c.	c #7E573D",
" d.	c #94694B",
".d.	c #976E4E",
"+d.	c #866043",
"@d.	c #704E33",
"#d.	c #A27452",
"$d.	c #966449",
"%d.	c #AB7A57",
"&d.	c #AD7344",
"*d.	c #BC9A80",
"=d.	c #B9977E",
"-d.	c #AB876D",
";d.	c #9F673F",
">d.	c #A96E40",
",d.	c #A56C39",
"'d.	c #A56934",
")d.	c #A86C35",
"!d.	c #A76F39",
"~d.	c #AA733C",
"{d.	c #AA743C",
"]d.	c #AC733E",
"^d.	c #AA713C",
"/d.	c #A96E3A",
"(d.	c #A66435",
"_d.	c #A36132",
":d.	c #A36131",
"<d.	c #A46332",
"[d.	c #A36738",
"}d.	c #A47145",
"|d.	c #A98460",
"1d.	c #A98867",
"2d.	c #AC8E73",
"3d.	c #AF947C",
"4d.	c #B29B86",
"5d.	c #B29D8B",
"6d.	c #B19C8D",
"7d.	c #AF9A88",
"8d.	c #B19D8E",
"9d.	c #AEA09C",
"0d.	c #B18C6E",
"ad.	c #BA8964",
"bd.	c #BD8D63",
"cd.	c #BD8F69",
"dd.	c #B98863",
"ed.	c #B88960",
"fd.	c #BB8964",
"gd.	c #B88964",
"hd.	c #B9895C",
"id.	c #B8895A",
"jd.	c #BB8B5E",
"kd.	c #B98964",
"ld.	c #B98861",
"md.	c #BF8E65",
"nd.	c #BD8B61",
"od.	c #B8885E",
"pd.	c #BA8C64",
"qd.	c #B98C61",
"rd.	c #BA8B67",
"sd.	c #B0927B",
"td.	c #A8978D",
"ud.	c #A27051",
"vd.	c #A56740",
"wd.	c #AE6E43",
"xd.	c #AC6D43",
"yd.	c #A86B44",
"zd.	c #A9673F",
"Ad.	c #A7643A",
"Bd.	c #A56943",
"Cd.	c #A66E49",
"Dd.	c #A56F4C",
"Ed.	c #A97652",
"Fd.	c #AA7A53",
"Gd.	c #A5774D",
"Hd.	c #A36F46",
"Id.	c #AB754F",
"Jd.	c #AC7A54",
"Kd.	c #AE7A5A",
"Ld.	c #AD7A57",
"Md.	c #AE7850",
"Nd.	c #AD7954",
"Od.	c #AE7A58",
"Pd.	c #AD7857",
"Qd.	c #AF7A56",
"Rd.	c #AF7854",
"Sd.	c #AE7959",
"Td.	c #AE8369",
"Ud.	c #A89A94",
"Vd.	c #AA8C76",
"Wd.	c #AB764F",
"Xd.	c #9C683B",
"Yd.	c #A9743F",
"Zd.	c #BC8350",
"`d.	c #BE864F",
" e.	c #BC8152",
".e.	c #B17A4F",
"+e.	c #A9754B",
"@e.	c #A4734C",
"#e.	c #A2714B",
"$e.	c #A97449",
"%e.	c #AC754C",
"&e.	c #AD764F",
"*e.	c #B17B52",
"=e.	c #B07D55",
"-e.	c #AF7D57",
";e.	c #AC7C56",
">e.	c #AD7C55",
",e.	c #AF7E57",
"'e.	c #B78759",
")e.	c #B98659",
"!e.	c #B28054",
"~e.	c #AC7C53",
"{e.	c #AF927C",
"]e.	c #A59087",
"^e.	c #9C6F4F",
"/e.	c #996C48",
"(e.	c #9B6A45",
"_e.	c #9B7249",
":e.	c #A37759",
"<e.	c #9B6E4F",
"[e.	c #966849",
"}e.	c #9A6C4E",
"|e.	c #A07458",
"1e.	c #AB8870",
"2e.	c #A07756",
"3e.	c #9D6C48",
"4e.	c #9F6C47",
"5e.	c #9A653F",
"6e.	c #9C6743",
"7e.	c #9C6945",
"8e.	c #A06F4B",
"9e.	c #A98266",
"0e.	c #AFA193",
"ae.	c #A59381",
"be.	c #AA8F77",
"ce.	c #9E7659",
"de.	c #9D7154",
"ee.	c #9C7A63",
"fe.	c #BA9F89",
"ge.	c #B99B85",
"he.	c #BC987D",
"ie.	c #BA916D",
"je.	c #CDC3B6",
"ke.	c #B7977E",
"le.	c #BCA08B",
"me.	c #CCC0B7",
"ne.	c #D3CECA",
"oe.	c #D1D1CA",
"pe.	c #D1CDC6",
"qe.	c #B09379",
"re.	c #BBA99C",
"se.	c #BC9D8B",
"te.	c #C3AEA0",
"ue.	c #BA9881",
"ve.	c #BC9C8B",
"we.	c #C9AE9F",
"xe.	c #BA9D84",
"ye.	c #B99E83",
"ze.	c #D0BAA5",
"Ae.	c #B38F6C",
"Be.	c #B0783F",
"Ce.	c #B0845A",
"De.	c #AE8C6A",
"Ee.	c #B58B5F",
"Fe.	c #B4885C",
"Ge.	c #B68C61",
"He.	c #C29F79",
"Ie.	c #B2885C",
"Je.	c #B6946C",
"Ke.	c #C4AB94",
"Le.	c #AA764B",
"Me.	c #AB6830",
"Ne.	c #AB6A39",
"Oe.	c #AF7039",
"Pe.	c #AD723A",
"Qe.	c #AC723A",
"Re.	c #B07A3D",
"Se.	c #B38051",
"Te.	c #B8855A",
"Ue.	c #B88F66",
"Ve.	c #B08962",
"We.	c #AD896D",
"Xe.	c #9F7653",
"Ye.	c #836548",
"Ze.	c #3C3731",
"`e.	c #4D3B30",
" f.	c #755238",
".f.	c #A67856",
"+f.	c #AC7C59",
"@f.	c #AA7A58",
"#f.	c #AD7B56",
"$f.	c #AF7953",
"%f.	c #B0764E",
"&f.	c #AA734E",
"*f.	c #8D5C3F",
"=f.	c #926643",
"-f.	c #9C6E4A",
";f.	c #906C52",
">f.	c #6F503A",
",f.	c #5F4430",
"'f.	c #7E563A",
")f.	c #8C5C3E",
"!f.	c #B47C54",
"~f.	c #AC7345",
"{f.	c #A57451",
"]f.	c #AC8062",
"^f.	c #A89183",
"/f.	c #99603A",
"(f.	c #A0663D",
"_f.	c #A46A3F",
":f.	c #A2673A",
"<f.	c #A06537",
"[f.	c #A16637",
"}f.	c #A66E3D",
"|f.	c #A56D3C",
"1f.	c #A56E3D",
"2f.	c #A66E3E",
"3f.	c #A76F3E",
"4f.	c #A66C3C",
"5f.	c #A46335",
"6f.	c #A26133",
"7f.	c #A66437",
"8f.	c #A86638",
"9f.	c #A77245",
"0f.	c #A87F5E",
"af.	c #A78563",
"bf.	c #AD8B6E",
"cf.	c #B08D70",
"df.	c #B39376",
"ef.	c #B1987F",
"ff.	c #AF9981",
"gf.	c #B19A85",
"hf.	c #A99B94",
"if.	c #AD9B95",
"jf.	c #B18463",
"kf.	c #B68865",
"lf.	c #BA8E6C",
"mf.	c #BC9273",
"nf.	c #B98C6C",
"of.	c #BD8D6A",
"pf.	c #BC8F6C",
"qf.	c #B6865F",
"rf.	c #B78457",
"sf.	c #BA865E",
"tf.	c #BC8966",
"uf.	c #BC8C6A",
"vf.	c #BA8B69",
"wf.	c #BB8C6A",
"xf.	c #BB8D68",
"yf.	c #BB8D67",
"zf.	c #B98A5F",
"Af.	c #BB8B66",
"Bf.	c #C2926B",
"Cf.	c #B98C65",
"Df.	c #B58E69",
"Ef.	c #B68968",
"Ff.	c #AA9482",
"Gf.	c #AB704A",
"Hf.	c #AD7047",
"If.	c #B27851",
"Jf.	c #B97A53",
"Kf.	c #B06B41",
"Lf.	c #AF6F41",
"Mf.	c #A86E42",
"Nf.	c #A26E47",
"Of.	c #B17C57",
"Pf.	c #B08359",
"Qf.	c #AE7F55",
"Rf.	c #AE744C",
"Sf.	c #AC7857",
"Tf.	c #AA7656",
"Uf.	c #B07951",
"Vf.	c #AE774D",
"Wf.	c #B6815C",
"Xf.	c #B27D58",
"Yf.	c #B07B56",
"Zf.	c #B17A53",
"`f.	c #B37F5F",
" g.	c #AA9281",
".g.	c #AE7B55",
"+g.	c #B17846",
"@g.	c #BA8049",
"#g.	c #B57E52",
"$g.	c #B68254",
"%g.	c #BA8156",
"&g.	c #A9754A",
"*g.	c #A27248",
"=g.	c #9F724C",
"-g.	c #9B6D4B",
";g.	c #A46F46",
">g.	c #AA734A",
",g.	c #AC754D",
"'g.	c #B27F59",
")g.	c #AE7F5C",
"!g.	c #A87B5B",
"~g.	c #A67B59",
"{g.	c #AB805E",
"]g.	c #AD815C",
"^g.	c #B18457",
"/g.	c #B88252",
"(g.	c #B58154",
"_g.	c #B18258",
":g.	c #AE825F",
"<g.	c #8D5A3A",
"[g.	c #916443",
"}g.	c #986E4F",
"|g.	c #966944",
"1g.	c #9B7355",
"2g.	c #996F51",
"3g.	c #976642",
"4g.	c #9C6F4E",
"5g.	c #9E7150",
"6g.	c #A3785B",
"7g.	c #AA896F",
"8g.	c #A47C59",
"9g.	c #A27454",
"0g.	c #986849",
"ag.	c #A67A5A",
"bg.	c #A07B59",
"cg.	c #A28168",
"dg.	c #A08772",
"eg.	c #AD9C8C",
"fg.	c #ABA498",
"gg.	c #ACA69B",
"hg.	c #9C7358",
"ig.	c #99887B",
"jg.	c #B8A192",
"kg.	c #BAA491",
"lg.	c #BC9B83",
"mg.	c #B89172",
"ng.	c #B68965",
"og.	c #B28D71",
"pg.	c #BDA799",
"qg.	c #D2C9C4",
"rg.	c #CABEB7",
"sg.	c #B19176",
"tg.	c #AC7F5A",
"ug.	c #BC916E",
"vg.	c #CAB8AC",
"wg.	c #D3CAC6",
"xg.	c #CCC1B9",
"yg.	c #C3B4A7",
"zg.	c #C4BCB4",
"Ag.	c #CDC5BB",
"Bg.	c #C7B9A9",
"Cg.	c #C0BDB6",
"Dg.	c #B8AAA1",
"Eg.	c #C6BAB2",
"Fg.	c #BDA28F",
"Gg.	c #C5A799",
"Hg.	c #CEB3A5",
"Ig.	c #BFA28B",
"Jg.	c #B1A29A",
"Kg.	c #A5A2A1",
"Lg.	c #BD9E7F",
"Mg.	c #C9AA8B",
"Ng.	c #AF8458",
"Og.	c #A77B4C",
"Pg.	c #BEA48E",
"Qg.	c #BBA389",
"Rg.	c #C7B098",
"Sg.	c #B89777",
"Tg.	c #B28F68",
"Ug.	c #C09D7C",
"Vg.	c #B79C85",
"Wg.	c #CABEB4",
"Xg.	c #B38767",
"Yg.	c #AB6A3A",
"Zg.	c #AE6B3B",
"`g.	c #AC703B",
" h.	c #AB7137",
".h.	c #AA703B",
"+h.	c #AD713C",
"@h.	c #AD7038",
"#h.	c #AD7131",
"$h.	c #AE7232",
"%h.	c #B1783C",
"&h.	c #C0A188",
"*h.	c #C39D82",
"=h.	c #B17D4E",
"-h.	c #A69A95",
";h.	c #B18F71",
">h.	c #B18660",
",h.	c #A27352",
"'h.	c #624633",
")h.	c #402F29",
"!h.	c #65483A",
"~h.	c #80593F",
"{h.	c #AD7A54",
"]h.	c #A9754F",
"^h.	c #A9734B",
"/h.	c #A6704E",
"(h.	c #86563C",
"_h.	c #956847",
":h.	c #6E5241",
"<h.	c #584032",
"[h.	c #574031",
"}h.	c #553E2F",
"|h.	c #7E583E",
"1h.	c #B37C52",
"2h.	c #A87349",
"3h.	c #AA754B",
"4h.	c #AA754F",
"5h.	c #A49287",
"6h.	c #9E8270",
"7h.	c #8F6043",
"8h.	c #8F5B3A",
"9h.	c #925E39",
"0h.	c #97613B",
"ah.	c #935E36",
"bh.	c #915B33",
"ch.	c #955D34",
"dh.	c #9A6136",
"eh.	c #9A6237",
"fh.	c #9A6539",
"gh.	c #9E693C",
"hh.	c #9C663A",
"ih.	c #9C6036",
"jh.	c #9D6037",
"kh.	c #9E6037",
"lh.	c #A0633A",
"mh.	c #9D663B",
"nh.	c #9F7146",
"oh.	c #A3815D",
"ph.	c #A67E5D",
"qh.	c #AA7E5B",
"rh.	c #A8805D",
"sh.	c #AD8C6C",
"th.	c #AF937C",
"uh.	c #A89379",
"vh.	c #AD967B",
"wh.	c #AA9E90",
"xh.	c #AC998E",
"yh.	c #B3825B",
"zh.	c #B88A66",
"Ah.	c #B99274",
"Bh.	c #B88F71",
"Ch.	c #BA8C6D",
"Dh.	c #B68764",
"Eh.	c #B28567",
"Fh.	c #B4835D",
"Gh.	c #B48150",
"Hh.	c #B87C49",
"Ih.	c #BB8864",
"Jh.	c #BB8C6B",
"Kh.	c #BA8C68",
"Lh.	c #BA8A64",
"Mh.	c #B98D64",
"Nh.	c #BD926A",
"Oh.	c #BF936E",
"Ph.	c #BA906C",
"Qh.	c #B69071",
"Rh.	c #B59373",
"Sh.	c #A69588",
"Th.	c #A39A99",
"Uh.	c #AD8066",
"Vh.	c #B3744B",
"Wh.	c #B6784F",
"Xh.	c #B67B51",
"Yh.	c #B97F55",
"Zh.	c #B57C51",
"`h.	c #B7794D",
" i.	c #B57140",
".i.	c #B67645",
"+i.	c #A26E46",
"@i.	c #AC744D",
"#i.	c #AC6B40",
"$i.	c #B47348",
"%i.	c #B07A4C",
"&i.	c #B07D56",
"*i.	c #AA784E",
"=i.	c #B0794E",
"-i.	c #AE774E",
";i.	c #A97551",
">i.	c #B17B57",
",i.	c #B57E59",
"'i.	c #B67E56",
")i.	c #B57B53",
"!i.	c #A7988E",
"~i.	c #B58462",
"{i.	c #C0804A",
"]i.	c #BE844A",
"^i.	c #A8764F",
"/i.	c #A97854",
"(i.	c #AE7A4E",
"_i.	c #AC7947",
":i.	c #9D6E42",
"<i.	c #A07449",
"[i.	c #9B6747",
"}i.	c #A36F45",
"|i.	c #A77047",
"1i.	c #AD764D",
"2i.	c #AE7950",
"3i.	c #A37C5A",
"4i.	c #9F7A5B",
"5i.	c #9E795B",
"6i.	c #A27D5E",
"7i.	c #AD8660",
"8i.	c #B0875D",
"9i.	c #B57F4F",
"0i.	c #B27E51",
"ai.	c #B7875D",
"bi.	c #B48865",
"ci.	c #A49285",
"di.	c #A0715E",
"ei.	c #A27B65",
"fi.	c #A88E7C",
"gi.	c #A1856F",
"hi.	c #AB9282",
"ii.	c #B39E92",
"ji.	c #996B4B",
"ki.	c #A87F66",
"li.	c #A78973",
"mi.	c #A58062",
"ni.	c #A17C62",
"oi.	c #A68166",
"pi.	c #AD846B",
"qi.	c #AA866C",
"ri.	c #A3866B",
"si.	c #A4907C",
"ti.	c #AC9B8C",
"ui.	c #B2A29A",
"vi.	c #AFA69D",
"wi.	c #A8A7A1",
"xi.	c #A99F95",
"yi.	c #B19C8C",
"zi.	c #A89B97",
"Ai.	c #B59E8E",
"Bi.	c #BDA794",
"Ci.	c #C3A793",
"Di.	c #C09F87",
"Ei.	c #B69070",
"Fi.	c #B28D70",
"Gi.	c #AB8A71",
"Hi.	c #AF917F",
"Ii.	c #A87F67",
"Ji.	c #B07A57",
"Ki.	c #B4825E",
"Li.	c #C6AA97",
"Mi.	c #B79D8D",
"Ni.	c #BC9D84",
"Oi.	c #B69E8A",
"Pi.	c #C1B5A9",
"Qi.	c #C8BFB2",
"Ri.	c #CABEB2",
"Si.	c #B59E8F",
"Ti.	c #C0A591",
"Ui.	c #B98F6B",
"Vi.	c #CFC1AA",
"Wi.	c #D1C0B1",
"Xi.	c #CFB3A3",
"Yi.	c #B39C8C",
"Zi.	c #BC9C75",
"`i.	c #B49368",
" j.	c #B28F64",
".j.	c #AE895F",
"+j.	c #CABDAC",
"@j.	c #CCC2B4",
"#j.	c #BAA28A",
"$j.	c #AF9178",
"%j.	c #BEAF9A",
"&j.	c #D1C5BD",
"*j.	c #C4A087",
"=j.	c #A47350",
"-j.	c #A56F49",
";j.	c #A46B3F",
">j.	c #AB774B",
",j.	c #A47247",
"'j.	c #A77445",
")j.	c #AB7643",
"!j.	c #A87136",
"~j.	c #A97A4C",
"{j.	c #C5AE9E",
"]j.	c #C6BBB0",
"^j.	c #C7B6A2",
"/j.	c #B08A67",
"(j.	c #A59B90",
"_j.	c #B28F71",
":j.	c #AE7F5E",
"<j.	c #6E5040",
"[j.	c #815E4C",
"}j.	c #7B543C",
"|j.	c #A27756",
"1j.	c #AC7A55",
"2j.	c #A76F47",
"3j.	c #92603C",
"4j.	c #936346",
"5j.	c #7B4F36",
"6j.	c #71482C",
"7j.	c #7E5535",
"8j.	c #523B30",
"9j.	c #4B372D",
"0j.	c #4B382E",
"aj.	c #443933",
"bj.	c #5E483D",
"cj.	c #78553D",
"dj.	c #A9794E",
"ej.	c #A77957",
"fj.	c #93765E",
"gj.	c #A1978C",
"hj.	c #A79083",
"ij.	c #A37B66",
"jj.	c #8F5D40",
"kj.	c #926042",
"lj.	c #905F40",
"mj.	c #8F5D3E",
"nj.	c #915D3B",
"oj.	c #8F5A34",
"pj.	c #915B34",
"qj.	c #935C35",
"rj.	c #985F39",
"sj.	c #9B623B",
"tj.	c #955D37",
"uj.	c #975F3B",
"vj.	c #965F3A",
"wj.	c #9F714C",
"xj.	c #AA845F",
"yj.	c #A17754",
"zj.	c #9A6C4A",
"Aj.	c #9E704A",
"Bj.	c #9D6F49",
"Cj.	c #A17957",
"Dj.	c #A78D75",
"Ej.	c #A99279",
"Fj.	c #AB9E91",
"Gj.	c #B08262",
"Hj.	c #AF8669",
"Ij.	c #B48763",
"Jj.	c #AE8063",
"Kj.	c #B38256",
"Lj.	c #B5804D",
"Mj.	c #B48153",
"Nj.	c #B4845C",
"Oj.	c #B98965",
"Pj.	c #B88965",
"Qj.	c #B78865",
"Rj.	c #B68763",
"Sj.	c #B58661",
"Tj.	c #B78B63",
"Uj.	c #BB8F68",
"Vj.	c #BB8E69",
"Wj.	c #BE906E",
"Xj.	c #B48E71",
"Yj.	c #A68B75",
"Zj.	c #A79B92",
"`j.	c #AC8269",
" k.	c #A97048",
".k.	c #AB724A",
"+k.	c #AA7148",
"@k.	c #A96F43",
"#k.	c #A6693B",
"$k.	c #A76B3F",
"%k.	c #A26940",
"&k.	c #A7724B",
"*k.	c #AC734D",
"=k.	c #AC7850",
"-k.	c #AC7852",
";k.	c #AF7A59",
">k.	c #AB7854",
",k.	c #A47452",
"'k.	c #A67F68",
")k.	c #A78472",
"!k.	c #A27A63",
"~k.	c #A77B60",
"{k.	c #A77C60",
"]k.	c #A57C63",
"^k.	c #AA9488",
"/k.	c #A09B9A",
"(k.	c #9D9997",
"_k.	c #ABA199",
":k.	c #C07F47",
"<k.	c #BB8248",
"[k.	c #A8784A",
"}k.	c #A67954",
"|k.	c #A97A4E",
"1k.	c #AB7A4B",
"2k.	c #9D6D42",
"3k.	c #9A6B41",
"4k.	c #976744",
"5k.	c #996745",
"6k.	c #9E6A43",
"7k.	c #A26D47",
"8k.	c #A57049",
"9k.	c #A67B5A",
"0k.	c #A37B5B",
"ak.	c #9B7A5C",
"bk.	c #9A795B",
"ck.	c #A07E60",
"dk.	c #A98060",
"ek.	c #B0855F",
"fk.	c #B2835B",
"gk.	c #B18566",
"hk.	c #AC9280",
"ik.	c #A59D98",
"jk.	c #AD968E",
"kk.	c #9C8274",
"lk.	c #B0A395",
"mk.	c #A59388",
"nk.	c #82614F",
"ok.	c #8A5A3E",
"pk.	c #95684B",
"qk.	c #92674B",
"rk.	c #976D52",
"sk.	c #A28872",
"tk.	c #A68D73",
"uk.	c #9F8776",
"vk.	c #A1826F",
"wk.	c #AE9580",
"xk.	c #B0A09C",
"yk.	c #ACA4A1",
"zk.	c #B0A6A2",
"Ak.	c #AEA39B",
"Bk.	c #B69D8A",
"Ck.	c #BB9E85",
"Dk.	c #BE9D83",
"Ek.	c #BA9579",
"Fk.	c #B18868",
"Gk.	c #AB8165",
"Hk.	c #A6795D",
"Ik.	c #AA7E62",
"Jk.	c #B0856E",
"Kk.	c #B18063",
"Lk.	c #B27E58",
"Mk.	c #B08360",
"Nk.	c #B48762",
"Ok.	c #B48867",
"Pk.	c #B58A6E",
"Qk.	c #B79177",
"Rk.	c #B59680",
"Sk.	c #B69B86",
"Tk.	c #B39179",
"Uk.	c #AF8C76",
"Vk.	c #B5957F",
"Wk.	c #A3734F",
"Xk.	c #AB8C6E",
"Yk.	c #B2987E",
"Zk.	c #B19781",
"`k.	c #AF9D92",
" l.	c #A89C91",
".l.	c #B79A74",
"+l.	c #C2AC83",
"@l.	c #C3B08F",
"#l.	c #C6AF96",
"$l.	c #C3AA93",
"%l.	c #BAAA99",
"&l.	c #C4B49E",
"*l.	c #B7A288",
"=l.	c #C8B69C",
"-l.	c #C5B6A0",
";l.	c #C6B6A3",
">l.	c #B6967F",
",l.	c #AF8B6F",
"'l.	c #AF8668",
")l.	c #B18869",
"!l.	c #B89375",
"~l.	c #AA8460",
"{l.	c #AB8661",
"]l.	c #B09171",
"^l.	c #C3B19F",
"/l.	c #B8AF9D",
"(l.	c #B1A48B",
"_l.	c #9C7C5F",
":l.	c #987F68",
"<l.	c #AF8C6F",
"[l.	c #A37855",
"}l.	c #664933",
"|l.	c #45332B",
"1l.	c #402E27",
"2l.	c #5B4334",
"3l.	c #9C6A48",
"4l.	c #A6714D",
"5l.	c #96674B",
"6l.	c #80563D",
"7l.	c #704B35",
"8l.	c #794D35",
"9l.	c #754C34",
"0l.	c #6B4530",
"al.	c #634229",
"bl.	c #67472D",
"cl.	c #644433",
"dl.	c #4C3A31",
"el.	c #453530",
"fl.	c #453531",
"gl.	c #3D302B",
"hl.	c #382E29",
"il.	c #3C2F27",
"jl.	c #A58E7F",
"kl.	c #9F9389",
"ll.	c #A8A3A4",
"ml.	c #9F8779",
"nl.	c #9B8375",
"ol.	c #9E8376",
"pl.	c #9E8173",
"ql.	c #9B7F69",
"rl.	c #967964",
"sl.	c #987863",
"tl.	c #9D7B67",
"ul.	c #A07C68",
"vl.	c #A1836D",
"wl.	c #9C7D69",
"xl.	c #9B7C69",
"yl.	c #9D7F6C",
"zl.	c #A88975",
"Al.	c #987862",
"Bl.	c #9F7E69",
"Cl.	c #A07F6A",
"Dl.	c #A2826C",
"El.	c #9F8570",
"Fl.	c #AA978A",
"Gl.	c #AEA49C",
"Hl.	c #B29E96",
"Il.	c #B19A91",
"Jl.	c #AC968C",
"Kl.	c #A89285",
"Ll.	c #AD988A",
"Ml.	c #B09A8D",
"Nl.	c #AD978C",
"Ol.	c #AD988B",
"Pl.	c #AB9686",
"Ql.	c #AD937D",
"Rl.	c #AD927B",
"Sl.	c #AE927D",
"Tl.	c #B39284",
"Ul.	c #B29485",
"Vl.	c #B49B8A",
"Wl.	c #AF9786",
"Xl.	c #AE9282",
"Yl.	c #AA8B77",
"Zl.	c #A98B75",
"`l.	c #AB8D77",
" m.	c #B29680",
".m.	c #B79B84",
"+m.	c #B59982",
"@m.	c #B3917C",
"#m.	c #A78E83",
"$m.	c #AA938A",
"%m.	c #A38D82",
"&m.	c #A38D81",
"*m.	c #A28D81",
"=m.	c #A79286",
"-m.	c #A9948C",
";m.	c #AB968D",
">m.	c #AC988C",
",m.	c #A49689",
"'m.	c #A9A197",
")m.	c #AA9886",
"!m.	c #B48968",
"~m.	c #B2835C",
"{m.	c #AC845C",
"]m.	c #9C7C61",
"^m.	c #9C7A64",
"/m.	c #9A7762",
"(m.	c #957460",
"_m.	c #967663",
":m.	c #9A7A67",
"<m.	c #9F7F6C",
"[m.	c #A18370",
"}m.	c #A38977",
"|m.	c #A28978",
"1m.	c #9D8876",
"2m.	c #9D8878",
"3m.	c #9D8775",
"4m.	c #A88E7B",
"5m.	c #A88F7B",
"6m.	c #A68D7A",
"7m.	c #A58D81",
"8m.	c #AA9892",
"9m.	c #AB9F9E",
"0m.	c #A19693",
"am.	c #A39896",
"bm.	c #9E9D94",
"cm.	c #948A81",
"dm.	c #99857C",
"em.	c #978781",
"fm.	c #A5958F",
"gm.	c #A79690",
"hm.	c #AC9A91",
"im.	c #AB9C92",
"jm.	c #9A8D84",
"km.	c #A49894",
"lm.	c #A09491",
"mm.	c #A19390",
"nm.	c #A1948C",
"om.	c #AFABA5",
"pm.	c #ADA297",
"qm.	c #AB9B8E",
"rm.	c #AC9A8E",
"sm.	c #AD958C",
"tm.	c #B0998F",
"um.	c #B19B8B",
"vm.	c #AC958A",
"wm.	c #AE9893",
"xm.	c #AF9994",
"ym.	c #AB9D95",
"zm.	c #AD9B94",
"Am.	c #A89790",
"Bm.	c #A7968F",
"Cm.	c #A79478",
"Dm.	c #A3927A",
"Em.	c #AD9B8E",
"Fm.	c #AA998B",
"Gm.	c #AB9A88",
"Hm.	c #9E8E79",
"Im.	c #A69A88",
"Jm.	c #9F9383",
"Km.	c #9D9081",
"Lm.	c #A69789",
"Mm.	c #A89387",
"Nm.	c #A89286",
"Om.	c #A79288",
"Pm.	c #A8948B",
"Qm.	c #A7938A",
"Rm.	c #A29388",
"Sm.	c #9D9184",
"Tm.	c #9D9284",
"Um.	c #A19488",
"Vm.	c #A3958C",
"Wm.	c #A39A97",
"Xm.	c #AB9685",
"Ym.	c #B28F73",
"Zm.	c #B38966",
"`m.	c #A38266",
" n.	c #846E5C",
".n.	c #6C625F",
"+n.	c #726865",
"@n.	c #726661",
"#n.	c #987967",
"$n.	c #9C7A65",
"%n.	c #896753",
"&n.	c #7E5F4E",
"*n.	c #80624F",
"=n.	c #826451",
"-n.	c #816351",
";n.	c #7B5D4B",
">n.	c #735744",
",n.	c #7A5746",
"'n.	c #7E5947",
")n.	c #7D5947",
"!n.	c #795547",
"~n.	c #765A51",
"{n.	c #7F6E69",
"]n.	c #816B5E",
"^n.	c #856146",
"/n.	c #7F6654",
"(n.	c #A49C9B",
"_n.	c #A29A9A",
":n.	c #A9A4A5",
"<n.	c #A9A49D",
"[n.	c #AEA7A0",
"}n.	c #AFA5A2",
"|n.	c #AEA4A0",
"1n.	c #ABA29C",
"2n.	c #ABA5A5",
"3n.	c #AEA6A6",
"4n.	c #AFA5A5",
"5n.	c #AEA5A1",
"6n.	c #ADA5A5",
"7n.	c #ADA8A3",
"8n.	c #ACA6A0",
"9n.	c #A2A19E",
"0n.	c #A6A09F",
"an.	c #A29B9B",
"bn.	c #A29B9A",
"cn.	c #A19B9A",
"dn.	c #A7A4A2",
"en.	c #A7A5A3",
"fn.	c #A6A4A3",
"gn.	c #A9A4A6",
"hn.	c #A69E94",
"in.	c #A49790",
"jn.	c #A0998F",
"kn.	c #9E9794",
"ln.	c #A09694",
"mn.	c #A29695",
"nn.	c #A79B98",
"on.	c #A29B94",
"pn.	c #9F9F9A",
"qn.	c #9EA09D",
"rn.	c #ABA6A7",
"sn.	c #ADAAA8",
"tn.	c #AFA3A0",
"un.	c #AFA49F",
"vn.	c #AEA59E",
"wn.	c #ADA59E",
"xn.	c #B1A9A3",
"yn.	c #AEAAA6",
"zn.	c #AEAAA8",
"An.	c #AFAAA8",
"Bn.	c #ABA8A5",
"Cn.	c #AAAAA6",
"Dn.	c #AEA8A6",
"En.	c #B0ABA8",
"Fn.	c #ADA7A5",
"Gn.	c #B1A9A8",
"Hn.	c #B1A9A7",
"In.	c #A09F9A",
"Jn.	c #A5A2A0",
"Kn.	c #A6A5A1",
"Ln.	c #A19A96",
"Mn.	c #ADA69F",
"Nn.	c #9F9992",
"On.	c #A39690",
"Pn.	c #9E948E",
"Qn.	c #A39B97",
"Rn.	c #9D8B83",
"Sn.	c #988A82",
"Tn.	c #9D8F88",
"Un.	c #998E84",
"Vn.	c #A38F87",
"Wn.	c #AB998E",
"Xn.	c #ABA9A5",
"Yn.	c #A8978E",
"Zn.	c #A99A90",
"`n.	c #A5978E",
" o.	c #A99990",
".o.	c #A7948A",
"+o.	c #AA9487",
"@o.	c #A99A96",
"#o.	c #A68D83",
"$o.	c #A98779",
"%o.	c #A58678",
"&o.	c #9E7F6E",
"*o.	c #A38571",
"=o.	c #A17F6A",
"-o.	c #9F7D6D",
";o.	c #AD9E97",
">o.	c #A79F96",
",o.	c #A7A198",
"'o.	c #A39A91",
")o.	c #AB9C91",
"!o.	c #A99B95",
"~o.	c #A49D9C",
"{o.	c #A8948A",
"]o.	c #AB9489",
"^o.	c #A98F83",
"/o.	c #A88E84",
"(o.	c #AC9184",
"_o.	c #AA9081",
":o.	c #A99287",
"<o.	c #A48F84",
"[o.	c #A79184",
"}o.	c #A99386",
"|o.	c #AA9587",
"1o.	c #A89284",
"2o.	c #A69081",
"3o.	c #A48C82",
"4o.	c #A68B7D",
"5o.	c #A9907E",
"6o.	c #A38D85",
"7o.	c #A09B93",
"8o.	c #A09A90",
"9o.	c #9F968D",
"0o.	c #A89995",
"ao.	c #AEA09B",
"bo.	c #AFA29D",
"co.	c #A59C8F",
"do.	c #A2988A",
"eo.	c #A1958D",
"fo.	c #A59C92",
"go.	c #A19387",
"ho.	c #9F9289",
"io.	c #A19284",
"jo.	c #A1958A",
"ko.	c #A19587",
"lo.	c #9D917F",
"mo.	c #A08F7C",
"no.	c #A7A4A5",
"oo.	c #ABAAA6",
"po.	c #ADA69B",
"qo.	c #A28B7B",
"ro.	c #A38674",
"so.	c #A98D77",
"to.	c #A38870",
"uo.	c #A88A6E",
"vo.	c #AC8D75",
"wo.	c #B2A194",
"xo.	c #ADA59D",
"yo.	c #AC9889",
"zo.	c #A6A0A0",
"Ao.	c #AFACAA",
"Bo.	c #ADAAA9",
"Co.	c #AFA7A3",
"Do.	c #A6958E",
"Eo.	c #9B8A82",
"Fo.	c #9E857B",
"Go.	c #A28A7E",
"Ho.	c #A18E85",
"Io.	c #A1958F",
"Jo.	c #A0928A",
"Ko.	c #A08C83",
"Lo.	c #A48F87",
"Mo.	c #9F8D84",
"No.	c #98897F",
"Oo.	c #9F8A81",
"Po.	c #9E8D83",
"Qo.	c #A49F9F",
"Ro.	c #A19F9E",
"So.	c #A8A0A4",
"To.	c #A29FA2",
"Uo.	c #A19DA1",
"Vo.	c #A99EA0",
"Wo.	c #A8A6A2",
"Xo.	c #AEA19A",
"Yo.	c #AE9C90",
"Zo.	c #A69C97",
"`o.	c #AEA79F",
" p.	c #A9998F",
".p.	c #AC9C93",
"+p.	c #AE9D96",
"@p.	c #A58F86",
"#p.	c #A7938B",
"$p.	c #A5948B",
"%p.	c #AB9B90",
"&p.	c #ADA095",
"*p.	c #8F6654",
"=p.	c #7A5E49",
"-p.	c #7E604C",
";p.	c #7D6049",
">p.	c #84604B",
",p.	c #8C5E4A",
"'p.	c #8D634C",
")p.	c #946B51",
"!p.	c #916D58",
"~p.	c #8B715F",
"{p.	c #968272",
"]p.	c #99816E",
"^p.	c #B2A3A0",
"/p.	c #C0ACA0",
"(p.	c #BCAE9F",
"_p.	c #C5BAAC",
":p.	c #C5BBAC",
"<p.	c #C6BAAB",
"[p.	c #BAA495",
"}p.	c #A57F64",
"|p.	c #A87550",
"1p.	c #9F6E4A",
"2p.	c #AA8A77",
"3p.	c #AD8B79",
"4p.	c #AD8A77",
"5p.	c #A78169",
"6p.	c #A67E63",
"7p.	c #A98671",
"8p.	c #B09181",
"9p.	c #A17D68",
"0p.	c #A37758",
"ap.	c #A7734F",
"bp.	c #A6724F",
"cp.	c #A56F4D",
"dp.	c #A9734E",
"ep.	c #A96E48",
"fp.	c #AA8D7B",
"gp.	c #A6A6A0",
"hp.	c #A48C77",
"ip.	c #A98D73",
"jp.	c #A88E72",
"kp.	c #A28267",
"lp.	c #99775F",
"mp.	c #987761",
"np.	c #977965",
"op.	c #92775E",
"pp.	c #9A7961",
"qp.	c #9D8067",
"rp.	c #9B806A",
"sp.	c #92755E",
"tp.	c #916A51",
"up.	c #906043",
"vp.	c #9B6745",
"wp.	c #976641",
"xp.	c #96643F",
"yp.	c #94623D",
"zp.	c #9C6B48",
"Ap.	c #996A4A",
"Bp.	c #95674B",
"Cp.	c #93654D",
"Dp.	c #986A52",
"Ep.	c #97715B",
"Fp.	c #9A7863",
"Gp.	c #9F7C67",
"Hp.	c #A9978D",
"Ip.	c #A39C9F",
"Jp.	c #A88E7D",
"Kp.	c #A47963",
"Lp.	c #A3735A",
"Mp.	c #A17052",
"Np.	c #A06F4F",
"Op.	c #A16C4C",
"Pp.	c #A46A4A",
"Qp.	c #A36847",
"Rp.	c #9E6241",
"Sp.	c #A56747",
"Tp.	c #A76947",
"Up.	c #AA6C49",
"Vp.	c #A96B48",
"Wp.	c #A76B47",
"Xp.	c #AB6F4C",
"Yp.	c #AA6E4A",
"Zp.	c #A96F4B",
"`p.	c #A96F4C",
" q.	c #AB724E",
".q.	c #AA6F49",
"+q.	c #A96D48",
"@q.	c #A96D46",
"#q.	c #A56841",
"$q.	c #A86A42",
"%q.	c #A96B41",
"&q.	c #A86B41",
"*q.	c #A2663C",
"=q.	c #A4693F",
"-q.	c #AD8164",
";q.	c #AD9D95",
">q.	c #927B68",
",q.	c #9A8167",
"'q.	c #A8937D",
")q.	c #A59380",
"!q.	c #B3A391",
"~q.	c #B3A697",
"{q.	c #BCB0A1",
"]q.	c #98765A",
"^q.	c #9E8368",
"/q.	c #B7A591",
"(q.	c #BCAB97",
"_q.	c #B5A08C",
":q.	c #A07A60",
"<q.	c #A48266",
"[q.	c #A5876A",
"}q.	c #9C7B59",
"|q.	c #9F7B5A",
"1q.	c #9E785A",
"2q.	c #977053",
"3q.	c #A57E65",
"4q.	c #9D8162",
"5q.	c #9A7D58",
"6q.	c #98714B",
"7q.	c #9D7957",
"8q.	c #AC9989",
"9q.	c #B3A18E",
"0q.	c #A88767",
"aq.	c #A07E5F",
"bq.	c #B49475",
"cq.	c #C0A48F",
"dq.	c #D0B9A9",
"eq.	c #C7B9AF",
"fq.	c #C6BAAF",
"gq.	c #C9C1B4",
"hq.	c #C5B8A5",
"iq.	c #B0A190",
"jq.	c #B5A190",
"kq.	c #B9A18F",
"lq.	c #BFA693",
"mq.	c #BCA694",
"nq.	c #C1B1A5",
"oq.	c #CAC0BA",
"pq.	c #C9BFBB",
"qq.	c #C9BEBA",
"rq.	c #C8BDBA",
"sq.	c #BDB7B3",
"tq.	c #B8ABA6",
"uq.	c #AF978E",
"vq.	c #B19E91",
"wq.	c #91745D",
"xq.	c #876447",
"yq.	c #876246",
"zq.	c #9E775A",
"Aq.	c #996E50",
"Bq.	c #AB8B78",
"Cq.	c #B9A08C",
"Dq.	c #BFAC9E",
"Eq.	c #BAB5AE",
"Fq.	c #BBB8B0",
"Gq.	c #B2A698",
"Hq.	c #A08B7D",
"Iq.	c #A38F80",
"Jq.	c #B4A395",
"Kq.	c #BBA998",
"Lq.	c #A58971",
"Mq.	c #A6836B",
"Nq.	c #AA8870",
"Oq.	c #AD8C76",
"Pq.	c #A68875",
"Qq.	c #9C7D6D",
"Rq.	c #9D8373",
"Sq.	c #9E897B",
"Tq.	c #A48E8A",
"Uq.	c #A89FA2",
"Vq.	c #A69086",
"Wq.	c #A48171",
"Xq.	c #9F7B60",
"Yq.	c #A88672",
"Zq.	c #AA7E65",
"`q.	c #A88069",
" r.	c #A9826A",
".r.	c #A88062",
"+r.	c #AC7F5F",
"@r.	c #A97659",
"#r.	c #AB734E",
"$r.	c #A87451",
"%r.	c #A4785E",
"&r.	c #9E7459",
"*r.	c #9D6E55",
"=r.	c #9A664F",
"-r.	c #9D735A",
";r.	c #AC7F5D",
">r.	c #AC8361",
",r.	c #AC8667",
"'r.	c #AA9687",
")r.	c #ADA8A6",
"!r.	c #A78972",
"~r.	c #B88A6F",
"{r.	c #B28367",
"]r.	c #B3846A",
"^r.	c #AF886E",
"/r.	c #AE8467",
"(r.	c #AA7C5C",
"_r.	c #AE8061",
":r.	c #AB7F61",
"<r.	c #AF8265",
"[r.	c #B08666",
"}r.	c #AE8563",
"|r.	c #956142",
"1r.	c #84664E",
"2r.	c #806251",
"3r.	c #856856",
"4r.	c #856A55",
"5r.	c #856852",
"6r.	c #886852",
"7r.	c #976B50",
"8r.	c #946A55",
"9r.	c #916C58",
"0r.	c #9B7C65",
"ar.	c #A18470",
"br.	c #A5887C",
"cr.	c #A59B92",
"dr.	c #B39D91",
"er.	c #CAC0B7",
"fr.	c #CDC8C4",
"gr.	c #CCBCAF",
"hr.	c #AA7B5A",
"ir.	c #A97B58",
"jr.	c #AE7855",
"kr.	c #AD7653",
"lr.	c #AC7551",
"mr.	c #AC7953",
"nr.	c #B38664",
"or.	c #B28A6C",
"pr.	c #B58970",
"qr.	c #AD7D63",
"rr.	c #AE8168",
"sr.	c #B18768",
"tr.	c #A88469",
"ur.	c #AF8E73",
"vr.	c #A47F5E",
"wr.	c #A87A5A",
"xr.	c #AB714D",
"yr.	c #A98773",
"zr.	c #A88E7F",
"Ar.	c #C4AB97",
"Br.	c #CBBAA8",
"Cr.	c #CCB6A3",
"Dr.	c #C3AE98",
"Er.	c #C0B29E",
"Fr.	c #C1B19A",
"Gr.	c #BBA990",
"Hr.	c #C4B094",
"Ir.	c #BDA78B",
"Jr.	c #977158",
"Kr.	c #824F33",
"Lr.	c #8D5B34",
"Mr.	c #A37044",
"Nr.	c #A36B3E",
"Or.	c #9E6330",
"Pr.	c #9D612C",
"Qr.	c #9B602A",
"Rr.	c #9F6436",
"Sr.	c #945D2C",
"Tr.	c #945D30",
"Ur.	c #996337",
"Vr.	c #A06B40",
"Wr.	c #A26F4B",
"Xr.	c #A4724F",
"Yr.	c #9F8677",
"Zr.	c #A09D9A",
"`r.	c #A79791",
" s.	c #A46C4D",
".s.	c #A56846",
"+s.	c #A4663F",
"@s.	c #A66B40",
"#s.	c #A3683D",
"$s.	c #A5673C",
"%s.	c #A56438",
"&s.	c #A76739",
"*s.	c #A8693A",
"=s.	c #A96A3C",
"-s.	c #AC6F3E",
";s.	c #AF6F3F",
">s.	c #AE693B",
",s.	c #AC693A",
"'s.	c #AB693A",
")s.	c #AA6838",
"!s.	c #AE6E3E",
"~s.	c #B0703F",
"{s.	c #B3713F",
"]s.	c #AB6937",
"^s.	c #AE6A37",
"/s.	c #B26D39",
"(s.	c #B5723C",
"_s.	c #B7733D",
":s.	c #AD6B39",
"<s.	c #B17142",
"[s.	c #B87C52",
"}s.	c #A48F80",
"|s.	c #94704B",
"1s.	c #B49A7B",
"2s.	c #C2B6A9",
"3s.	c #C1B2A1",
"4s.	c #C1B2A0",
"5s.	c #C1B5A3",
"6s.	c #C0B29C",
"7s.	c #967553",
"8s.	c #A58161",
"9s.	c #936E4E",
"0s.	c #9A7150",
"as.	c #9D653F",
"bs.	c #9A673E",
"cs.	c #97693D",
"ds.	c #986C39",
"es.	c #966837",
"fs.	c #966738",
"gs.	c #946334",
"hs.	c #946134",
"is.	c #915E34",
"js.	c #8F6240",
"ks.	c #90643E",
"ls.	c #94673C",
"ms.	c #926138",
"ns.	c #926340",
"os.	c #AA9E9F",
"ps.	c #B19B89",
"qs.	c #B3967A",
"rs.	c #C3AC94",
"ss.	c #BBA593",
"ts.	c #B49F8A",
"us.	c #BBA797",
"vs.	c #AB9483",
"ws.	c #B2A195",
"xs.	c #B8AEA5",
"ys.	c #C7B9AE",
"zs.	c #C7B4A7",
"As.	c #C1A38E",
"Bs.	c #C5B7AE",
"Cs.	c #CFC8C8",
"Ds.	c #D2CCCD",
"Es.	c #D3CECF",
"Fs.	c #D1CFD0",
"Gs.	c #D0CAC7",
"Hs.	c #CFC5BB",
"Is.	c #CAC0B9",
"Js.	c #B9AA9A",
"Ks.	c #AF9780",
"Ls.	c #B09F90",
"Ms.	c #ADA09F",
"Ns.	c #A99387",
"Os.	c #957458",
"Ps.	c #97714F",
"Qs.	c #B0947D",
"Rs.	c #B4A393",
"Ss.	c #C5B6AB",
"Ts.	c #C4BCB2",
"Us.	c #BBA69C",
"Vs.	c #C6C2BA",
"Ws.	c #C5C2BA",
"Xs.	c #C6C1B7",
"Ys.	c #C5C1B5",
"Zs.	c #C3BCB1",
"`s.	c #BAAB9E",
" t.	c #9B7D6A",
".t.	c #9E7558",
"+t.	c #976746",
"@t.	c #946543",
"#t.	c #A56E4E",
"$t.	c #A66B4B",
"%t.	c #A56948",
"&t.	c #9B6D44",
"*t.	c #A06C4A",
"=t.	c #A8968B",
"-t.	c #BDA691",
";t.	c #B4A083",
">t.	c #B59478",
",t.	c #A87958",
"'t.	c #AE8262",
")t.	c #AE825E",
"!t.	c #AD7E5A",
"~t.	c #AB8161",
"{t.	c #AD8463",
"]t.	c #B68466",
"^t.	c #AD7956",
"/t.	c #AC825C",
"(t.	c #AB7C55",
"_t.	c #AA6A4C",
":t.	c #AA7454",
"<t.	c #A67755",
"[t.	c #A3704F",
"}t.	c #A76D4F",
"|t.	c #AE7F58",
"1t.	c #B27B51",
"2t.	c #B57949",
"3t.	c #B57743",
"4t.	c #A77244",
"5t.	c #A87D57",
"6t.	c #AE8E74",
"7t.	c #AA9F98",
"8t.	c #A58E7B",
"9t.	c #AA8971",
"0t.	c #B18A6D",
"at.	c #B78766",
"bt.	c #B68664",
"ct.	c #B48565",
"dt.	c #B38B6B",
"et.	c #B38865",
"ft.	c #B3845D",
"gt.	c #B28663",
"ht.	c #B38662",
"it.	c #B98462",
"jt.	c #B78562",
"kt.	c #7F6453",
"lt.	c #7E6659",
"mt.	c #7D6455",
"nt.	c #7D6353",
"ot.	c #856958",
"pt.	c #896859",
"qt.	c #916C59",
"rt.	c #956E55",
"st.	c #946B56",
"tt.	c #946C58",
"ut.	c #997861",
"vt.	c #9D816D",
"wt.	c #BEA593",
"xt.	c #CAC7BA",
"yt.	c #C9CBBD",
"zt.	c #CDCBC9",
"At.	c #CCC9C7",
"Bt.	c #C3B7AE",
"Ct.	c #B3937B",
"Dt.	c #AD876B",
"Et.	c #B17F59",
"Ft.	c #AC7A57",
"Gt.	c #B08060",
"Ht.	c #B27957",
"It.	c #B27A57",
"Jt.	c #B18261",
"Kt.	c #AC8065",
"Lt.	c #C2A28F",
"Mt.	c #B79781",
"Nt.	c #AF8F75",
"Ot.	c #C1AE9A",
"Pt.	c #C2AE9A",
"Qt.	c #AC7D5A",
"Rt.	c #A48675",
"St.	c #A89B93",
"Tt.	c #A58677",
"Ut.	c #AE9782",
"Vt.	c #A9947C",
"Wt.	c #C2B4A3",
"Xt.	c #CBC4B8",
"Yt.	c #CAC4B6",
"Zt.	c #C5BFAF",
"`t.	c #C8C0B0",
" u.	c #C6BAAC",
".u.	c #C6BCAD",
"+u.	c #C3B297",
"@u.	c #936A4A",
"#u.	c #955939",
"$u.	c #965A36",
"%u.	c #965B37",
"&u.	c #9B6335",
"*u.	c #A47652",
"=u.	c #B4876B",
"-u.	c #A47251",
";u.	c #986135",
">u.	c #9B653A",
",u.	c #9F6D44",
"'u.	c #A5744A",
")u.	c #A07251",
"!u.	c #997D6C",
"~u.	c #A19D95",
"{u.	c #A79689",
"]u.	c #AD7B61",
"^u.	c #A46540",
"/u.	c #AA683E",
"(u.	c #AE6F42",
"_u.	c #AB6F42",
":u.	c #A96C3E",
"<u.	c #AA6A3B",
"[u.	c #B06D3E",
"}u.	c #B27240",
"|u.	c #B1723F",
"1u.	c #B4733F",
"2u.	c #B56F3D",
"3u.	c #B26A38",
"4u.	c #B26938",
"5u.	c #B56D3D",
"6u.	c #B26C3B",
"7u.	c #B3703D",
"8u.	c #B4713C",
"9u.	c #B46F3A",
"0u.	c #B36F38",
"au.	c #BA773E",
"bu.	c #BB763E",
"cu.	c #B67039",
"du.	c #B36F36",
"eu.	c #B5743D",
"fu.	c #B87C4C",
"gu.	c #A69182",
"hu.	c #A48570",
"iu.	c #A8835C",
"ju.	c #C3B098",
"ku.	c #C3B8A4",
"lu.	c #BEAE95",
"mu.	c #C2AC90",
"nu.	c #B3997D",
"ou.	c #BFA98C",
"pu.	c #BFB297",
"qu.	c #C1B8A0",
"ru.	c #B69F81",
"su.	c #A07146",
"tu.	c #9E693E",
"uu.	c #9A6439",
"vu.	c #996035",
"wu.	c #A05C31",
"xu.	c #A16235",
"yu.	c #A06637",
"zu.	c #9F6834",
"Au.	c #A06836",
"Bu.	c #A06936",
"Cu.	c #A16937",
"Du.	c #A16939",
"Eu.	c #956237",
"Fu.	c #A1764A",
"Gu.	c #A27542",
"Hu.	c #9A6A3E",
"Iu.	c #90613A",
"Ju.	c #B99F8B",
"Ku.	c #AC9072",
"Lu.	c #B29B7C",
"Mu.	c #AE8E6E",
"Nu.	c #AC8A69",
"Ou.	c #AB8766",
"Pu.	c #AE896D",
"Qu.	c #BCACA5",
"Ru.	c #C1C1BD",
"Su.	c #C6C5BF",
"Tu.	c #B28E71",
"Uu.	c #B9987F",
"Vu.	c #B59179",
"Wu.	c #C1A895",
"Xu.	c #CCC3B9",
"Yu.	c #D1D0D2",
"Zu.	c #D2D1D3",
"`u.	c #D0D1CF",
" v.	c #CCCCC9",
".v.	c #CBCAC7",
"+v.	c #D1CFCB",
"@v.	c #D1CBCA",
"#v.	c #CFC3BB",
"$v.	c #BDAA93",
"%v.	c #BCA38C",
"&v.	c #A89994",
"*v.	c #AB8B6F",
"=v.	c #A6815F",
"-v.	c #9A775E",
";v.	c #BCA59A",
">v.	c #CCBCB7",
",v.	c #C2BAB6",
"'v.	c #B4A498",
")v.	c #A7806B",
"!v.	c #C5B9AD",
"~v.	c #C7C3BD",
"{v.	c #C4C2BA",
"]v.	c #C4BEB7",
"^v.	c #C1BBB4",
"/v.	c #BEB5AE",
"(v.	c #B4A191",
"_v.	c #9B6338",
":v.	c #915C35",
"<v.	c #A8724F",
"[v.	c #B27F5B",
"}v.	c #A16C47",
"|v.	c #A56F48",
"1v.	c #A1724A",
"2v.	c #AF7D5D",
"3v.	c #B78B68",
"4v.	c #AC9887",
"5v.	c #B7ACA3",
"6v.	c #C8BDB1",
"7v.	c #C4BCAC",
"8v.	c #C6B7A4",
"9v.	c #C5AB92",
"0v.	c #BCA188",
"av.	c #AA7E61",
"bv.	c #B58D72",
"cv.	c #BBA999",
"dv.	c #C0B0A0",
"ev.	c #C0AD9D",
"fv.	c #B69C89",
"gv.	c #C6B19A",
"hv.	c #BD9D83",
"iv.	c #A66643",
"jv.	c #A66B41",
"kv.	c #AB6B43",
"lv.	c #A56B41",
"mv.	c #AB7544",
"nv.	c #AD723E",
"ov.	c #B3723B",
"pv.	c #B5713B",
"qv.	c #AA7A52",
"rv.	c #AD8A70",
"sv.	c #AF8869",
"tv.	c #B58B68",
"uv.	c #B68B69",
"vv.	c #B48F6F",
"wv.	c #B58E6C",
"xv.	c #B78660",
"yv.	c #B5845E",
"zv.	c #B8835F",
"Av.	c #B68462",
"Bv.	c #B38665",
"Cv.	c #B08665",
"Dv.	c #7F6052",
"Ev.	c #80675A",
"Fv.	c #826657",
"Gv.	c #836454",
"Hv.	c #856453",
"Iv.	c #8A6758",
"Jv.	c #906C5A",
"Kv.	c #906D54",
"Lv.	c #967159",
"Mv.	c #96725D",
"Nv.	c #967565",
"Ov.	c #947766",
"Pv.	c #957C69",
"Qv.	c #957E68",
"Rv.	c #C7B4AC",
"Sv.	c #C6C4BC",
"Tv.	c #C8C6B9",
"Uv.	c #CFC9CA",
"Vv.	c #CDC5C6",
"Wv.	c #C9B1A5",
"Xv.	c #B99372",
"Yv.	c #B68E6F",
"Zv.	c #B38965",
"`v.	c #B07C51",
" w.	c #A7795A",
".w.	c #A97E62",
"+w.	c #AF8369",
"@w.	c #A96948",
"#w.	c #AB6C4B",
"$w.	c #BBA48C",
"%w.	c #CCB8AE",
"&w.	c #BB9C8C",
"*w.	c #C1A692",
"=w.	c #B19078",
"-w.	c #AF8C74",
";w.	c #AE8060",
">w.	c #AA714A",
",w.	c #B39887",
"'w.	c #C9BBA8",
")w.	c #C3B3A1",
"!w.	c #C6B7A9",
"~w.	c #CBC0B6",
"{w.	c #CBC2BB",
"]w.	c #CAC3B4",
"^w.	c #C9C4B4",
"/w.	c #CAC3B3",
"(w.	c #C9C2B1",
"_w.	c #C3B29E",
":w.	c #B38E70",
"<w.	c #A47555",
"[w.	c #9D6041",
"}w.	c #9C5E3C",
"|w.	c #A46E47",
"1w.	c #CAAA91",
"2w.	c #C4AD98",
"3w.	c #AF8E72",
"4w.	c #996840",
"5w.	c #A87852",
"6w.	c #9B7663",
"7w.	c #AD7B5D",
"8w.	c #B0723E",
"9w.	c #B27542",
"0w.	c #B57745",
"aw.	c #B5723E",
"bw.	c #B26F3A",
"cw.	c #B4743F",
"dw.	c #B77642",
"ew.	c #B97A43",
"fw.	c #BB7B44",
"gw.	c #B87841",
"hw.	c #B7723C",
"iw.	c #B36A35",
"jw.	c #B36837",
"kw.	c #B56B3D",
"lw.	c #B86E40",
"mw.	c #B66F3E",
"nw.	c #B5733C",
"ow.	c #B26F38",
"pw.	c #B46F38",
"qw.	c #B67237",
"rw.	c #B47337",
"sw.	c #BA7A40",
"tw.	c #B97740",
"uw.	c #B7753E",
"vw.	c #B37137",
"ww.	c #B57539",
"xw.	c #BB8050",
"yw.	c #A49186",
"zw.	c #AC906C",
"Aw.	c #C3B49C",
"Bw.	c #BDAD8F",
"Cw.	c #BCA483",
"Dw.	c #C7A785",
"Ew.	c #B99874",
"Fw.	c #C2B299",
"Gw.	c #A6886A",
"Hw.	c #A6774D",
"Iw.	c #BC8B68",
"Jw.	c #9D6339",
"Kw.	c #9F5F2F",
"Lw.	c #9E5C2A",
"Mw.	c #A26330",
"Nw.	c #A36934",
"Ow.	c #A56E37",
"Pw.	c #A36A33",
"Qw.	c #A66832",
"Rw.	c #A76331",
"Sw.	c #A36B40",
"Tw.	c #B58D67",
"Uw.	c #A68055",
"Vw.	c #B4906D",
"Ww.	c #A48772",
"Xw.	c #B19684",
"Yw.	c #BB9D88",
"Zw.	c #C7AB9C",
"`w.	c #B29B84",
" x.	c #C1B4A1",
".x.	c #B99B86",
"+x.	c #AE845A",
"@x.	c #B49177",
"#x.	c #CEC2C0",
"$x.	c #C9C2BD",
"%x.	c #BCA18A",
"&x.	c #C1AA98",
"*x.	c #CBBFB4",
"=x.	c #C8B6AA",
"-x.	c #C0B2A7",
";x.	c #CFCCC5",
">x.	c #D0CFCD",
",x.	c #D3D1D2",
"'x.	c #D2D1CF",
")x.	c #CFCDCC",
"!x.	c #D1D0CE",
"~x.	c #D1D0CC",
"{x.	c #CFCCC8",
"]x.	c #D3CCC6",
"^x.	c #C9B8A8",
"/x.	c #A48C7E",
"(x.	c #AE8973",
"_x.	c #9C7155",
":x.	c #8A6143",
"<x.	c #C0AA9C",
"[x.	c #BCB0A3",
"}x.	c #AF9D8B",
"|x.	c #A07F60",
"1x.	c #C3B5AA",
"2x.	c #C7C1BE",
"3x.	c #C7C1BC",
"4x.	c #C6C0BB",
"5x.	c #C6C1BA",
"6x.	c #C8C1BD",
"7x.	c #C8BDB5",
"8x.	c #A48575",
"9x.	c #A07F68",
"0x.	c #9E775C",
"ax.	c #9C6B49",
"bx.	c #9B6944",
"cx.	c #A17250",
"dx.	c #A06C49",
"ex.	c #A06F4C",
"fx.	c #A97C63",
"gx.	c #B58F71",
"hx.	c #A89F9D",
"ix.	c #BAAB9F",
"jx.	c #CEC3B6",
"kx.	c #C4B8AB",
"lx.	c #B8A999",
"mx.	c #BEAFA0",
"nx.	c #C3B3A6",
"ox.	c #B99E90",
"px.	c #BFA293",
"qx.	c #BCB4A7",
"rx.	c #C2BAAF",
"sx.	c #CBC4BA",
"tx.	c #CBC0B5",
"ux.	c #BCAB9F",
"vx.	c #C4AD96",
"wx.	c #C5A689",
"xx.	c #AF7D54",
"yx.	c #AF734B",
"zx.	c #AA6D47",
"Ax.	c #A86A3D",
"Bx.	c #AB6B3E",
"Cx.	c #A66737",
"Dx.	c #A86A34",
"Ex.	c #AC6D37",
"Fx.	c #AF6F38",
"Gx.	c #B06E3B",
"Hx.	c #B57A54",
"Ix.	c #A89892",
"Jx.	c #AE968C",
"Kx.	c #B0896A",
"Lx.	c #B98D6C",
"Mx.	c #BA8E68",
"Nx.	c #BC936F",
"Ox.	c #BB9171",
"Px.	c #BB8C65",
"Qx.	c #B48055",
"Rx.	c #B78256",
"Sx.	c #B77F57",
"Tx.	c #B8845F",
"Ux.	c #B48462",
"Vx.	c #B28360",
"Wx.	c #996746",
"Xx.	c #956A50",
"Yx.	c #906F59",
"Zx.	c #886954",
"`x.	c #8A6A57",
" y.	c #8D6C56",
".y.	c #926F5A",
"+y.	c #937059",
"@y.	c #957259",
"#y.	c #98735B",
"$y.	c #96715A",
"%y.	c #96705E",
"&y.	c #92715D",
"*y.	c #947460",
"=y.	c #93725E",
"-y.	c #A09087",
";y.	c #A59386",
">y.	c #C1BAAE",
",y.	c #CABCAC",
"'y.	c #D0BFB7",
")y.	c #CFBDB5",
"!y.	c #C3A290",
"~y.	c #B99270",
"{y.	c #BC9374",
"]y.	c #B98F6D",
"^y.	c #B28867",
"/y.	c #BEA38E",
"(y.	c #C5A287",
"_y.	c #B4876A",
":y.	c #B28264",
"<y.	c #A97452",
"[y.	c #A25F3C",
"}y.	c #B37A5E",
"|y.	c #AA764E",
"1y.	c #C6AF97",
"2y.	c #C6AA99",
"3y.	c #B1876A",
"4y.	c #AB7F60",
"5y.	c #A58E81",
"6y.	c #C8BBA8",
"7y.	c #C7BDB0",
"8y.	c #CBBFB3",
"9y.	c #C8B9AA",
"0y.	c #C1A99A",
"ay.	c #C8B6A5",
"by.	c #C2B8A6",
"cy.	c #C7C0B0",
"dy.	c #CBC5B5",
"ey.	c #CCC5B4",
"fy.	c #C1AC95",
"gy.	c #9F7453",
"hy.	c #A57452",
"iy.	c #A68363",
"jy.	c #AC7C5D",
"ky.	c #9A5D34",
"ly.	c #A26D44",
"my.	c #B69379",
"ny.	c #CCB4A2",
"oy.	c #C2A992",
"py.	c #A7805D",
"qy.	c #A27249",
"ry.	c #A6764B",
"sy.	c #A27247",
"ty.	c #A17147",
"uy.	c #A2724B",
"vy.	c #A1714A",
"wy.	c #936A51",
"xy.	c #A2978E",
"yy.	c #AA7C5F",
"zy.	c #AC6D40",
"Ay.	c #B6773D",
"By.	c #B97A40",
"Cy.	c #B97A3F",
"Dy.	c #B8783D",
"Ey.	c #B7773D",
"Fy.	c #B8733D",
"Gy.	c #B66C38",
"Hy.	c #B06A3B",
"Iy.	c #B36D3D",
"Jy.	c #B4703D",
"Ky.	c #B16F38",
"Ly.	c #AB6932",
"My.	c #B06B34",
"Ny.	c #B67137",
"Oy.	c #B7773A",
"Py.	c #B8783E",
"Qy.	c #BB7941",
"Ry.	c #B6773A",
"Sy.	c #B29675",
"Ty.	c #BAAA91",
"Uy.	c #AD9672",
"Vy.	c #B1926C",
"Wy.	c #B79068",
"Xy.	c #B28453",
"Yy.	c #BB936B",
"Zy.	c #BBA38D",
"`y.	c #A6805E",
" z.	c #A57651",
".z.	c #985F30",
"+z.	c #A05D2A",
"@z.	c #A35F2E",
"#z.	c #A66735",
"$z.	c #A76B37",
"%z.	c #A56D33",
"&z.	c #A76F34",
"*z.	c #A56C31",
"=z.	c #A46B35",
"-z.	c #A86F42",
";z.	c #A87B57",
">z.	c #C3AC93",
",z.	c #BDAF97",
"'z.	c #BFAE9B",
")z.	c #B99D85",
"!z.	c #A68E7C",
"~z.	c #B69B8A",
"{z.	c #CDBEAD",
"]z.	c #D2C7C5",
"^z.	c #D1CAC7",
"/z.	c #D2D1C9",
"(z.	c #CEBDB2",
"_z.	c #B38557",
":z.	c #C1A58F",
"<z.	c #CEBFBB",
"[z.	c #BEA493",
"}z.	c #BFB1A6",
"|z.	c #C4B2A4",
"1z.	c #B49778",
"2z.	c #C1A89C",
"3z.	c #BFB5AB",
"4z.	c #CDC6BA",
"5z.	c #CDC9C3",
"6z.	c #D0CECE",
"7z.	c #D2CFCE",
"8z.	c #D3D0CE",
"9z.	c #D4D1CF",
"0z.	c #D1CFCC",
"az.	c #CFCCC9",
"bz.	c #CFCDCA",
"cz.	c #BCA28E",
"dz.	c #A18574",
"ez.	c #AB8063",
"fz.	c #986645",
"gz.	c #A17D65",
"hz.	c #C4AD9C",
"iz.	c #B79C8A",
"jz.	c #BEAB99",
"kz.	c #C4B9AA",
"lz.	c #B5A18D",
"mz.	c #C3B9B2",
"nz.	c #C6C0BD",
"oz.	c #C9C2BC",
"pz.	c #BDA9A0",
"qz.	c #BBA698",
"rz.	c #9A7052",
"sz.	c #996A48",
"tz.	c #9E6D4D",
"uz.	c #A67452",
"vz.	c #AB774E",
"wz.	c #A6795C",
"xz.	c #A07B5F",
"yz.	c #B09E95",
"zz.	c #CCB9AF",
"Az.	c #D2C5BA",
"Bz.	c #CAC2B9",
"Cz.	c #CCC7C1",
"Dz.	c #CDC7C2",
"Ez.	c #CAC2B6",
"Fz.	c #C2B8AA",
"Gz.	c #BCB5A9",
"Hz.	c #BDB6AB",
"Iz.	c #CEC4BC",
"Jz.	c #D0BEB0",
"Kz.	c #B49178",
"Lz.	c #AA7A4F",
"Mz.	c #B28862",
"Nz.	c #B57D52",
"Oz.	c #AE7951",
"Pz.	c #AA744D",
"Qz.	c #AE6F43",
"Rz.	c #B27540",
"Sz.	c #AC7237",
"Tz.	c #B87D4A",
"Uz.	c #AF7645",
"Vz.	c #AD7747",
"Wz.	c #AE7D52",
"Xz.	c #B07C52",
"Yz.	c #B37D55",
"Zz.	c #B8937A",
"`z.	c #A68F85",
" A.	c #B58B71",
".A.	c #B18A6B",
"+A.	c #B88D6C",
"@A.	c #BC9165",
"#A.	c #BB916D",
"$A.	c #BA9070",
"%A.	c #BA8B63",
"&A.	c #B78357",
"*A.	c #B27A52",
"=A.	c #B38361",
"-A.	c #946548",
";A.	c #98684A",
">A.	c #916951",
",A.	c #916D55",
"'A.	c #94735B",
")A.	c #937158",
"!A.	c #977459",
"~A.	c #997358",
"{A.	c #976E54",
"]A.	c #997058",
"^A.	c #967158",
"/A.	c #956E56",
"(A.	c #986E5C",
"_A.	c #9D8B82",
":A.	c #B6A997",
"<A.	c #B39A89",
"[A.	c #B5947E",
"}A.	c #B08A6A",
"|A.	c #BC9678",
"1A.	c #C49E7F",
"2A.	c #C4A68D",
"3A.	c #CCBBAB",
"4A.	c #B0937C",
"5A.	c #976140",
"6A.	c #995C37",
"7A.	c #A5653E",
"8A.	c #AD6E4E",
"9A.	c #B57E60",
"0A.	c #AB7244",
"aA.	c #A86C40",
"bA.	c #B28868",
"cA.	c #B38466",
"dA.	c #A96C42",
"eA.	c #A46C3E",
"fA.	c #A67347",
"gA.	c #AE815D",
"hA.	c #B68460",
"iA.	c #AA7A5C",
"jA.	c #9E7A63",
"kA.	c #C4B5A2",
"lA.	c #C8C0B1",
"mA.	c #CCBDAC",
"nA.	c #C5AE97",
"oA.	c #AA8060",
"pA.	c #A38D72",
"qA.	c #BFB2A2",
"rA.	c #BFB69E",
"sA.	c #AB9273",
"tA.	c #A67A5C",
"uA.	c #A98367",
"vA.	c #C19677",
"wA.	c #A87C56",
"xA.	c #AE8360",
"yA.	c #BCA48C",
"zA.	c #CBBAAC",
"AA.	c #CAB2A3",
"BA.	c #BA9A85",
"CA.	c #A5764F",
"DA.	c #9C6D45",
"EA.	c #9F6F47",
"FA.	c #9B6A43",
"GA.	c #976B4E",
"HA.	c #AC7E61",
"IA.	c #AD7039",
"JA.	c #B0743D",
"KA.	c #B1723B",
"LA.	c #B37339",
"MA.	c #B37238",
"NA.	c #B4743A",
"OA.	c #B47436",
"PA.	c #B77839",
"QA.	c #B97A3B",
"RA.	c #BB7B40",
"SA.	c #BA7842",
"TA.	c #BB7540",
"UA.	c #B87440",
"VA.	c #B4723F",
"WA.	c #B67443",
"XA.	c #B06E36",
"YA.	c #AE6C34",
"ZA.	c #B37038",
"`A.	c #B8753D",
" B.	c #B97B42",
".B.	c #BA793E",
"+B.	c #B9793F",
"@B.	c #BB8254",
"#B.	c #A89489",
"$B.	c #A68E7B",
"%B.	c #A07B55",
"&B.	c #C1A07F",
"*B.	c #BA956B",
"=B.	c #B28959",
"-B.	c #A97C47",
";B.	c #AC8257",
">B.	c #B99A7D",
",B.	c #AB8A6B",
"'B.	c #AB8763",
")B.	c #A9815A",
"!B.	c #A26F3C",
"~B.	c #9E6B36",
"{B.	c #9E6934",
"]B.	c #A66A37",
"^B.	c #AA703E",
"/B.	c #AC7442",
"(B.	c #A77035",
"_B.	c #A46C31",
":B.	c #A0692E",
"<B.	c #9F682C",
"[B.	c #9A6939",
"}B.	c #B58962",
"|B.	c #C9C1B1",
"1B.	c #C4BCB1",
"2B.	c #A79585",
"3B.	c #D3CEC3",
"4B.	c #D1CAC9",
"5B.	c #D2C8C4",
"6B.	c #D2CDC5",
"7B.	c #D0C9C1",
"8B.	c #BC9A7C",
"9B.	c #C1A796",
"0B.	c #CEC4C0",
"aB.	c #B9A798",
"bB.	c #C7B29E",
"cB.	c #BBA28A",
"dB.	c #CBB7AF",
"eB.	c #C2B6AC",
"fB.	c #CBCAC1",
"gB.	c #CDCCCD",
"hB.	c #CECACA",
"iB.	c #D1CCCB",
"jB.	c #D3CFCD",
"kB.	c #CBC7C7",
"lB.	c #D0CDCC",
"mB.	c #D2CECB",
"nB.	c #D2CBC7",
"oB.	c #CFB9AB",
"pB.	c #BEA18D",
"qB.	c #A4958D",
"rB.	c #A88D7C",
"sB.	c #BA9071",
"tB.	c #A36E47",
"uB.	c #A8754D",
"vB.	c #AF8461",
"wB.	c #9B785E",
"xB.	c #AC9482",
"yB.	c #B49F8E",
"zB.	c #C8BEB8",
"AB.	c #CAC1BE",
"BB.	c #C8C2BC",
"CB.	c #C7C2BC",
"DB.	c #C6BFB9",
"EB.	c #C1BAB3",
"FB.	c #C6BCB5",
"GB.	c #B1A195",
"HB.	c #A28370",
"IB.	c #987760",
"JB.	c #9A735B",
"KB.	c #93694D",
"LB.	c #996E51",
"MB.	c #A0765A",
"NB.	c #B38057",
"OB.	c #B17E53",
"PB.	c #A77C57",
"QB.	c #AC988E",
"RB.	c #C6B3A5",
"SB.	c #CDCBC7",
"TB.	c #C8C3BD",
"UB.	c #C5C0B4",
"VB.	c #C8C3B4",
"WB.	c #C0BCAE",
"XB.	c #BBB5A8",
"YB.	c #C4B5A9",
"ZB.	c #BFA48A",
"`B.	c #AE7441",
" C.	c #B0906E",
".C.	c #C2A584",
"+C.	c #AE7B4C",
"@C.	c #A97044",
"#C.	c #AE6E40",
"$C.	c #B67841",
"%C.	c #B3793E",
"&C.	c #BD8E69",
"*C.	c #C7A184",
"=C.	c #CEB39C",
"-C.	c #C4A589",
";C.	c #B79474",
">C.	c #B5947F",
",C.	c #B48B6A",
"'C.	c #B98D69",
")C.	c #B98E6D",
"!C.	c #B78D6D",
"~C.	c #B88560",
"{C.	c #B68866",
"]C.	c #94694D",
"^C.	c #9F7554",
"/C.	c #9E7556",
"(C.	c #977156",
"_C.	c #946E54",
":C.	c #8E674F",
"<C.	c #926D57",
"[C.	c #95705A",
"}C.	c #957157",
"|C.	c #9B755C",
"1C.	c #9A7159",
"2C.	c #9A796D",
"3C.	c #B29C8A",
"4C.	c #C7BAAD",
"5C.	c #CDBFB8",
"6C.	c #B18A6C",
"7C.	c #B08D6F",
"8C.	c #AE8A6D",
"9C.	c #BD9B7E",
"0C.	c #B9A289",
"aC.	c #C4B39E",
"bC.	c #B4997F",
"cC.	c #986951",
"dC.	c #8F5638",
"eC.	c #AD6F4C",
"fC.	c #B47853",
"gC.	c #A96C3B",
"hC.	c #AB6A33",
"iC.	c #AA6733",
"jC.	c #AA653B",
"kC.	c #A96640",
"lC.	c #A5663C",
"mC.	c #A06439",
"nC.	c #A0653A",
"oC.	c #A96C3F",
"pC.	c #AC764D",
"qC.	c #A57552",
"rC.	c #B27757",
"sC.	c #A5806B",
"tC.	c #A29080",
"uC.	c #BFAE9D",
"vC.	c #C5BDAE",
"wC.	c #C3B8A8",
"xC.	c #AF8A6E",
"yC.	c #AC8B6A",
"zC.	c #AD9178",
"AC.	c #9F795B",
"BC.	c #AD9979",
"CC.	c #B29874",
"DC.	c #9D7551",
"EC.	c #9C6E4B",
"FC.	c #A87A57",
"GC.	c #A77956",
"HC.	c #AA815F",
"IC.	c #B49C7E",
"JC.	c #BCA48A",
"KC.	c #B48D70",
"LC.	c #A57959",
"MC.	c #9D7351",
"NC.	c #9C714F",
"OC.	c #9B704E",
"PC.	c #A16B45",
"QC.	c #AD9D94",
"RC.	c #B18467",
"SC.	c #B0713A",
"TC.	c #B17336",
"UC.	c #B07237",
"VC.	c #B2753E",
"WC.	c #B1743D",
"XC.	c #B27438",
"YC.	c #B27137",
"ZC.	c #AF6F35",
"`C.	c #AC6C2E",
" D.	c #B27335",
".D.	c #B87A41",
"+D.	c #B77940",
"@D.	c #B77A47",
"#D.	c #B6753F",
"$D.	c #B2713B",
"%D.	c #B77640",
"&D.	c #B97A45",
"*D.	c #B97A46",
"=D.	c #B27D48",
"-D.	c #B47B42",
";D.	c #B67942",
">D.	c #BB7B4A",
",D.	c #A3998F",
"'D.	c #967354",
")D.	c #A07D5A",
"!D.	c #A17B56",
"~D.	c #A8815B",
"{D.	c #B89166",
"]D.	c #AB8353",
"^D.	c #A77C4B",
"/D.	c #A17443",
"(D.	c #9A6837",
"_D.	c #A16F3D",
":D.	c #A37442",
"<D.	c #A87C4B",
"[D.	c #A67C4C",
"}D.	c #9E7344",
"|D.	c #A17044",
"1D.	c #A67548",
"2D.	c #AA7A4B",
"3D.	c #A77942",
"4D.	c #9F6F3E",
"5D.	c #98683A",
"6D.	c #9B6C3D",
"7D.	c #C1B09C",
"8D.	c #C7BDAF",
"9D.	c #CABDAD",
"0D.	c #A5988C",
"aD.	c #A7A49C",
"bD.	c #C1B1A0",
"cD.	c #D2CAC3",
"dD.	c #CEC7C3",
"eD.	c #CFCBC4",
"fD.	c #CDCDC7",
"gD.	c #C9B49F",
"hD.	c #C09F81",
"iD.	c #D5BEB3",
"jD.	c #CEC5BE",
"kD.	c #C8BCAC",
"lD.	c #B4A087",
"mD.	c #BDA591",
"nD.	c #CCC2BB",
"oD.	c #D1BFB4",
"pD.	c #D2C6BE",
"qD.	c #CECAC6",
"rD.	c #CECAC7",
"sD.	c #CFCBC9",
"tD.	c #D0CDCA",
"uD.	c #D1CDCC",
"vD.	c #CFC7C5",
"wD.	c #D1C3BE",
"xD.	c #CBB6AB",
"yD.	c #B29482",
"zD.	c #A89A93",
"AD.	c #AC9786",
"BD.	c #B89476",
"CD.	c #AC7440",
"DD.	c #AB7543",
"ED.	c #946A4C",
"FD.	c #BEAAA3",
"GD.	c #CCBBB2",
"HD.	c #C3BAAF",
"ID.	c #C2B9B3",
"JD.	c #BBAA9D",
"KD.	c #BCA493",
"LD.	c #A48066",
"MD.	c #9D7454",
"ND.	c #99755C",
"OD.	c #937160",
"PD.	c #8F705D",
"QD.	c #937663",
"RD.	c #997D6A",
"SD.	c #AF957E",
"TD.	c #B08868",
"UD.	c #946D4A",
"VD.	c #977560",
"WD.	c #A3A59E",
"XD.	c #AD998D",
"YD.	c #C7B5A1",
"ZD.	c #C4B7A7",
"`D.	c #C9C1BA",
" E.	c #CABCB1",
".E.	c #C3B5A9",
"+E.	c #CDBCAC",
"@E.	c #BA9F8A",
"#E.	c #BC917E",
"$E.	c #CBB09D",
"%E.	c #B89573",
"&E.	c #AF7C46",
"*E.	c #B37848",
"=E.	c #AD7D4F",
"-E.	c #B37C4F",
";E.	c #AD764C",
">E.	c #B17547",
",E.	c #B77C4D",
"'E.	c #BB936D",
")E.	c #C8AC8E",
"!E.	c #CBB7A1",
"~E.	c #BFA996",
"{E.	c #C2AB98",
"]E.	c #C0A692",
"^E.	c #B79682",
"/E.	c #A6917C",
"(E.	c #B68A66",
"_E.	c #B48766",
":E.	c #B38765",
"<E.	c #B78666",
"[E.	c #B2825F",
"}E.	c #B3825A",
"|E.	c #B88660",
"1E.	c #B28460",
"2E.	c #947563",
"3E.	c #997A63",
"4E.	c #997963",
"5E.	c #987A68",
"6E.	c #9D8477",
"7E.	c #A18C86",
"8E.	c #967F77",
"9E.	c #92786E",
"0E.	c #947C6F",
"aE.	c #968173",
"bE.	c #A29993",
"cE.	c #A89586",
"dE.	c #AE8E7D",
"eE.	c #B09680",
"fE.	c #A88265",
"gE.	c #A2806E",
"hE.	c #A07E6D",
"iE.	c #A17F6D",
"jE.	c #A38473",
"kE.	c #9F806D",
"lE.	c #9C7D68",
"mE.	c #A17050",
"nE.	c #A67655",
"oE.	c #A4704E",
"pE.	c #A67355",
"qE.	c #A9755C",
"rE.	c #A37157",
"sE.	c #A57459",
"tE.	c #A97B5E",
"uE.	c #A9836C",
"vE.	c #A28473",
"wE.	c #A87F6F",
"xE.	c #AF9E92",
"yE.	c #BAA695",
"zE.	c #B8A597",
"AE.	c #BAA89C",
"BE.	c #BCA396",
"CE.	c #BB9D87",
"DE.	c #A58160",
"EE.	c #997254",
"FE.	c #9C8064",
"GE.	c #9C8169",
"HE.	c #A28170",
"IE.	c #A2806A",
"JE.	c #99765E",
"KE.	c #9A765D",
"LE.	c #997759",
"ME.	c #99775C",
"NE.	c #A7937F",
"OE.	c #A28A76",
"PE.	c #99755A",
"QE.	c #9A6F4F",
"RE.	c #956842",
"SE.	c #94663F",
"TE.	c #966740",
"UE.	c #A06842",
"VE.	c #9C643D",
"WE.	c #A79990",
"XE.	c #B08C75",
"YE.	c #B27743",
"ZE.	c #B57B41",
"`E.	c #B27842",
" F.	c #B57B42",
".F.	c #B1763E",
"+F.	c #B0763B",
"@F.	c #B37840",
"#F.	c #B97F48",
"$F.	c #BA814C",
"%F.	c #B47C4E",
"&F.	c #B67C4E",
"*F.	c #B67A48",
"=F.	c #B37745",
"-F.	c #B37949",
";F.	c #B67C4C",
">F.	c #B08050",
",F.	c #B37E4A",
"'F.	c #B7814F",
")F.	c #AE876D",
"!F.	c #93765D",
"~F.	c #A37D5D",
"{F.	c #97714E",
"]F.	c #9E7753",
"^F.	c #9B7350",
"/F.	c #9C7654",
"(F.	c #A37954",
"_F.	c #A57951",
":F.	c #A4794F",
"<F.	c #A77E53",
"[F.	c #A27E58",
"}F.	c #A17E58",
"|F.	c #A07D5B",
"1F.	c #A4815D",
"2F.	c #9E7D56",
"3F.	c #9E7F54",
"4F.	c #947451",
"5F.	c #8E6E4F",
"6F.	c #967656",
"7F.	c #967657",
"8F.	c #A28263",
"9F.	c #A4866A",
"0F.	c #BFAFA1",
"aF.	c #C0AB97",
"bF.	c #BBA693",
"cF.	c #B09A85",
"dF.	c #BAA18E",
"eF.	c #B19A88",
"fF.	c #B7A390",
"gF.	c #B5A491",
"hF.	c #BBA38B",
"iF.	c #B99987",
"jF.	c #AB896F",
"kF.	c #B8A792",
"lF.	c #B6A596",
"mF.	c #B49986",
"nF.	c #B08A70",
"oF.	c #BEA798",
"pF.	c #BFB4AC",
"qF.	c #C0B7AE",
"rF.	c #BFB5AC",
"sF.	c #BDB2A8",
"tF.	c #B8ACA2",
"uF.	c #BEB1A7",
"vF.	c #BBACA1",
"wF.	c #B8A79B",
"xF.	c #AF948D",
"yF.	c #9E958B",
"zF.	c #B28A69",
"AF.	c #A27652",
"BF.	c #A6764F",
"CF.	c #A97C56",
"DF.	c #9C7755",
"EF.	c #9E795C",
"FF.	c #A0755A",
"GF.	c #91705E",
"HF.	c #957866",
"IF.	c #A58F7A",
"JF.	c #99725E",
"KF.	c #9F7D65",
"LF.	c #9D7F69",
"MF.	c #947C67",
"NF.	c #9E8881",
"OF.	c #938079",
"PF.	c #99887D",
"QF.	c #9C8E81",
"RF.	c #A09085",
"SF.	c #9C8E87",
"TF.	c #9A928E",
"UF.	c #A79A98",
"VF.	c #A98569",
"WF.	c #B59581",
"XF.	c #C2A79A",
"YF.	c #BFA79B",
"ZF.	c #BBA391",
"`F.	c #B29984",
" G.	c #A56C4B",
".G.	c #A26241",
"+G.	c #A27A69",
"@G.	c #AE8A6F",
"#G.	c #A0774E",
"$G.	c #AE805D",
"%G.	c #AF8060",
"&G.	c #A37151",
"*G.	c #A77A5B",
"=G.	c #A98264",
"-G.	c #B38C6E",
";G.	c #B99979",
">G.	c #BCA082",
",G.	c #BEA489",
"'G.	c #BB9E86",
")G.	c #BA9D86",
"!G.	c #B4947C",
"~G.	c #B19179",
"{G.	c #A88671",
"]G.	c #AB8872",
"^G.	c #AA8670",
"/G.	c #A8846E",
"(G.	c #A9816B",
"_G.	c #AC846C",
":G.	c #A98265",
"<G.	c #A87F60",
"[G.	c #A77D5E",
"}G.	c #AB8365",
"|G.	c #AA9286",
"1G.	c #AA8875",
"2G.	c #A39C95",
"3G.	c #A49F9C",
"4G.	c #A79C94",
"5G.	c #A3988E",
"6G.	c #A4998E",
"7G.	c #ABA19F",
"8G.	c #ADA3A4",
"9G.	c #B1A5A1",
"0G.	c #B0A5A2",
"aG.	c #9F9C99",
"bG.	c #A1A09D",
"cG.	c #A29890",
"dG.	c #A49286",
"eG.	c #B1A091",
"fG.	c #AD9A87",
"gG.	c #AE998B",
"hG.	c #AAA399",
"iG.	c #A7A096",
"jG.	c #A9A6A0",
"kG.	c #A5A49F",
"lG.	c #A48B79",
"mG.	c #A38576",
"nG.	c #9B7F6F",
"oG.	c #9D7F70",
"pG.	c #A48473",
"qG.	c #9D7D68",
"rG.	c #9B7C68",
"sG.	c #AF998A",
"tG.	c #AF8E71",
"uG.	c #B19075",
"vG.	c #AD8D71",
"wG.	c #AE8F73",
"xG.	c #AB8E75",
"yG.	c #AB8E78",
"zG.	c #AC8F77",
"AG.	c #AA8D75",
"BG.	c #AB907B",
"CG.	c #AD927C",
"DG.	c #AB9079",
"EG.	c #AD917D",
"FG.	c #AB8C75",
"GG.	c #A88A73",
"HG.	c #AA907B",
"IG.	c #AA8F79",
"JG.	c #A9917A",
"KG.	c #A99581",
"LG.	c #A8917A",
"MG.	c #AA927D",
"NG.	c #A69589",
"OG.	c #A28A75",
"PG.	c #9E8B77",
"QG.	c #9B8874",
"RG.	c #998978",
"SG.	c #9D9088",
"TG.	c #A2958C",
"UG.	c #9C8E84",
"VG.	c #A18E7F",
"WG.	c #A28F7E",
"XG.	c #A29580",
"YG.	c #A29280",
"ZG.	c #A49583",
"`G.	c #A59684",
" H.	c #A19384",
".H.	c #A69C8E",
"+H.	c #9F9589",
"@H.	c #9D948B",
"#H.	c #A49B8C",
"$H.	c #A49E94",
"%H.	c #A29A8F",
"&H.	c #A39483",
"*H.	c #A19385",
"=H.	c #A7A59F",
"-H.	c #ADA8A2",
";H.	c #A99D99",
">H.	c #B0A095",
",H.	c #AAA19A",
"'H.	c #A8A097",
")H.	c #A99E95",
"!H.	c #A69D94",
"~H.	c #A59C94",
"{H.	c #A29798",
"]H.	c #A5A39C",
"^H.	c #A19F97",
"/H.	c #A4A29D",
"(H.	c #9D8C7C",
"_H.	c #9F8B7D",
":H.	c #9C9084",
"<H.	c #9A8E85",
"[H.	c #9D8D85",
"}H.	c #A3998E",
"|H.	c #A2918A",
"1H.	c #A29690",
"2H.	c #A39E97",
"3H.	c #A3A39E",
"4H.	c #A9A8A5",
"5H.	c #A4968E",
"6H.	c #A78F85",
"7H.	c #AA978F",
"8H.	c #A6968D",
"9H.	c #AE948C",
"0H.	c #A5837C",
"aH.	c #A6887E",
"bH.	c #A69189",
"cH.	c #A69186",
"dH.	c #AB9383",
"eH.	c #A99189",
"fH.	c #A9938C",
"gH.	c #A39B94",
"hH.	c #A29991",
"iH.	c #A5968B",
"jH.	c #AC9D90",
"kH.	c #A99D92",
"lH.	c #AB9E9A",
"mH.	c #A9A3A3",
"nH.	c #A89C8D",
"oH.	c #A89B8D",
"pH.	c #B0A399",
"qH.	c #A89C93",
"rH.	c #A99F9C",
"sH.	c #A8A5A0",
"tH.	c #A7A7A1",
"uH.	c #A7A6A0",
"vH.	c #ABA29A",
"wH.	c #A09C96",
"xH.	c #A29F98",
"yH.	c #A69A9B",
"zH.	c #A2A399",
"AH.	c #AEA9A6",
"BH.	c #B0A8A5",
"CH.	c #B3AAA7",
"DH.	c #ABA69F",
"EH.	c #9E9C95",
"FH.	c #A39893",
"GH.	c #A09D9E",
"HH.	c #A49A94",
"IH.	c #A79E97",
"JH.	c #A79D97",
"KH.	c #A69A93",
"LH.	c #A89B94",
"MH.	c #A9A7A3",
"NH.	c #AFA8A6",
"OH.	c #B88F56",
"PH.	c #BA8F58",
"QH.	c #BB8E5B",
"RH.	c #B78B59",
"SH.	c #B98D5B",
"TH.	c #B98C5A",
"UH.	c #B88B59",
"VH.	c #B98E5D",
"WH.	c #B59067",
"XH.	c #B18D6C",
"YH.	c #B18F74",
"ZH.	c #AD8D73",
"`H.	c #AE8E73",
" I.	c #AD8E74",
".I.	c #AB8E76",
"+I.	c #A98D74",
"@I.	c #AB8E77",
"#I.	c #A88D79",
"$I.	c #AD927E",
"%I.	c #A8907B",
"&I.	c #A28B77",
"*I.	c #A1877C",
"=I.	c #A1897E",
"-I.	c #A38A7C",
";I.	c #AA9183",
">I.	c #AC988B",
",I.	c #AC9488",
"'I.	c #AB968A",
")I.	c #B0A1A0",
"!I.	c #AFA09E",
"~I.	c #AE9F98",
"{I.	c #AA9381",
"]I.	c #A9907A",
"^I.	c #A6927F",
"/I.	c #A99686",
"(I.	c #A79787",
"_I.	c #A28C7A",
":I.	c #9E7F66",
"<I.	c #997B63",
"[I.	c #A0856E",
"}I.	c #A58972",
"|I.	c #A7896D",
"1I.	c #A48977",
"2I.	c #AA9384",
"3I.	c #A79384",
"4I.	c #B0A090",
"5I.	c #A59689",
"6I.	c #A19388",
"7I.	c #A6978E",
"8I.	c #A5938D",
"9I.	c #9F8C89",
"0I.	c #9F9890",
"aI.	c #9C948D",
"bI.	c #9E9891",
"cI.	c #9F9590",
"dI.	c #9E8B7D",
"eI.	c #A1846B",
"fI.	c #A58A75",
"gI.	c #A58975",
"hI.	c #A48771",
"iI.	c #97755E",
"jI.	c #997760",
"kI.	c #9F7E66",
"lI.	c #A58D7A",
"mI.	c #A2806B",
"nI.	c #A57F65",
"oI.	c #9D795F",
"pI.	c #A27F67",
"qI.	c #9D7C6E",
"rI.	c #A28273",
"sI.	c #9B7F6A",
"tI.	c #9D816B",
"uI.	c #9F836E",
"vI.	c #9F897E",
"wI.	c #A0938F",
"xI.	c #9D9188",
"yI.	c #AC9B8D",
"zI.	c #AA8F82",
"AI.	c #A88870",
"BI.	c #A98A73",
"CI.	c #A88973",
"DI.	c #A98871",
"EI.	c #A17E64",
"FI.	c #A07D64",
"GI.	c #A99281",
"HI.	c #A78F7B",
"II.	c #A6886F",
"JI.	c #A88B75",
"KI.	c #A99585",
"LI.	c #AEA39C",
"MI.	c #A58877",
"NI.	c #A27F6B",
"OI.	c #A47E6A",
"PI.	c #AA846F",
"QI.	c #9D7B64",
"RI.	c #9E8473",
"SI.	c #A69087",
"TI.	c #A18F87",
"UI.	c #947C6D",
"VI.	c #8F7561",
"WI.	c #977463",
"XI.	c #9A7867",
"YI.	c #A0806F",
"ZI.	c #94705E",
"`I.	c #976B53",
" J.	c #9F7E6D",
".J.	c #BB9F93",
"+J.	c #BBA195",
"@J.	c #B1998C",
"#J.	c #9C8577",
"$J.	c #A68C7B",
"%J.	c #A28672",
"&J.	c #9D826F",
"*J.	c #AF8F7E",
"=J.	c #AA8777",
"-J.	c #AF8976",
";J.	c #AD8770",
">J.	c #B08973",
",J.	c #B28974",
"'J.	c #A88068",
")J.	c #AE8567",
"!J.	c #AF8567",
"~J.	c #B08567",
"{J.	c #B3886A",
"]J.	c #B0866A",
"^J.	c #AF846E",
"/J.	c #B38872",
"(J.	c #AF856D",
"_J.	c #B0866D",
":J.	c #B0856C",
"<J.	c #B08369",
"[J.	c #AD8468",
"}J.	c #AA8267",
"|J.	c #B08B73",
"1J.	c #B39891",
"2J.	c #AFA2A4",
"3J.	c #A99D96",
"4J.	c #A1938A",
"5J.	c #A4968C",
"6J.	c #B3A79E",
"7J.	c #B5A8A2",
"8J.	c #B5A8A3",
"9J.	c #B3A49C",
"0J.	c #9A887D",
"aJ.	c #947868",
"bJ.	c #987B6B",
"cJ.	c #917767",
"dJ.	c #A29187",
"eJ.	c #AF9F96",
"fJ.	c #B29D8F",
"gJ.	c #A17D64",
"hJ.	c #9A7157",
"iJ.	c #A0765B",
"jJ.	c #946C52",
"kJ.	c #96745E",
"lJ.	c #BB833D",
"mJ.	c #BB823D",
"nJ.	c #BD813D",
"oJ.	c #B97D39",
"pJ.	c #B87D35",
"qJ.	c #BA7F37",
"rJ.	c #BE863F",
"sJ.	c #BC8B49",
"tJ.	c #BB8B51",
"uJ.	c #B5895A",
"vJ.	c #B08863",
"wJ.	c #B18964",
"xJ.	c #B18A65",
"yJ.	c #AE8B67",
"zJ.	c #AB8864",
"AJ.	c #AD8A67",
"BJ.	c #AD8B6A",
"CJ.	c #A9896A",
"DJ.	c #AD8E71",
"EJ.	c #AB8D71",
"FJ.	c #A88A6F",
"GJ.	c #A28979",
"HJ.	c #A67D65",
"IJ.	c #A86E4F",
"JJ.	c #A97051",
"KJ.	c #AB7456",
"LJ.	c #A56F53",
"MJ.	c #A0745E",
"NJ.	c #A06949",
"OJ.	c #A36D4D",
"PJ.	c #A97354",
"QJ.	c #A8714C",
"RJ.	c #A56B45",
"SJ.	c #A06944",
"TJ.	c #A6724E",
"UJ.	c #A1724D",
"VJ.	c #A46C4A",
"WJ.	c #A36947",
"XJ.	c #9D5F3C",
"YJ.	c #9E5F3C",
"ZJ.	c #9C6445",
"`J.	c #A26D51",
" K.	c #A57255",
".K.	c #A26C4F",
"+K.	c #A36C4E",
"@K.	c #A16A4D",
"#K.	c #A5795E",
"$K.	c #AC9D8C",
"%K.	c #C1AEA1",
"&K.	c #C7B7AF",
"*K.	c #C2B4AA",
"=K.	c #C5B7AF",
"-K.	c #C5B9B4",
";K.	c #B9A596",
">K.	c #AD8F78",
",K.	c #AC9075",
"'K.	c #9C8264",
")K.	c #9E8261",
"!K.	c #A47F55",
"~K.	c #A7805A",
"{K.	c #AB8D73",
"]K.	c #B39D8A",
"^K.	c #AB9C89",
"/K.	c #B29E90",
"(K.	c #C7B8AF",
"_K.	c #C4B4AA",
":K.	c #AE9C8F",
"<K.	c #9C8A7B",
"[K.	c #9D9084",
"}K.	c #A1918B",
"|K.	c #9B816F",
"1K.	c #A37B5C",
"2K.	c #AF7F5A",
"3K.	c #A5744D",
"4K.	c #A57853",
"5K.	c #A37653",
"6K.	c #A27651",
"7K.	c #9D714B",
"8K.	c #9F724D",
"9K.	c #9E724E",
"0K.	c #9F7452",
"aK.	c #A37450",
"bK.	c #A17352",
"cK.	c #A07252",
"dK.	c #A27453",
"eK.	c #9E704C",
"fK.	c #986942",
"gK.	c #996241",
"hK.	c #976347",
"iK.	c #996748",
"jK.	c #9A704F",
"kK.	c #A88D7D",
"lK.	c #A08779",
"mK.	c #AF9B8F",
"nK.	c #B1A098",
"oK.	c #C3B0A9",
"pK.	c #C5B4AC",
"qK.	c #BFB6AC",
"rK.	c #C6BEB3",
"sK.	c #C2BAB1",
"tK.	c #C6BEB9",
"uK.	c #C8C0BB",
"vK.	c #CAC5C1",
"wK.	c #CABFB8",
"xK.	c #BFA38F",
"yK.	c #AF845A",
"zK.	c #B1835B",
"AK.	c #B58A61",
"BK.	c #BEA991",
"CK.	c #C9C1B3",
"DK.	c #B6A18C",
"EK.	c #B79D83",
"FK.	c #AF937B",
"GK.	c #BB9F8A",
"HK.	c #AC7F63",
"IK.	c #AB7959",
"JK.	c #A97759",
"KK.	c #A37251",
"LK.	c #A8795D",
"MK.	c #A58070",
"NK.	c #AA8E7B",
"OK.	c #BDA994",
"PK.	c #A99380",
"QK.	c #AE9A86",
"RK.	c #BC9A84",
"SK.	c #915C40",
"TK.	c #985832",
"UK.	c #AB8B73",
"VK.	c #CABBA8",
"WK.	c #C4B6A6",
"XK.	c #C6B7AA",
"YK.	c #C1ADA0",
"ZK.	c #B1937F",
"`K.	c #C0977B",
" L.	c #A68A78",
".L.	c #B69585",
"+L.	c #B18267",
"@L.	c #B1805C",
"#L.	c #AA7856",
"$L.	c #AF7B5A",
"%L.	c #B07A5A",
"&L.	c #B17548",
"*L.	c #B1784A",
"=L.	c #B37B50",
"-L.	c #B47D52",
";L.	c #B1784C",
">L.	c #B5784D",
",L.	c #B77B4F",
"'L.	c #B4794E",
")L.	c #B27A4F",
"!L.	c #B47C51",
"~L.	c #B67D51",
"{L.	c #B87E50",
"]L.	c #B57B4D",
"^L.	c #B67B4B",
"/L.	c #B77947",
"(L.	c #BC7E4E",
"_L.	c #B57546",
":L.	c #BC7C4C",
"<L.	c #B49E99",
"[L.	c #AAA79F",
"}L.	c #ACA193",
"|L.	c #A79284",
"1L.	c #9E8375",
"2L.	c #A0806B",
"3L.	c #B09078",
"4L.	c #AC8D77",
"5L.	c #AF9784",
"6L.	c #B1998A",
"7L.	c #BDAFA6",
"8L.	c #BFB7B3",
"9L.	c #C1BCBC",
"0L.	c #C4C1BF",
"aL.	c #C5C0BC",
"bL.	c #BDB5AC",
"cL.	c #BDB6AC",
"dL.	c #BFB9B6",
"eL.	c #C9C4C1",
"fL.	c #C2BDBA",
"gL.	c #CAC0BB",
"hL.	c #C5B8AA",
"iL.	c #A47B5B",
"jL.	c #9E7350",
"kL.	c #9B785D",
"lL.	c #B8937B",
"mL.	c #BE9B81",
"nL.	c #B08E71",
"oL.	c #A88162",
"pL.	c #BD8140",
"qL.	c #BA7E3B",
"rL.	c #BC813B",
"sL.	c #BB803A",
"tL.	c #B97D37",
"uL.	c #B97F36",
"vL.	c #C0853D",
"wL.	c #C38942",
"xL.	c #C28842",
"yL.	c #C08842",
"zL.	c #B88951",
"AL.	c #AF865E",
"BL.	c #B28962",
"CL.	c #B18960",
"DL.	c #AF865F",
"EL.	c #B0875F",
"FL.	c #AF8B68",
"GL.	c #AE8D6D",
"HL.	c #AA8A6F",
"IL.	c #A6886D",
"JL.	c #A6896F",
"KL.	c #A59282",
"LL.	c #AA8877",
"ML.	c #AE7250",
"NL.	c #AF7350",
"OL.	c #B07551",
"PL.	c #B07552",
"QL.	c #B07556",
"RL.	c #AE7351",
"SL.	c #A76D47",
"TL.	c #AB724B",
"UL.	c #AA7C56",
"VL.	c #AB7C5B",
"WL.	c #A97955",
"XL.	c #AE754F",
"YL.	c #AE6B43",
"ZL.	c #A96740",
"`L.	c #A36C47",
" M.	c #AF825E",
".M.	c #AC7756",
"+M.	c #A06847",
"@M.	c #9D613C",
"#M.	c #AA693F",
"$M.	c #B0693D",
"%M.	c #AA6740",
"&M.	c #AE714C",
"*M.	c #AF754F",
"=M.	c #B1734E",
"-M.	c #B3724E",
";M.	c #AD6D48",
">M.	c #AD7050",
",M.	c #AA9189",
"'M.	c #B6A48F",
")M.	c #CBC2BD",
"!M.	c #B5A99C",
"~M.	c #BCB0A7",
"{M.	c #BEB6AD",
"]M.	c #B4A18D",
"^M.	c #A8927A",
"/M.	c #966E53",
"(M.	c #A1754D",
"_M.	c #A0774D",
":M.	c #A88157",
"<M.	c #A5805C",
"[M.	c #A78665",
"}M.	c #A98C70",
"|M.	c #A68B72",
"1M.	c #9E866D",
"2M.	c #A2927E",
"3M.	c #AD9A85",
"4M.	c #D0C8C3",
"5M.	c #D1C2B9",
"6M.	c #BA9B84",
"7M.	c #AF9074",
"8M.	c #AD9481",
"9M.	c #9E7966",
"0M.	c #A67958",
"aM.	c #A27554",
"bM.	c #A87C57",
"cM.	c #A97D5C",
"dM.	c #A77750",
"eM.	c #A67750",
"fM.	c #A67651",
"gM.	c #A57550",
"hM.	c #A77754",
"iM.	c #A47455",
"jM.	c #A47355",
"kM.	c #A57759",
"lM.	c #A17354",
"mM.	c #9F6D4A",
"nM.	c #9F653D",
"oM.	c #9E6846",
"pM.	c #9B6C50",
"qM.	c #A06F50",
"rM.	c #A37451",
"sM.	c #A77C5F",
"tM.	c #A77556",
"uM.	c #AF9582",
"vM.	c #B4957E",
"wM.	c #CBB8AA",
"xM.	c #CFC8C6",
"yM.	c #D1CBC8",
"zM.	c #CEC9C6",
"AM.	c #CDCCC7",
"BM.	c #C9C7C3",
"CM.	c #CAC9C5",
"DM.	c #CBCAC6",
"EM.	c #CBC7C4",
"FM.	c #CAC2BB",
"GM.	c #AC876B",
"HM.	c #AA7144",
"IM.	c #AD7446",
"JM.	c #A77545",
"KM.	c #AF7E4F",
"LM.	c #BD9779",
"MM.	c #CFC5C0",
"NM.	c #CFC2BC",
"OM.	c #CDC1BC",
"PM.	c #BEAEA2",
"QM.	c #AC9F95",
"RM.	c #AF917E",
"SM.	c #B17E5D",
"TM.	c #B68565",
"UM.	c #B27D5B",
"VM.	c #AC7654",
"WM.	c #A97350",
"XM.	c #A47353",
"YM.	c #AB8062",
"ZM.	c #B5A08A",
"`M.	c #C0B2A4",
" N.	c #B9A693",
".N.	c #C3BBAD",
"+N.	c #C8BFB8",
"@N.	c #C7BFB5",
"#N.	c #C8C1B3",
"$N.	c #C3BCB0",
"%N.	c #C0B8AC",
"&N.	c #B2917A",
"*N.	c #9D6642",
"=N.	c #9C5E35",
"-N.	c #A37C55",
";N.	c #C2AD8E",
">N.	c #C9BBB4",
",N.	c #C4AEA1",
"'N.	c #AC8D74",
")N.	c #B28B70",
"!N.	c #9E978F",
"~N.	c #B28674",
"{N.	c #AF7554",
"]N.	c #B37A50",
"^N.	c #B47B53",
"/N.	c #B17851",
"(N.	c #B0784C",
"_N.	c #B3794A",
":N.	c #B87B4C",
"<N.	c #B87E4E",
"[N.	c #B88150",
"}N.	c #B97947",
"|N.	c #B87846",
"1N.	c #B87A49",
"2N.	c #B77D4F",
"3N.	c #B97E4F",
"4N.	c #BD814F",
"5N.	c #B87A45",
"6N.	c #BE8045",
"7N.	c #BF844B",
"8N.	c #BF864F",
"9N.	c #BD834D",
"0N.	c #B97D48",
"aN.	c #BF844E",
"bN.	c #BF9163",
"cN.	c #B0A293",
"dN.	c #B59E8C",
"eN.	c #B6A096",
"fN.	c #BAA89D",
"gN.	c #B19D8B",
"hN.	c #B49681",
"iN.	c #C6B9B1",
"jN.	c #C9BDB8",
"kN.	c #BFB2AB",
"lN.	c #C1B2AA",
"mN.	c #C4BAB2",
"nN.	c #C1C0BB",
"oN.	c #BDBBB5",
"pN.	c #B8B6B0",
"qN.	c #C7C3BE",
"rN.	c #C5C1BB",
"sN.	c #C3BFBA",
"tN.	c #AC9384",
"uN.	c #C0B5AA",
"vN.	c #C6C8C4",
"wN.	c #C8C7C2",
"xN.	c #A58061",
"yN.	c #A59181",
"zN.	c #B2937F",
"AN.	c #D2B5A2",
"BN.	c #D0B7A8",
"CN.	c #B99C85",
"DN.	c #C6B5A1",
"EN.	c #BD8142",
"FN.	c #BA7E3D",
"GN.	c #BD823C",
"HN.	c #BF843F",
"IN.	c #C0853F",
"JN.	c #C1863E",
"KN.	c #C0853E",
"LN.	c #BF8540",
"MN.	c #BE8546",
"NN.	c #B58354",
"ON.	c #AD835E",
"PN.	c #AE8460",
"QN.	c #B08356",
"RN.	c #B08559",
"SN.	c #AF8860",
"TN.	c #AE8A67",
"UN.	c #AB8A6D",
"VN.	c #AA8A6E",
"WN.	c #A9896D",
"XN.	c #A8876A",
"YN.	c #A8886C",
"ZN.	c #A69180",
"`N.	c #AC836D",
" O.	c #AD704F",
".O.	c #AA704D",
"+O.	c #AD734F",
"@O.	c #AB714E",
"#O.	c #AB7352",
"$O.	c #AE7753",
"%O.	c #AA734B",
"&O.	c #AA7048",
"*O.	c #AB7B55",
"=O.	c #A87656",
"-O.	c #A26E53",
";O.	c #A97353",
">O.	c #AC724E",
",O.	c #A76842",
"'O.	c #A76F4F",
")O.	c #9F6948",
"!O.	c #9D623B",
"~O.	c #A86435",
"{O.	c #AD7149",
"]O.	c #AF704C",
"^O.	c #B06F4C",
"/O.	c #AE6D4A",
"(O.	c #AA6946",
"_O.	c #A47054",
":O.	c #A9968F",
"<O.	c #AA9B8E",
"[O.	c #B79C7E",
"}O.	c #AA8D71",
"|O.	c #C4B5AA",
"1O.	c #D0C9C3",
"2O.	c #CFC7C4",
"3O.	c #BAAEA1",
"4O.	c #AB9B88",
"5O.	c #946B4A",
"6O.	c #9B6B44",
"7O.	c #A36F42",
"8O.	c #A57548",
"9O.	c #AA845A",
"0O.	c #B29678",
"aO.	c #B9A28E",
"bO.	c #B59F8E",
"cO.	c #AA8B70",
"dO.	c #A48063",
"eO.	c #C0A893",
"fO.	c #AA9684",
"gO.	c #CCC5BB",
"hO.	c #C7B19B",
"iO.	c #B28E6F",
"jO.	c #AF8F73",
"kO.	c #A89487",
"lO.	c #9B775A",
"mO.	c #A17859",
"nO.	c #A77A59",
"oO.	c #AF7F57",
"pO.	c #A6724A",
"qO.	c #AB7751",
"rO.	c #A37250",
"sO.	c #A47557",
"tO.	c #A56D48",
"uO.	c #9F6B44",
"vO.	c #A07350",
"wO.	c #A77757",
"xO.	c #A3714E",
"yO.	c #9F6E4E",
"zO.	c #9F8D7F",
"AO.	c #B39379",
"BO.	c #C0A082",
"CO.	c #C1AD97",
"DO.	c #CAC1B4",
"EO.	c #CBC4C1",
"FO.	c #CFCAC7",
"GO.	c #D0CECA",
"HO.	c #CBCBC6",
"IO.	c #CCB9AC",
"JO.	c #AB8366",
"KO.	c #A47445",
"LO.	c #A47149",
"MO.	c #A87748",
"NO.	c #B58F70",
"OO.	c #CCC8C4",
"PO.	c #D5CBC6",
"QO.	c #C9BAB4",
"RO.	c #C0AFA6",
"SO.	c #C8B9AD",
"TO.	c #B6A294",
"UO.	c #B09384",
"VO.	c #AE7E62",
"WO.	c #B08166",
"XO.	c #B17B59",
"YO.	c #AE7552",
"ZO.	c #AC7452",
"`O.	c #AC795E",
" P.	c #A97B5C",
".P.	c #AC8C73",
"+P.	c #C4B6A7",
"@P.	c #BEAE9D",
"#P.	c #B9AC9E",
"$P.	c #C5BDAF",
"%P.	c #CBC1B4",
"&P.	c #C9C1B6",
"*P.	c #9B6746",
"=P.	c #965C37",
"-P.	c #9B6B48",
";P.	c #BA9C83",
">P.	c #C3B3AB",
",P.	c #C9BBB5",
"'P.	c #C6B0A3",
")P.	c #BB987C",
"!P.	c #B2794D",
"~P.	c #BA8252",
"{P.	c #BD8354",
"]P.	c #BC804F",
"^P.	c #BF834B",
"/P.	c #C0844F",
"(P.	c #C28650",
"_P.	c #C28651",
":P.	c #C08550",
"<P.	c #C0814D",
"[P.	c #BF7A49",
"}P.	c #BF7948",
"|P.	c #BF7D4A",
"1P.	c #BD804D",
"2P.	c #BD814B",
"3P.	c #BC8149",
"4P.	c #BE8146",
"5P.	c #C18245",
"6P.	c #C58B50",
"7P.	c #C18951",
"8P.	c #BF854D",
"9P.	c #BF844C",
"0P.	c #BC8E5F",
"aP.	c #AFA191",
"bP.	c #C5B1A4",
"cP.	c #CCC3BC",
"dP.	c #C9C4C0",
"eP.	c #D1C6C4",
"fP.	c #BAA79B",
"gP.	c #A78367",
"hP.	c #C7BBB4",
"iP.	c #C8BCB8",
"jP.	c #AE9588",
"kP.	c #A4826C",
"lP.	c #B49F8F",
"mP.	c #C9BFBD",
"nP.	c #C6C3BE",
"oP.	c #BDB9B4",
"pP.	c #BEB9B4",
"qP.	c #A98667",
"rP.	c #B4A091",
"sP.	c #C7C5C4",
"tP.	c #C6C6C5",
"uP.	c #BBADA1",
"vP.	c #9F7C62",
"wP.	c #B19076",
"xP.	c #AB9480",
"yP.	c #BB9481",
"zP.	c #B48E73",
"AP.	c #B89B82",
"BP.	c #CCC0B6",
"CP.	c #D2CEC8",
"DP.	c #BE8241",
"EP.	c #BB803C",
"FP.	c #BF833F",
"GP.	c #C18740",
"HP.	c #C38841",
"IP.	c #C18840",
"JP.	c #BF8442",
"KP.	c #BC7E45",
"LP.	c #B48158",
"MP.	c #AD8361",
"NP.	c #B28354",
"OP.	c #B28556",
"PP.	c #B08860",
"QP.	c #AC8A6C",
"RP.	c #AA8869",
"SP.	c #AA8769",
"TP.	c #A99D9B",
"UP.	c #AC8C7C",
"VP.	c #A67457",
"WP.	c #A46948",
"XP.	c #A86E4A",
"YP.	c #A66E4A",
"ZP.	c #A56F51",
"`P.	c #A67051",
" Q.	c #A66F4D",
".Q.	c #A87655",
"+Q.	c #A67155",
"@Q.	c #A67253",
"#Q.	c #A56844",
"$Q.	c #A16745",
"%Q.	c #A17450",
"&Q.	c #A16947",
"*Q.	c #9E6644",
"=Q.	c #A26545",
"-Q.	c #A36340",
";Q.	c #A1633D",
">Q.	c #A1623D",
",Q.	c #A6653E",
"'Q.	c #AB6741",
")Q.	c #A7653F",
"!Q.	c #A2623F",
"~Q.	c #AFA09A",
"{Q.	c #AFA090",
"]Q.	c #AE9170",
"^Q.	c #A6825F",
"/Q.	c #A08066",
"(Q.	c #B6A79B",
"_Q.	c #CDCACC",
":Q.	c #CCC0B5",
"<Q.	c #AD9275",
"[Q.	c #A7866B",
"}Q.	c #9A7349",
"|Q.	c #A27547",
"1Q.	c #A57541",
"2Q.	c #A37B4E",
"3Q.	c #B19478",
"4Q.	c #BEA089",
"5Q.	c #AB8564",
"6Q.	c #AA7E57",
"7Q.	c #A77C56",
"8Q.	c #AE8A6A",
"9Q.	c #C5BAAF",
"0Q.	c #BBA387",
"aQ.	c #B48B63",
"bQ.	c #AC8762",
"cQ.	c #B59579",
"dQ.	c #B19B86",
"eQ.	c #9F9C98",
"fQ.	c #A47D58",
"gQ.	c #A37958",
"hQ.	c #AC7F5E",
"iQ.	c #AD7D58",
"jQ.	c #B28155",
"kQ.	c #B2815A",
"lQ.	c #A46E41",
"mQ.	c #A46F43",
"nQ.	c #A7734A",
"oQ.	c #A3734B",
"pQ.	c #AB7A59",
"qQ.	c #A57457",
"rQ.	c #A37150",
"sQ.	c #A1714C",
"tQ.	c #9F6F4B",
"uQ.	c #A1734D",
"vQ.	c #A3744C",
"wQ.	c #A56F46",
"xQ.	c #A5724D",
"yQ.	c #A77450",
"zQ.	c #A47756",
"AQ.	c #A49588",
"BQ.	c #B59377",
"CQ.	c #AE9174",
"DQ.	c #C3B8B0",
"EQ.	c #D1CAC6",
"FQ.	c #CDCDCD",
"GQ.	c #CDCCC8",
"HQ.	c #C7C0BB",
"IQ.	c #CFCBC8",
"JQ.	c #C3BAB2",
"KQ.	c #A6866D",
"LQ.	c #9F7048",
"MQ.	c #A7784B",
"NQ.	c #CFC6BE",
"OQ.	c #CCC9C6",
"PQ.	c #CEC6C3",
"QQ.	c #AB9284",
"RQ.	c #AF886A",
"SQ.	c #AF8F77",
"TQ.	c #AD8A6F",
"UQ.	c #AC8061",
"VQ.	c #AC7B5A",
"WQ.	c #A77554",
"XQ.	c #A0704C",
"YQ.	c #A77B5A",
"ZQ.	c #B49881",
"`Q.	c #C1A792",
" R.	c #B89B86",
".R.	c #CAC0B5",
"+R.	c #CAC3B9",
"@R.	c #C9C2B6",
"#R.	c #BFAE9E",
"$R.	c #9F715A",
"%R.	c #9A5F46",
"&R.	c #B18B7D",
"*R.	c #BAA89B",
"=R.	c #C0B4A9",
"-R.	c #C5B2A9",
";R.	c #BC9F8F",
">R.	c #B68D74",
",R.	c #AA8E78",
"'R.	c #B58C6A",
")R.	c #BF8752",
"!R.	c #BE814A",
"~R.	c #BD8145",
"{R.	c #C2874A",
"]R.	c #C1864B",
"^R.	c #C3894C",
"/R.	c #C58A4D",
"(R.	c #C68A4F",
"_R.	c #C3874D",
":R.	c #C2834C",
"<R.	c #BE7A46",
"[R.	c #BB7743",
"}R.	c #BC7A46",
"|R.	c #BE7E49",
"1R.	c #BF8049",
"2R.	c #BA7D41",
"3R.	c #BB7F42",
"4R.	c #BE8244",
"5R.	c #C1884D",
"6R.	c #C1864D",
"7R.	c #C09163",
"8R.	c #AD9D8F",
"9R.	c #C6BFB7",
"0R.	c #CECBC7",
"aR.	c #BFAFAC",
"bR.	c #A17D62",
"cR.	c #A1785B",
"dR.	c #A17252",
"eR.	c #A6856B",
"fR.	c #BDA59D",
"gR.	c #C9C3BC",
"hR.	c #C8C6C2",
"iR.	c #C5C2BC",
"jR.	c #AC9784",
"kR.	c #C2B3A9",
"lR.	c #CDC7C6",
"mR.	c #C8C6C4",
"nR.	c #A68F7E",
"oR.	c #A58063",
"pR.	c #AA9079",
"qR.	c #B89D93",
"rR.	c #C2B1A0",
"sR.	c #C8C1B2",
"tR.	c #D0C5BB",
"uR.	c #D4CBC7",
"vR.	c #CFCBC7",
"wR.	c #BB7E45",
"xR.	c #BA7C3F",
"yR.	c #B97C3E",
"zR.	c #BD8141",
"AR.	c #BD8441",
"BR.	c #BE853E",
"CR.	c #BD853F",
"DR.	c #BE7B43",
"ER.	c #B2815B",
"FR.	c #AB8665",
"GR.	c #AD8563",
"HR.	c #B1845B",
"IR.	c #B1845A",
"JR.	c #B18358",
"KR.	c #B28760",
"LR.	c #B08C6E",
"MR.	c #AD8A6D",
"NR.	c #AA896A",
"OR.	c #AB907D",
"PR.	c #A79A97",
"QR.	c #A07760",
"RR.	c #9F6E53",
"SR.	c #A67353",
"TR.	c #A77350",
"UR.	c #A56F50",
"VR.	c #A46E50",
"WR.	c #A56E50",
"XR.	c #A46C4F",
"YR.	c #9F684B",
"ZR.	c #9E6B4D",
"`R.	c #9C694B",
" S.	c #A06D4F",
".S.	c #A46B4B",
"+S.	c #A16545",
"@S.	c #986745",
"#S.	c #985C3A",
"$S.	c #9F603F",
"%S.	c #965737",
"&S.	c #9A5839",
"*S.	c #A05E3D",
"=S.	c #9F5C3C",
"-S.	c #9C5738",
";S.	c #A05E3A",
">S.	c #A2643A",
",S.	c #9E5E37",
"'S.	c #995F3B",
")S.	c #A88779",
"!S.	c #ABA09F",
"~S.	c #ADA197",
"{S.	c #B0977D",
"]S.	c #AF9476",
"^S.	c #A88D6F",
"/S.	c #AE9983",
"(S.	c #CACBC8",
"_S.	c #C9B5AA",
":S.	c #AE865C",
"<S.	c #A1794E",
"[S.	c #A77A4D",
"}S.	c #A27342",
"|S.	c #A17E59",
"1S.	c #B49B89",
"2S.	c #AE8D75",
"3S.	c #AD8D74",
"4S.	c #AB8965",
"5S.	c #A6774E",
"6S.	c #AC794F",
"7S.	c #B08253",
"8S.	c #B18963",
"9S.	c #BCA392",
"0S.	c #B59984",
"aS.	c #A78664",
"bS.	c #AE8C68",
"cS.	c #BF9E81",
"dS.	c #B6A18D",
"eS.	c #A38574",
"fS.	c #AC7D57",
"gS.	c #AE7F53",
"hS.	c #A66D43",
"iS.	c #9E6A3D",
"jS.	c #A06D40",
"kS.	c #A47048",
"lS.	c #A8774D",
"mS.	c #A67553",
"nS.	c #A4714D",
"oS.	c #A16E4A",
"pS.	c #A77353",
"qS.	c #A56B47",
"rS.	c #A46841",
"sS.	c #986B47",
"tS.	c #BA9A7D",
"uS.	c #B69176",
"vS.	c #C3A28C",
"wS.	c #C9BEB5",
"xS.	c #CFCAC5",
"yS.	c #CCCAC9",
"zS.	c #CFCDC9",
"AS.	c #CFCDCB",
"BS.	c #CCCCD0",
"CS.	c #C6B7AF",
"DS.	c #CAC6C3",
"ES.	c #CAC4BE",
"FS.	c #956C4B",
"GS.	c #9E704F",
"HS.	c #A0744D",
"IS.	c #AE9077",
"JS.	c #A88D75",
"KS.	c #AA815E",
"LS.	c #B18867",
"MS.	c #B09479",
"NS.	c #AE8B70",
"OS.	c #AF8D73",
"PS.	c #AD856D",
"QS.	c #AA7C61",
"RS.	c #9E6B4C",
"SS.	c #98684B",
"TS.	c #96674D",
"US.	c #9A694B",
"VS.	c #B6917D",
"WS.	c #C6C0B4",
"XS.	c #BAAB9D",
"YS.	c #BCAA9D",
"ZS.	c #C5B7AB",
"`S.	c #995D46",
" T.	c #B69590",
".T.	c #BFB2AF",
"+T.	c #C7BAB0",
"@T.	c #BFAD9E",
"#T.	c #946044",
"$T.	c #A2816F",
"%T.	c #B77E4B",
"&T.	c #BE8550",
"*T.	c #BE834C",
"=T.	c #BD8247",
"-T.	c #C2874C",
";T.	c #C18748",
">T.	c #C18846",
",T.	c #C1894E",
"'T.	c #C28751",
")T.	c #BF824E",
"!T.	c #BC7F4B",
"~T.	c #BC7F4D",
"{T.	c #BD7F4F",
"]T.	c #BE824C",
"^T.	c #BA7D44",
"/T.	c #B87A3F",
"(T.	c #BC7E43",
"_T.	c #BF8348",
":T.	c #C2894E",
"<T.	c #C68C52",
"[T.	c #C68C51",
"}T.	c #C4894D",
"|T.	c #C4884C",
"1T.	c #C68A50",
"2T.	c #C08F65",
"3T.	c #AD9A90",
"4T.	c #B0917E",
"5T.	c #C3B3A8",
"6T.	c #C7C9C7",
"7T.	c #CBCACA",
"8T.	c #CEC8C5",
"9T.	c #C0B2AB",
"0T.	c #A58673",
"aT.	c #9C7154",
"bT.	c #9C7153",
"cT.	c #9E7457",
"dT.	c #A37657",
"eT.	c #BA9D8B",
"fT.	c #B8A79C",
"gT.	c #C5C0BD",
"hT.	c #ABA8A1",
"iT.	c #BCADAB",
"jT.	c #C6BCB9",
"kT.	c #C8C7C3",
"lT.	c #CCCAC6",
"mT.	c #CAC5C0",
"nT.	c #AA8D7E",
"oT.	c #CBC6B6",
"pT.	c #CEC9C2",
"qT.	c #D2CCC7",
"rT.	c #D3CDC8",
"sT.	c #D2CCC6",
"tT.	c #B07748",
"uT.	c #AF743F",
"vT.	c #B1743C",
"wT.	c #B3763E",
"xT.	c #B3773C",
"yT.	c #B57C3B",
"zT.	c #B77D3D",
"AT.	c #B67E46",
"BT.	c #B87945",
"CT.	c #B0825F",
"DT.	c #A98465",
"ET.	c #AF825A",
"FT.	c #AF825B",
"GT.	c #AD825D",
"HT.	c #AC8868",
"IT.	c #AA8868",
"JT.	c #A78667",
"KT.	c #A98D7B",
"LT.	c #A79182",
"MT.	c #A6846B",
"NT.	c #AD8A71",
"OT.	c #A9785A",
"PT.	c #9F6C4D",
"QT.	c #A36F51",
"RT.	c #A16D4E",
"ST.	c #A1694C",
"TT.	c #9E6649",
"UT.	c #9E664A",
"VT.	c #9C6C4C",
"WT.	c #9B6C4C",
"XT.	c #954E2D",
"YT.	c #985534",
"ZT.	c #985433",
"`T.	c #955130",
" U.	c #955231",
".U.	c #9C5937",
"+U.	c #9C5A37",
"@U.	c #A46745",
"#U.	c #A46742",
"$U.	c #A7673D",
"%U.	c #A8663A",
"&U.	c #9B5C34",
"*U.	c #975E3C",
"=U.	c #AA897B",
"-U.	c #A88F75",
";U.	c #A88D70",
">U.	c #B59A7E",
",U.	c #C4AE9C",
"'U.	c #D2CAC6",
")U.	c #D0BFB9",
"!U.	c #B18D65",
"~U.	c #A6764E",
"{U.	c #A17953",
"]U.	c #AD7849",
"^U.	c #B39A83",
"/U.	c #AD8F6B",
"(U.	c #A37A52",
"_U.	c #B08565",
":U.	c #B68C6C",
"<U.	c #AD8558",
"[U.	c #B08456",
"}U.	c #AD8763",
"|U.	c #AA8966",
"1U.	c #AE8962",
"2U.	c #B6987D",
"3U.	c #A87751",
"4U.	c #AA7C59",
"5U.	c #A87957",
"6U.	c #A77953",
"7U.	c #A57852",
"8U.	c #A5734C",
"9U.	c #AB7649",
"0U.	c #AA764A",
"aU.	c #A97649",
"bU.	c #A7744C",
"cU.	c #A87651",
"dU.	c #A8774E",
"eU.	c #A4754F",
"fU.	c #A0704E",
"gU.	c #A57350",
"hU.	c #A46A40",
"iU.	c #A66F44",
"jU.	c #A26B42",
"kU.	c #AF9889",
"lU.	c #B4997A",
"mU.	c #C2AA95",
"nU.	c #D0CAC5",
"oU.	c #C8C6BF",
"pU.	c #C9C6C6",
"qU.	c #CDCBCA",
"rU.	c #D0C7C6",
"sU.	c #CEC6C2",
"tU.	c #C3BFBC",
"uU.	c #CAC4BF",
"vU.	c #A58A76",
"wU.	c #957251",
"xU.	c #B08C7A",
"yU.	c #BBA795",
"zU.	c #D2CBC3",
"AU.	c #D4C8BD",
"BU.	c #CEBFAF",
"CU.	c #B38A6A",
"DU.	c #AE9278",
"EU.	c #B18971",
"FU.	c #A97B62",
"GU.	c #9F6D4F",
"HU.	c #9D6C4E",
"IU.	c #9A6A4F",
"JU.	c #94644A",
"KU.	c #96684D",
"LU.	c #986A50",
"MU.	c #93664C",
"NU.	c #8A5A3F",
"OU.	c #936145",
"PU.	c #A78678",
"QU.	c #B4A192",
"RU.	c #A08473",
"SU.	c #A17762",
"TU.	c #AC8675",
"UU.	c #AF958A",
"VU.	c #BFA795",
"WU.	c #B29C8B",
"XU.	c #C9B9AC",
"YU.	c #B7957A",
"ZU.	c #A16849",
"`U.	c #935E42",
" V.	c #A38271",
".V.	c #B88E6C",
"+V.	c #B9804B",
"@V.	c #BD854C",
"#V.	c #BF854E",
"$V.	c #BB8145",
"%V.	c #BA8040",
"&V.	c #C08745",
"*V.	c #C18A4A",
"=V.	c #C28A50",
"-V.	c #C28A52",
";V.	c #C28953",
">V.	c #C08752",
",V.	c #C08754",
"'V.	c #C28956",
")V.	c #BF8750",
"!V.	c #BA8145",
"~V.	c #C48E57",
"{V.	c #C79159",
"]V.	c #C68F58",
"^V.	c #C68E55",
"/V.	c #C58D55",
"(V.	c #C1936F",
"_V.	c #A3978C",
":V.	c #AE8D70",
"<V.	c #B49D88",
"[V.	c #CAC1BC",
"}V.	c #C9C1BE",
"|V.	c #C6BDBA",
"1V.	c #B5A49D",
"2V.	c #A99184",
"3V.	c #96785F",
"4V.	c #93725A",
"5V.	c #9B7860",
"6V.	c #A17760",
"7V.	c #A57653",
"8V.	c #A0744E",
"9V.	c #B39A8A",
"0V.	c #C8C1BC",
"aV.	c #B8B5AE",
"bV.	c #C2BFB8",
"cV.	c #C7C2BE",
"dV.	c #CABCBA",
"eV.	c #CBC1BF",
"fV.	c #C8C4C1",
"gV.	c #C7C5C1",
"hV.	c #C2B1A3",
"iV.	c #BC9E88",
"jV.	c #B89E90",
"kV.	c #AE998D",
"lV.	c #C7BBAD",
"mV.	c #D1CCC5",
"nV.	c #AD7850",
"oV.	c #AD764A",
"pV.	c #AC713F",
"qV.	c #AB7039",
"rV.	c #B07639",
"sV.	c #B2773F",
"tV.	c #B37A44",
"uV.	c #B17A44",
"vV.	c #AC8261",
"wV.	c #AD815E",
"xV.	c #AD835F",
"yV.	c #AB8364",
"zV.	c #A88667",
"AV.	c #A88868",
"BV.	c #A78668",
"CV.	c #A9886B",
"DV.	c #A6826B",
"EV.	c #A1765D",
"FV.	c #9F6C4E",
"GV.	c #A26B4B",
"HV.	c #A16546",
"IV.	c #9D5F41",
"JV.	c #9B5F40",
"KV.	c #966646",
"LV.	c #946443",
"MV.	c #A76A44",
"NV.	c #A35B37",
"OV.	c #974F2C",
"PV.	c #995535",
"QV.	c #935535",
"RV.	c #9C6343",
"SV.	c #945D3C",
"TV.	c #965C3E",
"UV.	c #9A6443",
"VV.	c #A26542",
"WV.	c #A96641",
"XV.	c #A9653A",
"YV.	c #9C5B33",
"ZV.	c #9E6D56",
"`V.	c #A48B82",
" W.	c #A68C77",
".W.	c #9D8063",
"+W.	c #9D8060",
"@W.	c #B39578",
"#W.	c #B79D87",
"$W.	c #CCBCAA",
"%W.	c #C9B098",
"&W.	c #C19F85",
"*W.	c #B39772",
"=W.	c #BA9578",
"-W.	c #BA9A8A",
";W.	c #B8A59B",
">W.	c #BCA48E",
",W.	c #B39B86",
"'W.	c #AF977D",
")W.	c #B09784",
"!W.	c #B99F8C",
"~W.	c #B2987A",
"{W.	c #B09275",
"]W.	c #AA9179",
"^W.	c #B5A7A1",
"/W.	c #AA9888",
"(W.	c #A18367",
"_W.	c #A5876D",
":W.	c #A99482",
"<W.	c #A58C7F",
"[W.	c #A27555",
"}W.	c #A67857",
"|W.	c #A37454",
"1W.	c #9E734F",
"2W.	c #9B714C",
"3W.	c #9C6A43",
"4W.	c #996742",
"5W.	c #9C6B45",
"6W.	c #A07045",
"7W.	c #A7826B",
"8W.	c #A47F67",
"9W.	c #9C6B46",
"0W.	c #94613F",
"aW.	c #98643F",
"bW.	c #986037",
"cW.	c #A3673C",
"dW.	c #A66C3F",
"eW.	c #9B663D",
"fW.	c #ADA49C",
"gW.	c #AB947D",
"hW.	c #AB8E6F",
"iW.	c #AA8F74",
"jW.	c #B7A596",
"kW.	c #BBAFA8",
"lW.	c #C5BFBA",
"mW.	c #CBC3C0",
"nW.	c #C6C4C0",
"oW.	c #CBC7C5",
"pW.	c #CBC4BE",
"qW.	c #C8BFB5",
"rW.	c #A37E5F",
"sW.	c #A08F78",
"tW.	c #CCBBB5",
"uW.	c #CAB9AE",
"vW.	c #D0BFAC",
"wW.	c #CABCAD",
"xW.	c #B9A590",
"yW.	c #B19881",
"zW.	c #A17D60",
"AW.	c #A67F5E",
"BW.	c #AE947D",
"CW.	c #A3856E",
"DW.	c #A9866E",
"EW.	c #A8826B",
"FW.	c #A17963",
"GW.	c #A07861",
"HW.	c #997157",
"IW.	c #966B52",
"JW.	c #8A5C45",
"KW.	c #8C5D44",
"LW.	c #8E5F46",
"MW.	c #936248",
"NW.	c #935C3F",
"OW.	c #926047",
"PW.	c #9C6B57",
"QW.	c #9C6951",
"RW.	c #9E735B",
"SW.	c #A27D6E",
"TW.	c #A68574",
"UW.	c #A4816E",
"VW.	c #997661",
"WW.	c #A98E78",
"XW.	c #98715B",
"YW.	c #9A684B",
"ZW.	c #9E6648",
"`W.	c #A0735C",
" X.	c #A58C7E",
".X.	c #B9906E",
"+X.	c #BB8149",
"@X.	c #BC8448",
"#X.	c #BD854B",
"$X.	c #BE844B",
"%X.	c #BE8448",
"&X.	c #BD8347",
"*X.	c #BA8144",
"=X.	c #BA8141",
"-X.	c #BF8648",
";X.	c #C28B50",
">X.	c #C18D54",
",X.	c #C28E57",
"'X.	c #C08B54",
")X.	c #C08B55",
"!X.	c #BF8A55",
"~X.	c #BE894E",
"{X.	c #BC874B",
"]X.	c #C08B52",
"^X.	c #C18F58",
"/X.	c #C2915A",
"(X.	c #C3905A",
"_X.	c #C4905B",
":X.	c #C5905B",
"<X.	c #C6925E",
"[X.	c #BD9677",
"}X.	c #967B6E",
"|X.	c #A38A7E",
"1X.	c #AD9789",
"2X.	c #B59F92",
"3X.	c #C6B5A8",
"4X.	c #C0ABA6",
"5X.	c #A0846F",
"6X.	c #A48972",
"7X.	c #A0846C",
"8X.	c #9B6F53",
"9X.	c #B89B8A",
"0X.	c #C7B7AE",
"aX.	c #C6B7AC",
"bX.	c #BEAEA6",
"cX.	c #C6B0AA",
"dX.	c #C9BAB2",
"eX.	c #C3BCB2",
"fX.	c #BCB4AB",
"gX.	c #CAC1B8",
"hX.	c #B7A99A",
"iX.	c #AF9588",
"jX.	c #C8B8A9",
"kX.	c #CFC8C0",
"lX.	c #CEC9C3",
"mX.	c #A3826F",
"nX.	c #A78874",
"oX.	c #AC8B74",
"pX.	c #A87F62",
"qX.	c #AC8365",
"rX.	c #AF866E",
"sX.	c #A98D7D",
"tX.	c #A58C7C",
"uX.	c #A58C7B",
"vX.	c #A78B7B",
"wX.	c #A78B7A",
"xX.	c #AA8D7C",
"yX.	c #AA8E7C",
"zX.	c #A68A77",
"AX.	c #A1846E",
"BX.	c #A2856E",
"CX.	c #A38670",
"DX.	c #A99789",
"EX.	c #A28F86",
"FX.	c #A38F88",
"GX.	c #9D827B",
"HX.	c #9E7E70",
"IX.	c #A27E69",
"JX.	c #A17B69",
"KX.	c #9F7A68",
"LX.	c #9E7A69",
"MX.	c #96786A",
"NX.	c #A48578",
"OX.	c #A08273",
"PX.	c #9B735D",
"QX.	c #9C735C",
"RX.	c #926852",
"SX.	c #986050",
"TX.	c #8F5D4B",
"UX.	c #906651",
"VX.	c #8F6351",
"WX.	c #946855",
"XX.	c #9D644A",
"YX.	c #A26649",
"ZX.	c #9B5E41",
"`X.	c #9F5B3A",
" Y.	c #A26142",
".Y.	c #B18E85",
"+Y.	c #A5938A",
"@Y.	c #937D60",
"#Y.	c #9C8265",
"$Y.	c #9B7C66",
"%Y.	c #A38A72",
"&Y.	c #AE957D",
"*Y.	c #AF947F",
"=Y.	c #A7907C",
"-Y.	c #A99280",
";Y.	c #9A8270",
">Y.	c #9B8371",
",Y.	c #AE9B91",
"'Y.	c #A79A8E",
")Y.	c #9F847A",
"!Y.	c #A68B81",
"~Y.	c #A48B80",
"{Y.	c #A38B80",
"]Y.	c #A1887E",
"^Y.	c #9F8679",
"/Y.	c #A48B7D",
"(Y.	c #A2897B",
"_Y.	c #9E8675",
":Y.	c #9D897A",
"<Y.	c #A2897E",
"[Y.	c #A18777",
"}Y.	c #A18877",
"|Y.	c #9F8475",
"1Y.	c #987B6D",
"2Y.	c #997D6D",
"3Y.	c #967A69",
"4Y.	c #987C68",
"5Y.	c #9C7E6A",
"6Y.	c #A1948D",
"7Y.	c #A49791",
"8Y.	c #AEAAA7",
"9Y.	c #AFA89E",
"0Y.	c #B5ADA3",
"aY.	c #B5ADA4",
"bY.	c #B9AEA9",
"cY.	c #9B8774",
"dY.	c #A18874",
"eY.	c #A19586",
"fY.	c #ACA395",
"gY.	c #AEA293",
"hY.	c #B19681",
"iY.	c #AC8F78",
"jY.	c #9C7F65",
"kY.	c #A5876C",
"lY.	c #A08368",
"mY.	c #987A60",
"nY.	c #9D8571",
"oY.	c #A19589",
"pY.	c #9C887E",
"qY.	c #A0887F",
"rY.	c #A0867C",
"sY.	c #9F8579",
"tY.	c #997F71",
"uY.	c #9A7F72",
"vY.	c #A18577",
"wY.	c #A3867A",
"xY.	c #A0857D",
"yY.	c #9D847D",
"zY.	c #9A837C",
"AY.	c #958178",
"BY.	c #A38F86",
"CY.	c #9B867F",
"DY.	c #A18881",
"EY.	c #B79A86",
"FY.	c #BA8D64",
"GY.	c #B98F62",
"HY.	c #BC9265",
"IY.	c #BB9165",
"JY.	c #B99064",
"KY.	c #BD9369",
"LY.	c #BA9167",
"MY.	c #B58D64",
"NY.	c #B68E65",
"OY.	c #B78A63",
"PY.	c #BB946D",
"QY.	c #B9966F",
"RY.	c #BA9370",
"SY.	c #BA936F",
"TY.	c #B68F6C",
"UY.	c #B7906C",
"VY.	c #B8916D",
"WY.	c #B7916E",
"XY.	c #B48F6C",
"YY.	c #B89472",
"ZY.	c #B99371",
"`Y.	c #B09C8B",
" Z.	c #A4A0A1",
".Z.	c #9B9590",
"+Z.	c #9B9490",
"@Z.	c #988579",
"#Z.	c #978274",
"$Z.	c #99877C",
"%Z.	c #97857A",
"&Z.	c #98867B",
"*Z.	c #9E8B7E",
"=Z.	c #A18E80",
"-Z.	c #9B8776",
";Z.	c #9C8F87",
">Z.	c #A58B82",
",Z.	c #9B8178",
"'Z.	c #987D75",
")Z.	c #9E8278",
"!Z.	c #A29887",
"~Z.	c #A29384",
"{Z.	c #A19082",
"]Z.	c #98877B",
"^Z.	c #98857A",
"/Z.	c #A88F80",
"(Z.	c #A5A5A1",
"_Z.	c #ADA69D",
":Z.	c #B4A193",
"<Z.	c #BBAB9E",
"[Z.	c #BEAFA2",
"}Z.	c #C9BCB6",
"|Z.	c #AEA39E",
"1Z.	c #AB9F9A",
"2Z.	c #A99F9A",
"3Z.	c #A6A299",
"4Z.	c #AB9A97",
"5Z.	c #AA9D99",
"6Z.	c #A49891",
"7Z.	c #A39389",
"8Z.	c #A5948A",
"9Z.	c #A69188",
"0Z.	c #A68F88",
"aZ.	c #AA9B9A",
"bZ.	c #A59D93",
"cZ.	c #A3998D",
"dZ.	c #A9A6A4",
"eZ.	c #A3A09C",
"fZ.	c #A19C99",
"gZ.	c #AFABAA",
"hZ.	c #ACA299",
"iZ.	c #A9A095",
"jZ.	c #ADA699",
"kZ.	c #ABA8A7",
"lZ.	c #AEACAB",
"mZ.	c #AEABA9",
"nZ.	c #ABA9A7",
"oZ.	c #A29F9D",
"pZ.	c #9E9B95",
"qZ.	c #A29C97",
"rZ.	c #A5A29B",
"sZ.	c #A3A199",
"tZ.	c #AEA9A9",
"uZ.	c #B1AAA6",
"vZ.	c #AFA094",
"wZ.	c #ADA093",
"xZ.	c #A99F92",
"yZ.	c #ABA198",
"zZ.	c #B2A89F",
"AZ.	c #ADA29A",
"BZ.	c #A39F9E",
"CZ.	c #A19FA0",
"DZ.	c #A8A19A",
"EZ.	c #AAA7A1",
"FZ.	c #ABA7A1",
"GZ.	c #ACA19F",
"HZ.	c #ADA29E",
"IZ.	c #A39E96",
"JZ.	c #9F8E83",
"KZ.	c #9F8C7D",
"LZ.	c #A2A09A",
"MZ.	c #A6978F",
"NZ.	c #A6A79F",
"OZ.	c #A4A49D",
"PZ.	c #A99D9A",
"QZ.	c #AA9D9C",
"RZ.	c #AB9E9D",
"SZ.	c #AD9F9E",
"TZ.	c #AC9B96",
"UZ.	c #A7A6A6",
"VZ.	c #A79B94",
"WZ.	c #AD9D9B",
"XZ.	c #AB9B98",
"YZ.	c #A29791",
"ZZ.	c #9D928A",
"`Z.	c #9E948B",
" `.	c #A7988F",
".`.	c #A29491",
"+`.	c #A59796",
"@`.	c #A69793",
"#`.	c #A2948B",
"$`.	c #A09389",
"%`.	c #A8A198",
"&`.	c #9E928B",
"*`.	c #AB9D93",
"=`.	c #A6998E",
"-`.	c #9D998D",
";`.	c #A29F94",
">`.	c #A39E94",
",`.	c #A0988F",
"'`.	c #AEA29B",
")`.	c #ACA9A8",
"!`.	c #A5958E",
"~`.	c #A28980",
"{`.	c #9E8C7B",
"]`.	c #998877",
"^`.	c #9B8C7F",
"/`.	c #9D8C87",
"(`.	c #A19187",
"_`.	c #9C8D86",
":`.	c #9D9590",
"<`.	c #9F978F",
"[`.	c #9D8E86",
"}`.	c #A19089",
"|`.	c #A8A8A3",
"1`.	c #A0A19A",
"2`.	c #9E9C92",
"3`.	c #9E968B",
"4`.	c #9F9487",
"5`.	c #9E9184",
"6`.	c #A18F83",
"7`.	c #9C8B7E",
"8`.	c #9F9182",
"9`.	c #A5978D",
"0`.	c #A5968F",
"a`.	c #A19084",
"b`.	c #A29380",
"c`.	c #AE9D94",
"d`.	c #A39F9D",
"e`.	c #A29A92",
"f`.	c #AAA39A",
"g`.	c #ACA29C",
"h`.	c #A09EA0",
"i`.	c #9F9D9C",
"j`.	c #9D9C9B",
"k`.	c #9D9B9A",
"l`.	c #9F9A97",
"m`.	c #A09C99",
"n`.	c #A29795",
"o`.	c #A39694",
"p`.	c #AB9F9B",
"q`.	c #AE9C96",
"r`.	c #927454",
"s`.	c #926D4C",
"t`.	c #A07654",
"u`.	c #8F7160",
"v`.	c #A67559",
"w`.	c #9F6D4E",
"x`.	c #9A684D",
"y`.	c #9A6850",
"z`.	c #9B6E56",
"A`.	c #9E7A64",
"B`.	c #A0806C",
"C`.	c #A4826F",
"D`.	c #A98673",
"E`.	c #AB8D7B",
"F`.	c #AC9B8B",
"G`.	c #A7978E",
"H`.	c #A38777",
"I`.	c #A37A63",
"J`.	c #9F755B",
"K`.	c #A2795E",
"L`.	c #A58067",
"M`.	c #A3836D",
"N`.	c #A3826C",
"O`.	c #A6826D",
"P`.	c #A7836B",
"Q`.	c #A7846A",
"R`.	c #A28A80",
"S`.	c #9E8578",
"T`.	c #8B6A5A",
"U`.	c #86624D",
"V`.	c #85604C",
"W`.	c #845E4A",
"X`.	c #845D48",
"Y`.	c #7E583D",
"Z`.	c #825A3F",
"``.	c #82583D",
"  +	c #805036",
". +	c #835237",
"+ +	c #88573B",
"@ +	c #906044",
"# +	c #885A3E",
"$ +	c #8B5C40",
"% +	c #8B5D41",
"& +	c #8C5D41",
"* +	c #855837",
"= +	c #845735",
"- +	c #885437",
"; +	c #886143",
"> +	c #8D5F44",
", +	c #83523A",
"' +	c #8D5D46",
") +	c #9D7665",
"! +	c #AD9F8C",
"~ +	c #B99A7F",
"{ +	c #AD8C70",
"] +	c #AC8F75",
"^ +	c #B2957D",
"/ +	c #9C765A",
"( +	c #A58166",
"_ +	c #A67F64",
": +	c #9E7B61",
"< +	c #A88568",
"[ +	c #A17E5E",
"} +	c #997657",
"| +	c #A8927C",
"1 +	c #B09580",
"2 +	c #A58F81",
"3 +	c #998377",
"4 +	c #AC9B92",
"5 +	c #B08C72",
"6 +	c #AB8971",
"7 +	c #AF8E75",
"8 +	c #B2907B",
"9 +	c #AA8E80",
"0 +	c #AA9588",
"a +	c #B1927C",
"b +	c #B4937C",
"c +	c #B89379",
"d +	c #B89073",
"e +	c #B78D70",
"f +	c #BF977D",
"g +	c #B59170",
"h +	c #B88A69",
"i +	c #B48B6C",
"j +	c #B88F6E",
"k +	c #B38B66",
"l +	c #B58B66",
"m +	c #B28964",
"n +	c #B18663",
"o +	c #B48C6B",
"p +	c #AC9684",
"q +	c #A7A7A2",
"r +	c #AAA495",
"s +	c #AA927E",
"t +	c #98755F",
"u +	c #87593E",
"v +	c #965F3B",
"w +	c #917058",
"x +	c #905A33",
"y +	c #8F5C3A",
"z +	c #915B38",
"A +	c #915934",
"B +	c #8B5E3D",
"C +	c #8D684C",
"D +	c #89674B",
"E +	c #896A51",
"F +	c #876C55",
"G +	c #896C59",
"H +	c #896C5B",
"I +	c #8E7161",
"J +	c #896D59",
"K +	c #886C57",
"L +	c #886C55",
"M +	c #92725A",
"N +	c #8C715C",
"O +	c #877567",
"P +	c #9D8C7D",
"Q +	c #96725B",
"R +	c #9A6C4D",
"S +	c #9A684E",
"T +	c #9B6B51",
"U +	c #9A6C51",
"V +	c #94664A",
"W +	c #99684D",
"X +	c #99694E",
"Y +	c #9B6E52",
"Z +	c #976D55",
"` +	c #9B735C",
" .+	c #9D755B",
"..+	c #9A6E52",
"+.+	c #9B6D51",
"@.+	c #97694D",
"#.+	c #976547",
"$.+	c #916246",
"%.+	c #906952",
"&.+	c #90715C",
"*.+	c #976955",
"=.+	c #986C57",
"-.+	c #AF8974",
";.+	c #AE846D",
">.+	c #B38971",
",.+	c #AE8873",
"'.+	c #AE9283",
").+	c #AE8F7B",
"!.+	c #B3886B",
"~.+	c #B58E74",
"{.+	c #B79077",
"].+	c #B69077",
"^.+	c #BC9A7F",
"/.+	c #BB9176",
"(.+	c #BB8D70",
"_.+	c #B08A71",
":.+	c #B08D71",
"<.+	c #B68E6E",
"[.+	c #B18766",
"}.+	c #B78870",
"|.+	c #B68469",
"1.+	c #B18767",
"2.+	c #AD876A",
"3.+	c #B58A6D",
"4.+	c #B0907A",
"5.+	c #A09B95",
"6.+	c #A0958B",
"7.+	c #9F8F81",
"8.+	c #9F9089",
"9.+	c #B0A098",
"0.+	c #B6A9A2",
"a.+	c #B2A699",
"b.+	c #B9ABA1",
"c.+	c #B9AAA1",
"d.+	c #B29C8F",
"e.+	c #9E7B60",
"f.+	c #9F846A",
"g.+	c #AB9886",
"h.+	c #988574",
"i.+	c #8D7866",
"j.+	c #9B8471",
"k.+	c #9E8571",
"l.+	c #9B7F66",
"m.+	c #9E8267",
"n.+	c #9D7F63",
"o.+	c #A98B64",
"p.+	c #9B7854",
"q.+	c #9D714E",
"r.+	c #90664C",
"s.+	c #B08569",
"t.+	c #B27D54",
"u.+	c #B17B53",
"v.+	c #AB7758",
"w.+	c #AF7C5F",
"x.+	c #AC815A",
"y.+	c #B08161",
"z.+	c #B38464",
"A.+	c #B28464",
"B.+	c #AE8365",
"C.+	c #AF8464",
"D.+	c #AE8260",
"E.+	c #AF815E",
"F.+	c #B48461",
"G.+	c #B27E57",
"H.+	c #B17C56",
"I.+	c #AF8261",
"J.+	c #AC815F",
"K.+	c #B48567",
"L.+	c #BA8B68",
"M.+	c #B0836C",
"N.+	c #A19592",
"O.+	c #8F6F5D",
"P.+	c #7F563E",
"Q.+	c #805236",
"R.+	c #7E4E32",
"S.+	c #865338",
"T.+	c #835035",
"U.+	c #835030",
"V.+	c #814E2C",
"W.+	c #824F2B",
"X.+	c #88512F",
"Y.+	c #895330",
"Z.+	c #8D5732",
"`.+	c #8C5630",
" ++	c #89522D",
".++	c #88512D",
"+++	c #8C5531",
"@++	c #88522D",
"#++	c #89522E",
"$++	c #8D5631",
"%++	c #925B34",
"&++	c #8F5831",
"*++	c #8C552D",
"=++	c #8E562D",
"-++	c #93592D",
";++	c #965F32",
">++	c #975E31",
",++	c #8D5329",
"'++	c #965B35",
")++	c #A26F51",
"!++	c #A17454",
"~++	c #A16D4F",
"{++	c #9C6C49",
"]++	c #9B6F4A",
"^++	c #9B6E4A",
"/++	c #9C724E",
"(++	c #9E7048",
"_++	c #9E714B",
":++	c #A17049",
"<++	c #9D6C45",
"[++	c #9F6A40",
"}++	c #A36C42",
"|++	c #9E6A42",
"1++	c #9A6944",
"2++	c #A0704A",
"3++	c #9C6C46",
"4++	c #9F6F4A",
"5++	c #B7967C",
"6++	c #B1947E",
"7++	c #A47E56",
"8++	c #B08966",
"9++	c #BFA085",
"0++	c #AA8668",
"a++	c #B79883",
"b++	c #C29C80",
"c++	c #C2A28A",
"d++	c #C29C81",
"e++	c #BA9272",
"f++	c #B58A6B",
"g++	c #BF8C67",
"h++	c #BC8E69",
"i++	c #BE946D",
"j++	c #C09269",
"k++	c #BF8E60",
"l++	c #C08755",
"m++	c #BE8551",
"n++	c #B88954",
"o++	c #BD8550",
"p++	c #BD875A",
"q++	c #BE8355",
"r++	c #C38952",
"s++	c #C2844B",
"t++	c #C48A54",
"u++	c #C48C5A",
"v++	c #C58D62",
"w++	c #C38C60",
"x++	c #C28C5F",
"y++	c #B9917D",
"z++	c #A9A49A",
"A++	c #9C7E65",
"B++	c #A47142",
"C++	c #A86F3D",
"D++	c #A0663A",
"E++	c #AA7145",
"F++	c #A46E3D",
"G++	c #9D6C41",
"H++	c #966033",
"I++	c #955E34",
"J++	c #935F3A",
"K++	c #946342",
"L++	c #91623E",
"M++	c #8D5E37",
"N++	c #8C5E37",
"O++	c #8D603B",
"P++	c #966C4C",
"Q++	c #946E50",
"R++	c #8F6E54",
"S++	c #8B6E57",
"T++	c #8D705A",
"U++	c #8E6F57",
"V++	c #8A6D55",
"W++	c #8F745F",
"X++	c #A59892",
"Y++	c #AFA9AA",
"Z++	c #AC9C94",
"`++	c #997A64",
" @+	c #9B7257",
".@+	c #9D674B",
"+@+	c #A06B4B",
"@@+	c #A36E4C",
"#@+	c #9F7150",
"$@+	c #A27154",
"%@+	c #9F6F54",
"&@+	c #A27356",
"*@+	c #9E6F51",
"=@+	c #9B6645",
"-@+	c #9F6039",
";@+	c #996446",
">@+	c #95664B",
",@+	c #94684B",
"'@+	c #A07259",
")@+	c #9D6C4C",
"!@+	c #9C6144",
"~@+	c #A1847D",
"{@+	c #AB978C",
"]@+	c #BB896A",
"^@+	c #C18054",
"/@+	c #BF8357",
"(@+	c #C28A5E",
"_@+	c #BD8961",
":@+	c #BA8764",
"<@+	c #B5815E",
"[@+	c #BC815A",
"}@+	c #C08960",
"|@+	c #C28D65",
"1@+	c #C28C65",
"2@+	c #C28A5F",
"3@+	c #C18451",
"4@+	c #BE7E4D",
"5@+	c #BC8052",
"6@+	c #BF8B63",
"7@+	c #BD8458",
"8@+	c #BD804F",
"9@+	c #BB8253",
"0@+	c #BE7D42",
"a@+	c #BF7941",
"b@+	c #C0834D",
"c@+	c #BF8556",
"d@+	c #BF8557",
"e@+	c #C2895B",
"f@+	c #BF8658",
"g@+	c #BE855D",
"h@+	c #B09080",
"i@+	c #A2856C",
"j@+	c #C4AD9F",
"k@+	c #C5BCB8",
"l@+	c #C9C3BD",
"m@+	c #C7C4C4",
"n@+	c #C4C2BE",
"o@+	c #C4C2BB",
"p@+	c #C4BFBB",
"q@+	c #C7C3BF",
"r@+	c #C6C1BD",
"s@+	c #C5B6AC",
"t@+	c #C2BCB6",
"u@+	c #C5C0BA",
"v@+	c #C5BFB9",
"w@+	c #9C826A",
"x@+	c #B48C67",
"y@+	c #B28D66",
"z@+	c #9E7656",
"A@+	c #A6775F",
"B@+	c #A86F48",
"C@+	c #AE784D",
"D@+	c #B28063",
"E@+	c #AF7C5A",
"F@+	c #B07E5A",
"G@+	c #B2815D",
"H@+	c #B18464",
"I@+	c #B38768",
"J@+	c #B38666",
"K@+	c #B68363",
"L@+	c #B4845F",
"M@+	c #B48359",
"N@+	c #B07F58",
"O@+	c #B0835E",
"P@+	c #B5855E",
"Q@+	c #B48460",
"R@+	c #B58867",
"S@+	c #B58A64",
"T@+	c #B48863",
"U@+	c #B48769",
"V@+	c #B68969",
"W@+	c #B68966",
"X@+	c #B1886F",
"Y@+	c #A0958E",
"Z@+	c #A4988B",
"`@+	c #8D674E",
" #+	c #7D4E30",
".#+	c #875230",
"+#+	c #8D5834",
"@#+	c #8C5430",
"##+	c #8A542B",
"$#+	c #90592F",
"%#+	c #955C31",
"&#+	c #945C30",
"*#+	c #955D2F",
"=#+	c #975C31",
"-#+	c #975A30",
";#+	c #92562C",
">#+	c #90542A",
",#+	c #94582E",
"'#+	c #95592E",
")#+	c #955A2F",
"!#+	c #975C2F",
"~#+	c #955A2D",
"{#+	c #975D2E",
"]#+	c #9A6231",
"^#+	c #9A6332",
"/#+	c #945C2E",
"(#+	c #A06E4B",
"_#+	c #A7998F",
":#+	c #9B6438",
"<#+	c #A26A3F",
"[#+	c #9C6638",
"}#+	c #9C6536",
"|#+	c #9F6738",
"1#+	c #A46C38",
"2#+	c #A56C3C",
"3#+	c #A26939",
"4#+	c #A16537",
"5#+	c #A06135",
"6#+	c #A66638",
"7#+	c #A46739",
"8#+	c #A2693B",
"9#+	c #A56C3F",
"0#+	c #A5754E",
"a#+	c #B2845B",
"b#+	c #AD8053",
"c#+	c #B18355",
"d#+	c #AC794A",
"e#+	c #AE7E52",
"f#+	c #A58365",
"g#+	c #BE9C84",
"h#+	c #BFA28C",
"i#+	c #C2A28B",
"j#+	c #C39D7F",
"k#+	c #BF9371",
"l#+	c #BD9472",
"m#+	c #BD9473",
"n#+	c #BE9273",
"o#+	c #BC906F",
"p#+	c #BD8E67",
"q#+	c #BE885A",
"r#+	c #BE8656",
"s#+	c #B98F63",
"t#+	c #BC8D62",
"u#+	c #BD8A5C",
"v#+	c #BA8A5E",
"w#+	c #B88255",
"x#+	c #BD8555",
"y#+	c #C28952",
"z#+	c #C08751",
"A#+	c #C79265",
"B#+	c #C49066",
"C#+	c #C18E64",
"D#+	c #BE8B61",
"E#+	c #BF895F",
"F#+	c #B39381",
"G#+	c #A4A29B",
"H#+	c #A59B8F",
"I#+	c #9C6C41",
"J#+	c #A06D3F",
"K#+	c #A97142",
"L#+	c #A66E37",
"M#+	c #A26E37",
"N#+	c #9C6B3B",
"O#+	c #8F5C34",
"P#+	c #8F5B30",
"Q#+	c #946035",
"R#+	c #946641",
"S#+	c #926949",
"T#+	c #8C6647",
"U#+	c #946742",
"V#+	c #94653D",
"W#+	c #966337",
"X#+	c #956133",
"Y#+	c #916035",
"Z#+	c #986840",
"`#+	c #9B6B40",
" $+	c #996E45",
".$+	c #927050",
"+$+	c #8F7159",
"@$+	c #8F725C",
"#$+	c #907259",
"$$+	c #8E6E55",
"%$+	c #95775E",
"&$+	c #AAA6A7",
"*$+	c #A07257",
"=$+	c #A06E54",
"-$+	c #A17058",
";$+	c #A7765B",
">$+	c #AA7958",
",$+	c #A67855",
"'$+	c #A0734E",
")$+	c #A3704C",
"!$+	c #A37355",
"~$+	c #A27257",
"{$+	c #A57359",
"]$+	c #9E643F",
"^$+	c #9B613C",
"/$+	c #9F6D50",
"($+	c #A1714F",
"_$+	c #A0714F",
":$+	c #A47758",
"<$+	c #A3765C",
"[$+	c #A17153",
"}$+	c #9C6647",
"|$+	c #9F8278",
"1$+	c #B18F7C",
"2$+	c #C48763",
"3$+	c #BD7F53",
"4$+	c #C28859",
"5$+	c #BE885E",
"6$+	c #BC8659",
"7$+	c #BA8150",
"8$+	c #BE875B",
"9$+	c #BE8B64",
"0$+	c #B98761",
"a$+	c #BE8A5E",
"b$+	c #C48752",
"c$+	c #C08049",
"d$+	c #BE8458",
"e$+	c #C59B74",
"f$+	c #B88256",
"g$+	c #B67C4B",
"h$+	c #C18247",
"i$+	c #C3834F",
"j$+	c #C38B5D",
"k$+	c #C1875D",
"l$+	c #BF875E",
"m$+	c #AC9785",
"n$+	c #A9998C",
"o$+	c #A87B58",
"p$+	c #B59682",
"q$+	c #CCC3BF",
"r$+	c #CBC6C5",
"s$+	c #CCC4C2",
"t$+	c #CAC2BF",
"u$+	c #CCC5C3",
"v$+	c #C8C3BF",
"w$+	c #CBC5C1",
"x$+	c #C6C2BD",
"y$+	c #C7C4BE",
"z$+	c #CAC1BF",
"A$+	c #C8C2BD",
"B$+	c #CAC3BF",
"C$+	c #C9BAAE",
"D$+	c #A68770",
"E$+	c #B8A593",
"F$+	c #A98E75",
"G$+	c #B18B68",
"H$+	c #BBA17E",
"I$+	c #C1A58E",
"J$+	c #BFA690",
"K$+	c #B8A287",
"L$+	c #B38C67",
"M$+	c #A98970",
"N$+	c #B07B58",
"O$+	c #B27C56",
"P$+	c #AF7954",
"Q$+	c #B38060",
"R$+	c #B38365",
"S$+	c #B17D5C",
"T$+	c #AE7D5F",
"U$+	c #B18162",
"V$+	c #B28263",
"W$+	c #B08366",
"X$+	c #B4896D",
"Y$+	c #B58566",
"Z$+	c #B27E55",
"`$+	c #B07C55",
" %+	c #BA8D6B",
".%+	c #B88E6D",
"+%+	c #B2896B",
"@%+	c #9F938D",
"#%+	c #885431",
"$%+	c #935A33",
"%%+	c #975F32",
"&%+	c #965C2E",
"*%+	c #955C2B",
"=%+	c #9A612F",
"-%+	c #9D6330",
";%+	c #9E6431",
">%+	c #9D6234",
",%+	c #9B5F33",
"'%+	c #94572C",
")%+	c #92552A",
"!%+	c #93562B",
"~%+	c #975B2F",
"{%+	c #955C2F",
"]%+	c #955B2D",
"^%+	c #965B2D",
"/%+	c #975B2D",
"(%+	c #9E6433",
"_%+	c #9C6433",
":%+	c #9B6432",
"<%+	c #965E2D",
"[%+	c #996031",
"}%+	c #A3724B",
"|%+	c #A28166",
"1%+	c #A16D3B",
"2%+	c #A7703F",
"3%+	c #A46B36",
"4%+	c #A66D36",
"5%+	c #A76F37",
"6%+	c #AA7139",
"7%+	c #AF753E",
"8%+	c #AB7744",
"9%+	c #A6713E",
"0%+	c #A56433",
"a%+	c #A56033",
"b%+	c #A56536",
"c%+	c #A66839",
"d%+	c #A66939",
"e%+	c #A86A3B",
"f%+	c #A66B38",
"g%+	c #A56D3A",
"h%+	c #BD9469",
"i%+	c #AF8159",
"j%+	c #B9885F",
"k%+	c #AF7A47",
"l%+	c #B2855B",
"m%+	c #AB885D",
"n%+	c #A6978A",
"o%+	c #BCA086",
"p%+	c #BEA28C",
"q%+	c #BF9E86",
"r%+	c #C2967A",
"s%+	c #BE9472",
"t%+	c #C19676",
"u%+	c #BC8F6B",
"v%+	c #BE916C",
"w%+	c #C0926C",
"x%+	c #BC8B5D",
"y%+	c #B8875B",
"z%+	c #B99166",
"A%+	c #BD8C64",
"B%+	c #B9835A",
"C%+	c #BD824C",
"D%+	c #BF8451",
"E%+	c #BD8A5D",
"F%+	c #BD8758",
"G%+	c #BE8361",
"H%+	c #B3968A",
"I%+	c #A8A59F",
"J%+	c #A5978B",
"K%+	c #956F4C",
"L%+	c #8A5833",
"M%+	c #925E36",
"N%+	c #A66F40",
"O%+	c #A76E37",
"P%+	c #A5703A",
"Q%+	c #A06F3C",
"R%+	c #9A6C44",
"S%+	c #926542",
"T%+	c #94643A",
"U%+	c #98643C",
"V%+	c #95633D",
"W%+	c #926745",
"X%+	c #8D6649",
"Y%+	c #98673D",
"Z%+	c #97663C",
"`%+	c #98673E",
" &+	c #9C6A42",
".&+	c #9C6B41",
"+&+	c #976E50",
"@&+	c #94745B",
"#&+	c #907258",
"$&+	c #8F6E53",
"%&+	c #8C6C55",
"&&+	c #917661",
"*&+	c #A48B7A",
"=&+	c #A37658",
"-&+	c #AB7B52",
";&+	c #AA7C5B",
">&+	c #A67550",
",&+	c #A47049",
"'&+	c #A26B49",
")&+	c #A37255",
"!&+	c #A26F52",
"~&+	c #A26C50",
"{&+	c #A9755A",
"]&+	c #A06C51",
"^&+	c #9D6D4C",
"/&+	c #9D6E4C",
"(&+	c #9C6C4B",
"_&+	c #A27151",
":&+	c #A67354",
"<&+	c #A16F51",
"[&+	c #9F6C4C",
"}&+	c #9C8782",
"|&+	c #B19485",
"1&+	c #C28E6A",
"2&+	c #C0875E",
"3&+	c #C08C63",
"4&+	c #C18C68",
"5&+	c #BE8963",
"6&+	c #BF8A5D",
"7&+	c #BD885B",
"8&+	c #BD875D",
"9&+	c #BE8862",
"0&+	c #C08E60",
"a&+	c #B8824F",
"b&+	c #B9855A",
"c&+	c #BD8E68",
"d&+	c #BC875F",
"e&+	c #BB825B",
"f&+	c #B77E52",
"g&+	c #BD824F",
"h&+	c #BC793D",
"i&+	c #C0834E",
"j&+	c #BD8558",
"k&+	c #BF8156",
"l&+	c #C08256",
"m&+	c #C08353",
"n&+	c #BB804F",
"o&+	c #B78765",
"p&+	c #A67D63",
"q&+	c #9B7861",
"r&+	c #C4B8B1",
"s&+	c #CCC7C5",
"t&+	c #CAC6C2",
"u&+	c #CBC7C3",
"v&+	c #CCC9C4",
"w&+	c #CBC9C5",
"x&+	c #CAC8C4",
"y&+	c #CAC7C2",
"z&+	c #CBC6BF",
"A&+	c #CBC4BD",
"B&+	c #C7C4C2",
"C&+	c #C7C3C1",
"D&+	c #CAC1C0",
"E&+	c #C9C1B9",
"F&+	c #C7BEB7",
"G&+	c #A78062",
"H&+	c #BEA38C",
"I&+	c #BCA894",
"J&+	c #C0B19B",
"K&+	c #AB8A69",
"L&+	c #A58B74",
"M&+	c #A9826C",
"N&+	c #B1805F",
"O&+	c #B18260",
"P&+	c #B48564",
"Q&+	c #AF7F5D",
"R&+	c #B0815E",
"S&+	c #B18564",
"T&+	c #AC7E60",
"U&+	c #AE7F62",
"V&+	c #AF8061",
"W&+	c #B08164",
"X&+	c #B5896D",
"Y&+	c #B58465",
"Z&+	c #B17F58",
"`&+	c #B07C53",
" *+	c #B58057",
".*+	c #B17D55",
"+*+	c #B8906E",
"@*+	c #B99066",
"#*+	c #B78D67",
"$*+	c #B68D6C",
"%*+	c #B38A6C",
"&*+	c #AF866A",
"**+	c #AF8D7B",
"=*+	c #91674C",
"-*+	c #8B5734",
";*+	c #965E35",
">*+	c #9A6132",
",*+	c #975D2C",
"'*+	c #9D6331",
")*+	c #A06633",
"!*+	c #A06632",
"~*+	c #9E6530",
"{*+	c #96592E",
"]*+	c #94562B",
"^*+	c #93562A",
"/*+	c #94592D",
"(*+	c #935A2D",
"_*+	c #8E5325",
":*+	c #915628",
"<*+	c #9A5F2F",
"[*+	c #9E6333",
"}*+	c #9D6534",
"|*+	c #996130",
"1*+	c #996132",
"2*+	c #A5754D",
"3*+	c #A99C9C",
"4*+	c #A38267",
"5*+	c #A06C3A",
"6*+	c #A8713F",
"7*+	c #A56C37",
"8*+	c #A66D35",
"9*+	c #AD733C",
"0*+	c #B2804D",
"a*+	c #A56634",
"b*+	c #A16534",
"c*+	c #A26837",
"d*+	c #A56B3A",
"e*+	c #A26937",
"f*+	c #A16A36",
"g*+	c #A66E3B",
"h*+	c #A77846",
"i*+	c #AC7846",
"j*+	c #B58457",
"k*+	c #B48559",
"l*+	c #B07D4A",
"m*+	c #AC7E53",
"n*+	c #AE8E63",
"o*+	c #BEA28B",
"p*+	c #C19C82",
"q*+	c #BE957A",
"r*+	c #BD916F",
"s*+	c #BD906B",
"t*+	c #BE9471",
"u*+	c #BB8F6B",
"v*+	c #BE8F68",
"w*+	c #C08C5F",
"x*+	c #BF8857",
"y*+	c #BB8A5F",
"z*+	c #B78A5C",
"A*+	c #BB8659",
"B*+	c #B57F55",
"C*+	c #B77C50",
"D*+	c #B87F4E",
"E*+	c #B77541",
"F*+	c #BA7B4A",
"G*+	c #BD8150",
"H*+	c #BC814C",
"I*+	c #BC814B",
"J*+	c #B87F4C",
"K*+	c #B59A90",
"L*+	c #8E5B34",
"M*+	c #975D31",
"N*+	c #A46C3D",
"O*+	c #A87440",
"P*+	c #8E623A",
"Q*+	c #8B6544",
"R*+	c #8A6446",
"S*+	c #8B6647",
"T*+	c #8D613F",
"U*+	c #916644",
"V*+	c #916847",
"W*+	c #986B44",
"X*+	c #996B42",
"Y*+	c #956844",
"Z*+	c #946845",
"`*+	c #9A6D49",
" =+	c #9B6B47",
".=+	c #976D4D",
"+=+	c #907055",
"@=+	c #907257",
"#=+	c #93755B",
"$=+	c #916F55",
"%=+	c #8B6B53",
"&=+	c #8E735E",
"*=+	c #A07355",
"==+	c #AC7E54",
"-=+	c #AB7C5C",
";=+	c #A06C45",
">=+	c #9F6A43",
",=+	c #99653E",
"'=+	c #99633E",
")=+	c #9D6C4B",
"!=+	c #A06D4C",
"~=+	c #A46E4D",
"{=+	c #AB7658",
"]=+	c #A16E4F",
"^=+	c #A27152",
"/=+	c #A47253",
"(=+	c #9F6A4B",
"_=+	c #9F6848",
":=+	c #A06849",
"<=+	c #A06D49",
"[=+	c #9E7453",
"}=+	c #A4958A",
"|=+	c #BD987B",
"1=+	c #BE8F6A",
"2=+	c #BF906A",
"3=+	c #BD8D6C",
"4=+	c #BC8965",
"5=+	c #BC8760",
"6=+	c #BA835E",
"7=+	c #BB8962",
"8=+	c #BC8658",
"9=+	c #B88253",
"0=+	c #B7865D",
"a=+	c #B78153",
"b=+	c #BB7F51",
"c=+	c #B9784C",
"d=+	c #B87847",
"e=+	c #B77844",
"f=+	c #BB7844",
"g=+	c #B4723B",
"h=+	c #B97843",
"i=+	c #BE7C47",
"j=+	c #BC7A45",
"k=+	c #B87843",
"l=+	c #B0784A",
"m=+	c #B5937C",
"n=+	c #BA9D89",
"o=+	c #9A755C",
"p=+	c #BAABA3",
"q=+	c #CAC7C1",
"r=+	c #CBC8C2",
"s=+	c #CCC9C3",
"t=+	c #B5A79C",
"u=+	c #C6BCB4",
"v=+	c #C6BFBB",
"w=+	c #C5BEB9",
"x=+	c #BFB4AB",
"y=+	c #C3B6AE",
"z=+	c #C7BBB3",
"A=+	c #A78A74",
"B=+	c #C2AC9B",
"C=+	c #B8977D",
"D=+	c #A77E5B",
"E=+	c #BEA792",
"F=+	c #BCAE9C",
"G=+	c #9C7C60",
"H=+	c #A48F7B",
"I=+	c #A0918C",
"J=+	c #A77C64",
"K=+	c #AF8569",
"L=+	c #B18667",
"M=+	c #AF8361",
"N=+	c #AD7D57",
"O=+	c #AC7753",
"P=+	c #AC7652",
"Q=+	c #B17D5A",
"R=+	c #B28163",
"S=+	c #B48669",
"T=+	c #B78566",
"U=+	c #B38467",
"V=+	c #B28668",
"W=+	c #B3835E",
"X=+	c #B6835C",
"Y=+	c #B48C6A",
"Z=+	c #B38E6A",
"`=+	c #B48C6D",
" -+	c #AE8669",
".-+	c #A98A7A",
"+-+	c #A29A91",
"@-+	c #90684D",
"#-+	c #8C5832",
"$-+	c #8E582D",
"%-+	c #955E2F",
"&-+	c #985F31",
"*-+	c #945B2D",
"=-+	c #955B2B",
"--+	c #985E2D",
";-+	c #9A5F2E",
">-+	c #9A5F2D",
",-+	c #9C622F",
"'-+	c #995D31",
")-+	c #995F34",
"!-+	c #91562A",
"~-+	c #905627",
"{-+	c #9C6132",
"]-+	c #A06535",
"^-+	c #9F6636",
"/-+	c #9E6636",
"(-+	c #9C6535",
"_-+	c #9C6435",
":-+	c #9E6536",
"<-+	c #A7896F",
"[-+	c #9F6C3A",
"}-+	c #A36B39",
"|-+	c #A66D37",
"1-+	c #A76E3A",
"2-+	c #AA723B",
"3-+	c #AB733B",
"4-+	c #AF7F4D",
"5-+	c #B07F4C",
"6-+	c #AA703D",
"7-+	c #A86D3E",
"8-+	c #A56E3E",
"9-+	c #A67241",
"0-+	c #A87645",
"a-+	c #A2703B",
"b-+	c #A06E38",
"c-+	c #A8733E",
"d-+	c #AB7B43",
"e-+	c #B3814D",
"f-+	c #BC9367",
"g-+	c #BA9469",
"h-+	c #B4885A",
"i-+	c #C09871",
"j-+	c #AA8867",
"k-+	c #A08459",
"l-+	c #9F917C",
"m-+	c #BCA08E",
"n-+	c #BFA089",
"o-+	c #C19B82",
"p-+	c #BC8E72",
"q-+	c #B98E6E",
"r-+	c #B88F6C",
"s-+	c #BC895C",
"t-+	c #BC804D",
"u-+	c #BA804E",
"v-+	c #B97F49",
"w-+	c #B67846",
"x-+	c #B2703E",
"y-+	c #BD7D4B",
"z-+	c #BB7D47",
"A-+	c #B97C47",
"B-+	c #BF8A5B",
"C-+	c #C1844E",
"D-+	c #C0814B",
"E-+	c #B47A45",
"F-+	c #B29C8D",
"G-+	c #9D6A40",
"H-+	c #AA6E3D",
"I-+	c #9F693B",
"J-+	c #A1703E",
"K-+	c #9A6A38",
"L-+	c #875C36",
"M-+	c #865F3C",
"N-+	c #886449",
"O-+	c #856649",
"P-+	c #896343",
"Q-+	c #8E6645",
"R-+	c #906845",
"S-+	c #936847",
"T-+	c #976D4C",
"U-+	c #8D6646",
"V-+	c #976B4D",
"W-+	c #997051",
"X-+	c #917156",
"Y-+	c #8F7157",
"Z-+	c #927459",
"`-+	c #947256",
" ;+	c #957257",
".;+	c #977962",
"+;+	c #A18676",
"@;+	c #A57758",
"#;+	c #A47658",
"$;+	c #A67454",
"%;+	c #A67554",
"&;+	c #A37755",
"*;+	c #A37655",
"=;+	c #A6724C",
"-;+	c #A5714B",
";;+	c #9E6A45",
">;+	c #A16C46",
",;+	c #A2714C",
"';+	c #A7744F",
");+	c #A77553",
"!;+	c #A27252",
"~;+	c #A07152",
"{;+	c #A16F50",
"];+	c #A06A49",
"^;+	c #9B613F",
"/;+	c #98603C",
"(;+	c #8B5A38",
"_;+	c #A28F85",
":;+	c #BF9C7F",
"<;+	c #BE9276",
"[;+	c #BA8565",
"};+	c #BB8562",
"|;+	c #B6825C",
"1;+	c #B6855C",
"2;+	c #BC875C",
"3;+	c #B97E52",
"4;+	c #B87948",
"5;+	c #B57B4B",
"6;+	c #B17340",
"7;+	c #B87743",
"8;+	c #B46E3B",
"9;+	c #B36E37",
"0;+	c #BA723C",
"a;+	c #BA7543",
"b;+	c #BE7D4B",
"c;+	c #BF7D42",
"d;+	c #BF7C40",
"e;+	c #BA793F",
"f;+	c #AFA79F",
"g;+	c #AE8C70",
"h;+	c #B0835F",
"i;+	c #AD866A",
"j;+	c #CBBDB4",
"k;+	c #C7C2BD",
"l;+	c #CCC9C5",
"m;+	c #CAC6BF",
"n;+	c #C8C4BD",
"o;+	c #BCAEA3",
"p;+	c #AC9380",
"q;+	c #B39D8B",
"r;+	c #BAA694",
"s;+	c #B09B85",
"t;+	c #A08574",
"u;+	c #B69E90",
"v;+	c #AC856C",
"w;+	c #BDA89B",
"x;+	c #BBA18C",
"y;+	c #9E7A59",
"z;+	c #C2B8A9",
"A;+	c #C3B7A9",
"B;+	c #906A55",
"C;+	c #AA7755",
"D;+	c #B07C5C",
"E;+	c #B0856B",
"F;+	c #B3886F",
"G;+	c #B0846A",
"H;+	c #A97858",
"I;+	c #AC7749",
"J;+	c #AD7443",
"K;+	c #AC7A51",
"L;+	c #AF7F60",
"M;+	c #B48465",
"N;+	c #B38564",
"O;+	c #B18362",
"P;+	c #B08361",
"Q;+	c #B08260",
"R;+	c #B18665",
"S;+	c #B48B6D",
"T;+	c #B38566",
"U;+	c #B48464",
"V;+	c #B0896C",
"W;+	c #AB846B",
"X;+	c #A89F95",
"Y;+	c #987057",
"Z;+	c #90582D",
"`;+	c #945E2F",
" >+	c #905D2E",
".>+	c #915D2E",
"+>+	c #935D2B",
"@>+	c #945C2A",
"#>+	c #905726",
"$>+	c #9C6231",
"%>+	c #9E6633",
"&>+	c #9D6735",
"*>+	c #9D6837",
"=>+	c #9C6636",
"->+	c #996434",
";>+	c #9B6134",
">>+	c #945A2B",
",>+	c #9B6434",
"'>+	c #9E6735",
")>+	c #9E6937",
"!>+	c #9F6839",
"~>+	c #9F6639",
"{>+	c #9E683B",
"]>+	c #A3693B",
"^>+	c #A9A39A",
"/>+	c #A77849",
"(>+	c #A67541",
"_>+	c #A27241",
":>+	c #9D6D43",
"<>+	c #A97B4B",
"[>+	c #B48C5D",
"}>+	c #A98051",
"|>+	c #AB7D4E",
"1>+	c #A4764B",
"2>+	c #A7774D",
"3>+	c #A97B51",
"4>+	c #AE8356",
"5>+	c #A57A47",
"6>+	c #A5743F",
"7>+	c #A77441",
"8>+	c #AB7D4F",
"9>+	c #B38552",
"0>+	c #B18858",
"a>+	c #B2875A",
"b>+	c #A47E59",
"c>+	c #A08162",
"d>+	c #987F61",
"e>+	c #9D9989",
"f>+	c #BFA591",
"g>+	c #C3A995",
"h>+	c #BE9C86",
"i>+	c #BB8C72",
"j>+	c #B88461",
"k>+	c #B98562",
"l>+	c #B48962",
"m>+	c #BB8859",
"n>+	c #BE7D4A",
"o>+	c #B7753C",
"p>+	c #B77543",
"q>+	c #B87A4C",
"r>+	c #AF7C4E",
"s>+	c #B47B4F",
"t>+	c #BC7F54",
"u>+	c #BB835A",
"v>+	c #C08C66",
"w>+	c #BF865B",
"x>+	c #C08452",
"y>+	c #C07F4A",
"z>+	c #B18965",
"A>+	c #A26F44",
"B>+	c #A67339",
"C>+	c #986B3A",
"D>+	c #89603A",
"E>+	c #99673F",
"F>+	c #996A40",
"G>+	c #90643F",
"H>+	c #896240",
"I>+	c #8A6749",
"J>+	c #836447",
"K>+	c #896145",
"L>+	c #8C6345",
"M>+	c #8E6546",
"N>+	c #8F684B",
"O>+	c #8F6A4C",
"P>+	c #8F6B4D",
"Q>+	c #886547",
"R>+	c #876647",
"S>+	c #88674F",
"T>+	c #8F6F58",
"U>+	c #92725B",
"V>+	c #92735C",
"W>+	c #937559",
"X>+	c #937556",
"Y>+	c #9D754E",
"Z>+	c #9D8473",
"`>+	c #A9775B",
" ,+	c #A47256",
".,+	c #9E6E50",
"+,+	c #9C6D4F",
"@,+	c #A27251",
"#,+	c #9A6946",
"$,+	c #996844",
"%,+	c #A06A46",
"&,+	c #A36F4C",
"*,+	c #9E6B4A",
"=,+	c #A27350",
"-,+	c #A27354",
";,+	c #9E6B50",
">,+	c #A06D52",
",,+	c #9C6950",
"',+	c #99664B",
"),+	c #9C6949",
"!,+	c #99633F",
"~,+	c #A06641",
"{,+	c #A26744",
"],+	c #9A6945",
"^,+	c #AD9B90",
"/,+	c #C0A490",
"(,+	c #C0A086",
"_,+	c #BF9174",
":,+	c #B98364",
"<,+	c #B9825B",
"[,+	c #B57B56",
"},+	c #B47D57",
"|,+	c #B28259",
"1,+	c #B38359",
"2,+	c #B78157",
"3,+	c #BD7F4B",
"4,+	c #BA6E38",
"5,+	c #B46935",
"6,+	c #B46D38",
"7,+	c #B57340",
"8,+	c #B07244",
"9,+	c #B37446",
"0,+	c #B7774A",
"a,+	c #BD7F55",
"b,+	c #BE8157",
"c,+	c #BF7E4A",
"d,+	c #C17C44",
"e,+	c #BB753D",
"f,+	c #B37444",
"g,+	c #B18A6E",
"h,+	c #A89A86",
"i,+	c #B79B87",
"j,+	c #C8B5A9",
"k,+	c #C9B8B3",
"l,+	c #CEC3BD",
"m,+	c #CBC5C0",
"n,+	c #C7C1BD",
"o,+	c #C1BAB1",
"p,+	c #C2AEA3",
"q,+	c #AE8C7A",
"r,+	c #9C714E",
"s,+	c #97775D",
"t,+	c #C3AD9D",
"u,+	c #B4A397",
"v,+	c #B09B8B",
"w,+	c #C5B6A9",
"x,+	c #AF9C8C",
"y,+	c #B1886C",
"z,+	c #AF9378",
"A,+	c #948074",
"B,+	c #A69892",
"C,+	c #A3816E",
"D,+	c #AA7C63",
"E,+	c #A5785F",
"F,+	c #A77B64",
"G,+	c #A47962",
"H,+	c #A27861",
"I,+	c #9F7459",
"J,+	c #A87953",
"K,+	c #AF815C",
"L,+	c #AA7A59",
"M,+	c #AE7E5E",
"N,+	c #AC8669",
"O,+	c #AF7E64",
"P,+	c #AE7D62",
"Q,+	c #AC7C60",
"R,+	c #A98466",
"S,+	c #AB8A6A",
"T,+	c #B1896C",
"U,+	c #AD8061",
"V,+	c #B78867",
"W,+	c #AD856A",
"X,+	c #9B938F",
"Y,+	c #946135",
"Z,+	c #966433",
"`,+	c #986536",
" '+	c #956234",
".'+	c #946234",
"+'+	c #956533",
"@'+	c #946431",
"#'+	c #925F2D",
"$'+	c #93612E",
"%'+	c #925F2C",
"&'+	c #95622F",
"*'+	c #9C6A37",
"='+	c #9F6E3D",
"-'+	c #9C6C3B",
";'+	c #9E6C3D",
">'+	c #9B6839",
",'+	c #996638",
"''+	c #9F6A3E",
")'+	c #9D673B",
"!'+	c #956235",
"~'+	c #956335",
"{'+	c #956537",
"]'+	c #986A3A",
"^'+	c #9E6A3C",
"/'+	c #9F673B",
"('+	c #A36C3F",
"_'+	c #A99C8C",
":'+	c #B3926E",
"<'+	c #B08C63",
"['+	c #B18E65",
"}'+	c #AF916E",
"|'+	c #A18766",
"1'+	c #9F8664",
"2'+	c #98795A",
"3'+	c #9E7F60",
"4'+	c #A7855D",
"5'+	c #A5855D",
"6'+	c #AA8A69",
"7'+	c #AB8460",
"8'+	c #AC855C",
"9'+	c #A77D52",
"0'+	c #A38060",
"a'+	c #A3815C",
"b'+	c #A27E57",
"c'+	c #9C7959",
"d'+	c #9D9181",
"e'+	c #A0A29A",
"f'+	c #B9A190",
"g'+	c #B99F8A",
"h'+	c #B68C77",
"i'+	c #B1896B",
"j'+	c #C0825E",
"k'+	c #BC7D58",
"l'+	c #B87B58",
"m'+	c #B47E5C",
"n'+	c #B28762",
"o'+	c #AF7846",
"p'+	c #B47844",
"q'+	c #AF7546",
"r'+	c #B27C53",
"s'+	c #AD845E",
"t'+	c #AF7F5C",
"u'+	c #B7815C",
"v'+	c #BD8560",
"w'+	c #BB8460",
"x'+	c #BB8056",
"y'+	c #BB7F50",
"z'+	c #B98C70",
"A'+	c #AC9A8B",
"B'+	c #A77340",
"C'+	c #9A6B3A",
"D'+	c #906437",
"E'+	c #92633A",
"F'+	c #92663C",
"G'+	c #875D38",
"H'+	c #7C5236",
"I'+	c #815A42",
"J'+	c #825F49",
"K'+	c #825B45",
"L'+	c #875F48",
"M'+	c #88624A",
"N'+	c #88634C",
"O'+	c #8D6A53",
"P'+	c #8E6C55",
"Q'+	c #8D6B53",
"R'+	c #8B6952",
"S'+	c #896952",
"T'+	c #896F5C",
"U'+	c #8D7463",
"V'+	c #8E7664",
"W'+	c #957B69",
"X'+	c #967C66",
"Y'+	c #9C7553",
"Z'+	c #A17753",
"`'+	c #9F7F6A",
" )+	c #A07E6C",
".)+	c #A17968",
"+)+	c #9D7A69",
"@)+	c #977666",
"#)+	c #967666",
"$)+	c #9D7966",
"%)+	c #9A7662",
"&)+	c #96715D",
"*)+	c #977664",
"=)+	c #A18C7D",
"-)+	c #A79688",
";)+	c #9D7761",
">)+	c #966C55",
",)+	c #90634C",
"')+	c #8C5D47",
"))+	c #865641",
"!)+	c #86543C",
"~)+	c #89583A",
"{)+	c #945F42",
"])+	c #996346",
"^)+	c #906347",
"/)+	c #9E816B",
"()+	c #A99B93",
"_)+	c #BB9D8C",
":)+	c #B79886",
"<)+	c #AF927E",
"[)+	c #B28D75",
"})+	c #B1845D",
"|)+	c #B98259",
"1)+	c #BA7C55",
"2)+	c #B67550",
"3)+	c #B3754F",
"4)+	c #B17A52",
"5)+	c #AE7C55",
"6)+	c #BC7C4B",
"7)+	c #BF7945",
"8)+	c #AF6C39",
"9)+	c #B26D3A",
"0)+	c #B77D55",
"a)+	c #B1754E",
"b)+	c #AC714A",
"c)+	c #B87E56",
"d)+	c #BC7F56",
"e)+	c #BF7C4B",
"f)+	c #BE7641",
"g)+	c #BC723F",
"h)+	c #BE8060",
"i)+	c #B08D7F",
"j)+	c #A6A59D",
"k)+	c #AAA9A2",
"l)+	c #A08E88",
"m)+	c #A18E87",
"n)+	c #B5AEA4",
"o)+	c #BCB5B3",
"p)+	c #BCB4AF",
"q)+	c #B0A69B",
"r)+	c #B39285",
"s)+	c #AD8B76",
"t)+	c #AD8B70",
"u)+	c #9A775C",
"v)+	c #A88A75",
"w)+	c #B7A496",
"x)+	c #C2B1A6",
"y)+	c #C1B3AA",
"z)+	c #B29F93",
"A)+	c #BBA08F",
"B)+	c #AC8362",
"C)+	c #9E754C",
"D)+	c #A38062",
"E)+	c #9A7158",
"F)+	c #9F948C",
"G)+	c #A3A09E",
"H)+	c #A69993",
"I)+	c #A49792",
"J)+	c #9F958C",
"K)+	c #A3978D",
"L)+	c #A79587",
"M)+	c #A49590",
"N)+	c #9C8E88",
"O)+	c #A09794",
"P)+	c #9B9999",
"Q)+	c #A2A19F",
"R)+	c #9D816F",
"S)+	c #A0866F",
"T)+	c #A38A75",
"U)+	c #A38973",
"V)+	c #A4907E",
"W)+	c #A38F7F",
"X)+	c #A08A7B",
"Y)+	c #9E8877",
"Z)+	c #A38C7C",
"`)+	c #A38E7E",
" !+	c #A68F81",
".!+	c #A28C7D",
"+!+	c #A59080",
"@!+	c #A18F81",
"#!+	c #A19183",
"$!+	c #A58F83",
"%!+	c #A48D7D",
"&!+	c #A69181",
"*!+	c #A59281",
"=!+	c #A28E7F",
"-!+	c #ACA8A4",
";!+	c #B0A99F",
">!+	c #A9A49C",
",!+	c #A09186",
"'!+	c #AA978C",
")!+	c #A49A8D",
"!!+	c #A39990",
"~!+	c #AAA197",
"{!+	c #A39689",
"]!+	c #A09083",
"^!+	c #9D8D83",
"/!+	c #AC998F",
"(!+	c #AE958D",
"_!+	c #AB958D",
":!+	c #A8978F",
"<!+	c #A89482",
"[!+	c #AE9886",
"}!+	c #AD988E",
"|!+	c #AB8F7D",
"1!+	c #B3927D",
"2!+	c #AD9686",
"3!+	c #AD9B8D",
"4!+	c #ADA3A2",
"5!+	c #A58E84",
"6!+	c #A48673",
"7!+	c #9E8670",
"8!+	c #9A8670",
"9!+	c #988374",
"0!+	c #988577",
"a!+	c #99857D",
"b!+	c #95837D",
"c!+	c #958885",
"d!+	c #9E9086",
"e!+	c #9A8D83",
"f!+	c #9C9085",
"g!+	c #9E9389",
"h!+	c #9E958C",
"i!+	c #9B948B",
"j!+	c #9D948F",
"k!+	c #A39D93",
"l!+	c #A69D91",
"m!+	c #A1A29F",
"n!+	c #A7A79E",
"o!+	c #A9A79F",
"p!+	c #A9A298",
"q!+	c #ABA49E",
"r!+	c #A49593",
"s!+	c #A39695",
"t!+	c #A09690",
"u!+	c #9A9087",
"v!+	c #978D84",
"w!+	c #978882",
"x!+	c #A4938A",
"y!+	c #A59491",
"z!+	c #A18F8B",
"A!+	c #A19491",
"B!+	c #A19998",
"C!+	c #A69689",
"D!+	c #AB968B",
"E!+	c #AD938B",
"F!+	c #A99890",
"G!+	c #AF9286",
"H!+	c #B19483",
"I!+	c #AC8E80",
"J!+	c #AD8B7D",
"K!+	c #AB8C7B",
"L!+	c #AC8D7C",
"M!+	c #AC8E7B",
"N!+	c #B38B71",
"O!+	c #AF8165",
"P!+	c #AF7D5F",
"Q!+	c #B47F63",
"R!+	c #B4897C",
"S!+	c #AB9A96",
"T!+	c #A9A7A1",
"U!+	c #9D9B96",
"V!+	c #9D9793",
"W!+	c #999692",
"X!+	c #989692",
"Y!+	c #9D9695",
"Z!+	c #9F998F",
"`!+	c #A08D86",
" ~+	c #9B887F",
".~+	c #96867A",
"+~+	c #9C8B7C",
"@~+	c #9B897C",
"#~+	c #A08B77",
"$~+	c #A48A74",
"%~+	c #A0856B",
"&~+	c #9F8171",
"*~+	c #977865",
"=~+	c #A6998D",
"-~+	c #A79E92",
";~+	c #A39A95",
">~+	c #A09593",
",~+	c #A59B99",
"'~+	c #A6A6A7",
")~+	c #A9A1A2",
"!~+	c #AA9D9B",
"~~+	c #AD9B96",
"{~+	c #AEA19E",
"]~+	c #AEA39F",
"^~+	c #ADA7A6",
"/~+	c #B0A59E",
"(~+	c #B1A69C",
"_~+	c #A7A69F",
":~+	c #AB9D9C",
"<~+	c #B1A29B",
"[~+	c #AAABA9",
"}~+	c #ACA2A2",
"|~+	c #A69B94",
"1~+	c #A5A59F",
"2~+	c #A8A9A2",
"3~+	c #ABA19E",
"4~+	c #A69C94",
"5~+	c #A59691",
"6~+	c #A59991",
"7~+	c #A0A1A0",
"8~+	c #A79F95",
"9~+	c #A59E94",
"0~+	c #A19E9A",
"a~+	c #A39996",
"b~+	c #ACA79F",
"c~+	c #ABA1A3",
"d~+	c #A7A0A2",
"e~+	c #A8A0A2",
"f~+	c #A9A69F",
"g~+	c #9F9C97",
"h~+	c #9D9A95",
"i~+	c #9E9995",
"j~+	c #9F9B98",
"k~+	c #A2A49E",
"l~+	c #ACA8A1",
"m~+	c #AAA8A1",
"n~+	c #ABA8A0",
"o~+	c #B28D79",
"p~+	c #AF8771",
"q~+	c #B1866B",
"r~+	c #B58A6F",
"s~+	c #AD856B",
"t~+	c #B28B74",
"u~+	c #AE8971",
"v~+	c #AC8971",
"w~+	c #AE8B76",
"x~+	c #AE8F7F",
"y~+	c #B0988F",
"z~+	c #AC9C97",
"A~+	c #9A724F",
"B~+	c #996E4B",
"C~+	c #9B704D",
"D~+	c #9C7453",
"E~+	c #9D7554",
"F~+	c #9D7757",
"G~+	c #A17C5B",
"H~+	c #9B7656",
"I~+	c #9C7757",
"J~+	c #A07B5A",
"K~+	c #A07D60",
"L~+	c #A27E64",
"M~+	c #A07D62",
"N~+	c #A48167",
"O~+	c #A58168",
"P~+	c #A17E65",
"Q~+	c #9B7C61",
"R~+	c #9C7B60",
"S~+	c #A28066",
"T~+	c #9F7D63",
"U~+	c #A88972",
"V~+	c #B1A39E",
"W~+	c #B0948B",
"X~+	c #B09689",
"Y~+	c #AA8C7B",
"Z~+	c #B49179",
"`~+	c #B08F76",
" {+	c #A6856D",
".{+	c #A48471",
"+{+	c #A88D7E",
"@{+	c #A17E71",
"#{+	c #9F755F",
"${+	c #A47E6E",
"%{+	c #A6806B",
"&{+	c #A27D6D",
"*{+	c #9F7C6D",
"={+	c #A88877",
"-{+	c #9F7568",
";{+	c #A47061",
">{+	c #A87B6A",
",{+	c #BCA397",
"'{+	c #B6A094",
"){+	c #A88A7C",
"!{+	c #A18B7A",
"~{+	c #AB9E92",
"{{+	c #9C8A7D",
"]{+	c #907A6C",
"^{+	c #887365",
"/{+	c #8A7869",
"({+	c #998677",
"_{+	c #998274",
":{+	c #977E6F",
"<{+	c #9A806F",
"[{+	c #99806C",
"}{+	c #9B7E6A",
"|{+	c #987D68",
"1{+	c #937864",
"2{+	c #988271",
"3{+	c #978170",
"4{+	c #8E745D",
"5{+	c #846A52",
"6{+	c #896E58",
"7{+	c #A28C81",
"8{+	c #917262",
"9{+	c #956D54",
"0{+	c #8E6654",
"a{+	c #916B58",
"b{+	c #8D6652",
"c{+	c #8C6550",
"d{+	c #866048",
"e{+	c #88614B",
"f{+	c #8E6854",
"g{+	c #896350",
"h{+	c #88624F",
"i{+	c #85634F",
"j{+	c #8A6A54",
"k{+	c #9A7C68",
"l{+	c #997C67",
"m{+	c #967B66",
"n{+	c #977C66",
"o{+	c #96765B",
"p{+	c #917155",
"q{+	c #8D6B4F",
"r{+	c #A2A4A0",
"s{+	c #A7A094",
"t{+	c #AE9780",
"u{+	c #AF957C",
"v{+	c #A88E75",
"w{+	c #A99176",
"x{+	c #A58F78",
"y{+	c #A5937F",
"z{+	c #B29C88",
"A{+	c #B59D84",
"B{+	c #B39A7C",
"C{+	c #B7997D",
"D{+	c #AB947F",
"E{+	c #AC957F",
"F{+	c #AD957E",
"G{+	c #AA937B",
"H{+	c #AC9483",
"I{+	c #9C9590",
"J{+	c #A58574",
"K{+	c #A58D79",
"L{+	c #A78D7A",
"M{+	c #B19A8A",
"N{+	c #AE9787",
"O{+	c #B1998B",
"P{+	c #A99A8E",
"Q{+	c #A99994",
"R{+	c #A9A0A2",
"S{+	c #AA918E",
"T{+	c #AE938C",
"U{+	c #AB9D92",
"V{+	c #A8A49A",
"W{+	c #A89188",
"X{+	c #AE958C",
"Y{+	c #B0978E",
"Z{+	c #AC9689",
"`{+	c #AF9B91",
" ]+	c #AF9C92",
".]+	c #AA988E",
"+]+	c #A28C7F",
"@]+	c #A68E83",
"#]+	c #9E9FA1",
"$]+	c #9D9E94",
"%]+	c #9B8B85",
"&]+	c #A9968D",
"*]+	c #A89087",
"=]+	c #AD958A",
"-]+	c #AF988C",
";]+	c #AE988C",
">]+	c #A48F81",
",]+	c #B8794C",
"']+	c #B47648",
")]+	c #B7794C",
"!]+	c #BB7D50",
"~]+	c #B77949",
"{]+	c #B47843",
"]]+	c #B2764A",
"^]+	c #AF764F",
"/]+	c #B37C54",
"(]+	c #B17B54",
"_]+	c #9C6335",
":]+	c #9B6130",
"<]+	c #986030",
"[]+	c #995F30",
"}]+	c #985D2F",
"|]+	c #94592A",
"1]+	c #935927",
"2]+	c #985F2B",
"3]+	c #A26835",
"4]+	c #A2693A",
"5]+	c #9F6739",
"6]+	c #9E693B",
"7]+	c #986235",
"8]+	c #9C6739",
"9]+	c #9B6939",
"0]+	c #9E6C3C",
"a]+	c #A16D3D",
"b]+	c #A26D3F",
"c]+	c #A36D3F",
"d]+	c #A76F45",
"e]+	c #AAA8A0",
"f]+	c #AF9D8F",
"g]+	c #B68A74",
"h]+	c #BB957C",
"i]+	c #B38A6D",
"j]+	c #B38B6D",
"k]+	c #AB8567",
"l]+	c #A78060",
"m]+	c #A16C4A",
"n]+	c #A46C49",
"o]+	c #9E7354",
"p]+	c #A87B5C",
"q]+	c #A0624B",
"r]+	c #A56243",
"s]+	c #AA7351",
"t]+	c #B28F75",
"u]+	c #B18D79",
"v]+	c #B5927F",
"w]+	c #BFA391",
"x]+	c #C7AE9C",
"y]+	c #C1A997",
"z]+	c #AE9D90",
"A]+	c #C6B2A3",
"B]+	c #C4B7AD",
"C]+	c #BBADA4",
"D]+	c #907B6B",
"E]+	c #886950",
"F]+	c #82644A",
"G]+	c #82654C",
"H]+	c #81634A",
"I]+	c #A4896F",
"J]+	c #AE9178",
"K]+	c #926A4F",
"L]+	c #895D38",
"M]+	c #8A5E38",
"N]+	c #8A5C36",
"O]+	c #8A5B36",
"P]+	c #8A5B35",
"Q]+	c #845837",
"R]+	c #8C6248",
"S]+	c #8C6448",
"T]+	c #A58164",
"U]+	c #A28464",
"V]+	c #917456",
"W]+	c #866649",
"X]+	c #8A654E",
"Y]+	c #A19E95",
"Z]+	c #9F8073",
"`]+	c #96623E",
" ^+	c #8C572F",
".^+	c #9F6638",
"+^+	c #9B6036",
"@^+	c #965F35",
"#^+	c #945D33",
"$^+	c #935C31",
"%^+	c #90592B",
"&^+	c #915A2E",
"*^+	c #915A35",
"=^+	c #8D5632",
"-^+	c #8F5833",
";^+	c #8E5A34",
">^+	c #96613A",
",^+	c #97623A",
"'^+	c #955F38",
")^+	c #95613A",
"!^+	c #93623C",
"~^+	c #936441",
"{^+	c #926644",
"]^+	c #9E704D",
"^^+	c #A2744D",
"/^+	c #A87E5D",
"(^+	c #A4A29E",
"_^+	c #B59372",
":^+	c #AD8D6B",
"<^+	c #BC9F81",
"[^+	c #C1AC93",
"}^+	c #C4A98E",
"|^+	c #B49372",
"1^+	c #C0A184",
"2^+	c #B18E69",
"3^+	c #B99162",
"4^+	c #BF9970",
"5^+	c #BA8F66",
"6^+	c #B3855A",
"7^+	c #B6875E",
"8^+	c #B5885F",
"9^+	c #B0865D",
"0^+	c #AE8663",
"a^+	c #B48E6D",
"b^+	c #B39274",
"c^+	c #9E968D",
"d^+	c #A8988C",
"e^+	c #B3856A",
"f^+	c #B58159",
"g^+	c #B0815D",
"h^+	c #B68567",
"i^+	c #AD7D60",
"j^+	c #AB7F64",
"k^+	c #AA7D62",
"l^+	c #AE7B59",
"m^+	c #B3815D",
"n^+	c #B37D58",
"o^+	c #B88259",
"p^+	c #B58257",
"q^+	c #B27A50",
"r^+	c #B17B50",
"s^+	c #AB7448",
"t^+	c #AB7345",
"u^+	c #AD7445",
"v^+	c #AA7548",
"w^+	c #B38366",
"x^+	c #AF9B89",
"y^+	c #B09183",
"z^+	c #AC6E52",
"A^+	c #AD7157",
"B^+	c #A0765D",
"C^+	c #A88167",
"D^+	c #A5735A",
"E^+	c #AB6F54",
"F^+	c #AF7459",
"G^+	c #B2795D",
"H^+	c #AD7654",
"I^+	c #A46D4A",
"J^+	c #AE7752",
"K^+	c #AA734F",
"L^+	c #A7704B",
"M^+	c #A66F4A",
"N^+	c #A76F4A",
"O^+	c #A76741",
"P^+	c #A3613A",
"Q^+	c #A86943",
"R^+	c #A86844",
"S^+	c #A96844",
"T^+	c #AC6946",
"U^+	c #AD6B49",
"V^+	c #AA8066",
"W^+	c #A37967",
"X^+	c #A56C4C",
"Y^+	c #9E6749",
"Z^+	c #A17554",
"`^+	c #9C7756",
" /+	c #AC8B75",
"./+	c #AC8977",
"+/+	c #A6816E",
"@/+	c #A7795E",
"#/+	c #A77557",
"$/+	c #A87254",
"%/+	c #BC7846",
"&/+	c #BA7A47",
"*/+	c #B7804D",
"=/+	c #BA8350",
"-/+	c #B87F4D",
";/+	c #B97D49",
">/+	c #B77B4A",
",/+	c #B1784B",
"'/+	c #B2794C",
")/+	c #B37B4E",
"!/+	c #B57D51",
"~/+	c #B37A4E",
"{/+	c #AD764B",
"]/+	c #977B68",
"^/+	c #915B36",
"//+	c #935C32",
"(/+	c #986132",
"_/+	c #965E2F",
":/+	c #9A5F31",
"</+	c #965C2D",
"[/+	c #955A2C",
"}/+	c #995F2C",
"|/+	c #9F6532",
"1/+	c #A26836",
"2/+	c #A26A3C",
"3/+	c #A0673A",
"4/+	c #9F663A",
"5/+	c #9A6238",
"6/+	c #9C653A",
"7/+	c #9D653A",
"8/+	c #995F33",
"9/+	c #965C30",
"0/+	c #995F32",
"a/+	c #9E6835",
"b/+	c #A26C38",
"c/+	c #A6703C",
"d/+	c #A96E3E",
"e/+	c #A76B3B",
"f/+	c #A76B3C",
"g/+	c #A86C3A",
"h/+	c #AB7044",
"i/+	c #B0846D",
"j/+	c #B78C70",
"k/+	c #B68C6D",
"l/+	c #B78C71",
"m/+	c #B7886D",
"n/+	c #AF795B",
"o/+	c #A87155",
"p/+	c #A26949",
"q/+	c #9F613E",
"r/+	c #A46544",
"s/+	c #A9704E",
"t/+	c #9B6043",
"u/+	c #A77753",
"v/+	c #A47356",
"w/+	c #A26D57",
"x/+	c #A36F55",
"y/+	c #A47254",
"z/+	c #AB785C",
"A/+	c #B18569",
"B/+	c #BF9D8D",
"C/+	c #A29E9C",
"D/+	c #C2B8AB",
"E/+	c #C4BAB0",
"F/+	c #BEB3A5",
"G/+	c #AE9B87",
"H/+	c #AA9883",
"I/+	c #B09E8C",
"J/+	c #987F6B",
"K/+	c #AB917C",
"L/+	c #BBA286",
"M/+	c #8E5F3D",
"N/+	c #865130",
"O/+	c #8C5333",
"P/+	c #8A5634",
"Q/+	c #895633",
"R/+	c #86522E",
"S/+	c #86532F",
"T/+	c #865A37",
"U/+	c #9C7C5C",
"V/+	c #A68462",
"W/+	c #B89673",
"X/+	c #B49876",
"Y/+	c #B49C7F",
"Z/+	c #988167",
"`/+	c #8E694B",
" (+	c #9A7B65",
".(+	c #A08F82",
"+(+	c #9E7A5F",
"@(+	c #A6734C",
"#(+	c #9C6A3F",
"$(+	c #A46C3A",
"%(+	c #A46A38",
"&(+	c #9D6334",
"*(+	c #92592F",
"=(+	c #935B31",
"-(+	c #975E34",
";(+	c #955B31",
">(+	c #945930",
",(+	c #955C32",
"'(+	c #915E36",
")(+	c #9B6540",
"!(+	c #9F6941",
"~(+	c #A16B43",
"{(+	c #A06942",
"](+	c #A3764E",
"^(+	c #B49777",
"/(+	c #B59672",
"((+	c #BAA68C",
"_(+	c #C7BCA9",
":(+	c #C1AC9A",
"<(+	c #CAB3A1",
"[(+	c #C7AA90",
"}(+	c #C9B399",
"|(+	c #B9926A",
"1(+	c #B97C49",
"2(+	c #B88251",
"3(+	c #B78450",
"4(+	c #B5824C",
"5(+	c #B88650",
"6(+	c #B3804B",
"7(+	c #B37E4C",
"8(+	c #B37C4B",
"9(+	c #B18B6D",
"0(+	c #C09E83",
"a(+	c #C2A58F",
"b(+	c #B59F85",
"c(+	c #9F968F",
"d(+	c #B58D77",
"e(+	c #BD855E",
"f(+	c #BA865C",
"g(+	c #B57F56",
"h(+	c #BA845E",
"i(+	c #B58360",
"j(+	c #B28461",
"k(+	c #B5845F",
"l(+	c #BD9170",
"m(+	c #B78763",
"n(+	c #B67F52",
"o(+	c #B07E50",
"p(+	c #B9916A",
"q(+	c #B98862",
"r(+	c #B27D53",
"s(+	c #AC7951",
"t(+	c #AD754A",
"u(+	c #B37C4D",
"v(+	c #B87E4A",
"w(+	c #B77A46",
"x(+	c #BA8354",
"y(+	c #BD855A",
"z(+	c #B98257",
"A(+	c #BA8155",
"B(+	c #BA7D50",
"C(+	c #BA815D",
"D(+	c #AF9A8D",
"E(+	c #B28160",
"F(+	c #B87F56",
"G(+	c #BC8461",
"H(+	c #B6815F",
"I(+	c #B17A58",
"J(+	c #AD7254",
"K(+	c #B07654",
"L(+	c #B58161",
"M(+	c #B88564",
"N(+	c #B27F5E",
"O(+	c #B27D59",
"P(+	c #B3774D",
"Q(+	c #B06D41",
"R(+	c #AB683F",
"S(+	c #B3825E",
"T(+	c #AC734B",
"U(+	c #A76E46",
"V(+	c #A46A41",
"W(+	c #B47043",
"X(+	c #B16A3C",
"Y(+	c #B27143",
"Z(+	c #B4764D",
"`(+	c #B67952",
" _+	c #B4744A",
"._+	c #B37248",
"+_+	c #B37149",
"@_+	c #B07E64",
"#_+	c #AE8265",
"$_+	c #B17244",
"%_+	c #B16C3D",
"&_+	c #AA6B40",
"*_+	c #AB724D",
"=_+	c #BFB8A5",
"-_+	c #BDAD9E",
";_+	c #AD8F81",
">_+	c #A37F65",
",_+	c #B49C89",
"'_+	c #C1A69B",
")_+	c #C17A44",
"!_+	c #C17D46",
"~_+	c #BF8550",
"{_+	c #C28753",
"]_+	c #C1864F",
"^_+	c #BD7F4A",
"/_+	c #BB7E4A",
"(_+	c #BD814E",
"__+	c #BC8454",
":_+	c #BA8153",
"<_+	c #AC8E78",
"[_+	c #9A7B6C",
"}_+	c #905939",
"|_+	c #976036",
"1_+	c #965E2E",
"2_+	c #9C6133",
"3_+	c #9D6335",
"4_+	c #9F6537",
"5_+	c #9E6432",
"6_+	c #9F6533",
"7_+	c #A36539",
"8_+	c #9F6036",
"9_+	c #9B5C32",
"0_+	c #975A31",
"a_+	c #9A5E35",
"b_+	c #965B30",
"c_+	c #90552A",
"d_+	c #92582B",
"e_+	c #985E2C",
"f_+	c #A46937",
"g_+	c #A56839",
"h_+	c #A56735",
"i_+	c #A86D40",
"j_+	c #B19D91",
"k_+	c #B2876B",
"l_+	c #BA8F70",
"m_+	c #B58F6E",
"n_+	c #AD7E5E",
"o_+	c #AF7955",
"p_+	c #B17550",
"q_+	c #A46843",
"r_+	c #9B623F",
"s_+	c #C3A38A",
"t_+	c #B4896F",
"u_+	c #B89076",
"v_+	c #CAAB9B",
"w_+	c #BD9F8F",
"x_+	c #A9896E",
"y_+	c #A37455",
"z_+	c #A67050",
"A_+	c #A46C4C",
"B_+	c #A77254",
"C_+	c #A57357",
"D_+	c #A77559",
"E_+	c #AA7657",
"F_+	c #AC7653",
"G_+	c #B3876F",
"H_+	c #B09187",
"I_+	c #C4B2A8",
"J_+	c #B7A08F",
"K_+	c #A19289",
"L_+	c #AF9581",
"M_+	c #BDAF9E",
"N_+	c #C5B7A5",
"O_+	c #C4B5A8",
"P_+	c #C4BDB7",
"Q_+	c #C2BEB7",
"R_+	c #BEB2A1",
"S_+	c #BDB09F",
"T_+	c #C4B8AA",
"U_+	c #C3B1A0",
"V_+	c #BEAC9C",
"W_+	c #BFAE9C",
"X_+	c #B3947C",
"Y_+	c #8E5836",
"Z_+	c #8B4F2E",
"`_+	c #925634",
" :+	c #925A37",
".:+	c #925D37",
"+:+	c #925C34",
"@:+	c #956745",
"#:+	c #BA977C",
"$:+	c #C09E82",
"%:+	c #BD9D7D",
"&:+	c #BB9F7C",
"*:+	c #BBA386",
"=:+	c #B69F87",
"-:+	c #AB8D75",
";:+	c #977356",
">:+	c #9D9289",
",:+	c #A18E81",
"':+	c #905F3A",
"):+	c #9D6A43",
"!:+	c #A27042",
"~:+	c #9F6C38",
"{:+	c #A46B34",
"]:+	c #9B632F",
"^:+	c #915C33",
"/:+	c #98633B",
"(:+	c #97603B",
"_:+	c #955E38",
"::+	c #94623A",
"<:+	c #96633B",
"[:+	c #97653D",
"}:+	c #96633E",
"|:+	c #95623D",
"1:+	c #9B6742",
"2:+	c #9D6A45",
"3:+	c #A06C48",
"4:+	c #9F724B",
"5:+	c #9B704C",
"6:+	c #A4774F",
"7:+	c #B89B7D",
"8:+	c #C9BCA7",
"9:+	c #C7BDAC",
"0:+	c #CAB9A7",
"a:+	c #CCB9A6",
"b:+	c #D2BFAE",
"c:+	c #D1C5C1",
"d:+	c #D0C4BB",
"e:+	c #BD9E80",
"f:+	c #BB986D",
"g:+	c #B9844E",
"h:+	c #BD7B46",
"i:+	c #BC7942",
"j:+	c #BE7C45",
"k:+	c #BE834B",
"l:+	c #BD874B",
"m:+	c #BE8948",
"n:+	c #BD8948",
"o:+	c #BB8746",
"p:+	c #BA8745",
"q:+	c #BA8143",
"r:+	c #BC8E61",
"s:+	c #D0B49B",
"t:+	c #BE9E86",
"u:+	c #CDC1B8",
"v:+	c #BDAB95",
"w:+	c #A1968C",
"x:+	c #BC8864",
"y:+	c #B37D53",
"z:+	c #B9835B",
"A:+	c #B7855F",
"B:+	c #B88E6A",
"C:+	c #BC8E6A",
"D:+	c #B88D6B",
"E:+	c #B38563",
"F:+	c #B4855C",
"G:+	c #B38F6B",
"H:+	c #B98B67",
"I:+	c #AD7B53",
"J:+	c #AB744A",
"K:+	c #B67B49",
"L:+	c #B5763E",
"M:+	c #B98250",
"N:+	c #B67F57",
"O:+	c #B87E55",
"P:+	c #B67A4F",
"Q:+	c #B37E5F",
"R:+	c #B27E5B",
"S:+	c #B4825D",
"T:+	c #B57E5B",
"U:+	c #B8825E",
"V:+	c #B27D5C",
"W:+	c #B78466",
"X:+	c #BB8464",
"Y:+	c #B6815E",
"Z:+	c #AB7653",
"`:+	c #AC7047",
" <+	c #B07B53",
".<+	c #A66942",
"+<+	c #A86A40",
"@<+	c #AE6B3E",
"#<+	c #AF693C",
"$<+	c #B5774D",
"%<+	c #B4764C",
"&<+	c #B17248",
"*<+	c #AF6F45",
"=<+	c #AC6E47",
"-<+	c #AD8575",
";<+	c #A49D9E",
"><+	c #B58A6C",
",<+	c #AC6D3F",
"'<+	c #AC6737",
")<+	c #A5673B",
"!<+	c #B99784",
"~<+	c #C1B5AD",
"{<+	c #BFB8AF",
"]<+	c #C0BDB3",
"^<+	c #C2B3AA",
"/<+	c #BEAAA0",
"(<+	c #C4B8AF",
"_<+	c #C9C5BE",
":<+	c #C17841",
"<<+	c #C27C45",
"[<+	c #C3854D",
"}<+	c #C5894F",
"|<+	c #C68C50",
"1<+	c #C3894D",
"2<+	c #C3884C",
"3<+	c #C18348",
"4<+	c #BF8045",
"5<+	c #B8804C",
"6<+	c #B87F53",
"7<+	c #B2917C",
"8<+	c #9C796A",
"9<+	c #8F5934",
"0<+	c #9A6335",
"a<+	c #975F31",
"b<+	c #9C6134",
"c<+	c #9F6437",
"d<+	c #A36938",
"e<+	c #A16635",
"f<+	c #A16035",
"g<+	c #9C5A31",
"h<+	c #97562C",
"i<+	c #96562E",
"j<+	c #985931",
"k<+	c #9C5C34",
"l<+	c #995D32",
"m<+	c #94592C",
"n<+	c #9C5D2D",
"o<+	c #9D5F2E",
"p<+	c #A16332",
"q<+	c #A16434",
"r<+	c #A26535",
"s<+	c #9E6231",
"t<+	c #A3693C",
"u<+	c #A8907F",
"v<+	c #B68A6F",
"w<+	c #B88E70",
"x<+	c #B38D6C",
"y<+	c #AF8663",
"z<+	c #AB754E",
"A<+	c #A67350",
"B<+	c #A3795B",
"C<+	c #CBB2A6",
"D<+	c #AF8B74",
"E<+	c #C7B6A9",
"F<+	c #C1AA95",
"G<+	c #AD755E",
"H<+	c #AE7F65",
"I<+	c #B78B73",
"J<+	c #B38D75",
"K<+	c #B38D77",
"L<+	c #C4A699",
"M<+	c #CFB7B2",
"N<+	c #BEAB9C",
"O<+	c #AD947F",
"P<+	c #B0967B",
"Q<+	c #A4866D",
"R<+	c #C2B3A6",
"S<+	c #C5BAAD",
"T<+	c #A99883",
"U<+	c #9F8F7A",
"V<+	c #C9BDB2",
"W<+	c #BFAC9D",
"X<+	c #9C7760",
"Y<+	c #905533",
"Z<+	c #8D4F2C",
"`<+	c #945730",
" [+	c #955C33",
".[+	c #986036",
"+[+	c #996138",
"@[+	c #B5956F",
"#[+	c #BB9B76",
"$[+	c #BAA07D",
"%[+	c #B9A184",
"&[+	c #BCA38F",
"*[+	c #9F7756",
"=[+	c #956743",
"-[+	c #8E5A38",
";[+	c #A27141",
">[+	c #A4733E",
",[+	c #A76E3F",
"'[+	c #A46A3C",
")[+	c #9A6339",
"![+	c #8D5D38",
"~[+	c #8D5D3A",
"{[+	c #90603D",
"][+	c #925F3C",
"^[+	c #925E3B",
"/[+	c #94603B",
"([+	c #99663E",
"_[+	c #976944",
":[+	c #966943",
"<[+	c #986A47",
"[[+	c #9A6C49",
"}[+	c #9F704B",
"|[+	c #A47748",
"1[+	c #9E724D",
"2[+	c #BBA17F",
"3[+	c #CBC1AD",
"4[+	c #C8C0B3",
"5[+	c #C8BCAD",
"6[+	c #CBB9A9",
"7[+	c #C6B4A0",
"8[+	c #CCBEB6",
"9[+	c #D1C5BB",
"0[+	c #C09671",
"a[+	c #B98446",
"b[+	c #C08143",
"c[+	c #BB7841",
"d[+	c #BB773E",
"e[+	c #BF7C42",
"f[+	c #C18346",
"g[+	c #C28848",
"h[+	c #C18C46",
"i[+	c #C18B49",
"j[+	c #BE894A",
"k[+	c #BD894C",
"l[+	c #BE8A53",
"m[+	c #C5996A",
"n[+	c #B6946B",
"o[+	c #BD946E",
"p[+	c #C9B09B",
"q[+	c #D2C7BC",
"r[+	c #BFAB93",
"s[+	c #9E9792",
"t[+	c #AF9589",
"u[+	c #B58F78",
"v[+	c #B0805C",
"w[+	c #B58562",
"x[+	c #B6855E",
"y[+	c #B78762",
"z[+	c #B28564",
"A[+	c #B18461",
"B[+	c #B4835C",
"C[+	c #AD7D52",
"D[+	c #B08660",
"E[+	c #AB7750",
"F[+	c #AE7444",
"G[+	c #B1733C",
"H[+	c #AA7649",
"I[+	c #AE764A",
"J[+	c #B17A4D",
"K[+	c #AD7347",
"L[+	c #B48B6F",
"M[+	c #B48365",
"N[+	c #AE7F63",
"O[+	c #B07F60",
"P[+	c #AE7A59",
"Q[+	c #B27B59",
"R[+	c #B37E5D",
"S[+	c #AC7757",
"T[+	c #AB7754",
"U[+	c #A8724E",
"V[+	c #A56A41",
"W[+	c #A77954",
"X[+	c #AA7149",
"Y[+	c #A56C44",
"Z[+	c #A86840",
"`[+	c #AA663B",
" }+	c #A66236",
".}+	c #A56940",
"+}+	c #A7683D",
"@}+	c #AA6A3D",
"#}+	c #A5653B",
"$}+	c #A86C47",
"%}+	c #A78A81",
"&}+	c #A09F9F",
"*}+	c #AF7246",
"=}+	c #AB683A",
"-}+	c #A4683C",
";}+	c #9F6D4B",
">}+	c #BFAEA2",
",}+	c #BAB0A4",
"'}+	c #C6C1BE",
")}+	c #CCC1B5",
"!}+	c #CAB7AB",
"~}+	c #C07F4C",
"{}+	c #C4834E",
"]}+	c #C7864F",
"^}+	c #C4884B",
"/}+	c #C18A49",
"(}+	c #C1884B",
"_}+	c #C08448",
":}+	c #BE8343",
"<}+	c #C0854C",
"[}+	c #BF8851",
"}}+	c #BC854E",
"|}+	c #B77E49",
"1}+	c #BA7F56",
"2}+	c #AE8F7E",
"3}+	c #9B7766",
"4}+	c #8A5736",
"5}+	c #8A562F",
"6}+	c #925E35",
"7}+	c #98603A",
"8}+	c #975E39",
"9}+	c #945C35",
"0}+	c #995D35",
"a}+	c #9E6139",
"b}+	c #A16439",
"c}+	c #A1653A",
"d}+	c #A06338",
"e}+	c #9E5F36",
"f}+	c #98592F",
"g}+	c #96572E",
"h}+	c #985932",
"i}+	c #9C5C35",
"j}+	c #9A5B33",
"k}+	c #9A5E32",
"l}+	c #995D30",
"m}+	c #9B5B2C",
"n}+	c #9E5E2E",
"o}+	c #A56535",
"p}+	c #9A6032",
"q}+	c #A1653B",
"r}+	c #B9967F",
"s}+	c #BA927A",
"t}+	c #B2886E",
"u}+	c #BB9075",
"v}+	c #B88B6B",
"w}+	c #BA8864",
"x}+	c #AC754E",
"y}+	c #AE7553",
"z}+	c #A96E52",
"A}+	c #A6755C",
"B}+	c #AF897C",
"C}+	c #B0867A",
"D}+	c #A97663",
"E}+	c #BA927B",
"F}+	c #C7B9AB",
"G}+	c #CBC8BB",
"H}+	c #BFA99B",
"I}+	c #AE826D",
"J}+	c #BE9E93",
"K}+	c #C7AEA1",
"L}+	c #BDA594",
"M}+	c #C4B1A6",
"N}+	c #C6B6AF",
"O}+	c #C9BFB8",
"P}+	c #C9C3BA",
"Q}+	c #C9C6BC",
"R}+	c #C7BBAC",
"S}+	c #A19E9E",
"T}+	c #A79584",
"U}+	c #AD9172",
"V}+	c #9B6F45",
"W}+	c #B1977D",
"X}+	c #C6B9A8",
"Y}+	c #C3B29D",
"Z}+	c #BDAC98",
"`}+	c #C3B7AC",
" |+	c #C8BBB6",
".|+	c #C8B7AE",
"+|+	c #B79D8C",
"@|+	c #8D603F",
"#|+	c #8B532C",
"$|+	c #8E562E",
"%|+	c #985C32",
"&|+	c #965C31",
"*|+	c #935E31",
"=|+	c #92623B",
"-|+	c #AB8B6B",
";|+	c #B9A287",
">|+	c #B9A489",
",|+	c #C4AF97",
"'|+	c #B59A81",
")|+	c #946F49",
"!|+	c #9A7151",
"~|+	c #8F5D38",
"{|+	c #9B653F",
"]|+	c #A87145",
"^|+	c #99663A",
"/|+	c #8B5C3A",
"(|+	c #8A603D",
"_|+	c #7F5738",
":|+	c #80583A",
"<|+	c #915F3C",
"[|+	c #94613A",
"}|+	c #9B6440",
"||+	c #99694B",
"1|+	c #92684A",
"2|+	c #8F694A",
"3|+	c #8C6948",
"4|+	c #946C4D",
"5|+	c #936B4B",
"6|+	c #987050",
"7|+	c #A87B50",
"8|+	c #AF814D",
"9|+	c #A37850",
"0|+	c #A47D62",
"a|+	c #A59B8D",
"b|+	c #B99A75",
"c|+	c #C8BAA7",
"d|+	c #CAC4BB",
"e|+	c #C8BCB0",
"f|+	c #CDBBAF",
"g|+	c #C3B0A1",
"h|+	c #BDAB97",
"i|+	c #CBC0AF",
"j|+	c #CEC4B6",
"k|+	c #BB8249",
"l|+	c #BF854A",
"m|+	c #C5874C",
"n|+	c #C08647",
"o|+	c #BE8944",
"p|+	c #BC8B4C",
"q|+	c #C6986B",
"r|+	c #BA9164",
"s|+	c #D2C2B2",
"t|+	c #D0C4B7",
"u|+	c #C8A987",
"v|+	c #BB9C74",
"w|+	c #CDB99B",
"x|+	c #C4AE8F",
"y|+	c #AC9F97",
"z|+	c #9F9C96",
"A|+	c #B49883",
"B|+	c #B99D87",
"C|+	c #B58969",
"D|+	c #B0805E",
"E|+	c #B2805E",
"F|+	c #AD7E5C",
"G|+	c #AB7C56",
"H|+	c #B17C53",
"I|+	c #A67149",
"J|+	c #AE754C",
"K|+	c #A5693F",
"L|+	c #A86C3E",
"M|+	c #AB6B39",
"N|+	c #AD7243",
"O|+	c #B17546",
"P|+	c #B47442",
"Q|+	c #AF703E",
"R|+	c #AF937E",
"S|+	c #B0907F",
"T|+	c #B2907C",
"U|+	c #B28F7A",
"V|+	c #AF7C5E",
"W|+	c #AB7555",
"X|+	c #A87452",
"Y|+	c #A56C4E",
"Z|+	c #A67254",
"`|+	c #A26F4C",
" 1+	c #A46C44",
".1+	c #A36840",
"+1+	c #A5663E",
"@1+	c #A0613D",
"#1+	c #9B5A37",
"$1+	c #A6613B",
"%1+	c #A9633D",
"&1+	c #9D5931",
"*1+	c #A26336",
"=1+	c #A8683B",
"-1+	c #A9673A",
";1+	c #AE6739",
">1+	c #A36239",
",1+	c #B38F6E",
"'1+	c #B58F74",
")1+	c #AE856B",
"!1+	c #C0A28E",
"~1+	c #B39173",
"{1+	c #C5AD98",
"]1+	c #C3ADA4",
"^1+	c #C7BBB5",
"/1+	c #CDC7BD",
"(1+	c #C38752",
"_1+	c #C68C53",
":1+	c #BD8546",
"<1+	c #B98042",
"[1+	c #BC8346",
"}1+	c #BD8547",
"|1+	c #BC8343",
"11+	c #BD8449",
"21+	c #BE864C",
"31+	c #BA8247",
"41+	c #9A7969",
"51+	c #85543B",
"61+	c #815132",
"71+	c #865633",
"81+	c #8B5735",
"91+	c #875331",
"01+	c #8A522D",
"a1+	c #8E5531",
"b1+	c #915932",
"c1+	c #925A32",
"d1+	c #955C35",
"e1+	c #955A34",
"f1+	c #915731",
"g1+	c #915631",
"h1+	c #945935",
"i1+	c #945934",
"j1+	c #925930",
"k1+	c #955D33",
"l1+	c #975F35",
"m1+	c #9A5F32",
"n1+	c #9B6236",
"o1+	c #986034",
"p1+	c #935A2E",
"q1+	c #B28D76",
"r1+	c #BB9B7D",
"s1+	c #B9876B",
"t1+	c #B07C58",
"u1+	c #A6714F",
"v1+	c #A77A69",
"w1+	c #A17364",
"x1+	c #98644F",
"y1+	c #A1674D",
"z1+	c #AC866E",
"A1+	c #C1A998",
"B1+	c #AD9281",
"C1+	c #A27F6C",
"D1+	c #B38B79",
"E1+	c #B2958B",
"F1+	c #C6BAB0",
"G1+	c #C5BAAB",
"H1+	c #C1B09D",
"I1+	c #BEB0A3",
"J1+	c #C8B3A4",
"K1+	c #C2AAA1",
"L1+	c #D0C5BF",
"M1+	c #C0B4A7",
"N1+	c #A7907B",
"O1+	c #9E7A55",
"P1+	c #9C7752",
"Q1+	c #967757",
"R1+	c #AA9277",
"S1+	c #BDAB94",
"T1+	c #C7B8A4",
"U1+	c #C4B3A4",
"V1+	c #B19A86",
"W1+	c #B5957C",
"X1+	c #9F7250",
"Y1+	c #9B633C",
"Z1+	c #98623B",
"`1+	c #905D34",
" 2+	c #89562D",
".2+	c #A28365",
"+2+	c #B59F86",
"@2+	c #BBA493",
"#2+	c #957A62",
"$2+	c #906B48",
"%2+	c #A39486",
"&2+	c #9A6841",
"*2+	c #936340",
"=2+	c #996639",
"-2+	c #875C39",
";2+	c #80593A",
">2+	c #7B5437",
",2+	c #865737",
"'2+	c #8B5C37",
")2+	c #8F6038",
"!2+	c #976C4E",
"~2+	c #8F694F",
"{2+	c #85664A",
"]2+	c #8A664A",
"^2+	c #957154",
"/2+	c #997353",
"(2+	c #B18559",
"_2+	c #A17958",
":2+	c #A39D91",
"<2+	c #B19374",
"[2+	c #BBA289",
"}2+	c #D0C5B8",
"|2+	c #D3C3BE",
"12+	c #C3B4A5",
"22+	c #B38D62",
"32+	c #B48449",
"42+	c #BA8A50",
"52+	c #BC8C52",
"62+	c #BC8A51",
"72+	c #BE8C53",
"82+	c #BF8D54",
"92+	c #C18F54",
"02+	c #C08F4D",
"a2+	c #BE8F4D",
"b2+	c #C1A178",
"c2+	c #CDB3A3",
"d2+	c #CBB9A6",
"e2+	c #D0C2B0",
"f2+	c #CBC1B7",
"g2+	c #C3AF9E",
"h2+	c #BD9B75",
"i2+	c #BC996D",
"j2+	c #C1A076",
"k2+	c #C3A682",
"l2+	c #A6A49D",
"m2+	c #AC9C8B",
"n2+	c #B59F89",
"o2+	c #B7A18B",
"p2+	c #AC7A5A",
"q2+	c #AF7F5F",
"r2+	c #A9795B",
"s2+	c #A9805B",
"t2+	c #AD8157",
"u2+	c #A56434",
"v2+	c #A8673C",
"w2+	c #AD6F42",
"x2+	c #A36438",
"y2+	c #A3673A",
"z2+	c #AC6D41",
"A2+	c #AA6C41",
"B2+	c #B27850",
"C2+	c #B37950",
"D2+	c #B47848",
"E2+	c #B77643",
"F2+	c #AD6E3B",
"G2+	c #B09480",
"H2+	c #B69380",
"I2+	c #B48A6F",
"J2+	c #A77151",
"K2+	c #A67151",
"L2+	c #A26F50",
"M2+	c #A06D4E",
"N2+	c #A27253",
"O2+	c #A47551",
"P2+	c #A45D36",
"Q2+	c #9C5630",
"R2+	c #A45C34",
"S2+	c #A35B35",
"T2+	c #9F5C39",
"U2+	c #955533",
"V2+	c #A15C36",
"W2+	c #A35F36",
"X2+	c #A3603B",
"Y2+	c #B0724D",
"Z2+	c #AB6A41",
"`2+	c #AE693D",
" 3+	c #AC6537",
".3+	c #9F5E35",
"+3+	c #A5907E",
"@3+	c #CAB19F",
"#3+	c #C6B5AA",
"$3+	c #C7AFA1",
"%3+	c #C0A89A",
"&3+	c #C9AE9D",
"*3+	c #AB794D",
"=3+	c #A1754E",
"-3+	c #BDA18F",
";3+	c #C1B6AB",
">3+	c #C6BFBA",
",3+	c #C28B54",
"'3+	c #C28E56",
")3+	c #C08E53",
"!3+	c #BF8A4D",
"~3+	c #BC8444",
"{3+	c #B97F41",
"]3+	c #BA8042",
"^3+	c #BD8447",
"/3+	c #BB8749",
"(3+	c #BB8549",
"_3+	c #BD8648",
":3+	c #BE8749",
"<3+	c #BB8545",
"[3+	c #BB8952",
"}3+	c #A99079",
"|3+	c #936754",
"13+	c #875B43",
"23+	c #83553A",
"33+	c #865537",
"43+	c #855435",
"53+	c #865030",
"63+	c #854F2E",
"73+	c #834D2B",
"83+	c #89532F",
"93+	c #8C5633",
"03+	c #8F5935",
"a3+	c #8C5431",
"b3+	c #89522F",
"c3+	c #8D5733",
"d3+	c #8B5432",
"e3+	c #895231",
"f3+	c #8E5735",
"g3+	c #905A35",
"h3+	c #915C36",
"i3+	c #8F5A33",
"j3+	c #90572E",
"k3+	c #8F562D",
"l3+	c #90572D",
"m3+	c #935A32",
"n3+	c #985F37",
"o3+	c #905730",
"p3+	c #92572C",
"q3+	c #9E643B",
"r3+	c #A58D7E",
"s3+	c #AE8A76",
"t3+	c #AE8A6B",
"u3+	c #A57351",
"v3+	c #9C6449",
"w3+	c #9B694D",
"x3+	c #9D6C53",
"y3+	c #A3725D",
"z3+	c #A66B4F",
"A3+	c #A97760",
"B3+	c #AB775C",
"C3+	c #A97A62",
"D3+	c #AC8470",
"E3+	c #AE8B79",
"F3+	c #AB8975",
"G3+	c #B69483",
"H3+	c #A2755F",
"I3+	c #9E6C58",
"J3+	c #B89581",
"K3+	c #B39682",
"L3+	c #A49180",
"M3+	c #B08761",
"N3+	c #B4987A",
"O3+	c #B2A089",
"P3+	c #B39D82",
"Q3+	c #C0A98E",
"R3+	c #B7A691",
"S3+	c #B6A590",
"T3+	c #B1A089",
"U3+	c #BAA489",
"V3+	c #AC8F72",
"W3+	c #947255",
"X3+	c #996E4E",
"Y3+	c #9C6944",
"Z3+	c #9D6F4C",
"`3+	c #9F7551",
" 4+	c #9F7550",
".4+	c #986C46",
"+4+	c #8A5D38",
"@4+	c #8A5D39",
"#4+	c #BEAE9C",
"$4+	c #B7A89C",
"%4+	c #B9AC9A",
"&4+	c #B6A998",
"*4+	c #AD9F8B",
"=4+	c #7E644D",
"-4+	c #876449",
";4+	c #A69687",
">4+	c #A38169",
",4+	c #A66E3F",
"'4+	c #A7713F",
")4+	c #9A6640",
"!4+	c #92633F",
"~4+	c #9B683C",
"{4+	c #8F5B33",
"]4+	c #835736",
"^4+	c #785133",
"/4+	c #785134",
"(4+	c #7F5433",
"_4+	c #835934",
":4+	c #885D35",
"<4+	c #8D5D39",
"[4+	c #8E6140",
"}4+	c #8D6447",
"|4+	c #8B674D",
"14+	c #82634A",
"24+	c #7F644B",
"34+	c #84654D",
"44+	c #8E6F56",
"54+	c #997859",
"64+	c #9E7A58",
"74+	c #A07854",
"84+	c #A27B5C",
"94+	c #B29174",
"04+	c #C7B6A5",
"a4+	c #C9BDB1",
"b4+	c #CDC0BE",
"c4+	c #C9BDB6",
"d4+	c #CFC8BB",
"e4+	c #B49064",
"f4+	c #B78C5E",
"g4+	c #BE9368",
"h4+	c #C3996F",
"i4+	c #C29970",
"j4+	c #BE956B",
"k4+	c #C0986D",
"l4+	c #C0986E",
"m4+	c #BE9A69",
"n4+	c #C1A27E",
"o4+	c #D2BAA6",
"p4+	c #D1BFB3",
"q4+	c #CFC3BA",
"r4+	c #C8BBAE",
"s4+	c #C9BDB3",
"t4+	c #CDBCAD",
"u4+	c #C8B7A0",
"v4+	c #C6B69D",
"w4+	c #C6B497",
"x4+	c #C0A88B",
"y4+	c #B0A59F",
"z4+	c #AF907A",
"A4+	c #AD7E61",
"B4+	c #AA7950",
"C4+	c #A87253",
"D4+	c #A37751",
"E4+	c #A3764D",
"F4+	c #B37C48",
"G4+	c #B07039",
"H4+	c #A56331",
"I4+	c #A86735",
"J4+	c #A36739",
"K4+	c #A36B46",
"L4+	c #A56E4A",
"M4+	c #B4784F",
"N4+	c #B77745",
"O4+	c #AB6C3A",
"P4+	c #A77651",
"Q4+	c #AF9883",
"R4+	c #B49884",
"S4+	c #A77759",
"T4+	c #A77052",
"U4+	c #A76E4F",
"V4+	c #A46949",
"W4+	c #9F6746",
"X4+	c #9E6A4D",
"Y4+	c #9D6C4D",
"Z4+	c #A16C49",
"`4+	c #B06A40",
" 5+	c #9E582D",
".5+	c #A35A30",
"+5+	c #9F5830",
"@5+	c #9C5F3E",
"#5+	c #A26445",
"$5+	c #A46746",
"%5+	c #A86D4D",
"&5+	c #AD6C46",
"*5+	c #B16A40",
"=5+	c #AB6235",
"-5+	c #A1613A",
";5+	c #A6785D",
">5+	c #A38F7D",
",5+	c #C2A394",
"'5+	c #BEA795",
")5+	c #BD9A82",
"!5+	c #C7B0A3",
"~5+	c #C2AB9D",
"{5+	c #A66941",
"]5+	c #9D6740",
"^5+	c #B0978C",
"/5+	c #BDA394",
"(5+	c #BC946C",
"_5+	c #BC946D",
":5+	c #BB946B",
"<5+	c #B89065",
"[5+	c #B98D62",
"}5+	c #B88E63",
"|5+	c #BA9369",
"15+	c #BD966C",
"25+	c #B79064",
"35+	c #B7936C",
"45+	c #AF998E",
"55+	c #A3897E",
"65+	c #9E8479",
"75+	c #987E73",
"85+	c #91786A",
"95+	c #927969",
"05+	c #947869",
"a5+	c #977565",
"b5+	c #967464",
"c5+	c #906D5E",
"d5+	c #906A5A",
"e5+	c #916C5A",
"f5+	c #926F5E",
"g5+	c #93715F",
"h5+	c #92705D",
"i5+	c #987663",
"j5+	c #977461",
"k5+	c #8E6855",
"l5+	c #8E654E",
"m5+	c #8C624B",
"n5+	c #8E634C",
"o5+	c #8F654E",
"p5+	c #875B44",
"q5+	c #8B5641",
"r5+	c #97725D",
"s5+	c #AA9C91",
"t5+	c #AA988D",
"u5+	c #A28A81",
"v5+	c #A58D82",
"w5+	c #A78E82",
"x5+	c #A98D80",
"y5+	c #A78A7B",
"z5+	c #9F8375",
"A5+	c #A4897A",
"B5+	c #A88D7F",
"C5+	c #A88D81",
"D5+	c #A98F84",
"E5+	c #AE9388",
"F5+	c #AB9287",
"G5+	c #A98F86",
"H5+	c #A78D84",
"I5+	c #9F887A",
"J5+	c #998D82",
"K5+	c #AD9A96",
"L5+	c #9B8072",
"M5+	c #947C61",
"N5+	c #917D64",
"O5+	c #A4917E",
"P5+	c #A3917D",
"Q5+	c #A2917F",
"R5+	c #8F7C6B",
"S5+	c #9F8A77",
"T5+	c #957F6E",
"U5+	c #958070",
"V5+	c #9B8777",
"W5+	c #9E8A79",
"X5+	c #9F897C",
"Y5+	c #998375",
"Z5+	c #947D69",
"`5+	c #927867",
" 6+	c #947967",
".6+	c #9E8878",
"+6+	c #A09185",
"@6+	c #A19489",
"#6+	c #8F8277",
"$6+	c #A09188",
"%6+	c #9B8C84",
"&6+	c #9E8E86",
"*6+	c #A4836F",
"=6+	c #A47547",
"-6+	c #8E6648",
";6+	c #8E6749",
">6+	c #835D42",
",6+	c #7B5443",
"'6+	c #795544",
")6+	c #7C5B4A",
"!6+	c #7F6351",
"~6+	c #8C705E",
"{6+	c #8F7363",
"]6+	c #907364",
"^6+	c #8F7462",
"/6+	c #8E745C",
"(6+	c #88725E",
"_6+	c #8B7969",
":6+	c #928175",
"<6+	c #A18A75",
"[6+	c #9B8674",
"}6+	c #A69FA0",
"|6+	c #A59FA1",
"16+	c #A39A98",
"26+	c #AA967F",
"36+	c #AE9C8C",
"46+	c #A89888",
"56+	c #B19D8A",
"66+	c #B29684",
"76+	c #B29B8B",
"86+	c #B9A699",
"96+	c #AB9B84",
"06+	c #B8A796",
"a6+	c #BAACA3",
"b6+	c #B7AAA2",
"c6+	c #B8A9A1",
"d6+	c #B5A18E",
"e6+	c #B49F8C",
"f6+	c #AEA295",
"g6+	c #AA9790",
"h6+	c #AB938B",
"i6+	c #A88F87",
"j6+	c #AE8E7B",
"k6+	c #AD8771",
"l6+	c #A77F6D",
"m6+	c #A37957",
"n6+	c #9F7054",
"o6+	c #9F7052",
"p6+	c #9B6D4E",
"q6+	c #9A6D50",
"r6+	c #9F6E4C",
"s6+	c #AA7855",
"t6+	c #AE7954",
"u6+	c #A76F48",
"v6+	c #AC744E",
"w6+	c #B4907B",
"x6+	c #ADA099",
"y6+	c #A49281",
"z6+	c #A89583",
"A6+	c #A18776",
"B6+	c #A57F72",
"C6+	c #AB8477",
"D6+	c #AA8475",
"E6+	c #AB8573",
"F6+	c #AA8778",
"G6+	c #B09288",
"H6+	c #A3857A",
"I6+	c #A5775E",
"J6+	c #98684C",
"K6+	c #946244",
"L6+	c #91664C",
"M6+	c #906750",
"N6+	c #986750",
"O6+	c #9F6D56",
"P6+	c #9B694E",
"Q6+	c #A06B4C",
"R6+	c #A06748",
"S6+	c #A6654A",
"T6+	c #AB7D63",
"U6+	c #A47C6C",
"V6+	c #A38970",
"W6+	c #A18871",
"X6+	c #AE967F",
"Y6+	c #BBA490",
"Z6+	c #B49A86",
"`6+	c #A17257",
" 7+	c #9A705A",
".7+	c #9F7D6E",
"+7+	c #A88878",
"@7+	c #9C7D6E",
"#7+	c #A08171",
"$7+	c #AA8370",
"%7+	c #B1A8A0",
"&7+	c #B1A49C",
"*7+	c #ADA097",
"=7+	c #ACA3A4",
"-7+	c #AEA6A1",
";7+	c #AEA6A3",
">7+	c #A49997",
",7+	c #A99E9C",
"'7+	c #A59997",
")7+	c #A59894",
"!7+	c #9E928D",
"~7+	c #A2928F",
"{7+	c #A29B9C",
"]7+	c #A8A3A5",
"^7+	c #A6A3A4",
"/7+	c #ACAAA4",
"(7+	c #AAA8A4",
"_7+	c #ABAAA8",
":7+	c #B2A8A9",
"<7+	c #A9A0A1",
"[7+	c #ABA5A6",
"}7+	c #A29F96",
"|7+	c #9F9C93",
"17+	c #A59486",
"27+	c #A6998A",
"37+	c #A09490",
"47+	c #A8A4A3",
"57+	c #AFA6A8",
"67+	c #A69EA0",
"77+	c #AA9DA0",
"87+	c #B1ABAA",
"97+	c #ACA9A2",
"07+	c #A49C93",
"a7+	c #A59084",
"b7+	c #A78F83",
"c7+	c #A98F81",
"d7+	c #A78E81",
"e7+	c #B5A39D",
"f7+	c #AFABA7",
"g7+	c #AEACA8",
"h7+	c #9D8F84",
"i7+	c #A79085",
"j7+	c #A5918B",
"k7+	c #A39691",
"l7+	c #A69996",
"m7+	c #A29E95",
"n7+	c #A79489",
"o7+	c #AB9A8D",
"p7+	c #AA9B90",
"q7+	c #A29D96",
"r7+	c #A7A39B",
"s7+	c #A8A7A0",
"t7+	c #ADA9A3",
"u7+	c #ABA2A3",
"v7+	c #A4A097",
"w7+	c #B1AAA8",
"x7+	c #A7917A",
"y7+	c #A6917A",
"z7+	c #A5917D",
"A7+	c #A5948D",
"B7+	c #9E9189",
"C7+	c #A2998F",
"D7+	c #A5A190",
"E7+	c #AB8C86",
"F7+	c #AF9B92",
"G7+	c #A98B7C",
"H7+	c #A6897C",
"I7+	c #AA8D81",
"J7+	c #A88C7F",
"K7+	c #A99285",
"L7+	c #A8978C",
"M7+	c #A69A8B",
"N7+	c #9B8980",
"O7+	c #9F8A7A",
"P7+	c #998676",
"Q7+	c #A59A97",
"R7+	c #A29589",
"S7+	c #A19386",
"T7+	c #ACAAA3",
"U7+	c #A29385",
"V7+	c #9D9283",
"W7+	c #9F9488",
"X7+	c #A69C91",
"Y7+	c #AA9A88",
"Z7+	c #A89D90",
"`7+	c #A69688",
" 8+	c #AB927A",
".8+	c #AD9278",
"+8+	c #AB9175",
"@8+	c #AA8F73",
"#8+	c #B09377",
"$8+	c #AF9A84",
"%8+	c #A69487",
"&8+	c #AB9481",
"*8+	c #A59688",
"=8+	c #A69B9F",
"-8+	c #A09E9E",
";8+	c #A2A09D",
">8+	c #AD9B92",
",8+	c #A58B77",
"'8+	c #9D7A5C",
")8+	c #9F7355",
"!8+	c #A07250",
"~8+	c #AA8570",
"{8+	c #AA8C75",
"]8+	c #AD917A",
"^8+	c #AF9481",
"/8+	c #AE9280",
"(8+	c #AB9786",
"_8+	c #AB9787",
":8+	c #A67F66",
"<8+	c #A37C63",
"[8+	c #A27961",
"}8+	c #A5755C",
"|8+	c #A37353",
"18+	c #A16F4D",
"28+	c #A27048",
"38+	c #A7764D",
"48+	c #A8744C",
"58+	c #AA754E",
"68+	c #AC774E",
"78+	c #AB7851",
"88+	c #AA7850",
"98+	c #A9764F",
"08+	c #A9744F",
"a8+	c #A6724B",
"b8+	c #A6714A",
"c8+	c #A9734C",
"d8+	c #A97548",
"e8+	c #A36E40",
"f8+	c #A46F42",
"g8+	c #AB8767",
"h8+	c #AE8F81",
"i8+	c #AB8B72",
"j8+	c #A78871",
"k8+	c #A78872",
"l8+	c #AE8E78",
"m8+	c #AB8B79",
"n8+	c #A98A71",
"o8+	c #B39076",
"p8+	c #AB8A73",
"q8+	c #B78C73",
"r8+	c #B68C75",
"s8+	c #B38D7A",
"t8+	c #B38973",
"u8+	c #AE8869",
"v8+	c #AA8164",
"w8+	c #A99283",
"x8+	c #AC8976",
"y8+	c #AC8F80",
"z8+	c #AE8761",
"A8+	c #B98245",
"B8+	c #AF7B41",
"C8+	c #A57751",
"D8+	c #A7794B",
"E8+	c #9A6F44",
"F8+	c #8D653B",
"G8+	c #8D623F",
"H8+	c #8E6141",
"I8+	c #936445",
"J8+	c #9D6D4E",
"K8+	c #9F6F50",
"L8+	c #9C7452",
"M8+	c #9D7854",
"N8+	c #98775B",
"O8+	c #94785E",
"P8+	c #997D64",
"Q8+	c #A1836A",
"R8+	c #AB886C",
"S8+	c #A88565",
"T8+	c #AF8A64",
"U8+	c #AF9179",
"V8+	c #ACA19B",
"W8+	c #ACA9AC",
"X8+	c #AF9A91",
"Y8+	c #AB8169",
"Z8+	c #AC7547",
"`8+	c #AD7A4D",
" 9+	c #B17850",
".9+	c #AC7240",
"+9+	c #A97046",
"@9+	c #A76D43",
"#9+	c #A76C3E",
"$9+	c #A46F47",
"%9+	c #A26F4A",
"&9+	c #A36F47",
"*9+	c #AB7850",
"=9+	c #AA7752",
"-9+	c #B38864",
";9+	c #B08E64",
">9+	c #A79A86",
",9+	c #9C8374",
"'9+	c #90613E",
")9+	c #956342",
"!9+	c #8E6043",
"~9+	c #8F5E3E",
"{9+	c #916E4F",
"]9+	c #997C6C",
"^9+	c #9D8573",
"/9+	c #9A7B68",
"(9+	c #99866A",
"_9+	c #947C66",
":9+	c #987E6F",
"<9+	c #9E8274",
"[9+	c #906343",
"}9+	c #986E4B",
"|9+	c #A07B5D",
"19+	c #A68569",
"29+	c #A7856A",
"39+	c #A89787",
"49+	c #AFA4A1",
"59+	c #AA957F",
"69+	c #A77E5D",
"79+	c #A98668",
"89+	c #A88D73",
"99+	c #A79079",
"09+	c #A9947D",
"a9+	c #A59179",
"b9+	c #A58E76",
"c9+	c #A58E75",
"d9+	c #AF8C71",
"e9+	c #AB8B6A",
"f9+	c #A8896A",
"g9+	c #A48668",
"h9+	c #A78869",
"i9+	c #A98A6C",
"j9+	c #AB9682",
"k9+	c #A79074",
"l9+	c #A78A6A",
"m9+	c #A58767",
"n9+	c #AF977F",
"o9+	c #B39C89",
"p9+	c #AFA8A1",
"q9+	c #B5A99E",
"r9+	c #AC8D6F",
"s9+	c #AD8D70",
"t9+	c #BCA184",
"u9+	c #B9A386",
"v9+	c #C5A894",
"w9+	c #D1C0B4",
"x9+	c #D1C1B8",
"y9+	c #C8BFB3",
"z9+	c #B6AE9C",
"A9+	c #B19C7D",
"B9+	c #B69074",
"C9+	c #B7977B",
"D9+	c #C3AE9B",
"E9+	c #BDAD9D",
"F9+	c #CBC4BF",
"G9+	c #C9C3BF",
"H9+	c #BCB3AA",
"I9+	c #B2A4A1",
"J9+	c #ACAAA9",
"K9+	c #B4AEA8",
"L9+	c #B6AFA8",
"M9+	c #B5ADA6",
"N9+	c #B0A7A0",
"O9+	c #B1A7A1",
"P9+	c #B09C8E",
"Q9+	c #B59D8C",
"R9+	c #A68E79",
"S9+	c #A98875",
"T9+	c #A47451",
"U9+	c #AE764F",
"V9+	c #B07851",
"W9+	c #B1815B",
"X9+	c #AC836B",
"Y9+	c #A68268",
"Z9+	c #A48469",
"`9+	c #A7876C",
" 0+	c #B59576",
".0+	c #BD9C7D",
"+0+	c #BD987A",
"@0+	c #B6947B",
"#0+	c #B19987",
"$0+	c #A88C78",
"%0+	c #A2724F",
"&0+	c #A7714B",
"*0+	c #A67147",
"=0+	c #A56F3C",
"-0+	c #A8703B",
";0+	c #AB743B",
">0+	c #AE7647",
",0+	c #AA7242",
"'0+	c #A9703F",
")0+	c #A9713D",
"!0+	c #A97144",
"~0+	c #AC7549",
"{0+	c #AD7649",
"]0+	c #AE7944",
"^0+	c #A9723D",
"/0+	c #AB753C",
"(0+	c #AD763D",
"_0+	c #B27941",
":0+	c #B57B45",
"<0+	c #AD733E",
"[0+	c #B17742",
"}0+	c #B58453",
"|0+	c #B77F59",
"10+	c #B87A4A",
"20+	c #BB7C4B",
"30+	c #B87848",
"40+	c #B57442",
"50+	c #B47240",
"60+	c #B67441",
"70+	c #B07140",
"80+	c #B1784E",
"90+	c #B47A4E",
"00+	c #B57848",
"a0+	c #B67A4B",
"b0+	c #B37649",
"c0+	c #B17C54",
"d0+	c #AC7C58",
"e0+	c #B1815C",
"f0+	c #B6835B",
"g0+	c #BD9575",
"h0+	c #BF906F",
"i0+	c #BB8967",
"j0+	c #AE9986",
"k0+	c #B48554",
"l0+	c #BD823F",
"m0+	c #B47948",
"n0+	c #AC7B48",
"o0+	c #A47344",
"p0+	c #9C6D3F",
"q0+	c #93663E",
"r0+	c #99683D",
"s0+	c #9F6C41",
"t0+	c #A57449",
"u0+	c #A3794B",
"v0+	c #A47C57",
"w0+	c #9B7858",
"x0+	c #98785B",
"y0+	c #9D785B",
"z0+	c #A17B5E",
"A0+	c #A78063",
"B0+	c #AB8464",
"C0+	c #BC8C5E",
"D0+	c #B3885D",
"E0+	c #AE8C6C",
"F0+	c #AD8C78",
"G0+	c #B88B68",
"H0+	c #B37E4F",
"I0+	c #BC824C",
"J0+	c #BB8247",
"K0+	c #BC7F49",
"L0+	c #B07445",
"M0+	c #B07546",
"N0+	c #AE7242",
"O0+	c #AF713E",
"P0+	c #AE7343",
"Q0+	c #AB7346",
"R0+	c #B47D4F",
"S0+	c #B27B4E",
"T0+	c #B27C50",
"U0+	c #AE8057",
"V0+	c #B6895B",
"W0+	c #B19376",
"X0+	c #9B7A64",
"Y0+	c #98653D",
"Z0+	c #996C4A",
"`0+	c #936944",
" a+	c #9F7A57",
".a+	c #967558",
"+a+	c #997155",
"@a+	c #9F7A55",
"#a+	c #A2815F",
"$a+	c #B29275",
"%a+	c #B99F80",
"&a+	c #A27D5F",
"*a+	c #9B724A",
"=a+	c #9C7250",
"-a+	c #9A6B4D",
";a+	c #966949",
">a+	c #9E7654",
",a+	c #9A653B",
"'a+	c #986539",
")a+	c #986844",
"!a+	c #977154",
"~a+	c #9E775B",
"{a+	c #A0795F",
"]a+	c #A48465",
"^a+	c #A2876F",
"/a+	c #A88F77",
"(a+	c #A48E78",
"_a+	c #A5907A",
":a+	c #A48D77",
"<a+	c #AC8769",
"[a+	c #AD8668",
"}a+	c #AA8465",
"|a+	c #A68464",
"1a+	c #A2866C",
"2a+	c #A78C74",
"3a+	c #B18F78",
"4a+	c #AC866A",
"5a+	c #B3A69B",
"6a+	c #BA9C7F",
"7a+	c #B8997A",
"8a+	c #CCBBAF",
"9a+	c #D1CDC9",
"0a+	c #D3CDC9",
"aa+	c #D8CEC8",
"ba+	c #C9C2C0",
"ca+	c #D0CBCD",
"da+	c #CBC6BC",
"ea+	c #C3A58F",
"fa+	c #BB9C7D",
"ga+	c #BB9573",
"ha+	c #B59376",
"ia+	c #BBA491",
"ja+	c #D1CAC5",
"ka+	c #D4D0CC",
"la+	c #D7D4CE",
"ma+	c #D6D3CB",
"na+	c #D0C3BE",
"oa+	c #C4B6B1",
"pa+	c #BBACA4",
"qa+	c #B69F8D",
"ra+	c #B5AEA7",
"sa+	c #B7AEA6",
"ta+	c #B6ACA3",
"ua+	c #B3A99E",
"va+	c #AF9C91",
"wa+	c #AF9B8E",
"xa+	c #AD8B78",
"ya+	c #A3774F",
"za+	c #AD774E",
"Aa+	c #B47951",
"Ba+	c #B87E54",
"Ca+	c #AE8468",
"Da+	c #B49171",
"Ea+	c #B79170",
"Fa+	c #C39B7A",
"Ga+	c #BF9876",
"Ha+	c #BA9473",
"Ia+	c #B79578",
"Ja+	c #B09883",
"Ka+	c #A78569",
"La+	c #A87144",
"Ma+	c #AE774A",
"Na+	c #AD7541",
"Oa+	c #AE7740",
"Pa+	c #B17B44",
"Qa+	c #B27C41",
"Ra+	c #B27C3E",
"Sa+	c #B47C47",
"Ta+	c #B57C48",
"Ua+	c #AF7341",
"Va+	c #AF7241",
"Wa+	c #B07441",
"Xa+	c #B27845",
"Ya+	c #B07644",
"Za+	c #B17744",
"`a+	c #B17941",
" b+	c #B37A42",
".b+	c #B1773F",
"+b+	c #B57B3F",
"@b+	c #B77D41",
"#b+	c #BB7F45",
"$b+	c #B67940",
"%b+	c #B2763E",
"&b+	c #B87C43",
"*b+	c #B78753",
"=b+	c #AF9A8C",
"-b+	c #B3805C",
";b+	c #B87D50",
">b+	c #B87F4F",
",b+	c #BA7F50",
"'b+	c #BD8355",
")b+	c #BC8255",
"!b+	c #BB7943",
"~b+	c #BB7949",
"{b+	c #B27345",
"]b+	c #B1784D",
"^b+	c #B77D50",
"/b+	c #B37947",
"(b+	c #BB8051",
"_b+	c #B7815D",
":b+	c #B38160",
"<b+	c #B58463",
"[b+	c #B68463",
"}b+	c #B98463",
"|b+	c #BA8563",
"1b+	c #B9865E",
"2b+	c #C09375",
"3b+	c #BE9278",
"4b+	c #C08C69",
"5b+	c #AE947F",
"6b+	c #B17A4A",
"7b+	c #BE8148",
"8b+	c #B47A4C",
"9b+	c #A57349",
"0b+	c #B17F4E",
"ab+	c #AB7B44",
"bb+	c #9C7047",
"cb+	c #9B6C4A",
"db+	c #986644",
"eb+	c #9C693F",
"fb+	c #A26E44",
"gb+	c #A57147",
"hb+	c #A87B4F",
"ib+	c #AA8255",
"jb+	c #A67D58",
"kb+	c #A57B59",
"lb+	c #A98160",
"mb+	c #AA8562",
"nb+	c #B58C60",
"ob+	c #BF925D",
"pb+	c #BA8A58",
"qb+	c #AD8C65",
"rb+	c #B37B4D",
"sb+	c #B57F54",
"tb+	c #B88456",
"ub+	c #BC8045",
"vb+	c #B57A44",
"wb+	c #AE7243",
"xb+	c #AD7245",
"yb+	c #B1764A",
"zb+	c #AF7142",
"Ab+	c #AF774E",
"Bb+	c #AF784F",
"Cb+	c #AF774F",
"Db+	c #AC754B",
"Eb+	c #B47E52",
"Fb+	c #B88257",
"Gb+	c #B98359",
"Hb+	c #B9845B",
"Ib+	c #B58660",
"Jb+	c #B28660",
"Kb+	c #B88F60",
"Lb+	c #987F6E",
"Mb+	c #A68769",
"Nb+	c #B89D83",
"Ob+	c #B59883",
"Pb+	c #A47C63",
"Qb+	c #B7A686",
"Rb+	c #C8B7A3",
"Sb+	c #C5AF9D",
"Tb+	c #B08663",
"Ub+	c #AA8365",
"Vb+	c #9D7256",
"Wb+	c #9C6F58",
"Xb+	c #99694F",
"Yb+	c #936440",
"Zb+	c #966B4B",
"`b+	c #9C7054",
" c+	c #A3765A",
".c+	c #A0765C",
"+c+	c #9D7859",
"@c+	c #9C7758",
"#c+	c #A49587",
"$c+	c #A3A39F",
"%c+	c #A78B74",
"&c+	c #AD9785",
"*c+	c #A89584",
"=c+	c #A2734A",
"-c+	c #A67A4E",
";c+	c #AC8661",
">c+	c #AA8664",
",c+	c #A9815F",
"'c+	c #A67D5B",
")c+	c #A57855",
"!c+	c #A27553",
"~c+	c #A5856B",
"{c+	c #A48C76",
"]c+	c #AE9F91",
"^c+	c #B1A197",
"/c+	c #B59F91",
"(c+	c #A67A55",
"_c+	c #AC6E3F",
":c+	c #AC6F40",
"<c+	c #AC7C57",
"[c+	c #B2A599",
"}c+	c #C0A285",
"|c+	c #B9997B",
"1c+	c #B99B7C",
"2c+	c #C0AF9C",
"3c+	c #D1D1D0",
"4c+	c #D1D3CC",
"5c+	c #D2C1B5",
"6c+	c #BC9F88",
"7c+	c #CCBDB5",
"8c+	c #C4B5AE",
"9c+	c #BBA690",
"0c+	c #BC8B5C",
"ac+	c #BA8C61",
"bc+	c #B79373",
"cc+	c #D5CEC9",
"dc+	c #D6D2D0",
"ec+	c #D5D4D2",
"fc+	c #D4D5D3",
"gc+	c #D2D4D0",
"hc+	c #D2D2CF",
"ic+	c #D3D0CD",
"jc+	c #D6D0CD",
"kc+	c #C8B9AE",
"lc+	c #C5AC99",
"mc+	c #B2A499",
"nc+	c #B1ABA7",
"oc+	c #B3AEA8",
"pc+	c #B6AEA7",
"qc+	c #B3AAA1",
"rc+	c #B9ADA3",
"sc+	c #B6AC9B",
"tc+	c #B39F94",
"uc+	c #B4A195",
"vc+	c #AB7C58",
"wc+	c #B57E55",
"xc+	c #B87F54",
"yc+	c #B9845A",
"zc+	c #B88863",
"Ac+	c #B28664",
"Bc+	c #B48966",
"Cc+	c #B38763",
"Dc+	c #BA906B",
"Ec+	c #C1946E",
"Fc+	c #C2946D",
"Gc+	c #B8906F",
"Hc+	c #AF9683",
"Ic+	c #AA7643",
"Jc+	c #AF7A44",
"Kc+	c #B37F49",
"Lc+	c #B47F48",
"Mc+	c #B47A3F",
"Nc+	c #B67C40",
"Oc+	c #B67E42",
"Pc+	c #B98044",
"Qc+	c #B67D42",
"Rc+	c #B1723E",
"Sc+	c #B37340",
"Tc+	c #B27440",
"Uc+	c #B37943",
"Vc+	c #B27940",
"Wc+	c #B37B3E",
"Xc+	c #B37A3E",
"Yc+	c #B37B3F",
"Zc+	c #B37D3F",
"`c+	c #B88144",
" d+	c #B68656",
".d+	c #B28467",
"+d+	c #B47847",
"@d+	c #B47A4D",
"#d+	c #B87A4B",
"$d+	c #B97954",
"%d+	c #BB784B",
"&d+	c #B57239",
"*d+	c #B1754C",
"=d+	c #B37853",
"-d+	c #B77B57",
";d+	c #B68156",
">d+	c #B5865C",
",d+	c #B1794D",
"'d+	c #B9835D",
")d+	c #B5835F",
"!d+	c #BD8862",
"~d+	c #BE8B67",
"{d+	c #BA8868",
"]d+	c #BB8968",
"^d+	c #BE8D70",
"/d+	c #BB9077",
"(d+	c #BC9073",
"_d+	c #B5977E",
":d+	c #A4A6A2",
"<d+	c #A36B3F",
"[d+	c #AC7140",
"}d+	c #BD864E",
"|d+	c #A27243",
"1d+	c #A0724B",
"2d+	c #9B6C46",
"3d+	c #9E6C44",
"4d+	c #A27043",
"5d+	c #A57346",
"6d+	c #A77346",
"7d+	c #AD774B",
"8d+	c #B17C4F",
"9d+	c #AF7C51",
"0d+	c #AD8057",
"ad+	c #AB7D54",
"bd+	c #B7895A",
"cd+	c #BB8958",
"dd+	c #B48356",
"ed+	c #AB7E56",
"fd+	c #A9865F",
"gd+	c #AE7B54",
"hd+	c #BD8556",
"id+	c #BB834A",
"jd+	c #AA774A",
"kd+	c #AF7648",
"ld+	c #AE764D",
"md+	c #B07A50",
"nd+	c #B17D58",
"od+	c #B07C56",
"pd+	c #B38157",
"qd+	c #B48258",
"rd+	c #B68259",
"sd+	c #B4885D",
"td+	c #B68B60",
"ud+	c #B49276",
"vd+	c #9B8573",
"wd+	c #997755",
"xd+	c #A38465",
"yd+	c #AA8D6F",
"zd+	c #C1A590",
"Ad+	c #C4B5A3",
"Bd+	c #C1B4A3",
"Cd+	c #C2A494",
"Dd+	c #A3745A",
"Ed+	c #9B5F38",
"Fd+	c #945C38",
"Gd+	c #9C6F4D",
"Hd+	c #9A6D4E",
"Id+	c #9A6A4B",
"Jd+	c #99694A",
"Kd+	c #99684A",
"Ld+	c #A17151",
"Md+	c #9E7252",
"Nd+	c #A58167",
"Od+	c #A4846E",
"Pd+	c #A9896F",
"Qd+	c #B29B8A",
"Rd+	c #B09E91",
"Sd+	c #AC8D72",
"Td+	c #A97039",
"Ud+	c #A3724D",
"Vd+	c #9B633B",
"Wd+	c #9C6138",
"Xd+	c #9A6442",
"Yd+	c #A7886A",
"Zd+	c #A69079",
"`d+	c #B3A499",
" e+	c #B1A79F",
".e+	c #B0A7A1",
"+e+	c #B3A99F",
"@e+	c #AEA08F",
"#e+	c #B19377",
"$e+	c #A16F43",
"%e+	c #B09373",
"&e+	c #C9B5A4",
"*e+	c #D2D2D0",
"=e+	c #CCC0B9",
"-e+	c #BE9D87",
";e+	c #BDA696",
">e+	c #C7A68A",
",e+	c #BA8758",
"'e+	c #BE8D64",
")e+	c #BF8E68",
"!e+	c #C3A38C",
"~e+	c #D4CAC5",
"{e+	c #D8D3D3",
"]e+	c #D5D4D7",
"^e+	c #D3D6D5",
"/e+	c #D3D3D3",
"(e+	c #D2D2D2",
"_e+	c #D3D2D0",
":e+	c #D4D3D1",
"<e+	c #D6D3D2",
"[e+	c #D1C7C2",
"}e+	c #B6B0AB",
"|e+	c #B4ADA5",
"1e+	c #B4ABA0",
"2e+	c #AF9A89",
"3e+	c #B49E86",
"4e+	c #B49E92",
"5e+	c #B49E8F",
"6e+	c #B6967E",
"7e+	c #B77B52",
"8e+	c #B77B51",
"9e+	c #B77C52",
"0e+	c #B78560",
"ae+	c #B58361",
"be+	c #B48360",
"ce+	c #B98763",
"de+	c #B88661",
"ee+	c #BC8F69",
"fe+	c #BD906C",
"ge+	c #BB8E6B",
"he+	c #B99272",
"ie+	c #B39987",
"je+	c #AC836A",
"ke+	c #AB7844",
"le+	c #AF7B44",
"me+	c #B47F47",
"ne+	c #B67B3F",
"oe+	c #BA8044",
"pe+	c #BA8245",
"qe+	c #B27741",
"re+	c #B0733F",
"se+	c #B0743F",
"te+	c #B07741",
"ue+	c #B37A41",
"ve+	c #B0783A",
"we+	c #AC7437",
"xe+	c #AE7639",
"ye+	c #B47C3F",
"ze+	c #B57F41",
"Ae+	c #B98345",
"Be+	c #B98143",
"Ce+	c #B77F41",
"De+	c #BB8A5A",
"Ee+	c #AB9B8C",
"Fe+	c #AF8F80",
"Ge+	c #AC724C",
"He+	c #B4763E",
"Ie+	c #AE6E44",
"Je+	c #AE6839",
"Ke+	c #B06E3E",
"Le+	c #B27340",
"Me+	c #AD7143",
"Ne+	c #A96F47",
"Oe+	c #B0764D",
"Pe+	c #AF7B4C",
"Qe+	c #AE8052",
"Re+	c #AE7A4C",
"Se+	c #B37D52",
"Te+	c #B57F57",
"Ue+	c #B2815E",
"Ve+	c #B58460",
"We+	c #B68562",
"Xe+	c #BB8B6D",
"Ye+	c #B99076",
"Ze+	c #B7967E",
"`e+	c #B89980",
" f+	c #B79D8A",
".f+	c #A6A5A3",
"+f+	c #9D693F",
"@f+	c #9E683D",
"#f+	c #B87D47",
"$f+	c #BC8142",
"%f+	c #B68044",
"&f+	c #A87245",
"*f+	c #A97345",
"=f+	c #A87142",
"-f+	c #A97344",
";f+	c #AC7648",
">f+	c #AD7749",
",f+	c #AF7A4D",
"'f+	c #AD7652",
")f+	c #AC784D",
"!f+	c #AD7A4F",
"~f+	c #AF7E52",
"{f+	c #B48659",
"]f+	c #AE8054",
"^f+	c #A16D40",
"/f+	c #AC7647",
"(f+	c #BA8558",
"_f+	c #BC8856",
":f+	c #BC8954",
"<f+	c #A5754C",
"[f+	c #AD784C",
"}f+	c #B37E52",
"|f+	c #B4825C",
"1f+	c #B2815C",
"2f+	c #AF7E59",
"3f+	c #AE815A",
"4f+	c #B1845E",
"5f+	c #B0855E",
"6f+	c #B28A61",
"7f+	c #B98E62",
"8f+	c #BB8F65",
"9f+	c #B1855C",
"0f+	c #9B8B7F",
"af+	c #976A4A",
"bf+	c #9F734E",
"cf+	c #B08865",
"df+	c #A47C5B",
"ef+	c #A17956",
"ff+	c #97704D",
"gf+	c #956E4B",
"hf+	c #BBA78C",
"if+	c #C1B195",
"jf+	c #976242",
"kf+	c #A26A47",
"lf+	c #9C6644",
"mf+	c #A06B4A",
"nf+	c #9F704F",
"of+	c #9C6B4C",
"pf+	c #9C6A4B",
"qf+	c #A16E4E",
"rf+	c #9B6946",
"sf+	c #996643",
"tf+	c #AA8266",
"uf+	c #A8886D",
"vf+	c #A88E7A",
"wf+	c #B09F93",
"xf+	c #B09888",
"yf+	c #AF8A68",
"zf+	c #AA7241",
"Af+	c #A3724C",
"Bf+	c #9B643C",
"Cf+	c #986237",
"Df+	c #AF9485",
"Ef+	c #B2A79F",
"Ff+	c #B4ACA6",
"Gf+	c #B3ABA5",
"Hf+	c #B1A9A0",
"If+	c #AFA69A",
"Jf+	c #AC9F90",
"Kf+	c #AA8F75",
"Lf+	c #AA825D",
"Mf+	c #B19F93",
"Nf+	c #C9B6A1",
"Of+	c #CBC0B2",
"Pf+	c #C1B2A6",
"Qf+	c #D8CCCB",
"Rf+	c #D8D2D5",
"Sf+	c #DBD1CE",
"Tf+	c #D2CAC1",
"Uf+	c #C7A98E",
"Vf+	c #B99271",
"Wf+	c #B68E64",
"Xf+	c #BC9974",
"Yf+	c #B98C62",
"Zf+	c #BA8457",
"`f+	c #B88556",
" g+	c #B78A58",
".g+	c #BF8C5E",
"+g+	c #CABFB9",
"@g+	c #D4D4D7",
"#g+	c #D3D5D4",
"$g+	c #D3D4D2",
"%g+	c #D4D4D3",
"&g+	c #D6D3D1",
"*g+	c #D0C5BE",
"=g+	c #C3AC9E",
"-g+	c #B2ADA6",
";g+	c #B7AA9C",
">g+	c #B29279",
",g+	c #B6906A",
"'g+	c #B49D8F",
")g+	c #B49C8A",
"!g+	c #B69983",
"~g+	c #B2835F",
"{g+	c #AF784C",
"]g+	c #B87E4F",
"^g+	c #B67847",
"/g+	c #B77A50",
"(g+	c #B78059",
"_g+	c #B88764",
":g+	c #B5825D",
"<g+	c #B17B55",
"[g+	c #B47E58",
"}g+	c #B8835C",
"|g+	c #BB875D",
"1g+	c #BD885E",
"2g+	c #BD885F",
"3g+	c #BC8E6B",
"4g+	c #B68C6B",
"5g+	c #BA9171",
"6g+	c #B29885",
"7g+	c #A97642",
"8g+	c #AC7740",
"9g+	c #B17C45",
"0g+	c #B57B40",
"ag+	c #B67D41",
"bg+	c #B57D40",
"cg+	c #B98144",
"dg+	c #B67E47",
"eg+	c #B47D47",
"fg+	c #B67D47",
"gg+	c #B57D44",
"hg+	c #AF7739",
"ig+	c #B27A3D",
"jg+	c #B77E42",
"kg+	c #BA8448",
"lg+	c #BD884B",
"mg+	c #BE8647",
"ng+	c #BD8545",
"og+	c #A7704F",
"pg+	c #B16F3B",
"qg+	c #B5753B",
"rg+	c #B47640",
"sg+	c #B27445",
"tg+	c #B26F41",
"ug+	c #AF7040",
"vg+	c #AF6D41",
"wg+	c #A96C3A",
"xg+	c #AE7645",
"yg+	c #AE7140",
"zg+	c #B27748",
"Ag+	c #AE7E58",
"Bg+	c #AD7B58",
"Cg+	c #AE7958",
"Dg+	c #B17B5B",
"Eg+	c #B17F5C",
"Fg+	c #B3805D",
"Gg+	c #B07D5E",
"Hg+	c #B6896F",
"Ig+	c #BB9C84",
"Jg+	c #B09A8E",
"Kg+	c #AC8464",
"Lg+	c #B67E49",
"Mg+	c #B57A42",
"Ng+	c #B87A3C",
"Og+	c #AE7640",
"Pg+	c #A26C3E",
"Qg+	c #AA713E",
"Rg+	c #A86F3C",
"Sg+	c #A97243",
"Tg+	c #AA7445",
"Ug+	c #A97145",
"Vg+	c #A87046",
"Wg+	c #AF7748",
"Xg+	c #AF7A4A",
"Yg+	c #B28456",
"Zg+	c #AE825A",
"`g+	c #B68756",
" h+	c #B5895C",
".h+	c #AD9C8A",
"+h+	c #BD8653",
"@h+	c #B07F55",
"#h+	c #AE7E55",
"$h+	c #AF7D4E",
"%h+	c #A37347",
"&h+	c #A87648",
"*h+	c #AC7A4C",
"=h+	c #AD7B4E",
"-h+	c #B2825E",
";h+	c #B38461",
">h+	c #A57E5D",
",h+	c #A7805F",
"'h+	c #AB8363",
")h+	c #AD8C68",
"!h+	c #BE956E",
"~h+	c #C0976D",
"{h+	c #B78D62",
"]h+	c #B59378",
"^h+	c #9B928B",
"/h+	c #926B4F",
"(h+	c #A67351",
"_h+	c #97633E",
":h+	c #945E39",
"<h+	c #A98261",
"[h+	c #996440",
"}h+	c #9D5F39",
"|h+	c #B17C5B",
"1h+	c #8F5431",
"2h+	c #8D5233",
"3h+	c #8E5437",
"4h+	c #A17350",
"5h+	c #9C6A4A",
"6h+	c #9E6C49",
"7h+	c #935F3C",
"8h+	c #996540",
"9h+	c #9A6843",
"0h+	c #9E887A",
"ah+	c #9E8A7A",
"bh+	c #9F8772",
"ch+	c #A78E7E",
"dh+	c #B4A49F",
"eh+	c #9C683C",
"fh+	c #9F693C",
"gh+	c #A0673C",
"hh+	c #B0A8A2",
"ih+	c #B1A89E",
"jh+	c #B0A69D",
"kh+	c #B09F8F",
"lh+	c #A68361",
"mh+	c #B9A69B",
"nh+	c #CBBBA9",
"oh+	c #C3AF95",
"ph+	c #D0BCAB",
"qh+	c #D4C4B7",
"rh+	c #CEB9A8",
"sh+	c #CFAB8F",
"th+	c #C7A888",
"uh+	c #C39B71",
"vh+	c #B4844C",
"wh+	c #B48856",
"xh+	c #BE8852",
"yh+	c #B88555",
"zh+	c #BB864F",
"Ah+	c #B98853",
"Bh+	c #BA8A56",
"Ch+	c #BE9E7D",
"Dh+	c #D4CFCD",
"Eh+	c #D4D4D5",
"Fh+	c #D2D3D2",
"Gh+	c #D3C9C3",
"Hh+	c #C9AD9B",
"Ih+	c #AE9A8C",
"Jh+	c #B3ADA8",
"Kh+	c #B3ACA4",
"Lh+	c #B4AA9F",
"Mh+	c #B9A28C",
"Nh+	c #B0885A",
"Oh+	c #B19885",
"Ph+	c #B89F8D",
"Qh+	c #B49B8E",
"Rh+	c #B69985",
"Sh+	c #B27A53",
"Th+	c #B57B4E",
"Uh+	c #B77A48",
"Vh+	c #B47747",
"Wh+	c #B17652",
"Xh+	c #BC8257",
"Yh+	c #BD8457",
"Zh+	c #BB8255",
"`h+	c #BC8359",
" i+	c #B98560",
".i+	c #B78664",
"+i+	c #B7896A",
"@i+	c #BA8B6B",
"#i+	c #B9916B",
"$i+	c #AF7A3F",
"%i+	c #B17B41",
"&i+	c #B17C42",
"*i+	c #B07A40",
"=i+	c #AF793D",
"-i+	c #AD7738",
";i+	c #B07B39",
">i+	c #B78143",
",i+	c #B88147",
"'i+	c #B77F49",
")i+	c #B7814A",
"!i+	c #B68149",
"~i+	c #B58049",
"{i+	c #B4834D",
"]i+	c #B5814A",
"^i+	c #B47D42",
"/i+	c #BA8547",
"(i+	c #B9884F",
"_i+	c #BC8B53",
":i+	c #B98850",
"<i+	c #BC884C",
"[i+	c #BE894C",
"}i+	c #BB8E61",
"|i+	c #AD9E99",
"1i+	c #AE8E7E",
"2i+	c #B26B36",
"3i+	c #B47B4D",
"4i+	c #AB6E42",
"5i+	c #A86940",
"6i+	c #AC6D3E",
"7i+	c #AD6534",
"8i+	c #AC6233",
"9i+	c #AD6631",
"0i+	c #AB7D55",
"ai+	c #AE7853",
"bi+	c #B48A6A",
"ci+	c #B89A81",
"di+	c #BAA18D",
"ei+	c #B9A290",
"fi+	c #AD9F97",
"gi+	c #A4A3A4",
"hi+	c #AD9583",
"ii+	c #B18866",
"ji+	c #B37D4F",
"ki+	c #AE7546",
"li+	c #B77D4B",
"mi+	c #B57C43",
"ni+	c #B57A3F",
"oi+	c #AC7041",
"pi+	c #A96D3A",
"qi+	c #A86D3B",
"ri+	c #A96E3F",
"si+	c #A66F3F",
"ti+	c #A46F3F",
"ui+	c #A76D41",
"vi+	c #B07948",
"wi+	c #AE774B",
"xi+	c #B48353",
"yi+	c #B69278",
"zi+	c #C08C4C",
"Ai+	c #A27345",
"Bi+	c #A17445",
"Ci+	c #9C6F45",
"Di+	c #A57345",
"Ei+	c #A67449",
"Fi+	c #A9784D",
"Gi+	c #AD7C51",
"Hi+	c #AE8059",
"Ii+	c #A67F5F",
"Ji+	c #9E7E61",
"Ki+	c #9E7F62",
"Li+	c #A78467",
"Mi+	c #AB896B",
"Ni+	c #B08E6F",
"Oi+	c #BD9774",
"Pi+	c #C19772",
"Qi+	c #BD8F6A",
"Ri+	c #B78E6A",
"Si+	c #9B7457",
"Ti+	c #9D6F46",
"Ui+	c #A26B46",
"Vi+	c #9A633D",
"Wi+	c #8F5830",
"Xi+	c #8C552C",
"Yi+	c #915830",
"Zi+	c #945D36",
"`i+	c #935C33",
" j+	c #93572F",
".j+	c #97582F",
"+j+	c #9A6037",
"@j+	c #A26F43",
"#j+	c #96633D",
"$j+	c #7A4829",
"%j+	c #83573D",
"&j+	c #A27B5B",
"*j+	c #A27C58",
"=j+	c #9C7652",
"-j+	c #99724F",
";j+	c #9D6C4A",
">j+	c #9E6C4B",
",j+	c #A2724C",
"'j+	c #A27754",
")j+	c #A28E82",
"!j+	c #AEA4A4",
"~j+	c #AFA7A4",
"{j+	c #AEA69F",
"]j+	c #9F846E",
"^j+	c #915F37",
"/j+	c #956239",
"(j+	c #98623F",
"_j+	c #9E785C",
":j+	c #9D806A",
"<j+	c #A58775",
"[j+	c #AA8D7D",
"}j+	c #AD9F92",
"|j+	c #B1A79E",
"1j+	c #AEA6A0",
"2j+	c #ACA69F",
"3j+	c #AEA59B",
"4j+	c #A98E7D",
"5j+	c #B6A79E",
"6j+	c #CDB8A5",
"7j+	c #C3A282",
"8j+	c #BD9471",
"9j+	c #C1956F",
"0j+	c #C89A6F",
"aj+	c #C5976B",
"bj+	c #C59569",
"cj+	c #C49465",
"dj+	c #C08F60",
"ej+	c #BF8F5F",
"fj+	c #BD8A59",
"gj+	c #BC8858",
"hj+	c #BA8656",
"ij+	c #BE8958",
"jj+	c #B5916A",
"kj+	c #D2CCC9",
"lj+	c #D4D0CE",
"mj+	c #D5D0CD",
"nj+	c #D6D0CA",
"oj+	c #D4CCC9",
"pj+	c #D0C8BB",
"qj+	c #BE9779",
"rj+	c #B29B8F",
"sj+	c #B0ACA8",
"tj+	c #B2AEA5",
"uj+	c #B5ADA0",
"vj+	c #B6ABA1",
"wj+	c #B59D87",
"xj+	c #AF895B",
"yj+	c #B69884",
"zj+	c #B79680",
"Aj+	c #B68A6E",
"Bj+	c #B27B56",
"Cj+	c #B37548",
"Dj+	c #B27347",
"Ej+	c #AE7F5B",
"Fj+	c #A87A56",
"Gj+	c #AF7A55",
"Hj+	c #B17C58",
"Ij+	c #B37A53",
"Jj+	c #B37E57",
"Kj+	c #B58868",
"Lj+	c #BC957B",
"Mj+	c #B5957B",
"Nj+	c #A99B8C",
"Oj+	c #B4967B",
"Pj+	c #B4804B",
"Qj+	c #B38045",
"Rj+	c #B58247",
"Sj+	c #B48146",
"Tj+	c #B37F48",
"Uj+	c #B5804A",
"Vj+	c #B38049",
"Wj+	c #B07D47",
"Xj+	c #B17E44",
"Yj+	c #AE7C3E",
"Zj+	c #B17E42",
"`j+	c #B8844D",
" k+	c #B6834F",
".k+	c #B88450",
"+k+	c #B7834F",
"@k+	c #B48450",
"#k+	c #B88651",
"$k+	c #B27F49",
"%k+	c #B98956",
"&k+	c #B88854",
"*k+	c #B8874E",
"=k+	c #BC8B51",
"-k+	c #BB8B53",
";k+	c #B49574",
">k+	c #B68467",
",k+	c #B46C3C",
"'k+	c #B87140",
")k+	c #B57448",
"!k+	c #B37851",
"~k+	c #A66A45",
"{k+	c #A56C49",
"]k+	c #AF7750",
"^k+	c #AD683A",
"/k+	c #A7663D",
"(k+	c #AF8056",
"_k+	c #A6846C",
":k+	c #A57F6B",
"<k+	c #A5755B",
"[k+	c #AB7F68",
"}k+	c #AE8162",
"|k+	c #AD8166",
"1k+	c #A98E74",
"2k+	c #AC9681",
"3k+	c #B1A299",
"4k+	c #AA826B",
"5k+	c #9E673E",
"6k+	c #B0713B",
"7k+	c #AE7540",
"8k+	c #AE7440",
"9k+	c #AB703C",
"0k+	c #A6683A",
"ak+	c #A3683B",
"bk+	c #9D6A3D",
"ck+	c #9B693D",
"dk+	c #A16A41",
"ek+	c #A46F45",
"fk+	c #A37348",
"gk+	c #A4744F",
"hk+	c #A3744E",
"ik+	c #AE8158",
"jk+	c #B0835A",
"kk+	c #AD8662",
"lk+	c #A79B90",
"mk+	c #BA834F",
"nk+	c #BE864A",
"ok+	c #B17B4B",
"pk+	c #AD7C50",
"qk+	c #9B6C43",
"rk+	c #A5744F",
"sk+	c #A47B5A",
"tk+	c #A27E60",
"uk+	c #9B7A61",
"vk+	c #9C7B63",
"wk+	c #A08067",
"xk+	c #AF8B6C",
"yk+	c #B58E6D",
"zk+	c #A5A4A3",
"Ak+	c #A58F7F",
"Bk+	c #98715F",
"Ck+	c #936A5A",
"Dk+	c #966E5D",
"Ek+	c #936C56",
"Fk+	c #876045",
"Gk+	c #896044",
"Hk+	c #956748",
"Ik+	c #936344",
"Jk+	c #905F41",
"Kk+	c #915F44",
"Lk+	c #8D6044",
"Mk+	c #845C43",
"Nk+	c #8D6A54",
"Ok+	c #93745C",
"Pk+	c #9D7E65",
"Qk+	c #93745E",
"Rk+	c #91715E",
"Sk+	c #937462",
"Tk+	c #997662",
"Uk+	c #9F7963",
"Vk+	c #997558",
"Wk+	c #9D8979",
"Xk+	c #AFA39D",
"Yk+	c #AEA8A0",
"Zk+	c #92765F",
"`k+	c #925E37",
" l+	c #945F3C",
".l+	c #986544",
"+l+	c #916043",
"@l+	c #976D56",
"#l+	c #9C7E69",
"$l+	c #9E8772",
"%l+	c #ADA7A0",
"&l+	c #B5A085",
"*l+	c #B0937A",
"=l+	c #B49077",
"-l+	c #B08C70",
";l+	c #B28C71",
">l+	c #BB9477",
",l+	c #B9946F",
"'l+	c #B68F6B",
")l+	c #BA926D",
"!l+	c #B78D6A",
"~l+	c #B9987D",
"{l+	c #B49B86",
"]l+	c #C6B4A4",
"^l+	c #C6B9AF",
"/l+	c #C1B5AB",
"(l+	c #C1B7AF",
"_l+	c #BFBAB6",
":l+	c #BAAFA6",
"<l+	c #C2B0A1",
"[l+	c #B7A595",
"}l+	c #AB9785",
"|l+	c #A68D7E",
"1l+	c #B1ADA3",
"2l+	c #B3ACA0",
"3l+	c #B5A8A0",
"4l+	c #B3A191",
"5l+	c #B19578",
"6l+	c #AC8979",
"7l+	c #A8826E",
"8l+	c #A27F68",
"9l+	c #A88772",
"0l+	c #A38876",
"al+	c #A48C7B",
"bl+	c #A48C81",
"cl+	c #AB9386",
"dl+	c #AD907D",
"el+	c #B19785",
"fl+	c #B09B8D",
"gl+	c #A9A59A",
"hl+	c #A5A6A3",
"il+	c #AB937C",
"jl+	c #AC967E",
"kl+	c #AA957B",
"ll+	c #AA947B",
"ml+	c #AA917B",
"nl+	c #AB927D",
"ol+	c #A79279",
"pl+	c #A8937A",
"ql+	c #B09A83",
"rl+	c #AB917D",
"sl+	c #AA907D",
"tl+	c #AD927A",
"ul+	c #B09A87",
"vl+	c #B19680",
"wl+	c #B29882",
"xl+	c #AD9182",
"yl+	c #AC7B64",
"zl+	c #A7745C",
"Al+	c #AD7F69",
"Bl+	c #AB7D67",
"Cl+	c #A47A65",
"Dl+	c #A17E6B",
"El+	c #A28676",
"Fl+	c #A18476",
"Gl+	c #A48478",
"Hl+	c #A68A7A",
"Il+	c #AF998F",
"Jl+	c #AF9D98",
"Kl+	c #AD9A92",
"Ll+	c #B0A19C",
"Ml+	c #B0A198",
"Nl+	c #B2A298",
"Ol+	c #AFA4A0",
"Pl+	c #ACA8A7",
"Ql+	c #A0806A",
"Rl+	c #A78D7F",
"Sl+	c #9E826E",
"Tl+	c #A17E68",
"Ul+	c #9D7B66",
"Vl+	c #9E7C6A",
"Wl+	c #A07D6D",
"Xl+	c #9D8575",
"Yl+	c #9F8A78",
"Zl+	c #A08678",
"`l+	c #9F8678",
" m+	c #A0897A",
".m+	c #AA9A8D",
"+m+	c #A5907B",
"@m+	c #A2A09E",
"#m+	c #B29C8C",
"$m+	c #B4947B",
"%m+	c #A58A77",
"&m+	c #9D8679",
"*m+	c #9C8378",
"=m+	c #9A8478",
"-m+	c #978577",
";m+	c #9C887D",
">m+	c #AA968D",
",m+	c #A0908A",
"'m+	c #A3968D",
")m+	c #A09B96",
"!m+	c #A49994",
"~m+	c #A39A90",
"{m+	c #9D8C80",
"]m+	c #9C9088",
"^m+	c #A19893",
"/m+	c #ADA19B",
"(m+	c #A7A7A5",
"_m+	c #A2958A",
":m+	c #A28E7C",
"<m+	c #A99691",
"[m+	c #A59D92",
"}m+	c #ABA49A",
"|m+	c #A3998C",
"1m+	c #A89A8E",
"2m+	c #A99989",
"3m+	c #A79686",
"4m+	c #A69583",
"5m+	c #A89686",
"6m+	c #AE998E",
"7m+	c #AB978D",
"8m+	c #AA9D8E",
"9m+	c #A1988B",
"0m+	c #A09895",
"am+	c #9C9A99",
"bm+	c #A7A49B",
"cm+	c #AAA49B",
"dm+	c #ABA39A",
"em+	c #A9A29A",
"fm+	c #A4A3A1",
"gm+	c #A59897",
"hm+	c #AFA092",
"im+	c #AEA09D",
"jm+	c #B0A2A2",
"km+	c #ACACA7",
"lm+	c #AEACAA",
"mm+	c #A6A0A1",
"nm+	c #B1A9A6",
"om+	c #B0A6A4",
"pm+	c #AFA5A3",
"qm+	c #ACA6A7",
"rm+	c #ADA4A7",
"sm+	c #A8A39A",
"tm+	c #A69D9C",
"um+	c #A79D9C",
"vm+	c #AA9E9E",
"wm+	c #AA9C9C",
"xm+	c #AD9C9B",
"ym+	c #AB9B96",
"zm+	c #A19A98",
"Am+	c #A79FA0",
"Bm+	c #A4A39E",
"Cm+	c #B0A9A6",
"Dm+	c #A29D94",
"Em+	c #A59E92",
"Fm+	c #A79D9E",
"Gm+	c #9F988A",
"Hm+	c #A2978C",
"Im+	c #A7A3A4",
"Jm+	c #A7A1A3",
"Km+	c #A49C9E",
"Lm+	c #A19E9C",
"Mm+	c #A5A3A0",
"Nm+	c #A07E5E",
"Om+	c #A17959",
"Pm+	c #9E7B5F",
"Qm+	c #A88E80",
"Rm+	c #AB9A98",
"Sm+	c #AD9D97",
"Tm+	c #A29287",
"Um+	c #A4908A",
"Vm+	c #AB9C93",
"Wm+	c #A1897A",
"Xm+	c #9E8980",
"Ym+	c #A79186",
"Zm+	c #9B785F",
"`m+	c #9D795C",
" n+	c #A48366",
".n+	c #AC9E8F",
"+n+	c #AB9C8D",
"@n+	c #9B846F",
"#n+	c #99806B",
"$n+	c #998572",
"%n+	c #A79381",
"&n+	c #A89280",
"*n+	c #A89B8C",
"=n+	c #AA9F91",
"-n+	c #AFABA6",
";n+	c #AEAEA8",
">n+	c #ADACAB",
",n+	c #B9ACA4",
"'n+	c #BBAE9F",
")n+	c #BEB0A8",
"!n+	c #BCAEA9",
"~n+	c #B5A496",
"{n+	c #B8A48D",
"]n+	c #B19E86",
"^n+	c #B19884",
"/n+	c #B39A86",
"(n+	c #B09C89",
"_n+	c #B79E86",
":n+	c #BB9D8B",
"<n+	c #B59980",
"[n+	c #B59B82",
"}n+	c #B4A190",
"|n+	c #AA9680",
"1n+	c #AE9A83",
"2n+	c #AD9886",
"3n+	c #A59590",
"4n+	c #A3938E",
"5n+	c #99867F",
"6n+	c #A48A81",
"7n+	c #A5877B",
"8n+	c #9C7F72",
"9n+	c #997D71",
"0n+	c #A08579",
"an+	c #9F877B",
"bn+	c #93776B",
"cn+	c #9C7F70",
"dn+	c #968072",
"en+	c #8B6A5C",
"fn+	c #8C6253",
"gn+	c #886052",
"hn+	c #875E4F",
"in+	c #8F644B",
"jn+	c #9B7363",
"kn+	c #8D5E49",
"ln+	c #A29592",
"mn+	c #A89796",
"nn+	c #A99D9C",
"on+	c #AB9A95",
"pn+	c #9F8E84",
"qn+	c #9D897D",
"rn+	c #9D887B",
"sn+	c #9F8C7E",
"tn+	c #A08773",
"un+	c #A38D7A",
"vn+	c #A0897C",
"wn+	c #A0887C",
"xn+	c #987E72",
"yn+	c #9E8D7F",
"zn+	c #9B8B7D",
"An+	c #98877E",
"Bn+	c #A09180",
"Cn+	c #A68D81",
"Dn+	c #A68775",
"En+	c #AC9183",
"Fn+	c #A98C7A",
"Gn+	c #948680",
"Hn+	c #91837C",
"In+	c #96867D",
"Jn+	c #998579",
"Kn+	c #9F887E",
"Ln+	c #A38B81",
"Mn+	c #9F8676",
"Nn+	c #9F8577",
"On+	c #A0877C",
"Pn+	c #A08C82",
"Qn+	c #A7947E",
"Rn+	c #A3937D",
"Sn+	c #A1917C",
"Tn+	c #A59580",
"Un+	c #A79583",
"Vn+	c #A59287",
"Wn+	c #9C8A7C",
"Xn+	c #9C8B7D",
"Yn+	c #9D8A7B",
"Zn+	c #9E8977",
"`n+	c #A08978",
" o+	c #9F8877",
".o+	c #9F8876",
"+o+	c #9C8172",
"@o+	c #967A6E",
"#o+	c #92766B",
"$o+	c #907363",
"%o+	c #907460",
"&o+	c #947760",
"*o+	c #9A7A60",
"=o+	c #987B63",
"-o+	c #9F7E62",
";o+	c #A78460",
">o+	c #AD8860",
",o+	c #A98B6D",
"'o+	c #A79A8C",
")o+	c #99856E",
"!o+	c #957D63",
"~o+	c #A18D78",
"{o+	c #A29382",
"]o+	c #9F9183",
"^o+	c #9F9083",
"/o+	c #968678",
"(o+	c #9A897B",
"_o+	c #9A897A",
":o+	c #988879",
"<o+	c #A08D82",
"[o+	c #99877B",
"}o+	c #948474",
"|o+	c #948574",
"1o+	c #988878",
"2o+	c #978880",
"3o+	c #9C918A",
"4o+	c #9E988E",
"5o+	c #998D87",
"6o+	c #968783",
"7o+	c #9A8D87",
"8o+	c #966D53",
"9o+	c #9C857A",
"0o+	c #AB9584",
"ao+	c #B78E6E",
"bo+	c #BE9982",
"co+	c #C7B19D",
"do+	c #C9B6A7",
"eo+	c #C4B0A2",
"fo+	c #C8B7A8",
"go+	c #C6B5A4",
"ho+	c #C6B7A2",
"io+	c #C3B4A1",
"jo+	c #BBABA0",
"ko+	c #C8BCB2",
"lo+	c #C8C2BA",
"mo+	c #B09176",
"no+	c #AB8468",
"oo+	c #CCB09D",
"po+	c #C9B8AC",
"qo+	c #C1B09B",
"ro+	c #B69E84",
"so+	c #B2876A",
"to+	c #A67A5D",
"uo+	c #9E8061",
"vo+	c #9A7858",
"wo+	c #A88B70",
"xo+	c #B69981",
"yo+	c #B49B85",
"zo+	c #C6B9A9",
"Ao+	c #C5AF9F",
"Bo+	c #C6BDB2",
"Co+	c #BDAB9B",
"Do+	c #B39377",
"Eo+	c #AD8767",
"Fo+	c #AE8766",
"Go+	c #B08D6E",
"Ho+	c #B28E6B",
"Io+	c #B3916C",
"Jo+	c #B4926C",
"Ko+	c #B3906A",
"Lo+	c #B18D68",
"Mo+	c #A8876F",
"No+	c #AA8872",
"Oo+	c #ADA598",
"Po+	c #D4CBC0",
"Qo+	c #D3CBC8",
"Ro+	c #D4CCCC",
"So+	c #B38E64",
"To+	c #B18B5D",
"Uo+	c #B48D64",
"Vo+	c #B48964",
"Wo+	c #BA8F67",
"Xo+	c #B78B61",
"Yo+	c #B99065",
"Zo+	c #B79065",
"`o+	c #C39D78",
" p+	c #BD946F",
".p+	c #BF9569",
"+p+	c #BB9267",
"@p+	c #B79A7B",
"#p+	c #BC9F80",
"$p+	c #B79672",
"%p+	c #C4AA8C",
"&p+	c #C1A889",
"*p+	c #B29575",
"=p+	c #AE8E6C",
"-p+	c #918781",
";p+	c #6F5F54",
">p+	c #756256",
",p+	c #7F6B57",
"'p+	c #8A6D4D",
")p+	c #93674D",
"!p+	c #9A6449",
"~p+	c #9E6546",
"{p+	c #985F3F",
"]p+	c #955D3D",
"^p+	c #93593D",
"/p+	c #925C40",
"(p+	c #8B5A3E",
"_p+	c #9E5D33",
":p+	c #8D4E29",
"<p+	c #924E2D",
"[p+	c #8E4B2D",
"}p+	c #965F44",
"|p+	c #885135",
"1p+	c #875235",
"2p+	c #8C583A",
"3p+	c #87573D",
"4p+	c #86583D",
"5p+	c #9D5F3E",
"6p+	c #90573A",
"7p+	c #7C4F37",
"8p+	c #7E6756",
"9p+	c #9A8F86",
"0p+	c #9E9C97",
"ap+	c #957665",
"bp+	c #986F51",
"cp+	c #AB825A",
"dp+	c #A17B57",
"ep+	c #A57D60",
"fp+	c #A37C60",
"gp+	c #977758",
"hp+	c #99775A",
"ip+	c #9F7A5E",
"jp+	c #A57E60",
"kp+	c #9F7652",
"lp+	c #A38269",
"mp+	c #9F7F66",
"np+	c #B09788",
"op+	c #BAA897",
"pp+	c #C1B3A0",
"qp+	c #C2B4A2",
"rp+	c #C5B5A3",
"sp+	c #BEAC99",
"tp+	c #AD9B89",
"up+	c #AB7242",
"vp+	c #AB7651",
"wp+	c #A9754D",
"xp+	c #937F6F",
"yp+	c #917B6F",
"zp+	c #927C6F",
"Ap+	c #907B6D",
"Bp+	c #8B7767",
"Cp+	c #917D6D",
"Dp+	c #987C69",
"Ep+	c #9C7861",
"Fp+	c #9A775F",
"Gp+	c #9C775B",
"Hp+	c #9F7658",
"Ip+	c #9F7758",
"Jp+	c #9D7656",
"Kp+	c #987962",
"Lp+	c #997C6B",
"Mp+	c #AB8E79",
"Np+	c #B1865E",
"Op+	c #B08B65",
"Pp+	c #AD8A63",
"Qp+	c #AE8B63",
"Rp+	c #A98866",
"Sp+	c #9E8165",
"Tp+	c #9E8064",
"Up+	c #97795C",
"Vp+	c #947658",
"Wp+	c #9B7A59",
"Xp+	c #9E7651",
"Yp+	c #9D724D",
"Zp+	c #9C704B",
"`p+	c #9C6F4B",
" q+	c #946544",
".q+	c #8F623E",
"+q+	c #91673D",
"@q+	c #AB794B",
"#q+	c #A2764C",
"$q+	c #A1764E",
"%q+	c #B48249",
"&q+	c #AD9276",
"*q+	c #A29998",
"=q+	c #B19372",
"-q+	c #B19876",
";q+	c #B8A487",
">q+	c #B8A68D",
",q+	c #BEAA90",
"'q+	c #B6A186",
")q+	c #BCA68A",
"!q+	c #B5977B",
"~q+	c #A07655",
"{q+	c #997450",
"]q+	c #9D7A55",
"^q+	c #9B795B",
"/q+	c #B99882",
"(q+	c #9A7A54",
"_q+	c #8F6D44",
":q+	c #8A6741",
"<q+	c #BDAB9F",
"[q+	c #BDB1A1",
"}q+	c #B7AA98",
"|q+	c #B3A694",
"1q+	c #A09381",
"2q+	c #A6957B",
"3q+	c #A5693D",
"4q+	c #A4693D",
"5q+	c #8E6B51",
"6q+	c #937B6C",
"7q+	c #A0704B",
"8q+	c #C1B09E",
"9q+	c #C7B7A9",
"0q+	c #CBC5BC",
"aq+	c #CBC4BB",
"bq+	c #C5BBB0",
"cq+	c #C2B5A8",
"dq+	c #CEC6BC",
"eq+	c #CDC8BE",
"fq+	c #CDC7BE",
"gq+	c #CBBEAF",
"hq+	c #C6A791",
"iq+	c #BA9175",
"jq+	c #BA8663",
"kq+	c #B0754A",
"lq+	c #AA6D41",
"mq+	c #B17449",
"nq+	c #AD957F",
"oq+	c #C3B19D",
"pq+	c #CEC3B9",
"qq+	c #CFC3BC",
"rq+	c #BAA18A",
"sq+	c #B1967D",
"tq+	c #C4ADA8",
"uq+	c #B89784",
"vq+	c #AA7C50",
"wq+	c #A6754C",
"xq+	c #A57348",
"yq+	c #A7754A",
"zq+	c #AA794B",
"Aq+	c #A47245",
"Bq+	c #AA7A47",
"Cq+	c #B07F48",
"Dq+	c #B48246",
"Eq+	c #BB9474",
"Fq+	c #C7AD9E",
"Gq+	c #B28D6B",
"Hq+	c #AC8558",
"Iq+	c #B09678",
"Jq+	c #AEA1A1",
"Kq+	c #D2CBC4",
"Lq+	c #D0CDC8",
"Mq+	c #CED1C8",
"Nq+	c #CDC7B5",
"Oq+	c #C59F7B",
"Pq+	c #BC824A",
"Qq+	c #C28B53",
"Rq+	c #B9844F",
"Sq+	c #BB8351",
"Tq+	c #B8814B",
"Uq+	c #B6814E",
"Vq+	c #CDB092",
"Wq+	c #C6A485",
"Xq+	c #BE9875",
"Yq+	c #C8AB93",
"Zq+	c #C9BAAA",
"`q+	c #C3B6A1",
" r+	c #C5AF99",
".r+	c #CCB5A7",
"+r+	c #C8B7A7",
"@r+	c #C4B39F",
"#r+	c #B99F84",
"$r+	c #AF997C",
"%r+	c #9F9A99",
"&r+	c #7C746F",
"*r+	c #554B44",
"=r+	c #776355",
"-r+	c #A68065",
";r+	c #A27351",
">r+	c #9A6747",
",r+	c #9C6749",
"'r+	c #9A6547",
")r+	c #966143",
"!r+	c #976544",
"~r+	c #996543",
"{r+	c #8C4E25",
"]r+	c #8F502D",
"^r+	c #8F4F2E",
"/r+	c #935433",
"(r+	c #8B4F2F",
"_r+	c #8B502F",
":r+	c #905535",
"<r+	c #8F5538",
"[r+	c #8F5B3E",
"}r+	c #946142",
"|r+	c #A15E41",
"1r+	c #985B3D",
"2r+	c #824F32",
"3r+	c #724E39",
"4r+	c #93857D",
"5r+	c #AC8562",
"6r+	c #B47D43",
"7r+	c #A07348",
"8r+	c #976946",
"9r+	c #A57248",
"0r+	c #946642",
"ar+	c #8F6742",
"br+	c #8D643F",
"cr+	c #956542",
"dr+	c #9B6A47",
"er+	c #A37147",
"fr+	c #9A7456",
"gr+	c #A08979",
"hr+	c #B7A49B",
"ir+	c #B1A090",
"jr+	c #BAB0A2",
"kr+	c #B7B8B1",
"lr+	c #C4C1B6",
"mr+	c #BFB7A5",
"nr+	c #BFAEA1",
"or+	c #C8BBB8",
"pr+	c #CAB8B3",
"qr+	c #A59995",
"rr+	c #A57956",
"sr+	c #AA7E5C",
"tr+	c #A67D56",
"ur+	c #A37D5C",
"vr+	c #9E785B",
"wr+	c #9B7A5F",
"xr+	c #967A67",
"yr+	c #957D6D",
"zr+	c #957E70",
"Ar+	c #917C70",
"Br+	c #947F73",
"Cr+	c #958074",
"Dr+	c #907C6E",
"Er+	c #8E7A68",
"Fr+	c #9D7C68",
"Gr+	c #9F765A",
"Hr+	c #A17457",
"Ir+	c #A27657",
"Jr+	c #9F785A",
"Kr+	c #98745C",
"Lr+	c #997561",
"Mr+	c #AE8864",
"Nr+	c #BB956B",
"Or+	c #B7946C",
"Pr+	c #A98766",
"Qr+	c #A68364",
"Rr+	c #A17E60",
"Sr+	c #99775B",
"Tr+	c #97765A",
"Ur+	c #A57E59",
"Vr+	c #A77B54",
"Wr+	c #A47347",
"Xr+	c #A16F42",
"Yr+	c #9A6A41",
"Zr+	c #916846",
"`r+	c #946B48",
" s+	c #9B6D43",
".s+	c #A87D4E",
"+s+	c #A07550",
"@s+	c #B7844F",
"#s+	c #B4844B",
"$s+	c #AA8F6E",
"%s+	c #A09D91",
"&s+	c #9F9793",
"*s+	c #AE8E71",
"=s+	c #A57F56",
"-s+	c #9E7B53",
";s+	c #9F8366",
">s+	c #B0957A",
",s+	c #BAA487",
"'s+	c #BFAC8C",
")s+	c #956746",
"!s+	c #945A37",
"~s+	c #9D744C",
"{s+	c #A38161",
"]s+	c #C5B19E",
"^s+	c #B9AB97",
"/s+	c #906B52",
"(s+	c #BBAC99",
"_s+	c #B9AB93",
":s+	c #B9A992",
"<s+	c #BEB09C",
"[s+	c #BEB4A3",
"}s+	c #B5A28B",
"|s+	c #A76C40",
"1s+	c #996946",
"2s+	c #8D6A50",
"3s+	c #8F7867",
"4s+	c #A09693",
"5s+	c #B68F73",
"6s+	c #C9B7AA",
"7s+	c #CDC3B1",
"8s+	c #D0C7C3",
"9s+	c #CFC8C5",
"0s+	c #CDCAC5",
"as+	c #B89579",
"bs+	c #AC7341",
"cs+	c #B3794D",
"ds+	c #B37846",
"es+	c #B47840",
"fs+	c #AE703E",
"gs+	c #B37544",
"hs+	c #B39C83",
"is+	c #BD9F7E",
"js+	c #AB825D",
"ks+	c #B49776",
"ls+	c #BB9C83",
"ms+	c #AC7E56",
"ns+	c #A67B53",
"os+	c #A87A50",
"ps+	c #A7774A",
"qs+	c #A47041",
"rs+	c #A97648",
"ss+	c #A37142",
"ts+	c #A36F40",
"us+	c #AA7843",
"vs+	c #B38144",
"ws+	c #B68340",
"xs+	c #B37E40",
"ys+	c #BA8F68",
"zs+	c #C2A893",
"As+	c #A87F5A",
"Bs+	c #B28B64",
"Cs+	c #B89B7E",
"Ds+	c #AE9B93",
"Es+	c #C9B39D",
"Fs+	c #C9B7A3",
"Gs+	c #D4C7B4",
"Hs+	c #CBCCBF",
"Is+	c #D2CFC4",
"Js+	c #C4A78B",
"Ks+	c #C08855",
"Ls+	c #BF8347",
"Ms+	c #C1834C",
"Ns+	c #BF814B",
"Os+	c #B97E47",
"Ps+	c #BF7E4B",
"Qs+	c #C48554",
"Rs+	c #C08A57",
"Ss+	c #C38E59",
"Ts+	c #C3986C",
"Us+	c #C6B49E",
"Vs+	c #D0CEC5",
"Ws+	c #CCC5B9",
"Xs+	c #CFBBAC",
"Ys+	c #D1BAB0",
"Zs+	c #CDBCB0",
"`s+	c #CEC2B2",
" t+	c #C3B3A0",
".t+	c #BDA283",
"+t+	c #B69B7B",
"@t+	c #7F7773",
"#t+	c #5F4E43",
"$t+	c #8F725D",
"%t+	c #A87C5F",
"&t+	c #A87454",
"*t+	c #9F6B4B",
"=t+	c #9D694A",
"-t+	c #976443",
";t+	c #9A6642",
">t+	c #9D653C",
",t+	c #9B613E",
"'t+	c #915734",
")t+	c #8C512E",
"!t+	c #905432",
"~t+	c #975A38",
"{t+	c #955636",
"]t+	c #8D5430",
"^t+	c #985B39",
"/t+	c #9C5E3A",
"(t+	c #975935",
"_t+	c #8B583D",
":t+	c #AA8968",
"<t+	c #A27951",
"[t+	c #A9713E",
"}t+	c #A3744B",
"|t+	c #A5774E",
"1t+	c #B88C62",
"2t+	c #976C47",
"3t+	c #926C4D",
"4t+	c #89603E",
"5t+	c #8E5F39",
"6t+	c #96633A",
"7t+	c #9B663C",
"8t+	c #9D683E",
"9t+	c #A16E3F",
"0t+	c #A27147",
"at+	c #A27750",
"bt+	c #9C744E",
"ct+	c #957150",
"dt+	c #A7917E",
"et+	c #C7B3A8",
"ft+	c #B69E91",
"gt+	c #C4B7B1",
"ht+	c #C1BFB9",
"it+	c #CBBDB7",
"jt+	c #C5B6B2",
"kt+	c #C8B5AF",
"lt+	c #C0A89E",
"mt+	c #A39792",
"nt+	c #A28064",
"ot+	c #A07E68",
"pt+	c #A18069",
"qt+	c #A18065",
"rt+	c #A17F64",
"st+	c #967B69",
"tt+	c #9A7C67",
"ut+	c #977C6B",
"vt+	c #977E6D",
"wt+	c #927968",
"xt+	c #947A6C",
"yt+	c #967E6A",
"zt+	c #9A7D69",
"At+	c #9D7D63",
"Bt+	c #A3795D",
"Ct+	c #A67859",
"Dt+	c #A77E60",
"Et+	c #9D795E",
"Ft+	c #98725B",
"Gt+	c #9B8376",
"Ht+	c #AF8C72",
"It+	c #AA8560",
"Jt+	c #B99165",
"Kt+	c #B48F65",
"Lt+	c #AB8663",
"Mt+	c #AB8362",
"Nt+	c #A57C5C",
"Ot+	c #A17A59",
"Pt+	c #AA7B52",
"Qt+	c #A7764A",
"Rt+	c #A27145",
"St+	c #9D6C43",
"Tt+	c #976A46",
"Ut+	c #9D7046",
"Vt+	c #A6794B",
"Wt+	c #AF8353",
"Xt+	c #AB7E55",
"Yt+	c #A58462",
"Zt+	c #A09587",
"`t+	c #9F9693",
" u+	c #AB8E74",
".u+	c #BA9C7C",
"+u+	c #A07E5A",
"@u+	c #9B7652",
"#u+	c #B4997D",
"$u+	c #AA8566",
"%u+	c #A17B5A",
"&u+	c #AF8968",
"*u+	c #976B48",
"=u+	c #87542C",
"-u+	c #885024",
";u+	c #90552C",
">u+	c #925836",
",u+	c #9C7E66",
"'u+	c #C4B5A5",
")u+	c #BFB0A0",
"!u+	c #C2B4A4",
"~u+	c #C1AB9F",
"{u+	c #AF9487",
"]u+	c #BDAA91",
"^u+	c #B69D82",
"/u+	c #A68C6C",
"(u+	c #BCA489",
"_u+	c #B8A58E",
":u+	c #B69D86",
"<u+	c #8F755F",
"[u+	c #9D928D",
"}u+	c #AC8265",
"|u+	c #B17549",
"1u+	c #CFC8BE",
"2u+	c #C4B6A9",
"3u+	c #B3A08C",
"4u+	c #C9BFB3",
"5u+	c #D0CAC3",
"6u+	c #CBC1BA",
"7u+	c #CEC9C1",
"8u+	c #BBA18E",
"9u+	c #B67044",
"0u+	c #B26C40",
"au+	c #B06C36",
"bu+	c #B16C35",
"cu+	c #B16D36",
"du+	c #AF7138",
"eu+	c #B6763F",
"fu+	c #B37344",
"gu+	c #AF6E40",
"hu+	c #B57647",
"iu+	c #B7865B",
"ju+	c #A39687",
"ku+	c #A6A297",
"lu+	c #AA9375",
"mu+	c #AB8E69",
"nu+	c #AB865A",
"ou+	c #B58859",
"pu+	c #B68859",
"qu+	c #B28557",
"ru+	c #A97F4F",
"su+	c #A97F57",
"tu+	c #A57A50",
"uu+	c #A87C51",
"vu+	c #AB7C4E",
"wu+	c #A87546",
"xu+	c #A67244",
"yu+	c #A57042",
"zu+	c #A87449",
"Au+	c #B07C4C",
"Bu+	c #B7834D",
"Cu+	c #B88346",
"Du+	c #B48756",
"Eu+	c #A6815D",
"Fu+	c #AD896B",
"Gu+	c #B99B83",
"Hu+	c #A59489",
"Iu+	c #B39B89",
"Ju+	c #C1A381",
"Ku+	c #BD9165",
"Lu+	c #BD9666",
"Mu+	c #C2AE99",
"Nu+	c #D4CAC1",
"Ou+	c #CBB9A4",
"Pu+	c #C29466",
"Qu+	c #BF8244",
"Ru+	c #BE8042",
"Su+	c #C18345",
"Tu+	c #C28247",
"Uu+	c #C2834A",
"Vu+	c #BC7D43",
"Wu+	c #BF7C43",
"Xu+	c #C5834A",
"Yu+	c #C38A4E",
"Zu+	c #C79054",
"`u+	c #C1925E",
" v+	c #C8B799",
".v+	c #CDCABB",
"+v+	c #C8BAA9",
"@v+	c #D0B6A6",
"#v+	c #D0BAAF",
"$v+	c #CDBCAF",
"%v+	c #C7BEB0",
"&v+	c #CCB69C",
"*v+	c #B99C79",
"=v+	c #7F7572",
"-v+	c #876F5F",
";v+	c #A47C62",
">v+	c #A57250",
",v+	c #A36F4D",
"'v+	c #A2704B",
")v+	c #9F6C4B",
"!v+	c #9C6A49",
"~v+	c #9D6945",
"{v+	c #9B6139",
"]v+	c #97613D",
"^v+	c #965B39",
"/v+	c #975B37",
"(v+	c #9A5A36",
"_v+	c #9A5431",
":v+	c #93532D",
"<v+	c #935A31",
"[v+	c #9C5830",
"}v+	c #955836",
"|v+	c #A18678",
"1v+	c #B29C87",
"2v+	c #977152",
"3v+	c #BB9A7E",
"4v+	c #B4906B",
"5v+	c #B59577",
"6v+	c #956C51",
"7v+	c #9B6741",
"8v+	c #9C673B",
"9v+	c #9D683B",
"0v+	c #A37245",
"av+	c #A2754B",
"bv+	c #9E734B",
"cv+	c #9B7654",
"dv+	c #AD9882",
"ev+	c #C6C2BC",
"fv+	c #BCAE9E",
"gv+	c #A78870",
"hv+	c #A39B90",
"iv+	c #9D7E6C",
"jv+	c #9F7F69",
"kv+	c #A08069",
"lv+	c #A17D61",
"mv+	c #9C7B61",
"nv+	c #9A7C65",
"ov+	c #997B65",
"pv+	c #977B67",
"qv+	c #9B7F6C",
"rv+	c #9E836C",
"sv+	c #9E8068",
"tv+	c #9F7F61",
"uv+	c #A07D5E",
"vv+	c #A47B59",
"wv+	c #9F7B5B",
"xv+	c #A48C7C",
"yv+	c #ADA196",
"zv+	c #AC886A",
"Av+	c #A07C50",
"Bv+	c #AC8359",
"Cv+	c #B2895D",
"Dv+	c #AD845F",
"Ev+	c #AA7F5A",
"Fv+	c #A57C54",
"Gv+	c #A67C54",
"Hv+	c #A77D55",
"Iv+	c #AC7E55",
"Jv+	c #AC7A4E",
"Kv+	c #A6754A",
"Lv+	c #9E6F48",
"Mv+	c #AA7D4F",
"Nv+	c #B28553",
"Ov+	c #B58556",
"Pv+	c #A36C3E",
"Qv+	c #9A6740",
"Rv+	c #A67C58",
"Sv+	c #9F9694",
"Tv+	c #A58E7A",
"Uv+	c #BEAD97",
"Vv+	c #BAA792",
"Wv+	c #A18364",
"Xv+	c #A48362",
"Yv+	c #946238",
"Zv+	c #955B33",
"`v+	c #965932",
" w+	c #96643B",
".w+	c #8E5A2D",
"+w+	c #8E5524",
"@w+	c #905B2C",
"#w+	c #C1AF9A",
"$w+	c #C6BCAC",
"%w+	c #C3B8A7",
"&w+	c #BEAC92",
"*w+	c #C4AD91",
"=w+	c #B79577",
"-w+	c #B7926C",
";w+	c #C09F7A",
">w+	c #BCA181",
",w+	c #B7A387",
"'w+	c #A46A3E",
")w+	c #9E6439",
"!w+	c #986244",
"~w+	c #A68975",
"{w+	c #AE744B",
"]w+	c #C9AFA0",
"^w+	c #D0C3B9",
"/w+	c #D1C7C0",
"(w+	c #C7BCB5",
"_w+	c #BFB4A8",
":w+	c #CFC5B9",
"<w+	c #CBC1B5",
"[w+	c #CAC0B2",
"}w+	c #CCC3B6",
"|w+	c #CAB7AC",
"1w+	c #BF9375",
"2w+	c #AF714A",
"3w+	c #B26D40",
"4w+	c #AE6737",
"5w+	c #AB6636",
"6w+	c #AD6A34",
"7w+	c #B27136",
"8w+	c #B87840",
"9w+	c #B97941",
"0w+	c #BA7942",
"aw+	c #B87540",
"bw+	c #B5773E",
"cw+	c #AA9282",
"dw+	c #9F9C95",
"ew+	c #AF9888",
"fw+	c #BAA088",
"gw+	c #B28E62",
"hw+	c #BA8E5F",
"iw+	c #AD855C",
"jw+	c #AE8A69",
"kw+	c #B18F6B",
"lw+	c #A17C58",
"mw+	c #A07A59",
"nw+	c #A27B57",
"ow+	c #AA7D51",
"pw+	c #AF7E53",
"qw+	c #AD7B4F",
"rw+	c #A9774A",
"sw+	c #9F6B3D",
"tw+	c #9A6A3B",
"uw+	c #95693D",
"vw+	c #9A734C",
"ww+	c #B8864E",
"xw+	c #B5824D",
"yw+	c #CCB8A8",
"zw+	c #AB815C",
"Aw+	c #AE8C6B",
"Bw+	c #B29E8B",
"Cw+	c #C9A17B",
"Dw+	c #C5925A",
"Ew+	c #C29059",
"Fw+	c #D0B095",
"Gw+	c #DBCDC3",
"Hw+	c #D2C1AC",
"Iw+	c #BA8140",
"Jw+	c #BD8042",
"Kw+	c #BE824A",
"Lw+	c #BE8349",
"Mw+	c #C0834A",
"Nw+	c #C38B4B",
"Ow+	c #C3935C",
"Pw+	c #BF996A",
"Qw+	c #CDBBA0",
"Rw+	c #D1C4B5",
"Sw+	c #CCB8A5",
"Tw+	c #BDA895",
"Uw+	c #CCBBAD",
"Vw+	c #CDBEB0",
"Ww+	c #CAC2B4",
"Xw+	c #CCC8BD",
"Yw+	c #B3997E",
"Zw+	c #79716D",
"`w+	c #745D4F",
" x+	c #9F745E",
".x+	c #AB755A",
"+x+	c #A57050",
"@x+	c #A4704D",
"#x+	c #A17048",
"$x+	c #9C6745",
"%x+	c #A16B4A",
"&x+	c #A26C46",
"*x+	c #9A6C43",
"=x+	c #9D6541",
"-x+	c #995C39",
";x+	c #A5623D",
">x+	c #A15832",
",x+	c #A5643D",
"'x+	c #A2683E",
")x+	c #A2663D",
"!x+	c #A3663D",
"~x+	c #A05F3D",
"{x+	c #A26950",
"]x+	c #BE9A7D",
"^x+	c #D3C5BB",
"/x+	c #C0AA98",
"(x+	c #C2AA9B",
"_x+	c #C2B0A8",
":x+	c #B19688",
"<x+	c #B18F77",
"[x+	c #9D693D",
"}x+	c #9D683D",
"|x+	c #9F673D",
"1x+	c #A2693F",
"2x+	c #A46B42",
"3x+	c #C2B7AC",
"4x+	c #C1B4AC",
"5x+	c #C9C1BD",
"6x+	c #CBBFB5",
"7x+	c #A0836B",
"8x+	c #AC8E72",
"9x+	c #B69A7E",
"0x+	c #AA917A",
"ax+	c #A38166",
"bx+	c #A78163",
"cx+	c #A88160",
"dx+	c #A67E5C",
"ex+	c #9F7A5C",
"fx+	c #99785E",
"gx+	c #997C64",
"hx+	c #997D66",
"ix+	c #9E7E63",
"jx+	c #A57E64",
"kx+	c #9E8065",
"lx+	c #A17E61",
"mx+	c #A57F60",
"nx+	c #9F7B59",
"ox+	c #A37F5C",
"px+	c #A77F5D",
"qx+	c #A47C5A",
"rx+	c #A27B58",
"sx+	c #A2785C",
"tx+	c #B08B67",
"ux+	c #A88051",
"vx+	c #AE845B",
"wx+	c #AF7F55",
"xx+	c #AB7C51",
"yx+	c #AB7D51",
"zx+	c #A5774B",
"Ax+	c #A87649",
"Bx+	c #A47346",
"Cx+	c #A17144",
"Dx+	c #A87949",
"Ex+	c #B37F4C",
"Fx+	c #B5814B",
"Gx+	c #B1814A",
"Hx+	c #A67648",
"Ix+	c #A39181",
"Jx+	c #9A9695",
"Kx+	c #A38D78",
"Lx+	c #B5A289",
"Mx+	c #B79A81",
"Nx+	c #B99679",
"Ox+	c #9A6436",
"Px+	c #945A2E",
"Qx+	c #8F582C",
"Rx+	c #8E572C",
"Sx+	c #8C592F",
"Tx+	c #92623A",
"Ux+	c #A07653",
"Vx+	c #B8A38A",
"Wx+	c #C3B2A0",
"Xx+	c #C2AD9A",
"Yx+	c #C9B2AA",
"Zx+	c #B9A487",
"`x+	c #C7B79E",
" y+	c #BDA588",
".y+	c #C2A17D",
"+y+	c #BEA17B",
"@y+	c #BBA47E",
"#y+	c #BBA68E",
"$y+	c #9A613E",
"%y+	c #98603D",
"&y+	c #935C3B",
"*y+	c #8D5B3F",
"=y+	c #987564",
"-y+	c #CCBBB1",
";y+	c #D0C6C1",
">y+	c #CCBDB3",
",y+	c #CDBAA8",
"'y+	c #BAA896",
")y+	c #B7A692",
"!y+	c #C4B4A0",
"~y+	c #D0BBA6",
"{y+	c #AF7A50",
"]y+	c #B2784B",
"^y+	c #B37443",
"/y+	c #AF6D39",
"(y+	c #B0723F",
"_y+	c #BA7E4A",
":y+	c #BC7C49",
"<y+	c #B67A49",
"[y+	c #B79E88",
"}y+	c #BC946B",
"|y+	c #B9956E",
"1y+	c #A98965",
"2y+	c #A28162",
"3y+	c #9E7C5E",
"4y+	c #A9815D",
"5y+	c #AB7E57",
"6y+	c #A8784E",
"7y+	c #A06E44",
"8y+	c #936A43",
"9y+	c #936E48",
"0y+	c #AE7848",
"ay+	c #AF7F4C",
"by+	c #A6876C",
"cy+	c #CCBBAC",
"dy+	c #C19F84",
"ey+	c #ADA18D",
"fy+	c #C59F71",
"gy+	c #C89763",
"hy+	c #C89B6E",
"iy+	c #C3A17F",
"jy+	c #C7AA8E",
"ky+	c #C4A07C",
"ly+	c #BF8E55",
"my+	c #C18A4C",
"ny+	c #BD8548",
"oy+	c #BD8649",
"py+	c #C18C58",
"qy+	c #C08C53",
"ry+	c #C28D54",
"sy+	c #C28D58",
"ty+	c #C6915B",
"uy+	c #C6925B",
"vy+	c #C2996A",
"wy+	c #BA8F60",
"xy+	c #C3AE95",
"yy+	c #CEC0B3",
"zy+	c #CFC1B3",
"Ay+	c #CFC3B9",
"By+	c #CFC9C0",
"Cy+	c #C8BFB1",
"Dy+	c #BD9875",
"Ey+	c #B49880",
"Fy+	c #A19C9A",
"Gy+	c #78726E",
"Hy+	c #594C3E",
"Iy+	c #87644D",
"Jy+	c #A8765A",
"Ky+	c #A16B4C",
"Ly+	c #A56F4F",
"My+	c #A26A45",
"Ny+	c #9C6B4B",
"Oy+	c #A26A49",
"Py+	c #A46B47",
"Qy+	c #A1673A",
"Ry+	c #9C6235",
"Sy+	c #9F6741",
"Ty+	c #99623E",
"Uy+	c #965F3C",
"Vy+	c #A56436",
"Wy+	c #A96B3F",
"Xy+	c #A6693E",
"Yy+	c #A4673D",
"Zy+	c #A5663D",
"`y+	c #A9825E",
" z+	c #A97F56",
".z+	c #B69C83",
"+z+	c #C6BBB5",
"@z+	c #C7C0BE",
"#z+	c #966F51",
"$z+	c #9E6F49",
"%z+	c #9C6337",
"&z+	c #9E653A",
"*z+	c #A3693E",
"=z+	c #B59F90",
"-z+	c #C5B8B0",
";z+	c #C7BDB7",
">z+	c #C8BEB6",
",z+	c #A9907C",
"'z+	c #A88668",
")z+	c #AE8E72",
"!z+	c #A58C75",
"~z+	c #A39D94",
"{z+	c #A1988F",
"]z+	c #9E816C",
"^z+	c #AA8260",
"/z+	c #A47D5F",
"(z+	c #9C7960",
"_z+	c #987A63",
":z+	c #977C65",
"<z+	c #A28265",
"[z+	c #A47E62",
"}z+	c #A78165",
"|z+	c #9F8064",
"1z+	c #A28063",
"2z+	c #A27C60",
"3z+	c #A17B5F",
"4z+	c #A17D5D",
"5z+	c #9F7C59",
"6z+	c #A27F5C",
"7z+	c #A47A55",
"8z+	c #A67953",
"9z+	c #B38B68",
"0z+	c #AF8356",
"az+	c #AA825A",
"bz+	c #AA7F59",
"cz+	c #B17F54",
"dz+	c #AF7E50",
"ez+	c #AC7B4D",
"fz+	c #A37144",
"gz+	c #A67246",
"hz+	c #A87348",
"iz+	c #A57044",
"jz+	c #A56F40",
"kz+	c #A47040",
"lz+	c #A57243",
"mz+	c #A16D41",
"nz+	c #A26D41",
"oz+	c #B27C48",
"pz+	c #B47D49",
"qz+	c #B07D4C",
"rz+	c #AE8350",
"sz+	c #A88F7D",
"tz+	c #8E5B38",
"uz+	c #8F572F",
"vz+	c #8D552E",
"wz+	c #915933",
"xz+	c #8F5835",
"yz+	c #895836",
"zz+	c #8A5A38",
"Az+	c #875836",
"Bz+	c #926A4C",
"Cz+	c #B8997C",
"Dz+	c #C2AD95",
"Ez+	c #B39980",
"Fz+	c #B99D81",
"Gz+	c #C3AE97",
"Hz+	c #B69474",
"Iz+	c #BBA37F",
"Jz+	c #B8A288",
"Kz+	c #946243",
"Lz+	c #905F43",
"Mz+	c #94624C",
"Nz+	c #956951",
"Oz+	c #A28470",
"Pz+	c #A79180",
"Qz+	c #B78C64",
"Rz+	c #B6906C",
"Sz+	c #C2B5A7",
"Tz+	c #CBC0B9",
"Uz+	c #BCA799",
"Vz+	c #9E7F65",
"Wz+	c #A98B71",
"Xz+	c #9C8066",
"Yz+	c #B0967C",
"Zz+	c #C6AE94",
"`z+	c #BA9E82",
" A+	c #B2865B",
".A+	c #AC7F54",
"+A+	c #AD7F51",
"@A+	c #B37D4C",
"#A+	c #B17945",
"$A+	c #AD794D",
"%A+	c #B47E57",
"&A+	c #AF7E51",
"*A+	c #B48254",
"=A+	c #AD7955",
"-A+	c #B2825D",
";A+	c #A8A194",
">A+	c #BBA189",
",A+	c #B89374",
"'A+	c #B59976",
")A+	c #AF9677",
"!A+	c #A08168",
"~A+	c #A9896B",
"{A+	c #A6805F",
"]A+	c #A48162",
"^A+	c #9B7F60",
"/A+	c #9C7D5C",
"(A+	c #A37F59",
"_A+	c #A8886A",
":A+	c #A88669",
"<A+	c #B6997F",
"[A+	c #A78866",
"}A+	c #A88D7B",
"|A+	c #C6AE8E",
"1A+	c #CDB096",
"2A+	c #CAB9A0",
"3A+	c #C4A784",
"4A+	c #C49C73",
"5A+	c #C09C75",
"6A+	c #C29A6F",
"7A+	c #C59B70",
"8A+	c #C29B73",
"9A+	c #C19A6A",
"0A+	c #BF9967",
"aA+	c #C69F77",
"bA+	c #C89F7D",
"cA+	c #C59F7C",
"dA+	c #C0A07D",
"eA+	c #B4916C",
"fA+	c #CBB29C",
"gA+	c #D3C7BB",
"hA+	c #CCC2B9",
"iA+	c #C5AE95",
"jA+	c #B28A62",
"kA+	c #B0998A",
"lA+	c #98908C",
"mA+	c #726054",
"nA+	c #8B634E",
"oA+	c #A46F50",
"pA+	c #976240",
"qA+	c #9F613F",
"rA+	c #9E6646",
"sA+	c #9E6948",
"tA+	c #96623B",
"uA+	c #905A37",
"vA+	c #A16140",
"wA+	c #955C39",
"xA+	c #946241",
"yA+	c #955F3B",
"zA+	c #985B35",
"AA+	c #9D5D37",
"BA+	c #9B603A",
"CA+	c #99643C",
"DA+	c #9B653D",
"EA+	c #9F6944",
"FA+	c #9F6545",
"GA+	c #A36D50",
"HA+	c #9E8E80",
"IA+	c #ACA497",
"JA+	c #AB9683",
"KA+	c #A48F7D",
"LA+	c #A79989",
"MA+	c #B0A79B",
"NA+	c #C0B6AA",
"OA+	c #C9C9C3",
"PA+	c #BEB7AB",
"QA+	c #A57655",
"RA+	c #A87C5A",
"SA+	c #A88A71",
"TA+	c #C5B5AC",
"UA+	c #C7B6AB",
"VA+	c #CEBEB5",
"WA+	c #BBA89A",
"XA+	c #B6A798",
"YA+	c #B39A84",
"ZA+	c #9D7B5C",
"`A+	c #9B7B5C",
" B+	c #A58C73",
".B+	c #A5A197",
"+B+	c #A6A197",
"@B+	c #A68266",
"#B+	c #A98362",
"$B+	c #AA8360",
"%B+	c #A47F60",
"&B+	c #9A785D",
"*B+	c #977860",
"=B+	c #9A7D63",
"-B+	c #A28165",
";B+	c #A28163",
">B+	c #9D7C60",
",B+	c #997A5E",
"'B+	c #9B7C60",
")B+	c #9C7A60",
"!B+	c #9D7B5D",
"~B+	c #9F7C5A",
"{B+	c #A07C5B",
"]B+	c #A37D58",
"^B+	c #A57D53",
"/B+	c #A47B52",
"(B+	c #AD7E4F",
"_B+	c #AA9B96",
":B+	c #B08358",
"<B+	c #A77748",
"[B+	c #A77648",
"}B+	c #9F6D41",
"|B+	c #A06C44",
"1B+	c #A16D46",
"2B+	c #A46E44",
"3B+	c #A66D3E",
"4B+	c #A57143",
"5B+	c #A87241",
"6B+	c #AE763E",
"7B+	c #AF7B47",
"8B+	c #B17F4D",
"9B+	c #B3804D",
"0B+	c #AA988B",
"aB+	c #A59C9E",
"bB+	c #A2938A",
"cB+	c #AE8D6F",
"dB+	c #9E7458",
"eB+	c #986D51",
"fB+	c #8E6446",
"gB+	c #8B6142",
"hB+	c #865C40",
"iB+	c #885E44",
"jB+	c #855A41",
"kB+	c #8D6149",
"lB+	c #8D6144",
"mB+	c #8A5D40",
"nB+	c #885C3D",
"oB+	c #86603C",
"pB+	c #8F6D4B",
"qB+	c #A08264",
"rB+	c #AE8F71",
"sB+	c #9A704A",
"tB+	c #8E6948",
"uB+	c #9E7C5C",
"vB+	c #B49371",
"wB+	c #A98E6B",
"xB+	c #876D51",
"yB+	c #A28579",
"zB+	c #A08681",
"AB+	c #9C837F",
"BB+	c #AC9A93",
"CB+	c #B89277",
"DB+	c #B79978",
"EB+	c #BAA69C",
"FB+	c #AE9686",
"GB+	c #9F8976",
"HB+	c #9A826E",
"IB+	c #AB917B",
"JB+	c #AB8B6D",
"KB+	c #AF8C70",
"LB+	c #AA8E79",
"MB+	c #A88468",
"NB+	c #AB8A70",
"OB+	c #A8A399",
"PB+	c #AA907C",
"QB+	c #A2876D",
"RB+	c #A48A71",
"SB+	c #A48B73",
"TB+	c #A2836A",
"UB+	c #9E7C61",
"VB+	c #A6866C",
"WB+	c #A7876E",
"XB+	c #A58770",
"YB+	c #A58C77",
"ZB+	c #A18672",
"`B+	c #A3917E",
" C+	c #A89785",
".C+	c #A49A99",
"+C+	c #B19E89",
"@C+	c #B09C8A",
"#C+	c #B6A695",
"$C+	c #B19D89",
"%C+	c #B29B87",
"&C+	c #B29E8A",
"*C+	c #B09477",
"=C+	c #B69A7D",
"-C+	c #B2997E",
";C+	c #AF9D88",
">C+	c #B09E8A",
",C+	c #B09C88",
"'C+	c #AC9378",
")C+	c #AF967B",
"!C+	c #B39E8B",
"~C+	c #B4A49A",
"{C+	c #B7A89F",
"]C+	c #B2A296",
"^C+	c #AB988A",
"/C+	c #A79C9E",
"(C+	c #A59FA0",
"_C+	c #A19D9C",
":C+	c #9E948D",
"<C+	c #9B7C6B",
"[C+	c #9D7D6E",
"}C+	c #9E867D",
"|C+	c #A28E89",
"1C+	c #9A8173",
"2C+	c #9C7863",
"3C+	c #9E7968",
"4C+	c #9E8072",
"5C+	c #A2887B",
"6C+	c #9B887A",
"7C+	c #948175",
"8C+	c #A4907F",
"9C+	c #A6928A",
"0C+	c #A29489",
"aC+	c #A2948D",
"bC+	c #9C9B95",
"cC+	c #9E948A",
"dC+	c #A2846F",
"eC+	c #A5866F",
"fC+	c #96745F",
"gC+	c #96735E",
"hC+	c #94735D",
"iC+	c #95745D",
"jC+	c #AB9380",
"kC+	c #AC8B71",
"lC+	c #967452",
"mC+	c #9B7C58",
"nC+	c #93714D",
"oC+	c #8A6846",
"pC+	c #8F735A",
"qC+	c #A29182",
"rC+	c #AA9585",
"sC+	c #AE8666",
"tC+	c #A98868",
"uC+	c #A78666",
"vC+	c #A48264",
"wC+	c #A38164",
"xC+	c #A38165",
"yC+	c #A0816B",
"zC+	c #A1856E",
"AC+	c #A28670",
"BC+	c #A1866F",
"CC+	c #A5907C",
"DC+	c #9D8874",
"EC+	c #9E8472",
"FC+	c #9E8471",
"GC+	c #9F846F",
"HC+	c #A38770",
"IC+	c #A98A6E",
"JC+	c #A88A69",
"KC+	c #A48665",
"LC+	c #AB8D68",
"MC+	c #B18762",
"NC+	c #A57D5F",
"OC+	c #A37D62",
"PC+	c #9C7B5D",
"QC+	c #9A7559",
"RC+	c #9F7B61",
"SC+	c #9A765E",
"TC+	c #976E4D",
"UC+	c #9D6944",
"VC+	c #9E6C48",
"WC+	c #A06F49",
"XC+	c #A16F48",
"YC+	c #A06E49",
"ZC+	c #A27A5C",
"`C+	c #A4724A",
" D+	c #9A7058",
".D+	c #9C8674",
"+D+	c #947B67",
"@D+	c #9C8370",
"#D+	c #98816F",
"$D+	c #8F7767",
"%D+	c #866F60",
"&D+	c #81695A",
"*D+	c #8E7567",
"=D+	c #947666",
"-D+	c #927364",
";D+	c #917463",
">D+	c #907964",
",D+	c #9B7C62",
"'D+	c #A58468",
")D+	c #987A58",
"!D+	c #977961",
"~D+	c #9B7E68",
"{D+	c #967763",
"]D+	c #957764",
"^D+	c #8E7159",
"/D+	c #8C6F53",
"(D+	c #88684F",
"_D+	c #AEA5A5",
":D+	c #B0A8A6",
"<D+	c #ADA19D",
"[D+	c #A0978C",
"}D+	c #A49E95",
"|D+	c #A6A59B",
"1D+	c #ABAA9F",
"2D+	c #AAA69E",
"3D+	c #9F9892",
"4D+	c #9F9894",
"5D+	c #A19B99",
"6D+	c #9F9996",
"7D+	c #A29C9C",
"8D+	c #B0A8A8",
"9D+	c #ACA5A6",
"0D+	c #ACA6A6",
"aD+	c #A7A2A3",
"bD+	c #A5A1A2",
"cD+	c #A49FA0",
"dD+	c #A1978F",
"eD+	c #AF9F93",
"fD+	c #AF9D90",
"gD+	c #A99C8F",
"hD+	c #ABA293",
"iD+	c #9F9288",
"jD+	c #A59890",
"kD+	c #ACA7A9",
"lD+	c #AAA4A6",
"mD+	c #ABA6A8",
"nD+	c #ABA6A0",
"oD+	c #A19C98",
"pD+	c #9F9691",
"qD+	c #9D938D",
"rD+	c #9C8E85",
"sD+	c #B2A89E",
"tD+	c #B1A191",
"uD+	c #B19F8E",
"vD+	c #B3A197",
"wD+	c #AEA492",
"xD+	c #B0A492",
"yD+	c #AA9D91",
"zD+	c #A69792",
"AD+	c #A3938D",
"BD+	c #A59998",
"CD+	c #A39795",
"DD+	c #9D938B",
"ED+	c #A29A97",
"FD+	c #A69A99",
"GD+	c #A9A1A0",
"HD+	c #9E9796",
"ID+	c #988E84",
"JD+	c #968B81",
"KD+	c #988B83",
"LD+	c #998B83",
"MD+	c #9B8C81",
"ND+	c #9D8C7F",
"OD+	c #9C857B",
"PD+	c #A48E85",
"QD+	c #9F8879",
"RD+	c #9E9A97",
"SD+	c #9F9B94",
"TD+	c #A09793",
"UD+	c #A29794",
"VD+	c #A19591",
"WD+	c #9F918A",
"XD+	c #9A8C83",
"YD+	c #998A80",
"ZD+	c #938376",
"`D+	c #9B837A",
" E+	c #A08179",
".E+	c #9C887A",
"+E+	c #AAA1A2",
"@E+	c #A59C9C",
"#E+	c #AFA5A1",
"$E+	c #B1A096",
"%E+	c #B09C91",
"&E+	c #B29E95",
"*E+	c #A48979",
"=E+	c #A98D7C",
"-E+	c #A58674",
";E+	c #A3846B",
">E+	c #A88871",
",E+	c #AA8978",
"'E+	c #A6836F",
")E+	c #A97F68",
"!E+	c #AD8F7D",
"~E+	c #A68878",
"{E+	c #9F7E6A",
"]E+	c #9F856F",
"^E+	c #A48A72",
"/E+	c #A38975",
"(E+	c #A68C79",
"_E+	c #AA8F7C",
":E+	c #AA9483",
"<E+	c #A6907F",
"[E+	c #A89382",
"}E+	c #AA9584",
"|E+	c #A69788",
"1E+	c #A99B8B",
"2E+	c #A89A8C",
"3E+	c #AA9C8F",
"4E+	c #A1988C",
"5E+	c #A59B89",
"6E+	c #A19784",
"7E+	c #9E9382",
"8E+	c #B4917B",
"9E+	c #B3907C",
"0E+	c #AE8F70",
"aE+	c #AC8967",
"bE+	c #AB8057",
"cE+	c #B28A5F",
"dE+	c #B79980",
"eE+	c #BCA99C",
"fE+	c #CCBDB4",
"gE+	c #CDC4BB",
"hE+	c #CFC5BC",
"iE+	c #BBAEA9",
"jE+	c #A08780",
"kE+	c #95776D",
"lE+	c #8C6B5F",
"mE+	c #876555",
"nE+	c #8B6858",
"oE+	c #8B6857",
"pE+	c #876351",
"qE+	c #85614D",
"rE+	c #845F4C",
"sE+	c #8B604C",
"tE+	c #8A5E49",
"uE+	c #8B5C48",
"vE+	c #8C5C47",
"wE+	c #8E634E",
"xE+	c #946A56",
"yE+	c #8D624E",
"zE+	c #8E604C",
"AE+	c #8B5D49",
"BE+	c #895B45",
"CE+	c #885A41",
"DE+	c #895B40",
"EE+	c #85583E",
"FE+	c #8A5E48",
"GE+	c #946954",
"HE+	c #8D634E",
"IE+	c #9B6C58",
"JE+	c #A79089",
"KE+	c #8E786B",
"LE+	c #8B6C5C",
"ME+	c #836252",
"NE+	c #9A7768",
"OE+	c #987765",
"PE+	c #8D6A59",
"QE+	c #846854",
"RE+	c #876E5A",
"SE+	c #8C7260",
"TE+	c #8C6F61",
"UE+	c #8F6E5F",
"VE+	c #906A58",
"WE+	c #916453",
"XE+	c #8B5E4C",
"YE+	c #8C5F4C",
"ZE+	c #896150",
"`E+	c #856655",
" F+	c #866B5B",
".F+	c #87695D",
"+F+	c #8A695E",
"@F+	c #86675C",
"#F+	c #8C6D62",
"$F+	c #99796E",
"%F+	c #997A70",
"&F+	c #957968",
"*F+	c #9D8672",
"=F+	c #9E8A7B",
"-F+	c #988376",
";F+	c #9A8379",
">F+	c #9C857D",
",F+	c #998175",
"'F+	c #987F71",
")F+	c #9B8274",
"!F+	c #977F6E",
"~F+	c #937B69",
"{F+	c #927A68",
"]F+	c #917867",
"^F+	c #957863",
"/F+	c #98795F",
"(F+	c #9E7356",
"_F+	c #996645",
":F+	c #996F56",
"<F+	c #915C3C",
"[F+	c #A1826E",
"}F+	c #A6968E",
"|F+	c #91725D",
"1F+	c #90715D",
"2F+	c #93745F",
"3F+	c #91725C",
"4F+	c #8D6F59",
"5F+	c #8B6E59",
"6F+	c #7E6553",
"7F+	c #765E4B",
"8F+	c #7B624E",
"9F+	c #80644F",
"0F+	c #7E5F49",
"aF+	c #7F5C45",
"bF+	c #7C5841",
"cF+	c #7B5741",
"dF+	c #77523D",
"eF+	c #6D4836",
"fF+	c #664534",
"gF+	c #67422F",
"hF+	c #6B4631",
"iF+	c #845B3A",
"jF+	c #815B3D",
"kF+	c #A16B3F",
"lF+	c #956949",
"mF+	c #9F8D7E",
"nF+	c #9C7F6E",
"oF+	c #987260",
"pF+	c #A17A6D",
"qF+	c #A97E6F",
"rF+	c #A47665",
"sF+	c #9E7461",
"tF+	c #9E7662",
"uF+	c #9F7863",
"vF+	c #9C7B66",
"wF+	c #A27C6A",
"xF+	c #9F7157",
"yF+	c #9F725B",
"zF+	c #9C7361",
"AF+	c #997367",
"BF+	c #9B7261",
"CF+	c #9D6F61",
"DF+	c #946856",
"EF+	c #9A7261",
"FF+	c #A18071",
"GF+	c #A38172",
"HF+	c #A4806C",
"IF+	c #A88773",
"JF+	c #A78A79",
"KF+	c #AB8B74",
"LF+	c #A9927C",
"MF+	c #A9866F",
"NF+	c #A7846B",
"OF+	c #B18B6F",
"PF+	c #AC7E5D",
"QF+	c #AE8266",
"RF+	c #AF8670",
"SF+	c #A47D63",
"TF+	c #9F724A",
"UF+	c #AE7E51",
"VF+	c #A46D46",
"WF+	c #A36741",
"XF+	c #A47A5A",
"YF+	c #9F6A4A",
"ZF+	c #A36A4A",
"`F+	c #A7714E",
" G+	c #B07952",
".G+	c #B0774F",
"+G+	c #B07247",
"@G+	c #B06E3F",
"#G+	c #A17552",
"$G+	c #976433",
"%G+	c #9D6938",
"&G+	c #9D693A",
"*G+	c #9F6C3D",
"=G+	c #9B683A",
"-G+	c #996739",
";G+	c #996738",
">G+	c #966536",
",G+	c #A47243",
"'G+	c #A27143",
")G+	c #A07042",
"!G+	c #A47448",
"~G+	c #9D6B42",
"{G+	c #9E6E45",
"]G+	c #A07249",
"^G+	c #A17349",
"/G+	c #A07349",
"(G+	c #A5794F",
"_G+	c #96785A",
":G+	c #98775A",
"<G+	c #9A7B5F",
"[G+	c #A07858",
"}G+	c #A37A5B",
"|G+	c #A17B58",
"1G+	c #9F7958",
"2G+	c #B78F6F",
"3G+	c #B8916B",
"4G+	c #B6885C",
"5G+	c #BC9269",
"6G+	c #B6A191",
"7G+	c #C5B3A7",
"8G+	c #D4CBC3",
"9G+	c #B9ABA3",
"0G+	c #886552",
"aG+	c #7F553E",
"bG+	c #7F5036",
"cG+	c #805037",
"dG+	c #82523A",
"eG+	c #815137",
"fG+	c #814F33",
"gG+	c #804D31",
"hG+	c #7F4C2E",
"iG+	c #85502E",
"jG+	c #8A5432",
"kG+	c #8C5434",
"lG+	c #885031",
"mG+	c #8C5435",
"nG+	c #885232",
"oG+	c #864F30",
"pG+	c #8D5737",
"qG+	c #8F5939",
"rG+	c #8A5530",
"sG+	c #8B5631",
"tG+	c #905B37",
"uG+	c #8C5732",
"vG+	c #8B5431",
"wG+	c #9C6040",
"xG+	c #A3897C",
"yG+	c #A6928B",
"zG+	c #C1ADA3",
"AG+	c #9E8372",
"BG+	c #B6A592",
"CG+	c #A18072",
"DG+	c #9D7364",
"EG+	c #956451",
"FG+	c #8D604B",
"GG+	c #967761",
"HG+	c #90614E",
"IG+	c #85513E",
"JG+	c #7F5740",
"KG+	c #83614B",
"LG+	c #825F4A",
"MG+	c #795944",
"NG+	c #7A5643",
"OG+	c #94614A",
"PG+	c #936048",
"QG+	c #9C704D",
"RG+	c #9C887F",
"SG+	c #9F9390",
"TG+	c #9D8B7F",
"UG+	c #978675",
"VG+	c #9A8375",
"WG+	c #A0867B",
"XG+	c #9E816D",
"YG+	c #9B7F6B",
"ZG+	c #997D67",
"`G+	c #957962",
" H+	c #987C66",
".H+	c #947863",
"+H+	c #997C68",
"@H+	c #9D7C66",
"#H+	c #9A6B49",
"$H+	c #A27F61",
"%H+	c #966D4C",
"&H+	c #A38268",
"*H+	c #967157",
"=H+	c #93684A",
"-H+	c #8F6447",
";H+	c #91674A",
">H+	c #8E674B",
",H+	c #896347",
"'H+	c #856045",
")H+	c #7A5C47",
"!H+	c #785A46",
"~H+	c #795A44",
"{H+	c #845F46",
"]H+	c #865D42",
"^H+	c #895D3F",
"/H+	c #865739",
"(H+	c #815234",
"_H+	c #7F5032",
":H+	c #744A32",
"<H+	c #6C4632",
"[H+	c #764C33",
"}H+	c #764B33",
"|H+	c #845636",
"1H+	c #885B3C",
"2H+	c #825536",
"3H+	c #98623A",
"4H+	c #A36A3A",
"5H+	c #B2927F",
"6H+	c #AA7C65",
"7H+	c #A3674C",
"8H+	c #A46D53",
"9H+	c #A3725B",
"0H+	c #A06F55",
"aH+	c #9E6C52",
"bH+	c #9F7155",
"cH+	c #A37559",
"dH+	c #A37359",
"eH+	c #A66E52",
"fH+	c #A6633F",
"gH+	c #9A5939",
"hH+	c #9C6145",
"iH+	c #9A644D",
"jH+	c #9D6D5C",
"kH+	c #9F715C",
"lH+	c #93695A",
"mH+	c #A47560",
"nH+	c #A17A64",
"oH+	c #A47B65",
"pH+	c #A77D63",
"qH+	c #B38D71",
"rH+	c #AD886A",
"sH+	c #A59B9C",
"tH+	c #B4998A",
"uH+	c #BA9B80",
"vH+	c #B99576",
"wH+	c #B1835C",
"xH+	c #AE7D57",
"yH+	c #B27B50",
"zH+	c #AC754F",
"AH+	c #A97454",
"BH+	c #A97655",
"CH+	c #A9622E",
"DH+	c #A96631",
"EH+	c #AD8568",
"FH+	c #AA8265",
"GH+	c #A97F60",
"HH+	c #A87853",
"IH+	c #B27B57",
"JH+	c #B17B4F",
"KH+	c #B18361",
"LH+	c #9A6F4D",
"MH+	c #945F2F",
"NH+	c #9C6533",
"OH+	c #9A6532",
"PH+	c #98622F",
"QH+	c #965F2B",
"RH+	c #955D29",
"SH+	c #9B642F",
"TH+	c #A26B35",
"UH+	c #A16938",
"VH+	c #A16A38",
"WH+	c #9F6733",
"XH+	c #A46C3B",
"YH+	c #A66E3C",
"ZH+	c #A7723F",
"`H+	c #A97341",
" I+	c #A6713D",
".I+	c #A9733D",
"+I+	c #AB743F",
"@I+	c #9D7858",
"#I+	c #936946",
"$I+	c #936741",
"%I+	c #97643F",
"&I+	c #9B673C",
"*I+	c #A06C41",
"=I+	c #9D6A41",
"-I+	c #9B6941",
";I+	c #B88D71",
">I+	c #B99071",
",I+	c #B78F68",
"'I+	c #B1906D",
")I+	c #BCA18B",
"!I+	c #C5AD9C",
"~I+	c #D7CBBF",
"{I+	c #D3CDC7",
"]I+	c #CEC7C1",
"^I+	c #C8BBAD",
"/I+	c #997E70",
"(I+	c #7E5639",
"_I+	c #7D4F2C",
":I+	c #885531",
"<I+	c #8D5639",
"[I+	c #8A5336",
"}I+	c #885132",
"|I+	c #8B5332",
"1I+	c #925938",
"2I+	c #945B38",
"3I+	c #945B34",
"4I+	c #955A35",
"5I+	c #915632",
"6I+	c #8F5530",
"7I+	c #8F5531",
"8I+	c #945C36",
"9I+	c #925931",
"0I+	c #935B32",
"aI+	c #975E35",
"bI+	c #A0623D",
"cI+	c #A48777",
"dI+	c #C2B5AA",
"eI+	c #C6B4A5",
"fI+	c #B9A796",
"gI+	c #BAADA3",
"hI+	c #BEB7AC",
"iI+	c #B6A99F",
"jI+	c #B1A59B",
"kI+	c #B8ADA3",
"lI+	c #9E8677",
"mI+	c #9A7D6A",
"nI+	c #BAA899",
"oI+	c #865445",
"pI+	c #78503B",
"qI+	c #81604B",
"rI+	c #94725F",
"sI+	c #A7977F",
"tI+	c #957D68",
"uI+	c #8F624C",
"vI+	c #9E7055",
"wI+	c #946440",
"xI+	c #9A8174",
"yI+	c #9B8879",
"zI+	c #978574",
"AI+	c #9C8678",
"BI+	c #9A7E69",
"CI+	c #9B7F68",
"DI+	c #9C806A",
"EI+	c #9A7E6A",
"FI+	c #987B67",
"GI+	c #9A7C64",
"HI+	c #956D4A",
"II+	c #9D6B49",
"JI+	c #966342",
"KI+	c #95694E",
"LI+	c #9D7F66",
"MI+	c #A27C5F",
"NI+	c #A08371",
"OI+	c #9F7B5F",
"PI+	c #98735A",
"QI+	c #976B4A",
"RI+	c #8D664A",
"SI+	c #886246",
"TI+	c #836045",
"UI+	c #805D42",
"VI+	c #7F5B41",
"WI+	c #895F48",
"XI+	c #91634A",
"YI+	c #8E5D3F",
"ZI+	c #8A5534",
"`I+	c #845130",
" J+	c #774B30",
".J+	c #704932",
"+J+	c #784D32",
"@J+	c #7B4F37",
"#J+	c #805132",
"$J+	c #905F3B",
"%J+	c #966341",
"&J+	c #875839",
"*J+	c #95613C",
"=J+	c #9F6637",
"-J+	c #B7A49A",
";J+	c #BCA395",
">J+	c #AC826F",
",J+	c #A36C4C",
"'J+	c #A76F51",
")J+	c #9D6A4F",
"!J+	c #9F6A4E",
"~J+	c #A36F52",
"{J+	c #A56A48",
"]J+	c #A05D39",
"^J+	c #AB7358",
"/J+	c #A0684F",
"(J+	c #946049",
"_J+	c #9A6C5B",
":J+	c #A27E70",
"<J+	c #B5A398",
"[J+	c #AF978C",
"}J+	c #BEA997",
"|J+	c #B69D8D",
"1J+	c #B8A18E",
"2J+	c #B99E86",
"3J+	c #A88978",
"4J+	c #A79B9B",
"5J+	c #B69173",
"6J+	c #B98F6F",
"7J+	c #B27F5A",
"8J+	c #AD7754",
"9J+	c #AE7D55",
"0J+	c #AE7E54",
"aJ+	c #AE7044",
"bJ+	c #AB6E3C",
"cJ+	c #AF7141",
"dJ+	c #A86F46",
"eJ+	c #AC7956",
"fJ+	c #A4714F",
"gJ+	c #AA7E5A",
"hJ+	c #A68167",
"iJ+	c #A48E7E",
"jJ+	c #946949",
"kJ+	c #935D31",
"lJ+	c #97602E",
"mJ+	c #9D6634",
"nJ+	c #9C6735",
"oJ+	c #9E6733",
"pJ+	c #A06935",
"qJ+	c #A26C35",
"rJ+	c #A56F38",
"sJ+	c #9D6739",
"tJ+	c #975E2B",
"uJ+	c #975F2E",
"vJ+	c #A26A38",
"wJ+	c #A6703E",
"xJ+	c #AA7442",
"yJ+	c #A8713E",
"zJ+	c #AB7139",
"AJ+	c #AB7138",
"BJ+	c #AD733B",
"CJ+	c #A9988A",
"DJ+	c #A17D5A",
"EJ+	c #956F4F",
"FJ+	c #955F37",
"GJ+	c #9C6333",
"HJ+	c #9F683A",
"IJ+	c #A0683A",
"JJ+	c #9F6434",
"KJ+	c #9E6233",
"LJ+	c #BE8B63",
"MJ+	c #B88D69",
"NJ+	c #B78A66",
"OJ+	c #B88F6A",
"PJ+	c #B39775",
"QJ+	c #BEA388",
"RJ+	c #BFAF9E",
"SJ+	c #CDC7BA",
"TJ+	c #CFC0B3",
"UJ+	c #C2B0A2",
"VJ+	c #CDC8C0",
"WJ+	c #CDC2B6",
"XJ+	c #987D6D",
"YJ+	c #8B5739",
"ZJ+	c #935D33",
"`J+	c #955F36",
" K+	c #945D34",
".K+	c #935A30",
"+K+	c #9A6137",
"@K+	c #9C6436",
"#K+	c #9D6437",
"$K+	c #955932",
"%K+	c #91552F",
"&K+	c #945732",
"*K+	c #955933",
"=K+	c #985D36",
"-K+	c #945B33",
";K+	c #925B30",
">K+	c #965B2F",
",K+	c #9B6135",
"'K+	c #9D6236",
")K+	c #985E32",
"!K+	c #965F33",
"~K+	c #9F6439",
"{K+	c #A98E7A",
"]K+	c #B5A391",
"^K+	c #C2B4A6",
"/K+	c #C2B1A1",
"(K+	c #C3AB97",
"_K+	c #BBADA2",
":K+	c #C0B7AF",
"<K+	c #B9B0A7",
"[K+	c #B2A69E",
"}K+	c #B9AEA3",
"|K+	c #C1B8A9",
"1K+	c #BCB3A2",
"2K+	c #C2B6A5",
"3K+	c #C7BAAC",
"4K+	c #AB856E",
"5K+	c #B0958A",
"6K+	c #B5A596",
"7K+	c #B7A99C",
"8K+	c #BFA699",
"9K+	c #996C57",
"0K+	c #A48064",
"aK+	c #8D5636",
"bK+	c #9D8273",
"cK+	c #9B8C86",
"dK+	c #9D8777",
"eK+	c #998473",
"fK+	c #9A8574",
"gK+	c #A28B78",
"hK+	c #9E8576",
"iK+	c #9B8374",
"jK+	c #9A8372",
"kK+	c #96806F",
"lK+	c #9D806C",
"mK+	c #9C7F69",
"nK+	c #9E7E66",
"oK+	c #9C7E67",
"pK+	c #997151",
"qK+	c #9B745B",
"rK+	c #9A785E",
"sK+	c #9A7A61",
"tK+	c #A5856C",
"uK+	c #A28773",
"vK+	c #9D7E70",
"wK+	c #8E6048",
"xK+	c #A27759",
"yK+	c #946A51",
"zK+	c #93684C",
"AK+	c #996D4A",
"BK+	c #8F6344",
"CK+	c #8C6042",
"DK+	c #895E41",
"EK+	c #8C6041",
"FK+	c #916445",
"GK+	c #8F6040",
"HK+	c #8A5636",
"IK+	c #875535",
"JK+	c #7D5035",
"KK+	c #784D34",
"LK+	c #7A4E34",
"MK+	c #81543C",
"NK+	c #865437",
"OK+	c #95603A",
"PK+	c #A66C42",
"QK+	c #9F6840",
"RK+	c #885229",
"SK+	c #845332",
"TK+	c #92725E",
"UK+	c #C6BDB5",
"VK+	c #AD8472",
"WK+	c #AA795B",
"XK+	c #A47250",
"YK+	c #AA7554",
"ZK+	c #AB7353",
"`K+	c #A2694C",
" L+	c #A46F4F",
".L+	c #9D6D48",
"+L+	c #A76742",
"@L+	c #AF775B",
"#L+	c #AD7860",
"$L+	c #B69C85",
"%L+	c #BEB3AD",
"&L+	c #CAC3BD",
"*L+	c #C4BBB4",
"=L+	c #CAC4BA",
"-L+	c #C3B2A6",
";L+	c #B8A191",
">L+	c #AD907E",
",L+	c #B48C76",
"'L+	c #B48561",
")L+	c #B6835E",
"!L+	c #B9845F",
"~L+	c #B7815B",
"{L+	c #B67D57",
"]L+	c #B67E54",
"^L+	c #B47C52",
"/L+	c #B47A52",
"(L+	c #B28058",
"_L+	c #AE7C4E",
":L+	c #AF7B4B",
"<L+	c #AA8768",
"[L+	c #A47F5F",
"}L+	c #A5815F",
"|L+	c #AC8462",
"1L+	c #AA8061",
"2L+	c #A47C64",
"3L+	c #A99B99",
"4L+	c #9D6636",
"5L+	c #A06939",
"6L+	c #9F6131",
"7L+	c #A26434",
"8L+	c #A56937",
"9L+	c #A66D38",
"0L+	c #A36A35",
"aL+	c #A26A33",
"bL+	c #9D5F34",
"cL+	c #975B30",
"dL+	c #9B6232",
"eL+	c #965C2C",
"fL+	c #935928",
"gL+	c #985F2A",
"hL+	c #9F662E",
"iL+	c #A46A35",
"jL+	c #A76C38",
"kL+	c #A97E5F",
"lL+	c #9E693A",
"mL+	c #A46A3A",
"nL+	c #A56B3B",
"oL+	c #A36634",
"pL+	c #A96F39",
"qL+	c #A9713B",
"rL+	c #AA6B38",
"sL+	c #A06130",
"tL+	c #A26134",
"uL+	c #C28E62",
"vL+	c #C29570",
"wL+	c #C39D81",
"xL+	c #CDB399",
"yL+	c #C0A492",
"zL+	c #C2B09D",
"AL+	c #BCA58B",
"BL+	c #C5AA95",
"CL+	c #D4C5BA",
"DL+	c #B99E85",
"EL+	c #CABAB0",
"FL+	c #C6B5A9",
"GL+	c #AB9585",
"HL+	c #8F583B",
"IL+	c #905834",
"JL+	c #955F31",
"KL+	c #945D2F",
"LL+	c #996034",
"ML+	c #9C6437",
"NL+	c #9B6234",
"OL+	c #9B5F37",
"PL+	c #965A34",
"QL+	c #91562F",
"RL+	c #915630",
"SL+	c #955A33",
"TL+	c #8E552B",
"UL+	c #9E6237",
"VL+	c #9B5F34",
"WL+	c #965E33",
"XL+	c #A06538",
"YL+	c #BFB0A1",
"ZL+	c #C3B9B1",
"`L+	c #BEB5AB",
" M+	c #B5A99F",
".M+	c #B1A599",
"+M+	c #B7AB9F",
"@M+	c #C5BCAD",
"#M+	c #C4BBAC",
"$M+	c #C5BCB3",
"%M+	c #C4BAB6",
"&M+	c #BBA495",
"*M+	c #B7A08B",
"=M+	c #AA9989",
"-M+	c #BEB0AA",
";M+	c #B19187",
">M+	c #805239",
",M+	c #A68373",
"'M+	c #A5846F",
")M+	c #8C5230",
"!M+	c #84492A",
"~M+	c #865238",
"{M+	c #976950",
"]M+	c #9D8374",
"^M+	c #9C8D89",
"/M+	c #978376",
"(M+	c #948275",
"_M+	c #9C8776",
":M+	c #A58D77",
"<M+	c #A38B76",
"[M+	c #9A8374",
"}M+	c #998575",
"|M+	c #988474",
"1M+	c #9A8170",
"2M+	c #9B7D67",
"3M+	c #9E7D62",
"4M+	c #9C7D66",
"5M+	c #987155",
"6M+	c #93725B",
"7M+	c #9B7A60",
"8M+	c #987D6C",
"9M+	c #8C654A",
"0M+	c #91623F",
"aM+	c #A08D83",
"bM+	c #936848",
"cM+	c #976E49",
"dM+	c #986D49",
"eM+	c #926142",
"fM+	c #906142",
"gM+	c #8C5D3F",
"hM+	c #8D5E3F",
"iM+	c #8F5E3F",
"jM+	c #8E5D3D",
"kM+	c #8C5938",
"lM+	c #895535",
"mM+	c #875534",
"nM+	c #865735",
"oM+	c #865836",
"pM+	c #845535",
"qM+	c #835434",
"rM+	c #905C37",
"sM+	c #A16638",
"tM+	c #9C6237",
"uM+	c #98633D",
"vM+	c #7F502F",
"wM+	c #804F31",
"xM+	c #91664D",
"yM+	c #CBB5A8",
"zM+	c #BF9A8A",
"AM+	c #AB7B5D",
"BM+	c #AD7B59",
"CM+	c #AF7956",
"DM+	c #AE7755",
"EM+	c #AA7750",
"FM+	c #A46A48",
"GM+	c #AF8C78",
"HM+	c #BCA490",
"IM+	c #C6BFAA",
"JM+	c #C6C2B5",
"KM+	c #C9C8C0",
"LM+	c #CAC7C0",
"MM+	c #C7C4BC",
"NM+	c #C7C5BB",
"OM+	c #C8C3B9",
"PM+	c #C0AA9A",
"QM+	c #B0917B",
"RM+	c #B09380",
"SM+	c #9F9795",
"TM+	c #A69A96",
"UM+	c #B77E51",
"VM+	c #B77F51",
"WM+	c #B57E53",
"XM+	c #B58050",
"YM+	c #B67F55",
"ZM+	c #B38457",
"`M+	c #AF794B",
" N+	c #A6886C",
".N+	c #A6886E",
"+N+	c #A8886E",
"@N+	c #A7876B",
"#N+	c #A58265",
"$N+	c #A78366",
"%N+	c #A88266",
"&N+	c #A58874",
"*N+	c #A79289",
"=N+	c #905931",
"-N+	c #976136",
";N+	c #9E663A",
">N+	c #9E6136",
",N+	c #9C5F33",
"'N+	c #A16736",
")N+	c #A46A39",
"!N+	c #A76C3C",
"~N+	c #9F6333",
"{N+	c #9B5A30",
"]N+	c #995C31",
"^N+	c #9B6131",
"/N+	c #9B612C",
"(N+	c #9F662D",
"_N+	c #A56C34",
":N+	c #A46A34",
"<N+	c #A16734",
"[N+	c #A46837",
"}N+	c #A77C55",
"|N+	c #A1744B",
"1N+	c #A86E3B",
"2N+	c #A66C39",
"3N+	c #A36836",
"4N+	c #A76935",
"5N+	c #AC713C",
"6N+	c #A87239",
"7N+	c #A97138",
"8N+	c #A97238",
"9N+	c #A86D3C",
"0N+	c #9F6335",
"aN+	c #B07440",
"bN+	c #AC7346",
"cN+	c #BB8B69",
"dN+	c #BB997C",
"eN+	c #CEC2B4",
"fN+	c #BBA083",
"gN+	c #C6B19E",
"hN+	c #BB9E87",
"iN+	c #BB9D86",
"jN+	c #BEA088",
"kN+	c #A8907D",
"lN+	c #9A8273",
"mN+	c #8B5430",
"nN+	c #945E33",
"oN+	c #986234",
"pN+	c #955F32",
"qN+	c #905A2C",
"rN+	c #986033",
"sN+	c #9D623A",
"tN+	c #955E37",
"uN+	c #8E542B",
"vN+	c #91582D",
"wN+	c #925D2F",
"xN+	c #9B6639",
"yN+	c #A1693C",
"zN+	c #A4673C",
"AN+	c #9E653B",
"BN+	c #A66A3D",
"CN+	c #A58976",
"DN+	c #C0B6AD",
"EN+	c #BFB3AA",
"FN+	c #BCB0A4",
"GN+	c #B9AFA0",
"HN+	c #C1B8A8",
"IN+	c #BEB5AF",
"JN+	c #8E6C56",
"KN+	c #86553C",
"LN+	c #7C5043",
"MN+	c #B49D93",
"NN+	c #856052",
"ON+	c #A17251",
"PN+	c #A17459",
"QN+	c #8F4F2D",
"RN+	c #824828",
"SN+	c #844E34",
"TN+	c #95684E",
"UN+	c #A28879",
"VN+	c #9B8578",
"WN+	c #9A8271",
"XN+	c #A68369",
"YN+	c #AC8C72",
"ZN+	c #A18973",
"`N+	c #9C8576",
" O+	c #978373",
".O+	c #958171",
"+O+	c #9E7E68",
"@O+	c #9B7862",
"#O+	c #917763",
"$O+	c #977D69",
"%O+	c #9A8370",
"&O+	c #9B8570",
"*O+	c #9F816A",
"=O+	c #9B6E4B",
"-O+	c #A88C7C",
";O+	c #A18E7E",
">O+	c #92674A",
",O+	c #956A4C",
"'O+	c #986344",
")O+	c #915E3C",
"!O+	c #905E3C",
"~O+	c #885433",
"{O+	c #8D5839",
"]O+	c #8D593A",
"^O+	c #8C5737",
"/O+	c #895533",
"(O+	c #885432",
"_O+	c #855230",
":O+	c #885634",
"<O+	c #82502E",
"[O+	c #875232",
"}O+	c #935A35",
"|O+	c #9A6036",
"1O+	c #8F6041",
"2O+	c #926B53",
"3O+	c #A19794",
"4O+	c #A89283",
"5O+	c #C5B3A4",
"6O+	c #B7A195",
"7O+	c #C6A89C",
"8O+	c #B07F5E",
"9O+	c #AF7D5B",
"0O+	c #AD8060",
"aO+	c #B17F5B",
"bO+	c #A47150",
"cO+	c #A67250",
"dO+	c #A9724D",
"eO+	c #A96E43",
"fO+	c #C4A893",
"gO+	c #CABFB1",
"hO+	c #C6BEB1",
"iO+	c #CABBB3",
"jO+	c #CAC2BA",
"kO+	c #C7BEB5",
"lO+	c #C8BFB4",
"mO+	c #CBC1B6",
"nO+	c #CABFB3",
"oO+	c #BBA694",
"pO+	c #AE8D77",
"qO+	c #B18E7C",
"rO+	c #AB9A93",
"sO+	c #B37B49",
"tO+	c #B47946",
"uO+	c #B97C4A",
"vO+	c #BA7E4B",
"wO+	c #B98051",
"xO+	c #B37C4A",
"yO+	c #B17C48",
"zO+	c #AF8359",
"AO+	c #B77F52",
"BO+	c #B27A49",
"CO+	c #A6896D",
"DO+	c #A58569",
"EO+	c #A58467",
"FO+	c #A3846C",
"GO+	c #9E8276",
"HO+	c #916244",
"IO+	c #865430",
"JO+	c #8D5B35",
"KO+	c #916039",
"LO+	c #996038",
"MO+	c #9D6338",
"NO+	c #9D6337",
"OO+	c #9B5F35",
"PO+	c #9A5A33",
"QO+	c #985C33",
"RO+	c #996037",
"SO+	c #9A6034",
"TO+	c #99612E",
"UO+	c #9D652F",
"VO+	c #A66D39",
"WO+	c #A26A36",
"XO+	c #9D6333",
"YO+	c #9E6435",
"ZO+	c #9F6536",
"`O+	c #A69284",
" P+	c #A27751",
".P+	c #9D6736",
"+P+	c #A66C35",
"@P+	c #A66F37",
"#P+	c #A87037",
"$P+	c #AA7138",
"%P+	c #B0784F",
"&P+	c #C6A78F",
"*P+	c #BC8757",
"=P+	c #C2AA93",
"-P+	c #CBBBA8",
";P+	c #BE9C7D",
">P+	c #B68C72",
",P+	c #BF9979",
"'P+	c #BC9983",
")P+	c #C1A894",
"!P+	c #CFB7A0",
"~P+	c #C7A58D",
"{P+	c #915C37",
"]P+	c #915A31",
"^P+	c #955F34",
"/P+	c #935E32",
"(P+	c #925D31",
"_P+	c #915C30",
":P+	c #8B562A",
"<P+	c #94582D",
"[P+	c #9E6437",
"}P+	c #9E6538",
"|P+	c #976438",
"1P+	c #98623E",
"2P+	c #965F36",
"3P+	c #925A2E",
"4P+	c #955D32",
"5P+	c #9D663C",
"6P+	c #A56C41",
"7P+	c #A36940",
"8P+	c #A66C41",
"9P+	c #A66E44",
"0P+	c #A68F7B",
"aP+	c #C1ADA2",
"bP+	c #C6B5B0",
"cP+	c #CABCB8",
"dP+	c #BDB5AE",
"eP+	c #BFB2AA",
"fP+	c #9E7969",
"gP+	c #9B7F72",
"hP+	c #B8B09E",
"iP+	c #B6AC99",
"jP+	c #B09D8A",
"kP+	c #9C8270",
"lP+	c #805541",
"mP+	c #8F604A",
"nP+	c #8C634D",
"oP+	c #8C6753",
"pP+	c #9D7866",
"qP+	c #855944",
"rP+	c #8F5E42",
"sP+	c #915A3A",
"tP+	c #985A38",
"uP+	c #945437",
"vP+	c #834A2E",
"wP+	c #885539",
"xP+	c #9C8878",
"yP+	c #A0856F",
"zP+	c #AA8361",
"AP+	c #A48669",
"BP+	c #9A8470",
"CP+	c #968574",
"DP+	c #968675",
"EP+	c #938372",
"FP+	c #968373",
"GP+	c #988270",
"HP+	c #99816F",
"IP+	c #9A7F6A",
"JP+	c #9B7B63",
"KP+	c #9C7C67",
"LP+	c #977762",
"MP+	c #947662",
"NP+	c #947866",
"OP+	c #967A68",
"PP+	c #957D70",
"QP+	c #9D8677",
"RP+	c #A4856E",
"SP+	c #A37854",
"TP+	c #9D9D97",
"UP+	c #A48C7D",
"VP+	c #8F6645",
"WP+	c #8B6342",
"XP+	c #8E633F",
"YP+	c #935D3C",
"ZP+	c #935E3B",
"`P+	c #915D3A",
" Q+	c #8E5937",
".Q+	c #855130",
"+Q+	c #845131",
"@Q+	c #865333",
"#Q+	c #865233",
"$Q+	c #8A5032",
"%Q+	c #8A5031",
"&Q+	c #884F2F",
"*Q+	c #8C5634",
"=Q+	c #88522E",
"-Q+	c #905331",
";Q+	c #965C36",
">Q+	c #966137",
",Q+	c #8D5934",
"'Q+	c #967E70",
")Q+	c #CDBEB9",
"!Q+	c #C8B8B5",
"~Q+	c #AF8E74",
"{Q+	c #B08769",
"]Q+	c #A87C5E",
"^Q+	c #B17D60",
"/Q+	c #B37E62",
"(Q+	c #AD7356",
"_Q+	c #B0825D",
":Q+	c #AF7B56",
"<Q+	c #A6734B",
"[Q+	c #AD8972",
"}Q+	c #C2AD96",
"|Q+	c #C6AC9D",
"1Q+	c #B79B8D",
"2Q+	c #C3B1A3",
"3Q+	c #C3B8AC",
"4Q+	c #C5B7A9",
"5Q+	c #C5AEA1",
"6Q+	c #C7B4A4",
"7Q+	c #C8B4A2",
"8Q+	c #BCA797",
"9Q+	c #BAA799",
"0Q+	c #B49786",
"aQ+	c #B18E82",
"bQ+	c #B37946",
"cQ+	c #BA7C4B",
"dQ+	c #B68054",
"eQ+	c #B3794F",
"fQ+	c #AF794A",
"gQ+	c #A9836D",
"hQ+	c #AA8873",
"iQ+	c #A88571",
"jQ+	c #A78571",
"kQ+	c #A8876E",
"lQ+	c #AC8C77",
"mQ+	c #AA8A76",
"nQ+	c #A88C7A",
"oQ+	c #966F58",
"pQ+	c #885A38",
"qQ+	c #875837",
"rQ+	c #8B5A39",
"sQ+	c #8B5634",
"tQ+	c #8B542E",
"uQ+	c #915A32",
"vQ+	c #945F37",
"wQ+	c #925E34",
"xQ+	c #8F5A30",
"yQ+	c #8D5830",
"zQ+	c #925B33",
"AQ+	c #99623A",
"BQ+	c #986334",
"CQ+	c #976132",
"DQ+	c #925B2B",
"EQ+	c #945C31",
"FQ+	c #A1683C",
"GQ+	c #A49280",
"HQ+	c #9C704E",
"IQ+	c #9D6F47",
"JQ+	c #A47345",
"KQ+	c #A47143",
"LQ+	c #A4713C",
"MQ+	c #A16E3B",
"NQ+	c #9F6B38",
"OQ+	c #A3703E",
"PQ+	c #AD7C4B",
"QQ+	c #B98A5D",
"RQ+	c #B18C68",
"SQ+	c #A57749",
"TQ+	c #AC7F56",
"UQ+	c #AD876C",
"VQ+	c #AE8970",
"WQ+	c #AB8F81",
"XQ+	c #A78C77",
"YQ+	c #A78C73",
"ZQ+	c #A78A75",
"`Q+	c #AC968B",
" R+	c #A18D85",
".R+	c #966138",
"+R+	c #99633A",
"@R+	c #946036",
"#R+	c #946137",
"$R+	c #966339",
"%R+	c #926036",
"&R+	c #935B36",
"*R+	c #925C35",
"=R+	c #9B663E",
"-R+	c #9A6745",
";R+	c #9D6E4D",
">R+	c #A06C43",
",R+	c #A16B42",
"'R+	c #A2795B",
")R+	c #A4A3A2",
"!R+	c #938379",
"~R+	c #9C8880",
"{R+	c #AF9B93",
"]R+	c #BCADA1",
"^R+	c #C3AEA2",
"/R+	c #A38073",
"(R+	c #824C3C",
"_R+	c #764A3D",
":R+	c #9F8979",
"<R+	c #8B7563",
"[R+	c #896A57",
"}R+	c #987460",
"|R+	c #78503E",
"1R+	c #7F4E3C",
"2R+	c #81513E",
"3R+	c #865D49",
"4R+	c #8F6954",
"5R+	c #8C6651",
"6R+	c #906954",
"7R+	c #966E56",
"8R+	c #976B51",
"9R+	c #9A6749",
"0R+	c #996142",
"aR+	c #9D6A4E",
"bR+	c #A2998E",
"cR+	c #A18268",
"dR+	c #9B8370",
"eR+	c #988473",
"fR+	c #958372",
"gR+	c #968271",
"hR+	c #987E6D",
"iR+	c #927461",
"jR+	c #937461",
"kR+	c #8C6E5C",
"lR+	c #8D705D",
"mR+	c #8D715F",
"nR+	c #927664",
"oR+	c #9B7E6B",
"pR+	c #977F70",
"qR+	c #9D8578",
"rR+	c #A08673",
"sR+	c #A3988D",
"tR+	c #989A9A",
"uR+	c #9B9897",
"vR+	c #9C8C84",
"wR+	c #9D7358",
"xR+	c #996C4C",
"yR+	c #825835",
"zR+	c #855937",
"AR+	c #89553A",
"BR+	c #8A543B",
"CR+	c #88563B",
"DR+	c #875439",
"ER+	c #814E34",
"FR+	c #7E4C33",
"GR+	c #7C4A31",
"HR+	c #7D4930",
"IR+	c #834D34",
"JR+	c #834C32",
"KR+	c #80492D",
"LR+	c #814C2C",
"MR+	c #855030",
"NR+	c #8B5133",
"OR+	c #8C5336",
"PR+	c #915D3F",
"QR+	c #8D5A3D",
"RR+	c #8C5432",
"SR+	c #805138",
"TR+	c #9B8373",
"UR+	c #BBB1A6",
"VR+	c #AE9982",
"WR+	c #B49580",
"XR+	c #B0836B",
"YR+	c #A35D42",
"ZR+	c #9A5B43",
"`R+	c #A3785A",
" S+	c #9E755F",
".S+	c #A7806E",
"+S+	c #BCA793",
"@S+	c #BFA28D",
"#S+	c #B69D88",
"$S+	c #AA897C",
"%S+	c #AB9D90",
"&S+	c #AE7F5D",
"*S+	c #A47D64",
"=S+	c #A6826A",
"-S+	c #A87558",
";S+	c #A87754",
">S+	c #AB8D72",
",S+	c #A78670",
"'S+	c #A68671",
")S+	c #A38673",
"!S+	c #A38C7A",
"~S+	c #9F8977",
"{S+	c #A08A78",
"]S+	c #A4917F",
"^S+	c #AA9685",
"/S+	c #AD988F",
"(S+	c #9D8576",
"_S+	c #91715D",
":S+	c #8C6851",
"<S+	c #866049",
"[S+	c #876047",
"}S+	c #885F46",
"|S+	c #8A5E45",
"1S+	c #8B5F44",
"2S+	c #86593D",
"3S+	c #855739",
"4S+	c #906041",
"5S+	c #906141",
"6S+	c #8C5C3D",
"7S+	c #905E40",
"8S+	c #915F41",
"9S+	c #905E41",
"0S+	c #926044",
"aS+	c #946245",
"bS+	c #8F603B",
"cS+	c #8D5C37",
"dS+	c #8C5B34",
"eS+	c #8F5C35",
"fS+	c #935D36",
"gS+	c #8C562F",
"hS+	c #986641",
"iS+	c #A08873",
"jS+	c #9B9B99",
"kS+	c #99765F",
"lS+	c #936D4E",
"mS+	c #A98061",
"nS+	c #AB8868",
"oS+	c #9D7655",
"pS+	c #9E7553",
"qS+	c #A67D5A",
"rS+	c #AF8B66",
"sS+	c #A68561",
"tS+	c #A78461",
"uS+	c #AF9E9A",
"vS+	c #AD9F9A",
"wS+	c #ABA09E",
"xS+	c #AEA5A3",
"yS+	c #A3A29B",
"zS+	c #9F9F97",
"AS+	c #9D806D",
"BS+	c #A0836D",
"CS+	c #A38B75",
"DS+	c #A2887A",
"ES+	c #A3897B",
"FS+	c #A68E7D",
"GS+	c #9F8775",
"HS+	c #9F8974",
"IS+	c #A28972",
"JS+	c #A68D7B",
"KS+	c #A38C7E",
"LS+	c #A9978E",
"MS+	c #9E8F7D",
"NS+	c #A08A7C",
"OS+	c #ABAAA5",
"PS+	c #A9A8A2",
"QS+	c #9E9391",
"RS+	c #A39791",
"SS+	c #A2978B",
"TS+	c #958A7E",
"US+	c #9B847D",
"VS+	c #9C8781",
"WS+	c #9B8D85",
"XS+	c #9F897F",
"YS+	c #988075",
"ZS+	c #958177",
"`S+	c #9A867E",
" T+	c #A8968E",
".T+	c #9E8983",
"+T+	c #99847D",
"@T+	c #A18D7B",
"#T+	c #9A8070",
"$T+	c #9B8775",
"%T+	c #9C938C",
"&T+	c #A1948F",
"*T+	c #A1938F",
"=T+	c #A2968D",
"-T+	c #9B9188",
";T+	c #9A8F87",
">T+	c #999185",
",T+	c #9B9185",
"'T+	c #A0938E",
")T+	c #A09C97",
"!T+	c #927B6D",
"~T+	c #927C70",
"{T+	c #9C8982",
"]T+	c #9D8B84",
"^T+	c #9A8981",
"/T+	c #928179",
"(T+	c #918076",
"_T+	c #8D766A",
":T+	c #947D70",
"<T+	c #907B6E",
"[T+	c #8D7769",
"}T+	c #887264",
"|T+	c #91776F",
"1T+	c #8E726A",
"2T+	c #92756D",
"3T+	c #91756C",
"4T+	c #A39384",
"5T+	c #968073",
"6T+	c #A48F82",
"7T+	c #AB9F94",
"8T+	c #AC9C91",
"9T+	c #A28B7F",
"0T+	c #A48276",
"aT+	c #A58780",
"bT+	c #A68F87",
"cT+	c #A89288",
"dT+	c #A69692",
"eT+	c #A79895",
"fT+	c #A28D80",
"gT+	c #A89788",
"hT+	c #AE9586",
"iT+	c #A9988E",
"jT+	c #A19796",
"kT+	c #A59B8E",
"lT+	c #A79E91",
"mT+	c #B2ADA9",
"nT+	c #B1ABA8",
"oT+	c #A19D94",
"pT+	c #A2988C",
"qT+	c #A1968A",
"rT+	c #9F9386",
"sT+	c #A49187",
"tT+	c #A28D84",
"uT+	c #A8938A",
"vT+	c #A59082",
"wT+	c #A28D7F",
"xT+	c #9C8677",
"yT+	c #A28A7D",
"zT+	c #978074",
"AT+	c #A0A29D",
"BT+	c #A69A98",
"CT+	c #A0948C",
"DT+	c #9F9485",
"ET+	c #A39B8E",
"FT+	c #A49D8F",
"GT+	c #A5A5A4",
"HT+	c #B1AEAC",
"IT+	c #AFADAB",
"JT+	c #ADABA9",
"KT+	c #AEA9A8",
"LT+	c #A6A8A2",
"MT+	c #ADAAA2",
"NT+	c #ACA8A2",
"OT+	c #A7A89E",
"PT+	c #ACA9A4",
"QT+	c #A8A9A0",
"RT+	c #A29896",
"ST+	c #A2A099",
"TT+	c #A09D99",
"UT+	c #AFABAB",
"VT+	c #ADACAC",
"WT+	c #AFADAC",
"XT+	c #AEABA6",
"YT+	c #ADAAA5",
"ZT+	c #ADABA6",
"`T+	c #AAA59E",
" U+	c #9F9E96",
".U+	c #A09A98",
"+U+	c #AAA6A6",
"@U+	c #A4A19A",
"#U+	c #A8A69F",
"$U+	c #AFAAA7",
"%U+	c #A5A0A0",
"&U+	c #A2A4A1",
"*U+	c #A4A6A1",
"=U+	c #A3A2A3",
"-U+	c #ACA49A",
";U+	c #A7A399",
">U+	c #AEA69D",
",U+	c #B1ABA3",
"'U+	c #B1ABA0",
")U+	c #9E9C96",
"!U+	c #A2A19B",
"~U+	c #A3A39B",
"{U+	c #A29E94",
"]U+	c #A29D93",
"^U+	c #A59F94",
"/U+	c #A49A97",
"(U+	c #A19694",
"_U+	c #AB9E9F",
":U+	c #A89287",
"<U+	c #A79387",
"[U+	c #B09C94",
"}U+	c #AE9A92",
"|U+	c #AA9791",
"1U+	c #A38E7C",
"2U+	c #A89E91",
"3U+	c #A59788",
"4U+	c #9E8E7D",
"5U+	c #988576",
"6U+	c #968475",
"7U+	c #9A877A",
"8U+	c #998679",
"9U+	c #A28C7C",
"0U+	c #A08977",
"aU+	c #A48877",
"bU+	c #9E8E7E",
"cU+	c #9A8B78",
"dU+	c #958472",
"eU+	c #9A7E6F",
"fU+	c #977C6E",
"gU+	c #A58F8D",
"hU+	c #A18A84",
"iU+	c #98897D",
"jU+	c #998B80",
"kU+	c #A19287",
"lU+	c #A08E87",
"mU+	c #94867B",
"nU+	c #988980",
"oU+	c #9D887C",
"pU+	c #9B877C",
"qU+	c #A39FA0",
"rU+	c #A49C9C",
"sU+	c #A68E7F",
"tU+	c #A0826C",
"uU+	c #A4836D",
"vU+	c #A1806A",
"wU+	c #A07C61",
"xU+	c #A38063",
"yU+	c #A08468",
"zU+	c #9C7F6C",
"AU+	c #A28775",
"BU+	c #A48978",
"CU+	c #9F816F",
"DU+	c #A6806C",
"EU+	c #A58475",
"FU+	c #A68C81",
"GU+	c #A09E97",
"HU+	c #A58E82",
"IU+	c #A69488",
"JU+	c #A39083",
"KU+	c #A49284",
"LU+	c #A59686",
"MU+	c #A4988A",
"NU+	c #A5A095",
"OU+	c #A1928B",
"PU+	c #A29188",
"QU+	c #A89185",
"RU+	c #AF9586",
"SU+	c #AA9489",
"TU+	c #AB9687",
"UU+	c #AD9888",
"VU+	c #A2968C",
"WU+	c #94705B",
"XU+	c #926F53",
"YU+	c #9B7758",
"ZU+	c #947354",
"`U+	c #A08363",
" V+	c #A1856A",
".V+	c #A79480",
"+V+	c #997D68",
"@V+	c #AF9F94",
"#V+	c #9F9B97",
"$V+	c #B28252",
"%V+	c #AF895E",
"&V+	c #AE875C",
"*V+	c #AB8765",
"=V+	c #A7835E",
"-V+	c #AC8864",
";V+	c #AF8960",
">V+	c #AD8762",
",V+	c #AC835F",
"'V+	c #B18862",
")V+	c #AE825D",
"!V+	c #AF8560",
"~V+	c #AA815B",
"{V+	c #AF855F",
"]V+	c #B28767",
"^V+	c #B1907B",
"/V+	c #ADA298",
"(V+	c #A9A59B",
"_V+	c #9A7D72",
":V+	c #A5867B",
"<V+	c #A6857A",
"[V+	c #9E7E6D",
"}V+	c #AC7D61",
"|V+	c #AF836A",
"1V+	c #AF8973",
"2V+	c #B19182",
"3V+	c #AD8C7E",
"4V+	c #AE8876",
"5V+	c #AF7F64",
"6V+	c #AB7858",
"7V+	c #AB744D",
"8V+	c #AA775E",
"9V+	c #AB7863",
"0V+	c #A8755F",
"aV+	c #A4725C",
"bV+	c #9D6C55",
"cV+	c #AB7E66",
"dV+	c #A87C61",
"eV+	c #AD8065",
"fV+	c #B98F73",
"gV+	c #B69374",
"hV+	c #B7917D",
"iV+	c #B19A8E",
"jV+	c #C8B6A4",
"kV+	c #C0B8AB",
"lV+	c #BBADA0",
"mV+	c #947B68",
"nV+	c #8E6D52",
"oV+	c #8E6F51",
"pV+	c #896B4E",
"qV+	c #8C6C50",
"rV+	c #AB8C70",
"sV+	c #AD8E72",
"tV+	c #A17C60",
"uV+	c #987254",
"vV+	c #9C7455",
"wV+	c #A27F57",
"xV+	c #AA835A",
"yV+	c #A1754F",
"zV+	c #9A6D53",
"AV+	c #A37B64",
"BV+	c #90714A",
"CV+	c #A7885E",
"DV+	c #A5855B",
"EV+	c #947250",
"FV+	c #946F51",
"GV+	c #8E6B4E",
"HV+	c #988B80",
"IV+	c #A79481",
"JV+	c #AD947E",
"KV+	c #B59B84",
"LV+	c #A48265",
"MV+	c #987457",
"NV+	c #9C785D",
"OV+	c #AB8D6F",
"PV+	c #A58966",
"QV+	c #8B6E53",
"RV+	c #7E5B40",
"SV+	c #895835",
"TV+	c #976038",
"UV+	c #90582F",
"VV+	c #945C3A",
"WV+	c #925937",
"XV+	c #8F5633",
"YV+	c #8F5636",
"ZV+	c #915C3A",
"`V+	c #916341",
" W+	c #8F6649",
".W+	c #976F53",
"+W+	c #A17B61",
"@W+	c #9E9D98",
"#W+	c #9E8A7F",
"$W+	c #A5734B",
"%W+	c #A57955",
"&W+	c #A67A56",
"*W+	c #A57753",
"=W+	c #9E6F4C",
"-W+	c #A1714E",
";W+	c #A07759",
">W+	c #A17453",
",W+	c #9D7350",
"'W+	c #9B6A4E",
")W+	c #A07255",
"!W+	c #A4714B",
"~W+	c #A48A7B",
"{W+	c #A19F94",
"]W+	c #A97C5C",
"^W+	c #B27648",
"/W+	c #AB6E45",
"(W+	c #AA6E46",
"_W+	c #A46F4C",
":W+	c #B3835C",
"<W+	c #B18265",
"[W+	c #B37C56",
"}W+	c #B17C4E",
"|W+	c #B07C4D",
"1W+	c #B07C4F",
"2W+	c #AE7F51",
"3W+	c #AE8053",
"4W+	c #AE8055",
"5W+	c #B58968",
"6W+	c #B58B65",
"7W+	c #B29481",
"8W+	c #B78E6B",
"9W+	c #B88F73",
"0W+	c #B18A71",
"aW+	c #B38D74",
"bW+	c #A47F65",
"cW+	c #AA7F68",
"dW+	c #B28F78",
"eW+	c #A06A43",
"fW+	c #A5754A",
"gW+	c #AF7342",
"hW+	c #AD6B36",
"iW+	c #AE6B3A",
"jW+	c #AF6F3E",
"kW+	c #B06F3E",
"lW+	c #AC6C3B",
"mW+	c #AA6B3A",
"nW+	c #A76B33",
"oW+	c #AB723D",
"pW+	c #AB8974",
"qW+	c #A38C77",
"rW+	c #996E4F",
"sW+	c #9F7650",
"tW+	c #AB8866",
"uW+	c #C1AC9E",
"vW+	c #C9B8AA",
"wW+	c #C5B8A9",
"xW+	c #C2B1A2",
"yW+	c #9E6F46",
"zW+	c #9E744C",
"AW+	c #B19981",
"BW+	c #C4B9AC",
"CW+	c #C4BDB6",
"DW+	c #C1BBB5",
"EW+	c #C3BDB8",
"FW+	c #C8C2BE",
"GW+	c #C8C1BF",
"HW+	c #C4BBB7",
"IW+	c #BCAEA5",
"JW+	c #A18C79",
"KW+	c #AEA8A7",
"LW+	c #AD9A8F",
"MW+	c #AC7A49",
"NW+	c #AD7135",
"OW+	c #AE753C",
"PW+	c #AA763B",
"QW+	c #AA763C",
"RW+	c #AB763C",
"SW+	c #AE7339",
"TW+	c #AA6F33",
"UW+	c #A76E2F",
"VW+	c #AB7235",
"WW+	c #B07839",
"XW+	c #B37C40",
"YW+	c #B47C44",
"ZW+	c #B27A46",
"`W+	c #B37B47",
" X+	c #AD743F",
".X+	c #AF7842",
"+X+	c #B17A43",
"@X+	c #B17C44",
"#X+	c #B8834B",
"$X+	c #BA814A",
"%X+	c #B58553",
"&X+	c #AE9B8A",
"*X+	c #A8A69B",
"=X+	c #A16539",
"-X+	c #975A2D",
";X+	c #9C5F31",
">X+	c #9F6032",
",X+	c #9D5E30",
"'X+	c #B5805B",
")X+	c #B3876A",
"!X+	c #C0AEA4",
"~X+	c #C5B8B1",
"{X+	c #BDA69E",
"]X+	c #B89789",
"^X+	c #B38976",
"/X+	c #AF8872",
"(X+	c #BCA390",
"_X+	c #BA9886",
":X+	c #AD7453",
"<X+	c #A7725D",
"[X+	c #A87766",
"}X+	c #AB8474",
"|X+	c #AD886D",
"1X+	c #B59884",
"2X+	c #BC9F8C",
"3X+	c #BA9F8B",
"4X+	c #BEA693",
"5X+	c #B69988",
"6X+	c #B09688",
"7X+	c #B79E87",
"8X+	c #CBB8A1",
"9X+	c #C6BCAE",
"0X+	c #C4BEB4",
"aX+	c #C6BEB5",
"bX+	c #C0B1A2",
"cX+	c #AD9784",
"dX+	c #AF9983",
"eX+	c #9D7C64",
"fX+	c #C7AC93",
"gX+	c #BFA38A",
"hX+	c #AB8D6D",
"iX+	c #AD8E6E",
"jX+	c #BA9B79",
"kX+	c #C4AD8C",
"lX+	c #C3B08D",
"mX+	c #B19A7C",
"nX+	c #AC8C6C",
"oX+	c #B99D83",
"pX+	c #B1906E",
"qX+	c #BC9D78",
"rX+	c #B89D79",
"sX+	c #9C7C64",
"tX+	c #967153",
"uX+	c #A0958D",
"vX+	c #A3876F",
"wX+	c #C2AB93",
"xX+	c #A67A5E",
"yX+	c #B0987B",
"zX+	c #C5AF95",
"AX+	c #C8B29A",
"BX+	c #C4B79C",
"CX+	c #B59F82",
"DX+	c #83583B",
"EX+	c #80462B",
"FX+	c #945E3C",
"GX+	c #A16E48",
"HX+	c #975A2C",
"IX+	c #966742",
"JX+	c #955E39",
"KX+	c #935832",
"LX+	c #925933",
"MX+	c #9D6440",
"NX+	c #9E6C4C",
"OX+	c #997152",
"PX+	c #9F908B",
"QX+	c #9F7C65",
"RX+	c #A87959",
"SX+	c #AC7F59",
"TX+	c #AB7654",
"UX+	c #A37858",
"VX+	c #A07957",
"WX+	c #A16F49",
"XX+	c #A0663B",
"YX+	c #A1704E",
"ZX+	c #A97F61",
"`X+	c #A2897D",
" Y+	c #B57B46",
".Y+	c #B37E50",
"+Y+	c #B27C4C",
"@Y+	c #B78159",
"#Y+	c #B7855B",
"$Y+	c #B8895D",
"%Y+	c #B7875A",
"&Y+	c #B88454",
"*Y+	c #BA8555",
"=Y+	c #B48256",
"-Y+	c #B6875C",
";Y+	c #B58658",
">Y+	c #B98A66",
",Y+	c #BA8A5F",
"'Y+	c #B58C71",
")Y+	c #B38967",
"!Y+	c #B89577",
"~Y+	c #CDB3A0",
"{Y+	c #D0C1B0",
"]Y+	c #C7B2A1",
"^Y+	c #BB957E",
"/Y+	c #B78469",
"(Y+	c #BB9277",
"_Y+	c #C7AE92",
":Y+	c #9C6240",
"<Y+	c #A15C2F",
"[Y+	c #BC8559",
"}Y+	c #B77848",
"|Y+	c #B86E33",
"1Y+	c #AE7648",
"2Y+	c #AF7749",
"3Y+	c #B36F3D",
"4Y+	c #B57C4A",
"5Y+	c #A58B73",
"6Y+	c #A58158",
"7Y+	c #A67E52",
"8Y+	c #A27E59",
"9Y+	c #C8B099",
"0Y+	c #C3B0A2",
"aY+	c #C0AEA3",
"bY+	c #BBA695",
"cY+	c #B19882",
"dY+	c #A4856A",
"eY+	c #A16A3F",
"fY+	c #9D6A42",
"gY+	c #C7BBB0",
"hY+	c #C8C4BF",
"iY+	c #CEC4C1",
"jY+	c #C7C0B5",
"kY+	c #C7B5A6",
"lY+	c #AB886A",
"mY+	c #AB723A",
"nY+	c #AE743A",
"oY+	c #AB703A",
"pY+	c #A96D38",
"qY+	c #AD7134",
"rY+	c #B47838",
"sY+	c #B67A3E",
"tY+	c #B37A45",
"uY+	c #B17844",
"vY+	c #B17845",
"wY+	c #B27844",
"xY+	c #AF723C",
"yY+	c #AB6E37",
"zY+	c #AC7037",
"AY+	c #B67C3E",
"BY+	c #BB8048",
"CY+	c #AB815D",
"DY+	c #AB6833",
"EY+	c #A1602D",
"FY+	c #A3612D",
"GY+	c #A86733",
"HY+	c #A66630",
"IY+	c #B27144",
"JY+	c #AF764C",
"KY+	c #C0BEBA",
"LY+	c #C6C5BE",
"MY+	c #C5B3AC",
"NY+	c #C0ACA2",
"OY+	c #CFC1B4",
"PY+	c #D0C9BA",
"QY+	c #B4846A",
"RY+	c #AE8272",
"SY+	c #B09386",
"TY+	c #B49F97",
"UY+	c #CFC2BD",
"VY+	c #C6BDB4",
"WY+	c #B9AA9C",
"XY+	c #CBC3BB",
"YY+	c #CABEB3",
"ZY+	c #D4C7BC",
"`Y+	c #C3B4AA",
" Z+	c #BDA99E",
".Z+	c #BDA393",
"+Z+	c #B39787",
"@Z+	c #A2988F",
"#Z+	c #B79D85",
"$Z+	c #C8BDAE",
"%Z+	c #CCBEAC",
"&Z+	c #CBC0B3",
"*Z+	c #C6B4A3",
"=Z+	c #C9B9A7",
"-Z+	c #C9B1A0",
";Z+	c #C0AC98",
">Z+	c #C1AD9A",
",Z+	c #C3AF99",
"'Z+	c #C2AD97",
")Z+	c #C7B8A9",
"!Z+	c #C1AC99",
"~Z+	c #CAB79E",
"{Z+	c #C5B59C",
"]Z+	c #C5A485",
"^Z+	c #BDA47F",
"/Z+	c #BDA88C",
"(Z+	c #A68667",
"_Z+	c #9F7655",
":Z+	c #9E9088",
"<Z+	c #B59D89",
"[Z+	c #A98D75",
"}Z+	c #A47C5C",
"|Z+	c #A48462",
"1Z+	c #B8A48A",
"2Z+	c #C4BBAA",
"3Z+	c #C6BAAA",
"4Z+	c #BDA78C",
"5Z+	c #B29476",
"6Z+	c #9A6043",
"7Z+	c #95563A",
"8Z+	c #8D502F",
"9Z+	c #A87D52",
"0Z+	c #A06946",
"aZ+	c #AD8968",
"bZ+	c #B6967A",
"cZ+	c #986949",
"dZ+	c #9A653C",
"eZ+	c #AB7859",
"fZ+	c #AE7C5D",
"gZ+	c #9E897F",
"hZ+	c #AD7F5F",
"iZ+	c #AF8158",
"jZ+	c #A97550",
"kZ+	c #A66D47",
"lZ+	c #A36B47",
"mZ+	c #A16D49",
"nZ+	c #A47550",
"oZ+	c #A87851",
"pZ+	c #A3724A",
"qZ+	c #A37350",
"rZ+	c #9E7050",
"sZ+	c #B37B4B",
"tZ+	c #B17D4C",
"uZ+	c #B88460",
"vZ+	c #B68661",
"wZ+	c #B9875C",
"xZ+	c #B27F4E",
"yZ+	c #B68251",
"zZ+	c #B98151",
"AZ+	c #B68154",
"BZ+	c #B5855A",
"CZ+	c #BB8E63",
"DZ+	c #B68A5A",
"EZ+	c #B98C5F",
"FZ+	c #B78864",
"GZ+	c #AF876B",
"HZ+	c #AE7E59",
"IZ+	c #C09F88",
"JZ+	c #D2C8B8",
"KZ+	c #D0C1B5",
"LZ+	c #B68F78",
"MZ+	c #BA8D6F",
"NZ+	c #AE714E",
"OZ+	c #AE6B42",
"PZ+	c #AB6C42",
"QZ+	c #C4926B",
"RZ+	c #B47746",
"SZ+	c #C9A486",
"TZ+	c #C19E82",
"UZ+	c #B17149",
"VZ+	c #B27245",
"WZ+	c #B17A4C",
"XZ+	c #B88962",
"YZ+	c #B18360",
"ZZ+	c #A4968D",
"`Z+	c #A57E52",
" `+	c #A0723F",
".`+	c #B7987F",
"+`+	c #B3A08F",
"@`+	c #CAB8A7",
"#`+	c #AB896C",
"$`+	c #A27854",
"%`+	c #996A41",
"&`+	c #A46D41",
"*`+	c #9C673A",
"=`+	c #9A6639",
"-`+	c #9D7148",
";`+	c #B1957D",
">`+	c #C9BEB4",
",`+	c #CCC0BB",
"'`+	c #B6A299",
")`+	c #C8BAAC",
"!`+	c #B5997F",
"~`+	c #B68B63",
"{`+	c #A57046",
"]`+	c #AB733C",
"^`+	c #AF763F",
"/`+	c #AE753D",
"(`+	c #B1763C",
"_`+	c #B37741",
":`+	c #B4773C",
"<`+	c #B47738",
"[`+	c #B5773D",
"}`+	c #AE713D",
"|`+	c #AE713E",
"1`+	c #A86B32",
"2`+	c #A96C33",
"3`+	c #AE7034",
"4`+	c #B3783A",
"5`+	c #B57D3F",
"6`+	c #B67B40",
"7`+	c #B77741",
"8`+	c #B67A40",
"9`+	c #AC6632",
"0`+	c #A76430",
"a`+	c #A86531",
"b`+	c #AE6C37",
"c`+	c #AF6F37",
"d`+	c #AB734B",
"e`+	c #AA876D",
"f`+	c #BEB1AA",
"g`+	c #BAB6AE",
"h`+	c #C0C0B2",
"i`+	c #CBC9C1",
"j`+	c #D1C8C6",
"k`+	c #D3C7C7",
"l`+	c #D0CCC7",
"m`+	c #B7957C",
"n`+	c #CBB9B0",
"o`+	c #CBC5C5",
"p`+	c #D0CACD",
"q`+	c #D1CBC9",
"r`+	c #D0CAC8",
"s`+	c #CECBC4",
"t`+	c #C4B1A8",
"u`+	c #B99F8F",
"v`+	c #B89D8C",
"w`+	c #A0968A",
"x`+	c #B79D84",
"y`+	c #AF9C8E",
"z`+	c #C5BDB0",
"A`+	c #C9BEB6",
"B`+	c #CBBCB0",
"C`+	c #C7B9AC",
"D`+	c #C9BBAE",
"E`+	c #C6BBAC",
"F`+	c #C7BDAE",
"G`+	c #C2B9A7",
"H`+	c #B0977C",
"I`+	c #AA8A73",
"J`+	c #BBA987",
"K`+	c #BB9A77",
"L`+	c #BF9F7C",
"M`+	c #BCA57F",
"N`+	c #B6A789",
"O`+	c #BFAC94",
"P`+	c #BFA584",
"Q`+	c #CABBB0",
"R`+	c #C3B099",
"S`+	c #B19373",
"T`+	c #B29474",
"U`+	c #BEA98F",
"V`+	c #AB8463",
"W`+	c #915E32",
"X`+	c #95653E",
"Y`+	c #B99077",
"Z`+	c #C6B09A",
"``+	c #A2805E",
"  @	c #9C7754",
". @	c #A57B63",
"+ @	c #A77A58",
"@ @	c #AC8058",
"# @	c #AC7C50",
"$ @	c #A17245",
"% @	c #A37346",
"& @	c #A57247",
"* @	c #AE7C5A",
"= @	c #A67451",
"- @	c #A47153",
"; @	c #A1704F",
"> @	c #A47B5E",
", @	c #B18C6F",
"' @	c #B78460",
") @	c #B7855C",
"! @	c #B7875E",
"~ @	c #B7875F",
"{ @	c #B3804F",
"] @	c #B78353",
"^ @	c #B8814F",
"/ @	c #B4855E",
"( @	c #B58959",
"_ @	c #B58958",
": @	c #B58760",
"< @	c #B58766",
"[ @	c #B28B73",
"} @	c #BF9C85",
"| @	c #B68A6D",
"1 @	c #BB9478",
"2 @	c #BC987F",
"3 @	c #D3C7B7",
"4 @	c #AE7C61",
"5 @	c #AF8870",
"6 @	c #C6AF99",
"7 @	c #C09F82",
"8 @	c #BB8E6E",
"9 @	c #A86839",
"0 @	c #AD724B",
"a @	c #C8B19E",
"b @	c #C9BBAD",
"c @	c #CEBAA5",
"d @	c #B99174",
"e @	c #B38866",
"f @	c #B88762",
"g @	c #AE805E",
"h @	c #A38568",
"i @	c #9F7852",
"j @	c #8E623B",
"k @	c #9A745E",
"l @	c #C7AEA2",
"m @	c #CABEB8",
"n @	c #CBBFBA",
"o @	c #98683F",
"p @	c #996740",
"q @	c #98673F",
"r @	c #99693E",
"s @	c #9F7248",
"t @	c #AE907A",
"u @	c #A58471",
"v @	c #AD7E54",
"w @	c #A57B55",
"x @	c #AB8561",
"y @	c #B49375",
"z @	c #A56E3C",
"A @	c #AF7840",
"B @	c #B0773F",
"C @	c #B0753A",
"D @	c #B47941",
"E @	c #B77B3C",
"F @	c #B6783E",
"G @	c #B57440",
"H @	c #B16F3C",
"I @	c #AB6838",
"J @	c #AE6C3B",
"K @	c #AE7039",
"L @	c #AB6E35",
"M @	c #AA6D34",
"N @	c #B07236",
"O @	c #AF7436",
"P @	c #AF7838",
"Q @	c #B3793C",
"R @	c #B1753F",
"S @	c #B2723C",
"T @	c #B3783E",
"U @	c #B08F74",
"V @	c #AE6935",
"W @	c #A86530",
"X @	c #AC6935",
"Y @	c #AE6B37",
"Z @	c #AD6D35",
"` @	c #B77C58",
" .@	c #BD8D73",
"..@	c #C8BCB4",
"+.@	c #C6C0B6",
"@.@	c #C6C1B6",
"#.@	c #C7C7BE",
"$.@	c #CECBC5",
"%.@	c #D4C8C7",
"&.@	c #D0C9C8",
"*.@	c #D2CAC8",
"=.@	c #CDC6BF",
"-.@	c #CBC7C1",
";.@	c #D1CCCA",
">.@	c #D0C9C4",
",.@	c #D1C8C2",
"'.@	c #C1B0A3",
").@	c #B99B89",
"!.@	c #B79D89",
"~.@	c #9B938E",
"{.@	c #9E744E",
"].@	c #B6A085",
"^.@	c #C5B09F",
"/.@	c #BBAD9E",
"(.@	c #CAC1B7",
"_.@	c #C3B9AD",
":.@	c #C8C0B2",
"<.@	c #C8C2B4",
"[.@	c #C7C2B3",
"}.@	c #C1BBAB",
"|.@	c #B49F8D",
"1.@	c #BFAC9C",
"2.@	c #C2B09C",
"3.@	c #BFA889",
"4.@	c #BEA68A",
"5.@	c #BBAB8C",
"6.@	c #BEB4A0",
"7.@	c #B59D81",
"8.@	c #A07B58",
"9.@	c #A0968E",
"0.@	c #BCA993",
"a.@	c #C4B1A4",
"b.@	c #C6BDAF",
"c.@	c #C6C2B2",
"d.@	c #B99C81",
"e.@	c #B79E7F",
"f.@	c #BCAA9A",
"g.@	c #BCA497",
"h.@	c #BC9E85",
"i.@	c #956E4D",
"j.@	c #9B7351",
"k.@	c #AF8764",
"l.@	c #9F7353",
"m.@	c #CAB4A4",
"n.@	c #B9A38F",
"o.@	c #AF9276",
"p.@	c #BEA787",
"q.@	c #AE8B6E",
"r.@	c #987555",
"s.@	c #9D7250",
"t.@	c #9B6542",
"u.@	c #AE8259",
"v.@	c #AB7C52",
"w.@	c #A77547",
"x.@	c #A06B3E",
"y.@	c #A26D40",
"z.@	c #A67853",
"A.@	c #AE7B57",
"B.@	c #AA7955",
"C.@	c #A26F4D",
"D.@	c #A46C41",
"E.@	c #99684B",
"F.@	c #AC8463",
"G.@	c #B98760",
"H.@	c #BB8A5E",
"I.@	c #B98A64",
"J.@	c #B68057",
"K.@	c #B3855F",
"L.@	c #B48965",
"M.@	c #BA885C",
"N.@	c #B9865B",
"O.@	c #BA875C",
"P.@	c #B78658",
"Q.@	c #B4855B",
"R.@	c #B7895E",
"S.@	c #B68457",
"T.@	c #B7855D",
"U.@	c #B4855F",
"V.@	c #AE8D73",
"W.@	c #A49183",
"X.@	c #B89B85",
"Y.@	c #C5B4A4",
"Z.@	c #CDBFB1",
"`.@	c #CFC8BC",
" +@	c #D1CAC0",
".+@	c #CEBEB3",
"++@	c #CCC1B1",
"@+@	c #BFA287",
"#+@	c #AF8665",
"$+@	c #C1997C",
"%+@	c #B3744A",
"&+@	c #B37449",
"*+@	c #BA8F72",
"=+@	c #C8B7AB",
"-+@	c #C9C2B7",
";+@	c #CEBFAE",
">+@	c #BDA18B",
",+@	c #BB987A",
"'+@	c #A9754C",
")+@	c #A38774",
"!+@	c #AB8563",
"~+@	c #BBA899",
"{+@	c #C4BFB7",
"]+@	c #C8C3BB",
"^+@	c #BBAB9B",
"/+@	c #937155",
"(+@	c #956C4A",
"_+@	c #8A603A",
":+@	c #896038",
"<+@	c #90643A",
"[+@	c #98673C",
"}+@	c #A5724A",
"|+@	c #A07B5B",
"1+@	c #C5BFB6",
"2+@	c #C5B3A6",
"3+@	c #B7A090",
"4+@	c #B69879",
"5+@	c #B89169",
"6+@	c #AC8356",
"7+@	c #A78360",
"8+@	c #A78969",
"9+@	c #A16A3C",
"0+@	c #A8703E",
"a+@	c #AE7442",
"b+@	c #AB713F",
"c+@	c #AA703C",
"d+@	c #AC6F39",
"e+@	c #B3783F",
"f+@	c #B37440",
"g+@	c #B16D3C",
"h+@	c #AD693A",
"i+@	c #AD6A3B",
"j+@	c #AC703C",
"k+@	c #AD713D",
"l+@	c #AB6F39",
"m+@	c #AD7034",
"n+@	c #B07437",
"o+@	c #B1773A",
"p+@	c #B57A3D",
"q+@	c #B4793D",
"r+@	c #AF743B",
"s+@	c #AD8D76",
"t+@	c #B26D33",
"u+@	c #AD6A33",
"v+@	c #AF6D37",
"w+@	c #AF6D36",
"x+@	c #AE7038",
"y+@	c #BF9B82",
"z+@	c #CEC1B9",
"A+@	c #C5B4A9",
"B+@	c #CDC5C4",
"C+@	c #CFC3C3",
"D+@	c #CCCAC3",
"E+@	c #CECDC4",
"F+@	c #CAC7BD",
"G+@	c #CAC3BA",
"H+@	c #BEB8AE",
"I+@	c #CDC2B8",
"J+@	c #D0C6BD",
"K+@	c #CFC5BF",
"L+@	c #C7BDB4",
"M+@	c #C2B2A2",
"N+@	c #C09F8D",
"O+@	c #B79D88",
"P+@	c #AF8365",
"Q+@	c #AB7954",
"R+@	c #A4805A",
"S+@	c #B49C87",
"T+@	c #C2AF9E",
"U+@	c #C7BCAD",
"V+@	c #C4BAAC",
"W+@	c #C6BBAE",
"X+@	c #B9AEA0",
"Y+@	c #C0B6A8",
"Z+@	c #C5C3B6",
"`+@	c #C6C0B1",
" @@	c #C3B7A5",
".@@	c #C2B2A4",
"+@@	c #C0B0A3",
"@@@	c #9C806C",
"#@@	c #C1AF9B",
"$@@	c #BAA895",
"%@@	c #BFB09F",
"&@@	c #BFB49F",
"*@@	c #BFB2A0",
"=@@	c #A37F64",
"-@@	c #99785C",
";@@	c #A09A92",
">@@	c #AB927B",
",@@	c #B7A899",
"'@@	c #C3BCAB",
")@@	c #CAC0B3",
"!@@	c #B29D86",
"~@@	c #C0AA94",
"{@@	c #9A7955",
"]@@	c #B6916C",
"^@@	c #C3AB96",
"/@@	c #CBB6A3",
"(@@	c #BAA08F",
"_@@	c #A78567",
":@@	c #A18161",
"<@@	c #A37C5D",
"[@@	c #9A7253",
"}@@	c #9D704F",
"|@@	c #986342",
"1@@	c #977357",
"2@@	c #A48C78",
"3@@	c #AA7A54",
"4@@	c #AB7951",
"5@@	c #A77A53",
"6@@	c #AB7E5A",
"7@@	c #A9794D",
"8@@	c #AA7447",
"9@@	c #AC754A",
"0@@	c #AA7852",
"a@@	c #AD7C58",
"b@@	c #A57551",
"c@@	c #A47651",
"d@@	c #A0724D",
"e@@	c #A1724F",
"f@@	c #A36E46",
"g@@	c #A16A40",
"h@@	c #A56F45",
"i@@	c #9D6547",
"j@@	c #AC815E",
"k@@	c #B78967",
"l@@	c #B4845B",
"m@@	c #B5825E",
"n@@	c #B0794B",
"o@@	c #B37742",
"p@@	c #B48A68",
"q@@	c #B68464",
"r@@	c #BA875F",
"s@@	c #B9895E",
"t@@	c #B5855B",
"u@@	c #B6875D",
"v@@	c #B2865E",
"w@@	c #A68F79",
"x@@	c #BA9E88",
"y@@	c #D0CAC1",
"z@@	c #D1CCC3",
"A@@	c #CDCFC9",
"B@@	c #B79F8E",
"C@@	c #BCA89A",
"D@@	c #AE8462",
"E@@	c #C09C7E",
"F@@	c #CC9C79",
"G@@	c #BD8E6C",
"H@@	c #C1A391",
"I@@	c #CCBEB3",
"J@@	c #C0A991",
"K@@	c #BB9B7F",
"L@@	c #B28C6C",
"M@@	c #B68D70",
"N@@	c #B3866B",
"O@@	c #B3876B",
"P@@	c #B08162",
"Q@@	c #C2AC96",
"R@@	c #C5BDB2",
"S@@	c #C9C0B4",
"T@@	c #C4B7A8",
"U@@	c #967A64",
"V@@	c #967256",
"W@@	c #8B6746",
"X@@	c #84633C",
"Y@@	c #8C643A",
"Z@@	c #96693D",
"`@@	c #9D6E45",
" #@	c #8F7558",
".#@	c #8E7962",
"+#@	c #BBB3A7",
"@#@	c #B1A496",
"##@	c #B09A8B",
"$#@	c #B08657",
"%#@	c #A88662",
"&#@	c #A88B71",
"*#@	c #AB9992",
"=#@	c #A88D84",
"-#@	c #9A653E",
";#@	c #A36A40",
">#@	c #A0673D",
",#@	c #A16536",
"'#@	c #A66A3A",
")#@	c #A76C3A",
"!#@	c #A76D3A",
"~#@	c #A96838",
"{#@	c #A8693C",
"]#@	c #A96A3D",
"^#@	c #AA6C3F",
"/#@	c #A86E3E",
"(#@	c #AB7142",
"_#@	c #AC6E39",
":#@	c #AB6D37",
"<#@	c #AA6E36",
"[#@	c #AE6D3C",
"}#@	c #B47645",
"|#@	c #B67339",
"1#@	c #B27239",
"2#@	c #B3733B",
"3#@	c #B2733A",
"4#@	c #CEBFB8",
"5#@	c #CCB5AC",
"6#@	c #B18368",
"7#@	c #B0816C",
"8#@	c #C6B2A7",
"9#@	c #C0A89F",
"0#@	c #CBBFB1",
"a#@	c #BDAEA0",
"b#@	c #B59F8F",
"c#@	c #C5B2A2",
"d#@	c #C5B4A3",
"e#@	c #BAAA97",
"f#@	c #B19883",
"g#@	c #B68B6D",
"h#@	c #B89E84",
"i#@	c #C1AD90",
"j#@	c #B8A68C",
"k#@	c #BEAE96",
"l#@	c #C0AE9A",
"m#@	c #BFAD9A",
"n#@	c #C1B39F",
"o#@	c #C1B4A2",
"p#@	c #C2AE9D",
"q#@	c #C6B49F",
"r#@	c #BAAD9F",
"s#@	c #C2B19E",
"t#@	c #BBA08D",
"u#@	c #8E664F",
"v#@	c #9D8976",
"w#@	c #B9A48F",
"x#@	c #BCA48F",
"y#@	c #BBA591",
"z#@	c #B5A790",
"A#@	c #B59379",
"B#@	c #A18062",
"C#@	c #956F50",
"D#@	c #8C6747",
"E#@	c #8F6648",
"F#@	c #AE8B72",
"G#@	c #9E7860",
"H#@	c #9B7C5A",
"I#@	c #A07751",
"J#@	c #9A6C48",
"K#@	c #966A45",
"L#@	c #A06E4C",
"M#@	c #986341",
"N#@	c #A87A54",
"O#@	c #A47755",
"P#@	c #A67752",
"Q#@	c #A4734D",
"R#@	c #A7754D",
"S#@	c #A36E45",
"T#@	c #A06A44",
"U#@	c #A27348",
"V#@	c #A47754",
"W#@	c #A37553",
"X#@	c #9E6F4B",
"Y#@	c #976945",
"Z#@	c #93633E",
"`#@	c #A2673F",
" $@	c #A56C42",
".$@	c #9D6640",
"+$@	c #A1745E",
"@$@	c #B28051",
"#$@	c #B58564",
"$$@	c #B48868",
"%$@	c #AB7952",
"&$@	c #AF7949",
"*$@	c #B37843",
"=$@	c #B47949",
"-$@	c #B58662",
";$@	c #B48463",
">$@	c #B8865E",
",$@	c #B8855E",
"'$@	c #B28358",
")$@	c #B58459",
"!$@	c #B58458",
"~$@	c #B28255",
"{$@	c #B68552",
"]$@	c #B7885C",
"^$@	c #9F8D7D",
"/$@	c #A59C91",
"($@	c #B9A494",
"_$@	c #CEC2B9",
":$@	c #C8C2B8",
"<$@	c #CBCAC5",
"[$@	c #CCBBA8",
"}$@	c #BB9F83",
"|$@	c #B28A70",
"1$@	c #BDA088",
"2$@	c #AE8A6E",
"3$@	c #A9784B",
"4$@	c #B18459",
"5$@	c #B88D6F",
"6$@	c #BE9F89",
"7$@	c #B48E6B",
"8$@	c #B58D6A",
"9$@	c #B5865F",
"0$@	c #B27F58",
"a$@	c #B17F5D",
"b$@	c #AE764E",
"c$@	c #AA8C7A",
"d$@	c #BDA893",
"e$@	c #B8A490",
"f$@	c #B49A83",
"g$@	c #C3A891",
"h$@	c #A6876F",
"i$@	c #9B7558",
"j$@	c #967555",
"k$@	c #907654",
"l$@	c #9A7854",
"m$@	c #9C7149",
"n$@	c #9F7149",
"o$@	c #A6856F",
"p$@	c #9F8770",
"q$@	c #98826A",
"r$@	c #968069",
"s$@	c #9C8872",
"t$@	c #AC9B86",
"u$@	c #BBAC9E",
"v$@	c #B5A091",
"w$@	c #A68E72",
"x$@	c #A58868",
"y$@	c #A4805E",
"z$@	c #997E5F",
"A$@	c #A29383",
"B$@	c #AC928A",
"C$@	c #AA7B64",
"D$@	c #9C6947",
"E$@	c #9E6947",
"F$@	c #9E663F",
"G$@	c #9C643B",
"H$@	c #9B6237",
"I$@	c #A2683A",
"J$@	c #A76E40",
"K$@	c #A26B3F",
"L$@	c #A3653B",
"M$@	c #A5683D",
"N$@	c #A3683F",
"O$@	c #A1673E",
"P$@	c #A56B42",
"Q$@	c #A56B40",
"R$@	c #A86D43",
"S$@	c #A86C42",
"T$@	c #A86A3E",
"U$@	c #A6683B",
"V$@	c #A76C39",
"W$@	c #AC713E",
"X$@	c #A86738",
"Y$@	c #AC8B78",
"Z$@	c #B1773E",
"`$@	c #AF753C",
" %@	c #B1773D",
".%@	c #AC917C",
"+%@	c #BBAB9D",
"@%@	c #C0AFA4",
"#%@	c #A17355",
"$%@	c #AA8874",
"%%@	c #AD8E78",
"&%@	c #A8836F",
"*%@	c #A9846F",
"=%@	c #9F7D69",
"-%@	c #B89E8A",
";%@	c #BDA48F",
">%@	c #B19D92",
",%@	c #AD9489",
"'%@	c #9E816E",
")%@	c #A48A77",
"!%@	c #A79983",
"~%@	c #A89982",
"{%@	c #AF9D86",
"]%@	c #9D8B75",
"^%@	c #988371",
"/%@	c #A38E7D",
"(%@	c #9B8572",
"_%@	c #9F8C7B",
":%@	c #948273",
"<%@	c #917864",
"[%@	c #947F6D",
"}%@	c #A18F80",
"|%@	c #A7998D",
"1%@	c #958172",
"2%@	c #9E8F82",
"3%@	c #97877C",
"4%@	c #96857C",
"5%@	c #A49693",
"6%@	c #A9A0A0",
"7%@	c #A48B78",
"8%@	c #AB947E",
"9%@	c #B29D85",
"0%@	c #BBA88F",
"a%@	c #B09A7F",
"b%@	c #9B836B",
"c%@	c #94705A",
"d%@	c #A09387",
"e%@	c #9C8572",
"f%@	c #9C8773",
"g%@	c #907154",
"h%@	c #8F6444",
"i%@	c #8E5C3C",
"j%@	c #966845",
"k%@	c #99613F",
"l%@	c #926141",
"m%@	c #9B826E",
"n%@	c #ACA59E",
"o%@	c #AE9F97",
"p%@	c #9E8371",
"q%@	c #9A806C",
"r%@	c #998170",
"s%@	c #AD9B91",
"t%@	c #A38E84",
"u%@	c #A08B7E",
"v%@	c #977D6E",
"w%@	c #907768",
"x%@	c #9A7D6C",
"y%@	c #9B7F6E",
"z%@	c #9E8679",
"A%@	c #AA8D79",
"B%@	c #AB8265",
"C%@	c #A87F64",
"D%@	c #A98263",
"E%@	c #A67F61",
"F%@	c #AB805A",
"G%@	c #AD805D",
"H%@	c #B28666",
"I%@	c #B2856D",
"J%@	c #AE8C76",
"K%@	c #AC957E",
"L%@	c #A7856D",
"M%@	c #AE8E6F",
"N%@	c #AA8B6E",
"O%@	c #9E9083",
"P%@	c #B39C87",
"Q%@	c #BAA292",
"R%@	c #C4B0A4",
"S%@	c #B6A48D",
"T%@	c #AF9373",
"U%@	c #A0775B",
"V%@	c #A9937E",
"W%@	c #AE8D74",
"X%@	c #A47E60",
"Y%@	c #AA764D",
"Z%@	c #AC734A",
"`%@	c #A77959",
" &@	c #9E8876",
".&@	c #978575",
"+&@	c #947F70",
"@&@	c #A28F82",
"#&@	c #9E8B79",
"$&@	c #9D846D",
"%&@	c #94765E",
"&&@	c #91755C",
"*&@	c #967C65",
"=&@	c #99816C",
"-&@	c #9C816C",
";&@	c #A1826B",
">&@	c #A6907D",
",&@	c #A3917F",
"'&@	c #9B8A7B",
")&@	c #97857B",
"!&@	c #9B897E",
"~&@	c #A49387",
"{&@	c #9E9085",
"]&@	c #A79087",
"^&@	c #A38679",
"/&@	c #9E7D6A",
"(&@	c #9E7D6B",
"_&@	c #9D7762",
":&@	c #A2775F",
"<&@	c #9A7257",
"[&@	c #A57E68",
"}&@	c #A98471",
"|&@	c #A68372",
"1&@	c #A9816C",
"2&@	c #A27962",
"3&@	c #A17559",
"4&@	c #9D7157",
"5&@	c #A17B67",
"6&@	c #A4775D",
"7&@	c #9E6647",
"8&@	c #AB9989",
"9&@	c #A77B52",
"0&@	c #A57A51",
"a&@	c #A8AAA5",
"b&@	c #A3A097",
"c&@	c #A29C9B",
"d&@	c #A9A1A1",
"e&@	c #AFA69C",
"f&@	c #AFA59A",
"g&@	c #A7A59D",
"h&@	c #A7A298",
"i&@	c #A39A8E",
"j&@	c #A4938B",
"k&@	c #A28D87",
"l&@	c #A39089",
"m&@	c #B2AAA8",
"n&@	c #A9A7A7",
"o&@	c #A6A5A4",
"p&@	c #A6A4A5",
"q&@	c #A1968E",
"r&@	c #A0978F",
"s&@	c #9F928C",
"t&@	c #9F9A96",
"u&@	c #A9A5A5",
"v&@	c #AEA4A3",
"w&@	c #A8A1A3",
"x&@	c #A39589",
"y&@	c #AE9890",
"z&@	c #AA9A95",
"A&@	c #ABA8A6",
"B&@	c #B0A9A4",
"C&@	c #ACA0A0",
"D&@	c #A8A298",
"E&@	c #A49D94",
"F&@	c #A18B83",
"G&@	c #A6958C",
"H&@	c #AC9B91",
"I&@	c #ADACA7",
"J&@	c #A09C9E",
"K&@	c #A39FA1",
"L&@	c #A19E9F",
"M&@	c #A29895",
"N&@	c #A99996",
"O&@	c #A19795",
"P&@	c #A1897C",
"Q&@	c #9C8275",
"R&@	c #997F75",
"S&@	c #998278",
"T&@	c #9B877B",
"U&@	c #9A8B83",
"V&@	c #AA9C98",
"W&@	c #AA9795",
"X&@	c #AC9A98",
"Y&@	c #A99FA0",
"Z&@	c #AEA7A7",
"`&@	c #AFA9A8",
" *@	c #B1ABA9",
".*@	c #B3AAA6",
"+*@	c #A49895",
"@*@	c #A18F88",
"#*@	c #9C8F85",
"$*@	c #978983",
"%*@	c #9E8E85",
"&*@	c #98867C",
"**@	c #95857B",
"=*@	c #998D84",
"-*@	c #998B7F",
";*@	c #958578",
">*@	c #988880",
",*@	c #9A8A82",
"'*@	c #A4968F",
")*@	c #99877D",
"!*@	c #A29C94",
"~*@	c #A89289",
"{*@	c #A99893",
"]*@	c #A08D85",
"^*@	c #A58E85",
"/*@	c #A18E88",
"(*@	c #A08C87",
"_*@	c #9E8B80",
":*@	c #AB9991",
"<*@	c #AE9D9B",
"[*@	c #AF9E9C",
"}*@	c #AD9C97",
"|*@	c #B09F98",
"1*@	c #AA9993",
"2*@	c #A49184",
"3*@	c #AAAAA4",
"4*@	c #A8A9A6",
"5*@	c #B0A39B",
"6*@	c #A69B91",
"7*@	c #A69A8E",
"8*@	c #A59A99",
"9*@	c #B09E94",
"0*@	c #B2A196",
"a*@	c #AE9B8F",
"b*@	c #AFA399",
"c*@	c #B69680",
"d*@	c #B3937E",
"e*@	c #AD8C77",
"f*@	c #AD9989",
"g*@	c #906B4A",
"h*@	c #936D4B",
"i*@	c #A67E5B",
"j*@	c #B59B8B",
"k*@	c #B9ACA3",
"l*@	c #B39785",
"m*@	c #9E7D69",
"n*@	c #9A765F",
"o*@	c #94725A",
"p*@	c #A8866D",
"q*@	c #9C8471",
"r*@	c #B3A9A0",
"s*@	c #9A887F",
"t*@	c #998475",
"u*@	c #937F73",
"v*@	c #9B8B7E",
"w*@	c #8C7766",
"x*@	c #947764",
"y*@	c #937361",
"z*@	c #A19086",
"A*@	c #A59086",
"B*@	c #95796C",
"C*@	c #8F766A",
"D*@	c #A59389",
"E*@	c #948376",
"F*@	c #AD9F9B",
"G*@	c #A06649",
"H*@	c #9E5836",
"I*@	c #9E5936",
"J*@	c #9F6644",
"K*@	c #975E3F",
"L*@	c #8E583D",
"M*@	c #83543E",
"N*@	c #654638",
"O*@	c #5E4A44",
"P*@	c #5B4945",
"Q*@	c #63504C",
"R*@	c #695A53",
"S*@	c #68574F",
"T*@	c #62524B",
"U*@	c #666057",
"V*@	c #67645E",
"W*@	c #605A57",
"X*@	c #584E4A",
"Y*@	c #5C514B",
"Z*@	c #5F5653",
"`*@	c #645C58",
" =@	c #6A5F5C",
".=@	c #706562",
"+=@	c #837974",
"@=@	c #8B7D76",
"#=@	c #95837A",
"$=@	c #A1938C",
"%=@	c #B5A598",
"&=@	c #AD9175",
"*=@	c #A99375",
"==@	c #AD9A86",
"-=@	c #B6A494",
";=@	c #BBA794",
">=@	c #A79582",
",=@	c #A99A89",
"'=@	c #AA9A86",
")=@	c #A48E7C",
"!=@	c #AEA497",
"~=@	c #ADA397",
"{=@	c #998371",
"]=@	c #9B7D65",
"^=@	c #9B7D66",
"/=@	c #A28673",
"(=@	c #9E816F",
"_=@	c #947765",
":=@	c #856354",
"<=@	c #875238",
"[=@	c #8D654E",
"}=@	c #875B40",
"|=@	c #825539",
"1=@	c #85573A",
"2=@	c #835335",
"3=@	c #805235",
"4=@	c #7B4D31",
"5=@	c #7C5035",
"6=@	c #7B533A",
"7=@	c #795036",
"8=@	c #7B5134",
"9=@	c #7B5238",
"0=@	c #7B5339",
"a=@	c #835B41",
"b=@	c #845F47",
"c=@	c #815B42",
"d=@	c #845C42",
"e=@	c #845E43",
"f=@	c #845F44",
"g=@	c #825D41",
"h=@	c #91694D",
"i=@	c #966F54",
"j=@	c #9C8477",
"k=@	c #8E604B",
"l=@	c #966044",
"m=@	c #96684F",
"n=@	c #996D52",
"o=@	c #94603D",
"p=@	c #945E3D",
"q=@	c #95603D",
"r=@	c #8D5838",
"s=@	c #8F5C3E",
"t=@	c #895C40",
"u=@	c #916349",
"v=@	c #95674F",
"w=@	c #926249",
"x=@	c #94674A",
"y=@	c #95684A",
"z=@	c #A7846E",
"A=@	c #AA9D93",
"B=@	c #B79C84",
"C=@	c #B99E8A",
"D=@	c #AB8C73",
"E=@	c #AA8D70",
"F=@	c #997C63",
"G=@	c #A3896D",
"H=@	c #A9947B",
"I=@	c #A68C75",
"J=@	c #A58A71",
"K=@	c #A68A6F",
"L=@	c #A88B68",
"M=@	c #A98C63",
"N=@	c #AD8971",
"O=@	c #AD8A79",
"P=@	c #A47E6B",
"Q=@	c #9E7E6B",
"R=@	c #A27D64",
"S=@	c #A37E63",
"T=@	c #A17F66",
"U=@	c #A18972",
"V=@	c #AA9280",
"W=@	c #B18E75",
"X=@	c #AD8E79",
"Y=@	c #AC886E",
"Z=@	c #B0876C",
"`=@	c #B68E73",
" -@	c #B58D73",
".-@	c #B68967",
"+-@	c #B58E6E",
"@-@	c #B29278",
"#-@	c #BA9478",
"$-@	c #BB8A6D",
"%-@	c #B98768",
"&-@	c #B38D70",
"*-@	c #AAA0A0",
"=-@	c #A17E5D",
"--@	c #BE9A7C",
";-@	c #B1917A",
">-@	c #BDAEA3",
",-@	c #BFB2A4",
"'-@	c #A67D61",
")-@	c #A37859",
"!-@	c #A07456",
"~-@	c #9D7150",
"{-@	c #9A6E4F",
"]-@	c #926B51",
"^-@	c #977C6A",
"/-@	c #C6BEB6",
"(-@	c #BDB4AA",
"_-@	c #B0917C",
":-@	c #A98774",
"<-@	c #A78267",
"[-@	c #99795E",
"}-@	c #B0A29B",
"|-@	c #BDB6B2",
"1-@	c #B9AAA0",
"2-@	c #917764",
"3-@	c #8A654D",
"4-@	c #8E715F",
"5-@	c #B8A59C",
"6-@	c #BBACA3",
"7-@	c #BEB7B3",
"8-@	c #BDB6AF",
"9-@	c #C5B6A8",
"0-@	c #C2B9AD",
"a-@	c #BFB6AD",
"b-@	c #C5BBB3",
"c-@	c #C5BCB9",
"d-@	c #B4A090",
"e-@	c #C5B6AA",
"f-@	c #96735A",
"g-@	c #A25E35",
"h-@	c #A8653C",
"i-@	c #A46846",
"j-@	c #9D613F",
"k-@	c #90563A",
"l-@	c #714939",
"m-@	c #534038",
"n-@	c #4E423D",
"o-@	c #48403C",
"p-@	c #49413D",
"q-@	c #463E3A",
"r-@	c #433B37",
"s-@	c #4A423F",
"t-@	c #463E3B",
"u-@	c #423A37",
"v-@	c #413937",
"w-@	c #3E3634",
"x-@	c #433D3A",
"y-@	c #46403B",
"z-@	c #453E38",
"A-@	c #4E403B",
"B-@	c #564743",
"C-@	c #544A42",
"D-@	c #635448",
"E-@	c #756151",
"F-@	c #857367",
"G-@	c #B2A08C",
"H-@	c #B89E78",
"I-@	c #BCA480",
"J-@	c #C0A990",
"K-@	c #BAA38E",
"L-@	c #C4B09F",
"M-@	c #CABEAF",
"N-@	c #C7BAAB",
"O-@	c #C6BBAA",
"P-@	c #C5BAA6",
"Q-@	c #C6B9AB",
"R-@	c #C4BFB5",
"S-@	c #C2BAAC",
"T-@	c #B29F87",
"U-@	c #9B6F4C",
"V-@	c #9D6A49",
"W-@	c #966848",
"X-@	c #966A4C",
"Y-@	c #865834",
"Z-@	c #9E673F",
"`-@	c #9A633B",
" ;@	c #905B35",
".;@	c #8A5732",
"+;@	c #8A5734",
"@;@	c #875632",
"#;@	c #845232",
"$;@	c #865536",
"%;@	c #895839",
"&;@	c #845434",
"*;@	c #815232",
"=;@	c #825332",
"-;@	c #895B38",
";;@	c #8E5F3B",
">;@	c #8F603C",
",;@	c #8F613B",
"';@	c #8D6341",
");@	c #886244",
"!;@	c #8F644A",
"~;@	c #96694B",
"{;@	c #A49081",
"];@	c #9B7048",
"^;@	c #9C663C",
"/;@	c #A46E43",
"(;@	c #9D6139",
"_;@	c #9C6139",
":;@	c #9C6137",
"<;@	c #975C32",
"[;@	c #985D35",
"};@	c #935E37",
"|;@	c #935F37",
"1;@	c #A0683F",
"2;@	c #9F673E",
"3;@	c #9C6D47",
"4;@	c #9E714F",
"5;@	c #A99A95",
"6;@	c #AB9782",
"7;@	c #B2916E",
"8;@	c #B88E66",
"9;@	c #AC815B",
"0;@	c #A57A55",
"a;@	c #A47A58",
"b;@	c #A37756",
"c;@	c #A6825E",
"d;@	c #BDAB93",
"e;@	c #B8A896",
"f;@	c #B0957B",
"g;@	c #A68566",
"h;@	c #B89D82",
"i;@	c #C1A88F",
"j;@	c #B6997A",
"k;@	c #B08568",
"l;@	c #A77850",
"m;@	c #A87D55",
"n;@	c #AD825B",
"o;@	c #AB7F59",
"p;@	c #A07651",
"q;@	c #AE8166",
"r;@	c #B88761",
"s;@	c #B58C6D",
"t;@	c #B89074",
"u;@	c #B99073",
"v;@	c #B38460",
"w;@	c #B8835B",
"x;@	c #B58869",
"y;@	c #BB8F72",
"z;@	c #BA8E73",
"A;@	c #B98E6F",
"B;@	c #BA906A",
"C;@	c #B88A63",
"D;@	c #BA8E6B",
"E;@	c #BA9374",
"F;@	c #BD9576",
"G;@	c #BB9272",
"H;@	c #BC9473",
"I;@	c #BE967A",
"J;@	c #B5794E",
"K;@	c #B9885E",
"L;@	c #AA8B6C",
"M;@	c #AD8967",
"N;@	c #A88368",
"O;@	c #CABFB2",
"P;@	c #9E7D67",
"Q;@	c #A27A5E",
"R;@	c #A36D43",
"S;@	c #95643E",
"T;@	c #8B6041",
"U;@	c #9F826F",
"V;@	c #C5C4C0",
"W;@	c #C9C6C5",
"X;@	c #CAC6C6",
"Y;@	c #CCBFB8",
"Z;@	c #9B6C4B",
"`;@	c #A57756",
" >@	c #C8B8AC",
".>@	c #99806D",
"+>@	c #A58570",
"@>@	c #9A7761",
"#>@	c #9B867A",
"$>@	c #B8B6B1",
"%>@	c #B2ABA3",
"&>@	c #9B8B7C",
"*>@	c #927565",
"=>@	c #C1AFA7",
"->@	c #C3BAB7",
";>@	c #C4BCBA",
">>@	c #C3BCB8",
",>@	c #ACA294",
"'>@	c #BBB9B3",
")>@	c #BFBCB8",
"!>@	c #C6BFBC",
"~>@	c #C7BFBD",
"{>@	c #BAA496",
"]>@	c #BCAD9E",
"^>@	c #936D54",
"/>@	c #93582F",
"(>@	c #A26238",
"_>@	c #A2643D",
":>@	c #A66944",
"<>@	c #965A35",
"[>@	c #965836",
"}>@	c #5F4231",
"|>@	c #4B3C32",
"1>@	c #483F38",
"2>@	c #49413A",
"3>@	c #463E37",
"4>@	c #524844",
"5>@	c #4F4641",
"6>@	c #443B37",
"7>@	c #433A35",
"8>@	c #46413B",
"9>@	c #45423C",
"0>@	c #47463D",
"a>@	c #443F36",
"b>@	c #52443D",
"c>@	c #584943",
"d>@	c #554C44",
"e>@	c #5F534B",
"f>@	c #746256",
"g>@	c #7D6A5F",
"h>@	c #B09D84",
"i>@	c #B59464",
"j>@	c #B38A5E",
"k>@	c #C0AD9B",
"l>@	c #C6BBAF",
"m>@	c #CBC2B7",
"n>@	c #CBC2B5",
"o>@	c #BCB5A7",
"p>@	c #C5C0B2",
"q>@	c #C0B09B",
"r>@	c #BFAA96",
"s>@	c #A16B44",
"t>@	c #A66843",
"u>@	c #9F643B",
"v>@	c #9A6138",
"w>@	c #A97F5D",
"x>@	c #AE9F93",
"y>@	c #986B4A",
"z>@	c #93643C",
"A>@	c #95673F",
"B>@	c #96683D",
"C>@	c #966134",
"D>@	c #85562E",
"E>@	c #80532D",
"F>@	c #875733",
"G>@	c #885637",
"H>@	c #885939",
"I>@	c #895A3A",
"J>@	c #8A5B3C",
"K>@	c #885839",
"L>@	c #8D5E3C",
"M>@	c #966743",
"N>@	c #986843",
"O>@	c #986A44",
"P>@	c #916B4C",
"Q>@	c #92664C",
"R>@	c #9D714D",
"S>@	c #A37045",
"T>@	c #A87646",
"U>@	c #A06639",
"V>@	c #975C35",
"W>@	c #965C35",
"X>@	c #9C633A",
"Y>@	c #985E35",
"Z>@	c #99623F",
"`>@	c #996442",
" ,@	c #99643F",
".,@	c #A86F49",
"+,@	c #A8704A",
"@,@	c #A97953",
"#,@	c #A7A29A",
"$,@	c #B29677",
"%,@	c #B48358",
"&,@	c #AF7D4D",
"*,@	c #B28960",
"=,@	c #B59271",
"-,@	c #B78968",
";,@	c #AB764D",
">,@	c #A46D42",
",,@	c #AF8862",
"',@	c #BDAD96",
"),@	c #C4B7AA",
"!,@	c #C5B2A0",
"~,@	c #CCBFB1",
"{,@	c #C8B4A0",
"],@	c #AE855C",
"^,@	c #A87D50",
"/,@	c #AA8054",
"(,@	c #A47953",
"_,@	c #A68061",
":,@	c #A0948B",
"<,@	c #B1856A",
"[,@	c #BC8B67",
"},@	c #BB967B",
"|,@	c #BB957A",
"1,@	c #BB9174",
"2,@	c #BA8A67",
"3,@	c #BB7E53",
"4,@	c #BB885F",
"5,@	c #BC9172",
"6,@	c #BB8F73",
"7,@	c #BB8F71",
"8,@	c #BC916D",
"9,@	c #BC916B",
"0,@	c #BB906C",
"a,@	c #BA8D68",
"b,@	c #BA8C65",
"c,@	c #BC906D",
"d,@	c #BD9777",
"e,@	c #BC9979",
"f,@	c #B89473",
"g,@	c #BB9172",
"h,@	c #BD8351",
"i,@	c #BB7F4E",
"j,@	c #BA7E4E",
"k,@	c #ACA3A1",
"l,@	c #AE917C",
"m,@	c #AC8666",
"n,@	c #AA8058",
"o,@	c #A87D59",
"p,@	c #A98568",
"q,@	c #B79E8A",
"r,@	c #AB7047",
"s,@	c #957357",
"t,@	c #B7AA97",
"u,@	c #C8C5C1",
"v,@	c #CAC9C7",
"w,@	c #C9C5C4",
"x,@	c #C4B8B2",
"y,@	c #D1C7C1",
"z,@	c #C2AFA2",
"A,@	c #AA9F8F",
"B,@	c #9D7A5D",
"C,@	c #956845",
"D,@	c #91613D",
"E,@	c #BAA493",
"F,@	c #BBAEA4",
"G,@	c #BCB2A9",
"H,@	c #9D8B7E",
"I,@	c #BAB0AA",
"J,@	c #C3BBB6",
"K,@	c #A4897C",
"L,@	c #B7A299",
"M,@	c #B6ABA4",
"N,@	c #C6B7AB",
"O,@	c #BDAB9E",
"P,@	c #AE9887",
"Q,@	c #9B8773",
"R,@	c #ADA392",
"S,@	c #B8AEA0",
"T,@	c #C2BFB7",
"U,@	c #C3C0BA",
"V,@	c #C6C0BC",
"W,@	c #CDBEB6",
"X,@	c #AC8970",
"Y,@	c #9E7357",
"Z,@	c #966953",
"`,@	c #A16036",
" '@	c #A26136",
".'@	c #9A5C32",
"+'@	c #96552C",
"@'@	c #A15F39",
"#'@	c #985C39",
"$'@	c #7E4F34",
"%'@	c #594032",
"&'@	c #474339",
"*'@	c #45433C",
"='@	c #4A403A",
"-'@	c #49403A",
";'@	c #4A4444",
">'@	c #443D3C",
",'@	c #423733",
"''@	c #463C38",
")'@	c #474440",
"!'@	c #44413C",
"~'@	c #483F36",
"{'@	c #5C4A3B",
"]'@	c #5C473B",
"^'@	c #534541",
"/'@	c #554A44",
"('@	c #61534C",
"_'@	c #6F5C50",
":'@	c #AE9C89",
"<'@	c #C3A989",
"['@	c #C6B09C",
"}'@	c #C8C2BB",
"|'@	c #C1B3A6",
"1'@	c #CDC5BD",
"2'@	c #C6B0A5",
"3'@	c #A37048",
"4'@	c #B3926D",
"5'@	c #A87346",
"6'@	c #AA6837",
"7'@	c #A96939",
"8'@	c #A56D40",
"9'@	c #A56E40",
"0'@	c #A36D42",
"a'@	c #916F56",
"b'@	c #855331",
"c'@	c #825436",
"d'@	c #9A6437",
"e'@	c #9D6839",
"f'@	c #946337",
"g'@	c #855A35",
"h'@	c #855936",
"i'@	c #895C3A",
"j'@	c #8A5E3A",
"k'@	c #855735",
"l'@	c #885938",
"m'@	c #8C5D3C",
"n'@	c #8E603E",
"o'@	c #8E603F",
"p'@	c #906342",
"q'@	c #976745",
"r'@	c #986944",
"s'@	c #8D6446",
"t'@	c #8F6747",
"u'@	c #87593B",
"v'@	c #AB7145",
"w'@	c #AB6E41",
"x'@	c #A86D3F",
"y'@	c #A0683D",
"z'@	c #99633D",
"A'@	c #96633F",
"B'@	c #996842",
"C'@	c #99603B",
"D'@	c #9A6A49",
"E'@	c #996848",
"F'@	c #A47752",
"G'@	c #B4906F",
"H'@	c #B07747",
"I'@	c #AF7C4F",
"J'@	c #C3A48B",
"K'@	c #CFC2B8",
"L'@	c #C7B1A2",
"M'@	c #A16848",
"N'@	c #CCC2B7",
"O'@	c #C9C0B5",
"P'@	c #C5BFB7",
"Q'@	c #CAC2BC",
"R'@	c #C9BFB6",
"S'@	c #CCBDB1",
"T'@	c #CBB5A1",
"U'@	c #C7AF99",
"V'@	c #B9987A",
"W'@	c #B88F69",
"X'@	c #AC7D51",
"Y'@	c #AF7F59",
"Z'@	c #AC9C98",
"`'@	c #AC8D76",
" )@	c #B98F70",
".)@	c #BE9373",
"+)@	c #BF9171",
"@)@	c #BE8D6D",
"#)@	c #C29477",
"$)@	c #BC8A69",
"%)@	c #BB8865",
"&)@	c #BB8B67",
"*)@	c #BB8C6C",
"=)@	c #BE8F70",
"-)@	c #BD8E6E",
";)@	c #BD8E6D",
">)@	c #BE8F69",
",)@	c #BE8F66",
"')@	c #BD8E66",
"))@	c #BB8D64",
"!)@	c #BE936F",
"~)@	c #BF9878",
"{)@	c #C09B76",
"])@	c #BE9975",
"^)@	c #BC9479",
"/)@	c #C1834A",
"()@	c #C4854C",
"_)@	c #BF834F",
":)@	c #C18A5B",
"<)@	c #A88B72",
"[)@	c #AD8766",
"})@	c #AB7D57",
"|)@	c #AC7B53",
"1)@	c #A67852",
"2)@	c #A7724C",
"3)@	c #A7734D",
"4)@	c #A76E43",
"5)@	c #C2B29E",
"6)@	c #CAC9C1",
"7)@	c #CECAC8",
"8)@	c #CEC9C7",
"9)@	c #CDC9C5",
"0)@	c #C4BCB9",
"a)@	c #BCB0A8",
"b)@	c #BFB1A8",
"c)@	c #AE9683",
"d)@	c #AA896D",
"e)@	c #7C5535",
"f)@	c #C8B6A7",
"g)@	c #BFB7B1",
"h)@	c #C5BCB1",
"i)@	c #BAB2A7",
"j)@	c #C0BAB3",
"k)@	c #AD9587",
"l)@	c #C5BAB3",
"m)@	c #9C7C63",
"n)@	c #926952",
"o)@	c #967B6C",
"p)@	c #BEAC9D",
"q)@	c #9F8065",
"r)@	c #C4C0B9",
"s)@	c #B5A69F",
"t)@	c #9A7357",
"u)@	c #99715A",
"v)@	c #A18063",
"w)@	c #9C6748",
"x)@	c #A6683D",
"y)@	c #A3663B",
"z)@	c #A36639",
"A)@	c #A05E33",
"B)@	c #A36138",
"C)@	c #9D633E",
"D)@	c #815D46",
"E)@	c #5D4D3D",
"F)@	c #4A433A",
"G)@	c #49403B",
"H)@	c #453C38",
"I)@	c #484141",
"J)@	c #49413E",
"K)@	c #443B36",
"L)@	c #453B37",
"M)@	c #4A403B",
"N)@	c #554239",
"O)@	c #825D45",
"P)@	c #674A39",
"Q)@	c #50403C",
"R)@	c #53453E",
"S)@	c #5F5046",
"T)@	c #6B5648",
"U)@	c #766051",
"V)@	c #BEA58E",
"W)@	c #CDBBAA",
"X)@	c #BFA792",
"Y)@	c #B6A08D",
"Z)@	c #AE9E91",
"`)@	c #BEAA9C",
" !@	c #CDC3BA",
".!@	c #C8C6C0",
"+!@	c #C9C2B8",
"@!@	c #C3B6A7",
"#!@	c #AB785E",
"$!@	c #A9633B",
"%!@	c #AC6B3D",
"&!@	c #AA784A",
"*!@	c #AD7647",
"=!@	c #AD7444",
"-!@	c #AC723F",
";!@	c #AD703C",
">!@	c #A76C37",
",!@	c #A97349",
"'!@	c #A5835A",
")!@	c #A69E93",
"!!@	c #8F6E55",
"~!@	c #855734",
"{!@	c #7E4C2B",
"]!@	c #A26C41",
"^!@	c #A26E3F",
"/!@	c #895E38",
"(!@	c #83593C",
"_!@	c #7C5234",
":!@	c #7E5435",
"<!@	c #835939",
"[!@	c #865B3A",
"}!@	c #865A39",
"|!@	c #8C5E3D",
"1!@	c #8C6445",
"2!@	c #8C6446",
"3!@	c #8A6244",
"4!@	c #8F674A",
"5!@	c #8F6546",
"6!@	c #9A6F4A",
"7!@	c #976A43",
"8!@	c #906541",
"9!@	c #966A47",
"0!@	c #895837",
"a!@	c #955C37",
"b!@	c #AC7147",
"c!@	c #AD7348",
"d!@	c #AA7045",
"e!@	c #916441",
"f!@	c #8B603F",
"g!@	c #8F5F3C",
"h!@	c #95623B",
"i!@	c #9C6540",
"j!@	c #9E6944",
"k!@	c #A16D45",
"l!@	c #A06E4A",
"m!@	c #986E4D",
"n!@	c #9B6A4C",
"o!@	c #A07051",
"p!@	c #9D6F4E",
"q!@	c #A37554",
"r!@	c #A2764F",
"s!@	c #9C724C",
"t!@	c #A47D5D",
"u!@	c #AA9B93",
"v!@	c #AE7C51",
"w!@	c #B89275",
"x!@	c #CBBDB2",
"y!@	c #BFBBAC",
"z!@	c #B4A691",
"A!@	c #C1AB94",
"B!@	c #C4AF9E",
"C!@	c #CBBEB6",
"D!@	c #C5C0BB",
"E!@	c #C9C8BF",
"F!@	c #CEC5BA",
"G!@	c #C5B5AA",
"H!@	c #B89477",
"I!@	c #BEA185",
"J!@	c #BC9C7E",
"K!@	c #BB9B79",
"L!@	c #AB9C9C",
"M!@	c #B4937E",
"N!@	c #B98B65",
"O!@	c #BA8D67",
"P!@	c #BC8B62",
"Q!@	c #BC885F",
"R!@	c #BD8D6B",
"S!@	c #BD9273",
"T!@	c #B98A68",
"U!@	c #B88C69",
"V!@	c #BB8D6A",
"W!@	c #BC8D6B",
"X!@	c #BD8E6B",
"Y!@	c #BC8B69",
"Z!@	c #BC8B63",
"`!@	c #C49C78",
" ~@	c #C09773",
".~@	c #C09575",
"+~@	c #BD967A",
"@~@	c #C08D60",
"#~@	c #B9865A",
"$~@	c #BF9169",
"%~@	c #AD8460",
"&~@	c #AE7C56",
"*~@	c #B07B50",
"=~@	c #AC764B",
"-~@	c #AB754A",
";~@	c #A87345",
">~@	c #A46D43",
",~@	c #A26A41",
"'~@	c #AE7E5C",
")~@	c #A37A61",
"!~@	c #AC8B7A",
"~~@	c #B19889",
"{~@	c #C7C1B5",
"]~@	c #C4C8C3",
"^~@	c #CAC7C5",
"/~@	c #CCC8C6",
"(~@	c #CCC8C3",
"_~@	c #CBC8C3",
":~@	c #CCC4C0",
"<~@	c #C4ADA0",
"[~@	c #B19780",
"}~@	c #A99683",
"|~@	c #C5B8AE",
"1~@	c #B7A394",
"2~@	c #A27E65",
"3~@	c #A28A77",
"4~@	c #A09081",
"5~@	c #BDB6B0",
"6~@	c #BCB2AA",
"7~@	c #BBB8B6",
"8~@	c #BDB5AF",
"9~@	c #C5BCB7",
"0~@	c #AD9889",
"a~@	c #92623E",
"b~@	c #956D58",
"c~@	c #B8AAA4",
"d~@	c #BDB3A9",
"e~@	c #9A7C63",
"f~@	c #AFA295",
"g~@	c #C4BEB8",
"h~@	c #B1A29C",
"i~@	c #A98F70",
"j~@	c #A4907A",
"k~@	c #A98373",
"l~@	c #A46A43",
"m~@	c #A86F44",
"n~@	c #A87246",
"o~@	c #A97244",
"p~@	c #A86538",
"q~@	c #A16338",
"r~@	c #98613B",
"s~@	c #90654D",
"t~@	c #73594D",
"u~@	c #473E38",
"v~@	c #4A3F39",
"w~@	c #53443A",
"x~@	c #554436",
"y~@	c #4A4039",
"z~@	c #423932",
"A~@	c #614939",
"B~@	c #9F6945",
"C~@	c #7F5B45",
"D~@	c #564137",
"E~@	c #5D493E",
"F~@	c #675043",
"G~@	c #725644",
"H~@	c #775C4C",
"I~@	c #9F908A",
"J~@	c #A19A9A",
"K~@	c #C3AC97",
"L~@	c #CCC3BA",
"M~@	c #D0C3BF",
"N~@	c #CABAAF",
"O~@	c #C4B09D",
"P~@	c #B2967C",
"Q~@	c #A7774F",
"R~@	c #AA6B3D",
"S~@	c #B07740",
"T~@	c #AF753F",
"U~@	c #AE7340",
"V~@	c #AB713D",
"W~@	c #A86F3B",
"X~@	c #A66E38",
"Y~@	c #A97147",
"Z~@	c #A37750",
"`~@	c #A28562",
" {@	c #9D9B8C",
".{@	c #A19992",
"+{@	c #9C7A66",
"@{@	c #8C5D37",
"#{@	c #9A6438",
"${@	c #906040",
"%{@	c #916640",
"&{@	c #7C5736",
"*{@	c #7C573D",
"={@	c #77523A",
"-{@	c #724C33",
";{@	c #784F2F",
">{@	c #815634",
",{@	c #885B3A",
"'{@	c #8C5F3E",
"){@	c #956848",
"!{@	c #8A664C",
"~{@	c #836049",
"{{@	c #87634C",
"]{@	c #8D6851",
"^{@	c #8B6C4F",
"/{@	c #906A46",
"({@	c #9E6F44",
"_{@	c #946D4E",
":{@	c #9A7356",
"<{@	c #9E7D63",
"[{@	c #A16D44",
"}{@	c #8E6042",
"|{@	c #865B3E",
"1{@	c #8E5B37",
"2{@	c #9F6D48",
"3{@	c #936A4F",
"4{@	c #986E53",
"5{@	c #976E53",
"6{@	c #9C7557",
"7{@	c #A0795A",
"8{@	c #A97B56",
"9{@	c #A47955",
"0{@	c #A78161",
"a{@	c #B58B6D",
"b{@	c #B18D72",
"c{@	c #CAC4B9",
"d{@	c #CAC1B5",
"e{@	c #D0C4BD",
"f{@	c #CFC2BE",
"g{@	c #C9C0BE",
"h{@	c #C8C8C2",
"i{@	c #CDCAC6",
"j{@	c #C5BEB7",
"k{@	c #C8C0B8",
"l{@	c #C6B4A7",
"m{@	c #BAA592",
"n{@	c #BEA288",
"o{@	c #B7A28B",
"p{@	c #C2B3A0",
"q{@	c #B39177",
"r{@	c #AB8568",
"s{@	c #AD866F",
"t{@	c #B57D4F",
"u{@	c #B8865B",
"v{@	c #BD8F6C",
"w{@	c #B98B68",
"x{@	c #BA8C6A",
"y{@	c #BC8F6D",
"z{@	c #C19671",
"A{@	c #BF916E",
"B{@	c #BF8E6A",
"C{@	c #C08E6B",
"D{@	c #C18F6B",
"E{@	c #BC8E6E",
"F{@	c #B88D70",
"G{@	c #C09476",
"H{@	c #C09470",
"I{@	c #BF9373",
"J{@	c #B9916E",
"K{@	c #BD9572",
"L{@	c #B9A89A",
"M{@	c #BAA38D",
"N{@	c #A98361",
"O{@	c #A47856",
"P{@	c #A9774F",
"Q{@	c #AB7950",
"R{@	c #A4744E",
"S{@	c #A2724D",
"T{@	c #B49783",
"U{@	c #C1B4A6",
"V{@	c #C4BDB8",
"W{@	c #C6C4BF",
"X{@	c #CBC6C2",
"Y{@	c #C8BCB9",
"Z{@	c #C7B1A6",
"`{@	c #AB846F",
" ]@	c #A08670",
".]@	c #9F836C",
"+]@	c #967253",
"@]@	c #9D7452",
"#]@	c #BBA799",
"$]@	c #9F6E48",
"%]@	c #A06E46",
"&]@	c #9A6B46",
"*]@	c #8F694D",
"=]@	c #AC9789",
"-]@	c #BEB9B5",
";]@	c #BCB7B0",
">]@	c #BDB7AF",
",]@	c #C3BAB4",
"']@	c #926646",
")]@	c #9A7A66",
"!]@	c #B9AFA9",
"~]@	c #B9B7B4",
"{]@	c #BFB5AF",
"]]@	c #B4A295",
"^]@	c #AB8F78",
"/]@	c #9B7864",
"(]@	c #95795B",
"_]@	c #A1927E",
":]@	c #A4A094",
"<]@	c #A67B66",
"[]@	c #A87347",
"}]@	c #AA6E44",
"|]@	c #A8673D",
"1]@	c #A46238",
"2]@	c #A9683D",
"3]@	c #9C633B",
"4]@	c #976243",
"5]@	c #795846",
"6]@	c #4F4234",
"7]@	c #684938",
"8]@	c #8E5F41",
"9]@	c #875E3F",
"0]@	c #65493B",
"a]@	c #725242",
"b]@	c #895C42",
"c]@	c #9B6648",
"d]@	c #6E5342",
"e]@	c #574237",
"f]@	c #5E493D",
"g]@	c #664F41",
"h]@	c #654B3B",
"i]@	c #766157",
"j]@	c #9D9490",
"k]@	c #AD9C93",
"l]@	c #B48D68",
"m]@	c #BCA590",
"n]@	c #CEBDAC",
"o]@	c #BDB09E",
"p]@	c #B59F8C",
"q]@	c #A48B6E",
"r]@	c #AD8966",
"s]@	c #AA7749",
"t]@	c #AC7649",
"u]@	c #AB774A",
"v]@	c #AF7A46",
"w]@	c #AF7844",
"x]@	c #A26B39",
"y]@	c #A57141",
"z]@	c #A67345",
"A]@	c #A77646",
"B]@	c #A5764C",
"C]@	c #9F7B57",
"D]@	c #9F9077",
"E]@	c #A19E93",
"F]@	c #A58672",
"G]@	c #7F583A",
"H]@	c #8A5F3B",
"I]@	c #835A3B",
"J]@	c #744E37",
"K]@	c #76513A",
"L]@	c #714B33",
"M]@	c #795033",
"N]@	c #7D5435",
"O]@	c #815739",
"P]@	c #855D3D",
"Q]@	c #876041",
"R]@	c #8B6546",
"S]@	c #84634D",
"T]@	c #7C5D49",
"U]@	c #7C5C49",
"V]@	c #7A5D48",
"W]@	c #80634E",
"X]@	c #856752",
"Y]@	c #896C52",
"Z]@	c #8E6A49",
"`]@	c #A2754C",
" ^@	c #9D7155",
".^@	c #A97542",
"+^@	c #905F39",
"@^@	c #8E5D3C",
"#^@	c #85593E",
"$^@	c #82573D",
"%^@	c #925F3B",
"&^@	c #96623C",
"*^@	c #956C53",
"=^@	c #8C684E",
"-^@	c #89684C",
";^@	c #8C6A50",
">^@	c #927156",
",^@	c #957459",
"'^@	c #B2845D",
")^@	c #A47F62",
"!^@	c #B69475",
"~^@	c #A97753",
"{^@	c #BEA38B",
"]^@	c #C0B0A1",
"^^@	c #C9B5AF",
"/^@	c #C8B6B0",
"(^@	c #C8C1BA",
"_^@	c #C7C0B8",
":^@	c #AC927F",
"<^@	c #A78C75",
"[^@	c #C2B3A4",
"}^@	c #B79F8C",
"|^@	c #C7BEB3",
"1^@	c #A28875",
"2^@	c #B58D76",
"3^@	c #BC8154",
"4^@	c #BA865A",
"5^@	c #BC8A62",
"6^@	c #B9906A",
"7^@	c #BE9372",
"8^@	c #BF9372",
"9^@	c #BC8F67",
"0^@	c #BE8E68",
"a^@	c #BD8B64",
"b^@	c #BF916B",
"c^@	c #BC8A64",
"d^@	c #BB8C69",
"e^@	c #BC8F6F",
"f^@	c #B98C6B",
"g^@	c #BC9371",
"h^@	c #B79576",
"i^@	c #BD9676",
"j^@	c #A88C77",
"k^@	c #B9A38C",
"l^@	c #A7846C",
"m^@	c #A37E65",
"n^@	c #A67C60",
"o^@	c #A87E61",
"p^@	c #A67C5D",
"q^@	c #A07555",
"r^@	c #B2A18E",
"s^@	c #BAAEA5",
"t^@	c #BDB1A9",
"u^@	c #B4A99E",
"v^@	c #BAAFA3",
"w^@	c #B7AA9E",
"x^@	c #B4A096",
"y^@	c #A59187",
"z^@	c #9A8378",
"A^@	c #967E71",
"B^@	c #A69B90",
"C^@	c #9C9286",
"D^@	c #A78974",
"E^@	c #B4A79C",
"F^@	c #BCB6B0",
"G^@	c #BEB7AF",
"H^@	c #BDB5AD",
"I^@	c #8E7060",
"J^@	c #B5A299",
"K^@	c #BCB2B1",
"L^@	c #BFAEAC",
"M^@	c #C0ABA1",
"N^@	c #9B8067",
"O^@	c #9A7C62",
"P^@	c #886A51",
"Q^@	c #84604C",
"R^@	c #8C6A53",
"S^@	c #A4A59B",
"T^@	c #A58F82",
"U^@	c #9F765F",
"V^@	c #A27960",
"W^@	c #9E735D",
"X^@	c #A87D67",
"Y^@	c #A87A65",
"Z^@	c #A2725D",
"`^@	c #9D6D52",
" /@	c #9C6E4E",
"./@	c #936D53",
"+/@	c #876757",
"@/@	c #6E5D52",
"#/@	c #7F6456",
"$/@	c #856455",
"%/@	c #917060",
"&/@	c #A3887E",
"*/@	c #5F544C",
"=/@	c #6C5F56",
"-/@	c #74665E",
";/@	c #796960",
">/@	c #9A8F88",
",/@	c #B8926B",
"'/@	c #B59575",
")/@	c #BCA28A",
"!/@	c #B0967F",
"~/@	c #9E846C",
"{/@	c #967B62",
"]/@	c #977C61",
"^/@	c #94785D",
"//@	c #977D62",
"(/@	c #B29881",
"_/@	c #A9855F",
":/@	c #A6825C",
"</@	c #A6805B",
"[/@	c #A77B59",
"}/@	c #9F7651",
"|/@	c #A37A57",
"1/@	c #9D7752",
"2/@	c #A27E5B",
"3/@	c #998068",
"4/@	c #A29084",
"5/@	c #A57040",
"6/@	c #996839",
"7/@	c #825D3A",
"8/@	c #865D3F",
"9/@	c #885D40",
"0/@	c #6D4930",
"a/@	c #6C4930",
"b/@	c #6A472E",
"c/@	c #6C4A2F",
"d/@	c #735035",
"e/@	c #79563B",
"f/@	c #7B5639",
"g/@	c #7D593C",
"h/@	c #7E5B3F",
"i/@	c #7E5F4C",
"j/@	c #7A5D4B",
"k/@	c #785B49",
"l/@	c #7A5F47",
"m/@	c #81664E",
"n/@	c #83684F",
"o/@	c #896E54",
"p/@	c #8D6F54",
"q/@	c #8F6E50",
"r/@	c #94704F",
"s/@	c #9A755E",
"t/@	c #AC9581",
"u/@	c #A87044",
"v/@	c #AC763E",
"w/@	c #9F683E",
"x/@	c #9B6A42",
"y/@	c #8C613C",
"z/@	c #835634",
"A/@	c #7C5435",
"B/@	c #7A5437",
"C/@	c #815637",
"D/@	c #8C5F40",
"E/@	c #8A6247",
"F/@	c #89654C",
"G/@	c #8F6B54",
"H/@	c #886951",
"I/@	c #846850",
"J/@	c #90735A",
"K/@	c #92735A",
"L/@	c #9A7A62",
"M/@	c #9E775E",
"N/@	c #A07657",
"O/@	c #A07A5E",
"P/@	c #B3987C",
"Q/@	c #C1AE9B",
"R/@	c #BCAFA1",
"S/@	c #B09C8D",
"T/@	c #BEAA9A",
"U/@	c #C0AB9A",
"V/@	c #B39D8F",
"W/@	c #C0B3A3",
"X/@	c #BEAEA1",
"Y/@	c #A48569",
"Z/@	c #BCAB99",
"`/@	c #A99685",
" (@	c #C0B0A5",
".(@	c #B4A79D",
"+(@	c #B39581",
"@(@	c #B5815C",
"#(@	c #B17C50",
"$(@	c #B2764E",
"%(@	c #AF7652",
"&(@	c #AD7759",
"*(@	c #B07C5D",
"=(@	c #B18263",
"-(@	c #B3896B",
";(@	c #AA8D7A",
">(@	c #AE9483",
",(@	c #AB927F",
"'(@	c #B68668",
")(@	c #B5825F",
"!(@	c #B28562",
"~(@	c #B18563",
"{(@	c #AF896B",
"](@	c #A6968A",
"^(@	c #A89889",
"/(@	c #A69F95",
"((@	c #A2968A",
"_(@	c #A7978B",
":(@	c #A18B80",
"<(@	c #9E8D81",
"[(@	c #9F948B",
"}(@	c #9C908D",
"|(@	c #9A8E84",
"1(@	c #998D81",
"2(@	c #92867A",
"3(@	c #96897D",
"4(@	c #958576",
"5(@	c #9A8679",
"6(@	c #9A847B",
"7(@	c #8F7762",
"8(@	c #8B7561",
"9(@	c #907B67",
"0(@	c #887362",
"a(@	c #8E7E6F",
"b(@	c #9A8982",
"c(@	c #AA9C9B",
"d(@	c #A6A1A5",
"e(@	c #AAA499",
"f(@	c #B0A49D",
"g(@	c #B1A49F",
"h(@	c #B1A6A0",
"i(@	c #AFA49E",
"j(@	c #A68B77",
"k(@	c #A69382",
"l(@	c #A89C8F",
"m(@	c #A39484",
"n(@	c #9D8E7E",
"o(@	c #A3938B",
"p(@	c #9E9080",
"q(@	c #9E8E7F",
"r(@	c #A79081",
"s(@	c #9F8A7D",
"t(@	c #A28E7A",
"u(@	c #9F8B77",
"v(@	c #9C8474",
"w(@	c #9C7B5E",
"x(@	c #987454",
"y(@	c #8F745C",
"z(@	c #876F61",
"A(@	c #897265",
"B(@	c #8A7569",
"C(@	c #867768",
"D(@	c #817264",
"E(@	c #867669",
"F(@	c #8B7B6F",
"G(@	c #8F7E72",
"H(@	c #98877C",
"I(@	c #988A81",
"J(@	c #9A8A81",
"K(@	c #9B8B84",
"L(@	c #A39789",
"M(@	c #A1978B",
"N(@	c #9E978E",
"O(@	c #A47954",
"P(@	c #957360",
"Q(@	c #94745F",
"R(@	c #8A6F5F",
"S(@	c #8F7368",
"T(@	c #927A6F",
"U(@	c #97877D",
"V(@	c #A08F84",
"W(@	c #9D8E85",
"X(@	c #9B8D84",
"Y(@	c #9E9089",
"Z(@	c #A29996",
"`(@	c #A89E93",
" _@	c #A49D92",
"._@	c #A2988B",
"+_@	c #9D938C",
"@_@	c #9E9081",
"#_@	c #A09388",
"$_@	c #A7988B",
"%_@	c #A8928A",
"&_@	c #A4A2A1",
"*_@	c #A39E9E",
"=_@	c #ABA69D",
"-_@	c #A69E9F",
";_@	c #ABACA7",
">_@	c #A6A8A3",
",_@	c #AEA8A8",
"'_@	c #AAA8A2",
")_@	c #ACABA5",
"!_@	c #A89E9C",
"~_@	c #ABA8A8",
"{_@	c #A29693",
"]_@	c #A79896",
"^_@	c #A8938D",
"/_@	c #AE9284",
"(_@	c #A9A9A9",
"__@	c #A2A39F",
":_@	c #A5A6A7",
"<_@	c #A7A7A8",
"[_@	c #A5A7A5",
"}_@	c #ABA59D",
"|_@	c #A7A0A1",
"1_@	c #A89281",
"2_@	c #AD9688",
"3_@	c #A89684",
"4_@	c #AA907A",
"5_@	c #AC9388",
"6_@	c #A4928C",
"7_@	c #B8B4AE",
"8_@	c #BCAEA7",
"9_@	c #B1988B",
"0_@	c #AD8571",
"a_@	c #AC8778",
"b_@	c #B1958C",
"c_@	c #AC9186",
"d_@	c #AF8D7A",
"e_@	c #A7856F",
"f_@	c #AB8A72",
"g_@	c #B1927B",
"h_@	c #B19686",
"i_@	c #B19E92",
"j_@	c #AE9684",
"k_@	c #B59F93",
"l_@	c #A19895",
"m_@	c #A48479",
"n_@	c #A08478",
"o_@	c #987E70",
"p_@	c #987C76",
"q_@	c #916E64",
"r_@	c #8D6C60",
"s_@	c #876C5E",
"t_@	c #886557",
"u_@	c #8A6153",
"v_@	c #895F50",
"w_@	c #916455",
"x_@	c #9B6B5D",
"y_@	c #916052",
"z_@	c #916151",
"A_@	c #956955",
"B_@	c #ABA7A9",
"C_@	c #AB9587",
"D_@	c #927861",
"E_@	c #9B8069",
"F_@	c #AFA293",
"G_@	c #A49383",
"H_@	c #9A7F69",
"I_@	c #A09084",
"J_@	c #AAA59A",
"K_@	c #A6A5A5",
"L_@	c #A6A6A3",
"M_@	c #ABABA5",
"N_@	c #AD8063",
"O_@	c #AF8363",
"P_@	c #A2785A",
"Q_@	c #AB7D5E",
"R_@	c #AC9A8D",
"S_@	c #AE9E98",
"T_@	c #C2B2A7",
"U_@	c #BFAFA4",
"V_@	c #BAA99E",
"W_@	c #B79E8C",
"X_@	c #A69691",
"Y_@	c #AB9D9A",
"Z_@	c #A3928A",
"`_@	c #A79389",
" :@	c #A27765",
".:@	c #9E735E",
"+:@	c #997359",
"@:@	c #9C6A51",
"#:@	c #9F6C51",
"$:@	c #A77555",
"%:@	c #A97A5D",
"&:@	c #B29E94",
"*:@	c #B0A8A7",
"=:@	c #AA8865",
"-:@	c #A78C6D",
";:@	c #A07E61",
">:@	c #A8998B",
",:@	c #AA9D8F",
"':@	c #A6988A",
"):@	c #AE9F9A",
"!:@	c #AF9478",
"~:@	c #AE9C86",
"{:@	c #B9A99B",
"]:@	c #B19F8F",
"^:@	c #AFA79A",
"/:@	c #BA9A7B",
"(:@	c #BD926E",
"_:@	c #BB9371",
"::@	c #B89173",
"<:@	c #B89071",
"[:@	c #B9906C",
"}:@	c #B99377",
"|:@	c #BB946E",
"1:@	c #BB956F",
"2:@	c #BA9068",
"3:@	c #BC9168",
"4:@	c #BC9167",
"5:@	c #BB9066",
"6:@	c #BE9166",
"7:@	c #BA8D63",
"8:@	c #B9947A",
"9:@	c #957E72",
"0:@	c #9A7C6A",
"a:@	c #A08980",
"b:@	c #A19785",
"c:@	c #A2917E",
"d:@	c #A58D76",
"e:@	c #977467",
"f:@	c #8A6861",
"g:@	c #876E65",
"h:@	c #988679",
"i:@	c #9B8176",
"j:@	c #94796D",
"k:@	c #917869",
"l:@	c #968074",
"m:@	c #B0937B",
"n:@	c #B28253",
"o:@	c #B58255",
"p:@	c #B28053",
"q:@	c #AF8760",
"r:@	c #B58A68",
"s:@	c #B98E65",
"t:@	c #AC927E",
"u:@	c #BDA595",
"v:@	c #C8B6AF",
"w:@	c #CFBBB4",
"x:@	c #CEC7C7",
"y:@	c #CBC8C4",
"z:@	c #D3C5BE",
"A:@	c #CAB0A2",
"B:@	c #C0A799",
"C:@	c #BBA897",
"D:@	c #B79888",
"E:@	c #C6B2A0",
"F:@	c #B19887",
"G:@	c #B89D8F",
"H:@	c #B8A189",
"I:@	c #C5B7AC",
"J:@	c #C4A895",
"K:@	c #C7AC9C",
"L:@	c #C3AC9D",
"M:@	c #C0A997",
"N:@	c #A89587",
"O:@	c #A0806D",
"P:@	c #96705B",
"Q:@	c #936D5A",
"R:@	c #9B7461",
"S:@	c #976B52",
"T:@	c #945942",
"U:@	c #8D553D",
"V:@	c #8B5E46",
"W:@	c #8E6A51",
"X:@	c #8A6249",
"Y:@	c #975736",
"Z:@	c #8A4B35",
"`:@	c #8E4A32",
" <@	c #864A31",
".<@	c #875032",
"+<@	c #8D5739",
"@<@	c #915D3D",
"#<@	c #965B3D",
"$<@	c #9C583C",
"%<@	c #9C5433",
"&<@	c #93512D",
"*<@	c #A8A8A5",
"=<@	c #AFA497",
"-<@	c #987556",
";<@	c #B99A83",
"><@	c #B79E8D",
",<@	c #CDBBAD",
"'<@	c #C6B5A7",
")<@	c #CAB7A9",
"!<@	c #B39E8C",
"~<@	c #B6A088",
"{<@	c #C4BEBB",
"]<@	c #C2BDB9",
"^<@	c #BAAFA4",
"/<@	c #B2A694",
"(<@	c #BEAFA1",
"_<@	c #AD9079",
":<@	c #A6846D",
"<<@	c #B47E55",
"[<@	c #AD7953",
"}<@	c #AF7C56",
"|<@	c #AD7D53",
"1<@	c #B4875E",
"2<@	c #B08259",
"3<@	c #AF7F58",
"4<@	c #B07F5A",
"5<@	c #A67650",
"6<@	c #AF7E58",
"7<@	c #B48664",
"8<@	c #AB8968",
"9<@	c #A6805A",
"0<@	c #C8B29B",
"a<@	c #CCC7BE",
"b<@	c #CABFB0",
"c<@	c #C4B4A4",
"d<@	c #AEA096",
"e<@	c #B59881",
"f<@	c #AE9079",
"g<@	c #AD8469",
"h<@	c #A97C5F",
"i<@	c #AA8167",
"j<@	c #A8785F",
"k<@	c #A2785D",
"l<@	c #B17B47",
"m<@	c #A56432",
"n<@	c #A36532",
"o<@	c #A56A49",
"p<@	c #AB7052",
"q<@	c #AE7554",
"r<@	c #B1703D",
"s<@	c #A3A49E",
"t<@	c #B27F52",
"u<@	c #A97E56",
"v<@	c #AD815A",
"w<@	c #B2855F",
"x<@	c #AA845E",
"y<@	c #A37D57",
"z<@	c #A27B53",
"A<@	c #BFA487",
"B<@	c #BFAB95",
"C<@	c #C2B0A0",
"D<@	c #C4B1A2",
"E<@	c #BEAC9A",
"F<@	c #BBA890",
"G<@	c #B49D87",
"H<@	c #AEA198",
"I<@	c #B99B82",
"J<@	c #C5905C",
"K<@	c #C68E53",
"L<@	c #C48D53",
"M<@	c #C48C57",
"N<@	c #C38B56",
"O<@	c #C3864D",
"P<@	c #C1864A",
"Q<@	c #C28A54",
"R<@	c #C18855",
"S<@	c #C2894C",
"T<@	c #C38A4D",
"U<@	c #C48B4E",
"V<@	c #C1894C",
"W<@	c #BC7D3C",
"X<@	c #BD7D40",
"Y<@	c #BF7F43",
"Z<@	c #BF8142",
"`<@	c #BE8443",
" [@	c #BE8542",
".[@	c #C18241",
"+[@	c #C18240",
"@[@	c #BF813E",
"#[@	c #976D5A",
"$[@	c #95654A",
"%[@	c #9C684E",
"&[@	c #9A6651",
"*[@	c #B69B82",
"=[@	c #B29880",
"-[@	c #996F5D",
";[@	c #82422D",
">[@	c #7C432A",
",[@	c #906146",
"'[@	c #987562",
")[@	c #8E786A",
"![@	c #BB8C66",
"~[@	c #BA8A63",
"{[@	c #B9885C",
"][@	c #B98658",
"^[@	c #B6865A",
"/[@	c #B68B64",
"([@	c #BA8E69",
"_[@	c #AF9C8F",
":[@	c #A79B9A",
"<[@	c #AF9384",
"[[@	c #BB9982",
"}[@	c #C4A794",
"|[@	c #D0C4BE",
"1[@	c #CFCBC6",
"2[@	c #C7B1A3",
"3[@	c #CBC8C1",
"4[@	c #C9C0BC",
"5[@	c #D0CBC6",
"6[@	c #D1C8C1",
"7[@	c #C4B8B0",
"8[@	c #BBA390",
"9[@	c #C5AE9F",
"0[@	c #CABAAD",
"a[@	c #BCA697",
"b[@	c #B5A195",
"c[@	c #A68F7A",
"d[@	c #9E6F52",
"e[@	c #986246",
"f[@	c #965E43",
"g[@	c #925E41",
"h[@	c #935E41",
"i[@	c #946042",
"j[@	c #8B4625",
"k[@	c #8D4C2E",
"l[@	c #894B2C",
"m[@	c #8D5031",
"n[@	c #874928",
"o[@	c #8E502E",
"p[@	c #915431",
"q[@	c #98613C",
"r[@	c #A05A38",
"s[@	c #A15932",
"t[@	c #93522D",
"u[@	c #875843",
"v[@	c #A7A8A7",
"w[@	c #AEA498",
"x[@	c #A48B6B",
"y[@	c #AB8863",
"z[@	c #AB8562",
"A[@	c #B39C85",
"B[@	c #CFC2B2",
"C[@	c #B18B6A",
"D[@	c #AA7A55",
"E[@	c #A17A5A",
"F[@	c #B19074",
"G[@	c #B29D8E",
"H[@	c #CCBFB5",
"I[@	c #BEB4AF",
"J[@	c #C8BFB7",
"K[@	c #C5B5A8",
"L[@	c #A5846E",
"M[@	c #AA7C51",
"N[@	c #AC7B50",
"O[@	c #A67C51",
"P[@	c #A67C55",
"Q[@	c #A97E53",
"R[@	c #AE8862",
"S[@	c #B1825C",
"T[@	c #AF8564",
"U[@	c #B78A6B",
"V[@	c #AF835E",
"W[@	c #AE7949",
"X[@	c #B2835A",
"Y[@	c #B38660",
"Z[@	c #C29874",
"`[@	c #BC9B82",
" }@	c #B99D89",
".}@	c #AF9480",
"+}@	c #CCBEAF",
"@}@	c #D3C8C3",
"#}@	c #D0C2BB",
"$}@	c #C1B0A1",
"%}@	c #CBBDAE",
"&}@	c #B09A8A",
"*}@	c #B69E87",
"=}@	c #B8A087",
"-}@	c #B5987D",
";}@	c #AC7A5C",
">}@	c #A97D55",
",}@	c #AB6F43",
"'}@	c #A15E34",
")}@	c #A76738",
"!}@	c #A46535",
"~}@	c #9F603C",
"{}@	c #A1633E",
"]}@	c #AB6A47",
"^}@	c #B57656",
"/}@	c #B37040",
"(}@	c #AD683D",
"_}@	c #AF845D",
":}@	c #B0957D",
"<}@	c #B09172",
"[}@	c #AF8C69",
"}}@	c #B79A78",
"|}@	c #B89B81",
"1}@	c #C5B09E",
"2}@	c #CCB5A2",
"3}@	c #B99470",
"4}@	c #BB9978",
"5}@	c #BDA28B",
"6}@	c #B8A28B",
"7}@	c #B18E72",
"8}@	c #B69271",
"9}@	c #B89B7B",
"0}@	c #B99B80",
"a}@	c #B69880",
"b}@	c #B3957F",
"c}@	c #AE9378",
"d}@	c #BF9672",
"e}@	c #C98C53",
"f}@	c #C58C4D",
"g}@	c #C68D4F",
"h}@	c #C88F54",
"i}@	c #C58D52",
"j}@	c #C48545",
"k}@	c #BD7D3F",
"l}@	c #BE7F41",
"m}@	c #C3854F",
"n}@	c #C2854B",
"o}@	c #C4864A",
"p}@	c #C4864B",
"q}@	c #C3874C",
"r}@	c #C48647",
"s}@	c #C38442",
"t}@	c #BE7D3D",
"u}@	c #BB7A3D",
"v}@	c #C07F41",
"w}@	c #BF8042",
"x}@	c #C08246",
"y}@	c #C28145",
"z}@	c #C28044",
"A}@	c #BC7D41",
"B}@	c #B4875B",
"C}@	c #9F7763",
"D}@	c #98644A",
"E}@	c #985D40",
"F}@	c #995E42",
"G}@	c #9E6447",
"H}@	c #9D6346",
"I}@	c #A17055",
"J}@	c #B79178",
"K}@	c #84492D",
"L}@	c #884E32",
"M}@	c #8C543A",
"N}@	c #A27F6A",
"O}@	c #BFAA9B",
"P}@	c #BA895C",
"Q}@	c #BA885B",
"R}@	c #B7895F",
"S}@	c #BA8F6B",
"T}@	c #B98F66",
"U}@	c #B78D64",
"V}@	c #B99268",
"W}@	c #B5835E",
"X}@	c #B77B4D",
"Y}@	c #BD814D",
"Z}@	c #C9C6C1",
"`}@	c #CECDC9",
" |@	c #CDCDC8",
".|@	c #CFCEC9",
"+|@	c #D5CFCA",
"@|@	c #D3CEC5",
"#|@	c #D3CBC5",
"$|@	c #C9C0B7",
"%|@	c #BDAEA4",
"&|@	c #B79C8D",
"*|@	c #BB997D",
"=|@	c #B69B80",
"-|@	c #BEAD9D",
";|@	c #B8A390",
">|@	c #9B938A",
",|@	c #A08976",
"'|@	c #A38C74",
")|@	c #A17256",
"!|@	c #9A674A",
"~|@	c #9A6648",
"{|@	c #996546",
"]|@	c #986445",
"^|@	c #945F41",
"/|@	c #956043",
"(|@	c #9B6548",
"_|@	c #9C5D42",
":|@	c #95573A",
"<|@	c #925839",
"[|@	c #8B5031",
"}|@	c #925336",
"||@	c #88472A",
"1|@	c #8F4E2F",
"2|@	c #955332",
"3|@	c #914F2E",
"4|@	c #915231",
"5|@	c #965833",
"6|@	c #9B5A31",
"7|@	c #96512F",
"8|@	c #8C5A47",
"9|@	c #B19D98",
"0|@	c #ABAAAA",
"a|@	c #AD936F",
"b|@	c #A88154",
"c|@	c #9E7544",
"d|@	c #A98E6C",
"e|@	c #BDA286",
"f|@	c #BB8E6C",
"g|@	c #AF7E48",
"h|@	c #9D693C",
"i|@	c #C5B3A3",
"j|@	c #BDA99A",
"k|@	c #AB8A6E",
"l|@	c #A27044",
"m|@	c #A77649",
"n|@	c #AE7B4E",
"o|@	c #AF7B4F",
"p|@	c #B07F51",
"q|@	c #AC8355",
"r|@	c #A77F57",
"s|@	c #AC8157",
"t|@	c #B99167",
"u|@	c #B3957B",
"v|@	c #A98B79",
"w|@	c #B68B62",
"x|@	c #AD794F",
"y|@	c #B78361",
"z|@	c #B47B52",
"A|@	c #B07E55",
"B|@	c #B58A6A",
"C|@	c #BA8F69",
"D|@	c #CDBBA7",
"E|@	c #D0C8BD",
"F|@	c #D0CCC5",
"G|@	c #CDBEB3",
"H|@	c #B3967C",
"I|@	c #BCA895",
"J|@	c #C7B09C",
"K|@	c #B69A83",
"L|@	c #B49277",
"M|@	c #AF7D5E",
"N|@	c #AD7C5D",
"O|@	c #AC7B5C",
"P|@	c #AB795A",
"Q|@	c #AB7553",
"R|@	c #A77952",
"S|@	c #AE7F59",
"T|@	c #AB714B",
"U|@	c #A1623E",
"V|@	c #A76943",
"W|@	c #AA7043",
"X|@	c #A8653A",
"Y|@	c #AF683D",
"Z|@	c #AE6F41",
"`|@	c #B17242",
" 1@	c #AD6C3C",
".1@	c #AC9D8D",
"+1@	c #C7B29D",
"@1@	c #CBB9A8",
"#1@	c #AF9173",
"$1@	c #C2AB96",
"%1@	c #B1855B",
"&1@	c #B5927A",
"*1@	c #BFA694",
"=1@	c #BF9B81",
"-1@	c #BB916B",
";1@	c #BB936A",
">1@	c #B58F6F",
",1@	c #B38C6F",
"'1@	c #CA874E",
")1@	c #C58748",
"!1@	c #C6884A",
"~1@	c #C88B4D",
"{1@	c #C5894B",
"]1@	c #C28445",
"^1@	c #BF7A3C",
"/1@	c #BD7839",
"(1@	c #BE7A3B",
"_1@	c #C07D41",
":1@	c #C27E48",
"<1@	c #C17D47",
"[1@	c #C17D41",
"}1@	c #C37F42",
"|1@	c #C58347",
"11@	c #C48548",
"21@	c #C38544",
"31@	c #C38540",
"41@	c #C18243",
"51@	c #C57F3E",
"61@	c #C07E40",
"71@	c #C28349",
"81@	c #B97A42",
"91@	c #B6835D",
"01@	c #96735F",
"a1@	c #926147",
"b1@	c #92563A",
"c1@	c #915235",
"d1@	c #9A5B3F",
"e1@	c #905639",
"f1@	c #8A4C31",
"g1@	c #8B5035",
"h1@	c #83492F",
"i1@	c #884E35",
"j1@	c #8C543B",
"k1@	c #9F806C",
"l1@	c #BAACA0",
"m1@	c #C6B5AB",
"n1@	c #B78A62",
"o1@	c #BC8A5D",
"p1@	c #BD8B5D",
"q1@	c #B98E69",
"r1@	c #B58B5E",
"s1@	c #B78E66",
"t1@	c #B99478",
"u1@	c #B29887",
"v1@	c #B88053",
"w1@	c #B78354",
"x1@	c #B5875C",
"y1@	c #BC9F82",
"z1@	c #CDC8BF",
"A1@	c #C2BFB9",
"B1@	c #C4C0BA",
"C1@	c #CFCFCB",
"D1@	c #D0CFCA",
"E1@	c #C3A796",
"F1@	c #D2C5BC",
"G1@	c #D2C6BF",
"H1@	c #C8AEA0",
"I1@	c #BC9B7F",
"J1@	c #BBA186",
"K1@	c #C1A99B",
"L1@	c #C4AFA7",
"M1@	c #C0AE9F",
"N1@	c #BCA794",
"O1@	c #B6A495",
"P1@	c #9D9187",
"Q1@	c #A87258",
"R1@	c #A36D51",
"S1@	c #9E684B",
"T1@	c #9F684A",
"U1@	c #A26C49",
"V1@	c #9D6745",
"W1@	c #9D664A",
"X1@	c #9B6346",
"Y1@	c #9B5F41",
"Z1@	c #975E3D",
"`1@	c #9A6644",
" 2@	c #996342",
".2@	c #965D3D",
"+2@	c #915636",
"@2@	c #955534",
"#2@	c #965231",
"$2@	c #975432",
"%2@	c #904F2D",
"&2@	c #91522D",
"*2@	c #92572B",
"=2@	c #95572E",
"-2@	c #97552F",
";2@	c #90593B",
">2@	c #B09188",
",2@	c #AD8863",
"'2@	c #A67A51",
")2@	c #936C47",
"!2@	c #B39E8A",
"~2@	c #CEB9A6",
"{2@	c #B27F47",
"]2@	c #AB7D48",
"^2@	c #A27346",
"/2@	c #9B6B43",
"(2@	c #B39782",
"_2@	c #B1947D",
":2@	c #A87652",
"<2@	c #A2754E",
"[2@	c #A4784F",
"}2@	c #A6794D",
"|2@	c #A87A4F",
"12@	c #AC8053",
"22@	c #B08455",
"32@	c #B38B69",
"42@	c #AD784F",
"52@	c #B5865E",
"62@	c #B48355",
"72@	c #B5865D",
"82@	c #B87F57",
"92@	c #B27952",
"02@	c #B17247",
"a2@	c #BA855D",
"b2@	c #B47F56",
"c2@	c #B68D67",
"d2@	c #CFC2AE",
"e2@	c #D0CCC6",
"f2@	c #CDC7BC",
"g2@	c #BDAA94",
"h2@	c #B49070",
"i2@	c #CABAAA",
"j2@	c #B29784",
"k2@	c #B49378",
"l2@	c #B98A6A",
"m2@	c #B38163",
"n2@	c #B17F60",
"o2@	c #B2815F",
"p2@	c #B58461",
"q2@	c #B47F5A",
"r2@	c #A67950",
"s2@	c #AF7A52",
"t2@	c #A9744D",
"u2@	c #A87048",
"v2@	c #AA7044",
"w2@	c #AC6C40",
"x2@	c #AD6C3F",
"y2@	c #AB7041",
"z2@	c #AB7240",
"A2@	c #AD8F7A",
"B2@	c #B08968",
"C2@	c #B48F73",
"D2@	c #B38D6F",
"E2@	c #B49274",
"F2@	c #BFA88E",
"G2@	c #C3A88D",
"H2@	c #B99C82",
"I2@	c #C3AA95",
"J2@	c #B38C6C",
"K2@	c #AE8056",
"L2@	c #AD7C4C",
"M2@	c #B8987B",
"N2@	c #B59E7E",
"O2@	c #B18E67",
"P2@	c #BC936A",
"Q2@	c #BB9365",
"R2@	c #B98F68",
"S2@	c #C0936E",
"T2@	c #C48148",
"U2@	c #C38546",
"V2@	c #C58543",
"W2@	c #C28240",
"X2@	c #C07F3E",
"Y2@	c #C17C3D",
"Z2@	c #BD793A",
"`2@	c #BF7B44",
" 3@	c #BC7741",
".3@	c #BD763A",
"+3@	c #BD7439",
"@3@	c #C47E42",
"#3@	c #C48347",
"$3@	c #C58645",
"%3@	c #C78845",
"&3@	c #C38644",
"*3@	c #C37E3B",
"=3@	c #C07D3F",
"-3@	c #906046",
";3@	c #8A4D32",
">3@	c #8A4A2E",
",3@	c #85452A",
"'3@	c #86472C",
")3@	c #844931",
"!3@	c #874834",
"~3@	c #874C35",
"{3@	c #7F4B33",
"]3@	c #7E4A31",
"^3@	c #845339",
"/3@	c #B5A59A",
"(3@	c #B9A99E",
"_3@	c #B49081",
":3@	c #BB8E66",
"<3@	c #BA8C62",
"[3@	c #BA8B5F",
"}3@	c #B88B61",
"|3@	c #B88E68",
"13@	c #B58A5E",
"23@	c #B58A60",
"33@	c #B48C65",
"43@	c #B68E6A",
"53@	c #B6A091",
"63@	c #BB9071",
"73@	c #C19271",
"83@	c #C3967C",
"93@	c #BB8C6E",
"03@	c #C3BCB4",
"a3@	c #C5C3BF",
"b3@	c #CDC6BD",
"c3@	c #CEC3BB",
"d3@	c #D1CBC6",
"e3@	c #D3CCC7",
"f3@	c #C7B3A6",
"g3@	c #BE9179",
"h3@	c #BDA38E",
"i3@	c #CEB4A6",
"j3@	c #BB9C81",
"k3@	c #C0A489",
"l3@	c #C1A48E",
"m3@	c #C2AA98",
"n3@	c #C2AB9F",
"o3@	c #C3AD9A",
"p3@	c #B5A292",
"q3@	c #A08982",
"r3@	c #A47D66",
"s3@	c #A97050",
"t3@	c #AA755A",
"u3@	c #A4734F",
"v3@	c #996547",
"w3@	c #A26B4E",
"x3@	c #A16748",
"y3@	c #975C3B",
"z3@	c #A07352",
"A3@	c #9F6D4C",
"B3@	c #9C6545",
"C3@	c #955F3E",
"D3@	c #A15D3B",
"E3@	c #995430",
"F3@	c #A2643E",
"G3@	c #A2663F",
"H3@	c #9E6039",
"I3@	c #985C38",
"J3@	c #996D5F",
"K3@	c #B69779",
"L3@	c #B59D88",
"M3@	c #CDC6C1",
"N3@	c #B3814C",
"O3@	c #A17242",
"P3@	c #996C45",
"Q3@	c #C1B0A5",
"R3@	c #A87647",
"S3@	c #A87956",
"T3@	c #A17851",
"U3@	c #A67C56",
"V3@	c #AB8159",
"W3@	c #AA8461",
"X3@	c #A88D77",
"Y3@	c #B48257",
"Z3@	c #B68053",
"`3@	c #B68253",
" 4@	c #B07447",
".4@	c #BA8259",
"+4@	c #B57C4E",
"@4@	c #BC8662",
"#4@	c #AB693E",
"$4@	c #AE7744",
"%4@	c #B49470",
"&4@	c #CFC7B5",
"*4@	c #D0CABB",
"=4@	c #D1C9C1",
"-4@	c #D1C9C2",
";4@	c #D1CAC2",
">4@	c #D0CDC2",
",4@	c #CAB49D",
"'4@	c #B58F65",
")4@	c #B28F6C",
"!4@	c #C1A891",
"~4@	c #BDA692",
"{4@	c #BC8F68",
"]4@	c #BA8869",
"^4@	c #B1815A",
"/4@	c #AC7954",
"(4@	c #B1825A",
"_4@	c #B07E54",
":4@	c #AD7345",
"<4@	c #B28865",
"[4@	c #B48361",
"}4@	c #B37C59",
"|4@	c #B37746",
"14@	c #B78055",
"24@	c #B47D53",
"34@	c #AD7D62",
"44@	c #BA967D",
"54@	c #BB9375",
"64@	c #B18B60",
"74@	c #B0804D",
"84@	c #B3865F",
"94@	c #AB7243",
"04@	c #AF7242",
"a4@	c #BBA089",
"b4@	c #C4B7A2",
"c4@	c #BEAC94",
"d4@	c #BDA389",
"e4@	c #B79472",
"f4@	c #B89369",
"g4@	c #B28B66",
"h4@	c #B6977D",
"i4@	c #C38248",
"j4@	c #BF7F42",
"k4@	c #C18244",
"l4@	c #C88744",
"m4@	c #C2813D",
"n4@	c #C2803E",
"o4@	c #BF7C41",
"p4@	c #BE7F43",
"q4@	c #BF7D43",
"r4@	c #C07D46",
"s4@	c #BF7A45",
"t4@	c #BE7640",
"u4@	c #BD753F",
"v4@	c #C27D43",
"w4@	c #C28546",
"x4@	c #C48646",
"y4@	c #C58249",
"z4@	c #C38145",
"A4@	c #C28042",
"B4@	c #BF7B40",
"C4@	c #BE7E44",
"D4@	c #BF8249",
"E4@	c #C0824B",
"F4@	c #BC7D48",
"G4@	c #B67644",
"H4@	c #B5815D",
"I4@	c #9F7F6B",
"J4@	c #895841",
"K4@	c #87462D",
"L4@	c #8B482C",
"M4@	c #85472A",
"N4@	c #834529",
"O4@	c #7D3C29",
"P4@	c #8A4D3B",
"Q4@	c #884837",
"R4@	c #763F2B",
"S4@	c #6F3D28",
"T4@	c #966B54",
"U4@	c #B2917D",
"V4@	c #BFB2A5",
"W4@	c #A9806E",
"X4@	c #BB8F67",
"Y4@	c #B88C66",
"Z4@	c #B98D68",
"`4@	c #B98C6A",
" 5@	c #B48E6C",
".5@	c #B4A495",
"+5@	c #C1AC98",
"@5@	c #D0C0B4",
"#5@	c #CDB5AC",
"$5@	c #C7A492",
"%5@	c #C2B3A8",
"&5@	c #C5BAAE",
"*5@	c #B59A88",
"=5@	c #CDB7AD",
"-5@	c #C8AB9F",
";5@	c #B28366",
">5@	c #AE7A5C",
",5@	c #AF826A",
"'5@	c #B6917B",
")5@	c #B28D74",
"!5@	c #BA9879",
"~5@	c #BE9D81",
"{5@	c #C1A48B",
"]5@	c #C2AA96",
"^5@	c #BDA28E",
"/5@	c #B29B8D",
"(5@	c #A28574",
"_5@	c #AB795F",
":5@	c #A06C52",
"<5@	c #A26D50",
"[5@	c #AC7A5B",
"}5@	c #A37252",
"|5@	c #9C5A36",
"15@	c #AC795A",
"25@	c #A7714F",
"35@	c #9D643F",
"45@	c #955B36",
"55@	c #985632",
"65@	c #A15E37",
"75@	c #A16136",
"85@	c #9F6236",
"95@	c #A76A40",
"05@	c #A76740",
"a5@	c #A3613D",
"b5@	c #A0664D",
"c5@	c #A99190",
"d5@	c #C1AE95",
"e5@	c #AD9677",
"f5@	c #BEAD94",
"g5@	c #C6C3B6",
"h5@	c #A87A4C",
"i5@	c #A17348",
"j5@	c #966A44",
"k5@	c #95704E",
"l5@	c #A3886F",
"m5@	c #BFB1A2",
"n5@	c #C0B5AE",
"o5@	c #BAA295",
"p5@	c #A67B5B",
"q5@	c #A57B57",
"r5@	c #967459",
"s5@	c #977557",
"t5@	c #A48065",
"u5@	c #B08862",
"v5@	c #AD8964",
"w5@	c #A37D61",
"x5@	c #B77F54",
"y5@	c #B78053",
"z5@	c #B17847",
"A5@	c #AC703D",
"B5@	c #B37A4F",
"C5@	c #B97C4D",
"D5@	c #B3723D",
"E5@	c #B4753C",
"F5@	c #BA804F",
"G5@	c #A66133",
"H5@	c #B19371",
"I5@	c #CBC3B5",
"J5@	c #CCC6B9",
"K5@	c #D1C4B6",
"L5@	c #CFC2B4",
"M5@	c #CDC8BA",
"N5@	c #BE9B7E",
"O5@	c #CFB7A5",
"P5@	c #BEA692",
"Q5@	c #A78D7E",
"R5@	c #B38870",
"S5@	c #C18560",
"T5@	c #B88B65",
"U5@	c #BA845F",
"V5@	c #BD8967",
"W5@	c #B38263",
"X5@	c #B88967",
"Y5@	c #AD7854",
"Z5@	c #B16F40",
"`5@	c #BA835C",
" 6@	c #B47652",
".6@	c #B57947",
"+6@	c #B87744",
"@6@	c #BA7A4B",
"#6@	c #B97E53",
"$6@	c #BB815B",
"%6@	c #B57B50",
"&6@	c #BC906A",
"*6@	c #AF7B4D",
"=6@	c #AB7742",
"-6@	c #B28055",
";6@	c #B38156",
">6@	c #AF763C",
",6@	c #B98456",
"'6@	c #B6764B",
")6@	c #9D663D",
"!6@	c #D0C6B6",
"~6@	c #CEBBA7",
"{6@	c #B39279",
"]6@	c #B58E70",
"^6@	c #B38D61",
"/6@	c #B38C64",
"(6@	c #B48F6A",
"_6@	c #BB9A78",
":6@	c #BA997B",
"<6@	c #A98F80",
"[6@	c #BF8E6B",
"}6@	c #C38147",
"|6@	c #C17C3F",
"16@	c #C07C3F",
"26@	c #C48042",
"36@	c #C58242",
"46@	c #C17E3F",
"56@	c #BD793C",
"66@	c #BE7D45",
"76@	c #BD8047",
"86@	c #BC7F47",
"96@	c #BB7A45",
"06@	c #BB7846",
"a6@	c #BB7445",
"b6@	c #BA7540",
"c6@	c #BD7944",
"d6@	c #BE7E48",
"e6@	c #BC7C43",
"f6@	c #BC7943",
"g6@	c #BC7844",
"h6@	c #BB7744",
"i6@	c #B87446",
"j6@	c #B67648",
"k6@	c #B77B4B",
"l6@	c #AE7149",
"m6@	c #88593F",
"n6@	c #894F33",
"o6@	c #8E4F33",
"p6@	c #8C583B",
"q6@	c #864C36",
"r6@	c #7D412F",
"s6@	c #7D4130",
"t6@	c #723B29",
"u6@	c #71412E",
"v6@	c #976A56",
"w6@	c #8E6351",
"x6@	c #A07E6E",
"y6@	c #B29A89",
"z6@	c #B58963",
"A6@	c #BC9573",
"B6@	c #AB9D8D",
"C6@	c #C9B6A3",
"D6@	c #BEA08C",
"E6@	c #B8856A",
"F6@	c #C19C86",
"G6@	c #C4A38D",
"H6@	c #B69A89",
"I6@	c #BBA496",
"J6@	c #BCA290",
"K6@	c #B79882",
"L6@	c #B89078",
"M6@	c #B88A6C",
"N6@	c #B98C6F",
"O6@	c #B68667",
"P6@	c #B47F55",
"Q6@	c #B58571",
"R6@	c #AC775A",
"S6@	c #B1826B",
"T6@	c #B38D72",
"U6@	c #AF9077",
"V6@	c #BB987E",
"W6@	c #BA9984",
"X6@	c #9F7259",
"Y6@	c #9F6E50",
"Z6@	c #9C6444",
"`6@	c #93644A",
" 7@	c #955F42",
".7@	c #A0684C",
"+7@	c #A26E4C",
"@7@	c #9C6037",
"#7@	c #985939",
"$7@	c #9C6042",
"%7@	c #A06745",
"&7@	c #985F3E",
"*7@	c #965E3D",
"=7@	c #98603E",
"-7@	c #945936",
";7@	c #975836",
">7@	c #99573A",
",7@	c #955937",
"'7@	c #9C5F3A",
")7@	c #A05F3B",
"!7@	c #9F5F3B",
"~7@	c #C4A98F",
"{7@	c #B79C7F",
"]7@	c #B7997A",
"^7@	c #C4AB8C",
"/7@	c #A9825C",
"(7@	c #A7794F",
"_7@	c #9D8167",
":7@	c #AC9C8D",
"<7@	c #C0AB9F",
"[7@	c #BBA48F",
"}7@	c #A4866B",
"|7@	c #9F8268",
"17@	c #A3866C",
"27@	c #AA855F",
"37@	c #9E7A5C",
"47@	c #9A7F65",
"57@	c #AB886D",
"67@	c #AF7447",
"77@	c #AC6F3F",
"87@	c #AC6C3A",
"97@	c #AC6D38",
"07@	c #AD713B",
"a7@	c #B06D30",
"b7@	c #AF6D31",
"c7@	c #B37136",
"d7@	c #AF7745",
"e7@	c #AE7042",
"f7@	c #9F633E",
"g7@	c #A27655",
"h7@	c #B49073",
"i7@	c #C3A894",
"j7@	c #BEA797",
"k7@	c #BFA58F",
"l7@	c #B1957F",
"m7@	c #B29270",
"n7@	c #BF9C83",
"o7@	c #C8AD9C",
"p7@	c #B49B8B",
"q7@	c #A5928B",
"r7@	c #B58062",
"s7@	c #AE7E60",
"t7@	c #A6785B",
"u7@	c #B07954",
"v7@	c #B07B57",
"w7@	c #B07A4D",
"x7@	c #AE7446",
"y7@	c #AE7C57",
"z7@	c #B07746",
"A7@	c #B1754D",
"B7@	c #AC6F46",
"C7@	c #AB7048",
"D7@	c #AD6F41",
"E7@	c #AF7244",
"F7@	c #AD754B",
"G7@	c #AB734A",
"H7@	c #B0784B",
"I7@	c #AF764A",
"J7@	c #B58558",
"K7@	c #AE7F50",
"L7@	c #AE7D4F",
"M7@	c #B07947",
"N7@	c #A8713B",
"O7@	c #A8723B",
"P7@	c #AD7742",
"Q7@	c #AD753E",
"R7@	c #AE7335",
"S7@	c #B17330",
"T7@	c #B1773C",
"U7@	c #AB764B",
"V7@	c #97663F",
"W7@	c #B09175",
"X7@	c #C0AB95",
"Y7@	c #C2A790",
"Z7@	c #AF8B73",
"`7@	c #AD8862",
" 8@	c #A19492",
".8@	c #BA8865",
"+8@	c #BF7E45",
"@8@	c #B8763D",
"#8@	c #BE7D44",
"$8@	c #C07E46",
"%8@	c #BA7741",
"&8@	c #BC7A47",
"*8@	c #BA7D49",
"=8@	c #BA7948",
"-8@	c #B87747",
";8@	c #B77547",
">8@	c #BA774C",
",8@	c #B87645",
"'8@	c #B67543",
")8@	c #BB794D",
"!8@	c #B57641",
"~8@	c #B4753F",
"{8@	c #B2733E",
"]8@	c #B4744B",
"^8@	c #B3774E",
"/8@	c #B1794E",
"(8@	c #B07852",
"_8@	c #AF9E94",
":8@	c #A18373",
"<8@	c #8D624D",
"[8@	c #8B5640",
"}8@	c #844A34",
"|8@	c #854C37",
"18@	c #8B5C44",
"28@	c #8A5B44",
"38@	c #82513D",
"48@	c #7F513D",
"58@	c #7D5540",
"68@	c #855B48",
"78@	c #916351",
"88@	c #8D594A",
"98@	c #8D5646",
"08@	c #81503C",
"a8@	c #B59983",
"b8@	c #AB8C74",
"c8@	c #AE937A",
"d8@	c #AA917C",
"e8@	c #A09D9C",
"f8@	c #AD8D7E",
"g8@	c #B18F7E",
"h8@	c #B18F7D",
"i8@	c #AB8D79",
"j8@	c #A98F7C",
"k8@	c #B09280",
"l8@	c #B08F7C",
"m8@	c #B28C76",
"n8@	c #B28F79",
"o8@	c #AB9181",
"p8@	c #AE9186",
"q8@	c #B09286",
"r8@	c #AC8E82",
"s8@	c #AA8B80",
"t8@	c #A9968E",
"u8@	c #A48982",
"v8@	c #A2877E",
"w8@	c #9C8075",
"x8@	c #9D897E",
"y8@	c #9B8D82",
"z8@	c #9B8677",
"A8@	c #997A6C",
"B8@	c #9C7B6D",
"C8@	c #A38476",
"D8@	c #A38575",
"E8@	c #A28271",
"F8@	c #9F887C",
"G8@	c #A58F85",
"H8@	c #A38E86",
"I8@	c #A49088",
"J8@	c #A6887B",
"K8@	c #A88A7D",
"L8@	c #A89181",
"M8@	c #A18974",
"N8@	c #A2866F",
"O8@	c #99785A",
"P8@	c #957657",
"Q8@	c #9E866E",
"R8@	c #9A8778",
"S8@	c #A18B7E",
"T8@	c #9C856E",
"U8@	c #A29586",
"V8@	c #A8998C",
"W8@	c #A49283",
"X8@	c #9D8F86",
"Y8@	c #A69889",
"Z8@	c #9E8E7B",
"`8@	c #9A8976",
" 9@	c #A49586",
".9@	c #A59A8C",
"+9@	c #A4A198",
"@9@	c #A5A3A2",
"#9@	c #A2A09F",
"$9@	c #AB9182",
"%9@	c #AF9484",
"&9@	c #B19585",
"*9@	c #A8826F",
"=9@	c #AC856E",
"-9@	c #AF9177",
";9@	c #A9866C",
">9@	c #AA8871",
",9@	c #AC8974",
"'9@	c #AB8A7B",
")9@	c #A18B7B",
"!9@	c #A48F7F",
"~9@	c #A89683",
"{9@	c #A88F83",
"]9@	c #A6846E",
"^9@	c #A78676",
"/9@	c #A0877B",
"(9@	c #A77E6B",
"_9@	c #A8826D",
":9@	c #AC8872",
"<9@	c #AB8871",
"[9@	c #A9886E",
"}9@	c #AC907C",
"|9@	c #A4886E",
"19@	c #A98D72",
"29@	c #A78D7D",
"39@	c #A89180",
"49@	c #A78F7D",
"59@	c #9E9490",
"69@	c #AA8D76",
"79@	c #A98C76",
"89@	c #A38065",
"99@	c #A9876B",
"09@	c #AA856D",
"a9@	c #9F897B",
"b9@	c #B08F77",
"c9@	c #AC7F5C",
"d9@	c #AB7A5A",
"e9@	c #B28267",
"f9@	c #AF7A58",
"g9@	c #B17D5D",
"h9@	c #B07E5D",
"i9@	c #B2876C",
"j9@	c #B38569",
"k9@	c #AC7F61",
"l9@	c #B28368",
"m9@	c #B28161",
"n9@	c #AD7D5E",
"o9@	c #AE8069",
"p9@	c #B0856D",
"q9@	c #AE856D",
"r9@	c #AB856F",
"s9@	c #AC8776",
"t9@	c #AA897A",
"u9@	c #9B8D87",
"v9@	c #917B77",
"w9@	c #8E7870",
"x9@	c #94786E",
"y9@	c #907A6F",
"z9@	c #8F766D",
"A9@	c #948075",
"B9@	c #988277",
"C9@	c #9D8178",
"D9@	c #9F837A",
"E9@	c #947A70",
"F9@	c #907469",
"G9@	c #94746B",
"H9@	c #9E9F9B",
"I9@	c #9E9D9B",
"J9@	c #A09E9A",
"K9@	c #A9A4A4",
"L9@	c #AAA9A8",
"M9@	c #AAAAA7",
"N9@	c #A39D9F",
"O9@	c #A19B9D",
"P9@	c #A0A3A1",
"Q9@	c #A09F9C",
"R9@	c #A0A0A2",
"S9@	c #ABA9A8",
"T9@	c #AAA7A7",
"U9@	c #AAA7A8",
"V9@	c #B2AAA7",
"W9@	c #B1A9A4",
"X9@	c #B2A9A0",
"Y9@	c #B2ADA2",
"Z9@	c #AEAAA4",
"`9@	c #A8A6A3",
" 0@	c #AAA6A9",
".0@	c #AAA4A5",
"+0@	c #ADA6A8",
"@0@	c #ABA9A6",
"#0@	c #ACAAA7",
"$0@	c #9D9C94",
"%0@	c #A09D9D",
"&0@	c #9D9D9C",
"*0@	c #9F9893",
"=0@	c #A19892",
"-0@	c #9C9691",
";0@	c #9D9A94",
">0@	c #9E9994",
",0@	c #B0AEAA",
"'0@	c #ACAAA5",
")0@	c #A19F98",
"!0@	c #AB9B95",
"~0@	c #AA9991",
"{0@	c #AFA19D",
"]0@	c #B4A5A1",
"^0@	c #B1A49E",
"/0@	c #B0A29D",
"(0@	c #B2A59F",
"_0@	c #9F9A98",
":0@	c #A3A29A",
"<0@	c #A39B8F",
"[0@	c #9F9B9C",
"}0@	c #A8948C",
"|0@	c #9F9284",
"10@	c #A9A59C",
"20@	c #ACA19C",
"30@	c #AFA79C",
"40@	c #B3A7A1",
"50@	c #ADA59B",
"60@	c #B1A8A6",
"70@	c #B0AEAD",
"80@	c #AFAFAE",
"90@	c #B0A7A6",
"00@	c #ACA399",
"a0@	c #AF9A92",
"b0@	c #A8A49B",
"c0@	c #AA9E9B",
"d0@	c #AB9F9C",
"e0@	c #A0A098",
"f0@	c #9A9691",
"g0@	c #9E9894",
"h0@	c #B1A6A1",
"i0@	c #ABA499",
"j0@	c #A3948E",
"k0@	c #B29C93",
"l0@	c #B09D93",
"m0@	c #A09285",
"n0@	c #9A8A83",
"o0@	c #A89690",
"p0@	c #B8A088",
"q0@	c #A78D80",
"r0@	c #A38471",
"s0@	c #9F8068",
"t0@	c #A29082",
"u0@	c #9C8976",
"v0@	c #9B673F",
"w0@	c #9B6C44",
"x0@	c #A4785F",
"y0@	c #A98F7E",
"z0@	c #A68B7A",
"A0@	c #A18073",
"B0@	c #A08071",
"C0@	c #A28378",
"D0@	c #A88372",
"E0@	c #A47F6A",
"F0@	c #A88169",
"G0@	c #AC8876",
"H0@	c #AA8878",
"I0@	c #AC8B7C",
"J0@	c #A88874",
"K0@	c #A98879",
"L0@	c #A28174",
"M0@	c #A68C80",
"N0@	c #A7938D",
"O0@	c #9D8C7E",
"P0@	c #AA947F",
"Q0@	c #A4856D",
"R0@	c #A58973",
"S0@	c #A58369",
"T0@	c #A78164",
"U0@	c #A4866F",
"V0@	c #967A62",
"W0@	c #9A7F64",
"X0@	c #A2876A",
"Y0@	c #A78C6F",
"Z0@	c #A58C74",
"`0@	c #B0896D",
" a@	c #B0896E",
".a@	c #B69B85",
"+a@	c #B49A85",
"@a@	c #B59A82",
"#a@	c #B08867",
"$a@	c #9D6441",
"%a@	c #A07659",
"&a@	c #9C7156",
"*a@	c #986B4E",
"=a@	c #A67C65",
"-a@	c #AD8A6B",
";a@	c #A38A79",
">a@	c #A3897A",
",a@	c #A98F7F",
"'a@	c #957162",
")a@	c #987465",
"!a@	c #9B7665",
"~a@	c #9C796B",
"{a@	c #A07E70",
"]a@	c #9B7868",
"^a@	c #9F7760",
"/a@	c #9D775F",
"(a@	c #A17C65",
"_a@	c #A57E6E",
":a@	c #9F8169",
"<a@	c #9A7B64",
"[a@	c #9C7761",
"}a@	c #9D7763",
"|a@	c #9E806F",
"1a@	c #957364",
"2a@	c #A38F84",
"3a@	c #9E9991",
"4a@	c #957A70",
"5a@	c #977D6F",
"6a@	c #957C6F",
"7a@	c #998174",
"8a@	c #947165",
"9a@	c #997566",
"0a@	c #9B786A",
"aa@	c #9A7668",
"ba@	c #977263",
"ca@	c #9C7867",
"da@	c #977864",
"ea@	c #967561",
"fa@	c #987362",
"ga@	c #977462",
"ha@	c #967060",
"ia@	c #946E5E",
"ja@	c #96705F",
"ka@	c #977261",
"la@	c #997463",
"ma@	c #946D5D",
"na@	c #957062",
"oa@	c #9A7669",
"pa@	c #9D786C",
"qa@	c #A29B92",
"ra@	c #AF9680",
"sa@	c #BA916B",
"ta@	c #AF896A",
"ua@	c #A68564",
"va@	c #A48160",
"wa@	c #A28568",
"xa@	c #A38A6C",
"ya@	c #AB9075",
"za@	c #AD9179",
"Aa@	c #AC917A",
"Ba@	c #AE937D",
"Ca@	c #A8907C",
"Da@	c #A8917B",
"Ea@	c #A6927C",
"Fa@	c #A6937F",
"Ga@	c #AB9581",
"Ha@	c #B49075",
"Ia@	c #B49071",
"Ja@	c #B0947C",
"Ka@	c #B19A8D",
"La@	c #B89C8E",
"Ma@	c #B9A192",
"Na@	c #B8A397",
"Oa@	c #B49A8D",
"Pa@	c #B29381",
"Qa@	c #A37E68",
"Ra@	c #9B7057",
"Sa@	c #A1816F",
"Ta@	c #A58E83",
"Ua@	c #AB8C7E",
"Va@	c #AC8B79",
"Wa@	c #967B6A",
"Xa@	c #9E6E4C",
"Ya@	c #A57458",
"Za@	c #A27255",
"`a@	c #9E7352",
" b@	c #9C765E",
".b@	c #9B8478",
"+b@	c #9B8171",
"@b@	c #9A7E6D",
"#b@	c #977767",
"$b@	c #99786A",
"%b@	c #AF8D70",
"&b@	c #A9866B",
"*b@	c #A56E41",
"=b@	c #9B6C45",
"-b@	c #A47549",
";b@	c #B59174",
">b@	c #B0987C",
",b@	c #A18563",
"'b@	c #AA846B",
")b@	c #AA8064",
"!b@	c #A47653",
"~b@	c #987659",
"{b@	c #9E6B47",
"]b@	c #A27254",
"^b@	c #B48A69",
"/b@	c #B78F72",
"(b@	c #AD886E",
"_b@	c #AF8970",
":b@	c #AE7A66",
"<b@	c #A5745C",
"[b@	c #A47862",
"}b@	c #AA806B",
"|b@	c #AC7C63",
"1b@	c #AF735B",
"2b@	c #AB6F4E",
"3b@	c #AD886B",
"4b@	c #AF7B60",
"5b@	c #B58B79",
"6b@	c #B58D7F",
"7b@	c #B28B7D",
"8b@	c #B28060",
"9b@	c #B68465",
"0b@	c #B58C70",
"ab@	c #BF9E85",
"bb@	c #AC9886",
"cb@	c #A88466",
"db@	c #BB8C5B",
"eb@	c #AD8458",
"fb@	c #AE866A",
"gb@	c #B18966",
"hb@	c #A17E62",
"ib@	c #A17E67",
"jb@	c #AB8A6C",
"kb@	c #AB835F",
"lb@	c #AE896F",
"mb@	c #A38771",
"nb@	c #A1866E",
"ob@	c #A2866D",
"pb@	c #A88A70",
"qb@	c #AA8B71",
"rb@	c #B79579",
"sb@	c #BC9D7F",
"tb@	c #C5B0A1",
"ub@	c #C7B8AE",
"vb@	c #AEAEA7",
"wb@	c #A6754E",
"xb@	c #A57453",
"yb@	c #9D5F36",
"zb@	c #A16135",
"Ab@	c #9E683E",
"Bb@	c #A0653F",
"Cb@	c #9E7552",
"Db@	c #AA7E5F",
"Eb@	c #B4916D",
"Fb@	c #B6987F",
"Gb@	c #AF9381",
"Hb@	c #AE8161",
"Ib@	c #B28363",
"Jb@	c #B28364",
"Kb@	c #A87A5B",
"Lb@	c #A1785F",
"Mb@	c #A27A62",
"Nb@	c #98674B",
"Ob@	c #9A654A",
"Pb@	c #9B6A52",
"Qb@	c #9D6449",
"Rb@	c #A16544",
"Sb@	c #AA7050",
"Tb@	c #AB8A76",
"Ub@	c #B49585",
"Vb@	c #BE9F93",
"Wb@	c #AB7F6D",
"Xb@	c #A68670",
"Yb@	c #C1B19B",
"Zb@	c #B3937F",
"`b@	c #A48370",
" c@	c #A0654C",
".c@	c #8F604B",
"+c@	c #8E5E49",
"@c@	c #955841",
"#c@	c #975F42",
"$c@	c #976244",
"%c@	c #996045",
"&c@	c #995C40",
"*c@	c #955335",
"=c@	c #945533",
"-c@	c #905734",
";c@	c #935333",
">c@	c #8D5431",
",c@	c #914F30",
"'c@	c #975535",
")c@	c #904F2F",
"!c@	c #985838",
"~c@	c #9D5C3C",
"{c@	c #9E5D3D",
"]c@	c #9C5A3B",
"^c@	c #9B5A3A",
"/c@	c #9D5A3B",
"(c@	c #9C6E5A",
"_c@	c #BD9166",
":c@	c #B18B69",
"<c@	c #B18D6E",
"[c@	c #AE8562",
"}c@	c #B08560",
"|c@	c #AA8463",
"1c@	c #AE815B",
"2c@	c #B28860",
"3c@	c #B48967",
"4c@	c #B68D6E",
"5c@	c #B58F73",
"6c@	c #AF9079",
"7c@	c #AD8F72",
"8c@	c #B19274",
"9c@	c #B69375",
"0c@	c #BC936B",
"ac@	c #B9895B",
"bc@	c #C08E61",
"cc@	c #C09168",
"dc@	c #BC946E",
"ec@	c #9D958F",
"fc@	c #BFA99E",
"gc@	c #C9B7B2",
"hc@	c #CAB9B1",
"ic@	c #A57A5E",
"jc@	c #A37D65",
"kc@	c #A4795D",
"lc@	c #A87D61",
"mc@	c #A27556",
"nc@	c #AB7752",
"oc@	c #AD7B57",
"pc@	c #B28C70",
"qc@	c #AD7D5D",
"rc@	c #A6826F",
"sc@	c #A88065",
"tc@	c #A2795F",
"uc@	c #997054",
"vc@	c #996E56",
"wc@	c #A57D5C",
"xc@	c #A07959",
"yc@	c #A87A5E",
"zc@	c #A6775B",
"Ac@	c #A6785A",
"Bc@	c #A97B4E",
"Cc@	c #B78B6B",
"Dc@	c #C1AB98",
"Ec@	c #C8BEAC",
"Fc@	c #BEAF98",
"Gc@	c #AC8369",
"Hc@	c #B8987D",
"Ic@	c #9F7959",
"Jc@	c #B39078",
"Kc@	c #AD7A56",
"Lc@	c #C5A48F",
"Mc@	c #C0AFA3",
"Nc@	c #BCA596",
"Oc@	c #B8A293",
"Pc@	c #A8847A",
"Qc@	c #C0A99D",
"Rc@	c #B29A8D",
"Sc@	c #9F755E",
"Tc@	c #A56B54",
"Uc@	c #B58774",
"Vc@	c #BEAF9C",
"Wc@	c #C2AFA0",
"Xc@	c #B99786",
"Yc@	c #B69383",
"Zc@	c #B99E93",
"`c@	c #C3AFA9",
" d@	c #B39485",
".d@	c #A67B63",
"+d@	c #B58060",
"@d@	c #B37F61",
"#d@	c #B07D5F",
"$d@	c #B49076",
"%d@	c #BAA08C",
"&d@	c #C0AC9F",
"*d@	c #B08053",
"=d@	c #A27552",
"-d@	c #A07047",
";d@	c #9C704A",
">d@	c #996F4A",
",d@	c #A37249",
"'d@	c #A17A55",
")d@	c #A8805C",
"!d@	c #A88268",
"~d@	c #A07E64",
"{d@	c #9B795D",
"]d@	c #9E7D60",
"^d@	c #B8916F",
"/d@	c #BD966E",
"(d@	c #B99879",
"_d@	c #ADABA5",
":d@	c #A96B3E",
"<d@	c #A86B3E",
"[d@	c #AA6E40",
"}d@	c #9E633A",
"|d@	c #9F623B",
"1d@	c #95562D",
"2d@	c #A06136",
"3d@	c #9A6039",
"4d@	c #A57558",
"5d@	c #A37857",
"6d@	c #A37B56",
"7d@	c #A37452",
"8d@	c #9B7153",
"9d@	c #9B7155",
"0d@	c #9E7053",
"ad@	c #A47454",
"bd@	c #B3926F",
"cd@	c #C1A994",
"dd@	c #B7A18E",
"ed@	c #A48B7C",
"fd@	c #AF7A57",
"gd@	c #B1856B",
"hd@	c #BF9F8E",
"id@	c #A46A42",
"jd@	c #A56643",
"kd@	c #A26751",
"ld@	c #9C6A52",
"md@	c #A2684A",
"nd@	c #AC7C5B",
"od@	c #AA7857",
"pd@	c #B8A193",
"qd@	c #BFB4AD",
"rd@	c #BCAFA2",
"sd@	c #BDB0AA",
"td@	c #C9B8AB",
"ud@	c #C5B1A3",
"vd@	c #C8C1B6",
"wd@	c #C8B4AC",
"xd@	c #A56C52",
"yd@	c #A76E4C",
"zd@	c #A87458",
"Ad@	c #A36F53",
"Bd@	c #9A644B",
"Cd@	c #9B6649",
"Dd@	c #9E6E4F",
"Ed@	c #956447",
"Fd@	c #955F41",
"Gd@	c #9B6141",
"Hd@	c #925534",
"Id@	c #97603F",
"Jd@	c #975A3C",
"Kd@	c #8F5A39",
"Ld@	c #895332",
"Md@	c #915131",
"Nd@	c #985636",
"Od@	c #945232",
"Pd@	c #9F5F3E",
"Qd@	c #A06240",
"Rd@	c #A06340",
"Sd@	c #9C7563",
"Td@	c #A39591",
"Ud@	c #A7978A",
"Vd@	c #B29272",
"Wd@	c #BA916A",
"Xd@	c #BC936C",
"Yd@	c #B4916F",
"Zd@	c #B59172",
"`d@	c #B9916F",
" e@	c #B08562",
".e@	c #B9865C",
"+e@	c #B2896A",
"@e@	c #B08A6D",
"#e@	c #B28C6A",
"$e@	c #BC926A",
"%e@	c #BD8F5E",
"&e@	c #BE9169",
"*e@	c #BD956F",
"=e@	c #AF977E",
"-e@	c #A08A80",
";e@	c #C8B1A5",
">e@	c #CFB9AF",
",e@	c #CBB7AD",
"'e@	c #BA9B8D",
")e@	c #B08B76",
"!e@	c #B7A189",
"~e@	c #AF8C73",
"{e@	c #A97D61",
"]e@	c #AC8566",
"^e@	c #BC977D",
"/e@	c #B99780",
"(e@	c #A97B5B",
"_e@	c #A38A7D",
":e@	c #A29288",
"<e@	c #A5806C",
"[e@	c #AD8C74",
"}e@	c #BBA28E",
"|e@	c #B29787",
"1e@	c #B19487",
"2e@	c #A2734F",
"3e@	c #A87753",
"4e@	c #A57249",
"5e@	c #9D673D",
"6e@	c #A87351",
"7e@	c #BB9E89",
"8e@	c #CCBBA7",
"9e@	c #BDA391",
"0e@	c #BD9B7F",
"ae@	c #C7A990",
"be@	c #BC9E86",
"ce@	c #B8987F",
"de@	c #A07C60",
"ee@	c #9A6E51",
"fe@	c #B6967C",
"ge@	c #B7805F",
"he@	c #AC704D",
"ie@	c #B69586",
"je@	c #CFC6C3",
"ke@	c #CDC1BB",
"le@	c #D2CCCA",
"me@	c #BEB3AC",
"ne@	c #BA9480",
"oe@	c #B98F79",
"pe@	c #C6B6AA",
"qe@	c #D0CEC7",
"re@	c #CFCAC3",
"se@	c #CDC6C2",
"te@	c #C2B4AB",
"ue@	c #B8A190",
"ve@	c #BE9579",
"we@	c #B48161",
"xe@	c #B88667",
"ye@	c #B79075",
"ze@	c #BEA897",
"Ae@	c #B1A59F",
"Be@	c #A9A6A5",
"Ce@	c #B3927C",
"De@	c #B28764",
"Ee@	c #AA7747",
"Fe@	c #B47F51",
"Ge@	c #C29168",
"He@	c #AA7B4E",
"Ie@	c #A27149",
"Je@	c #A0744F",
"Ke@	c #976D4B",
"Le@	c #9B7149",
"Me@	c #C19E83",
"Ne@	c #BB9F8F",
"Oe@	c #A68B76",
"Pe@	c #B89170",
"Qe@	c #A89E92",
"Re@	c #AA693D",
"Se@	c #A6653A",
"Te@	c #9B5F32",
"Ue@	c #9F5F32",
"Ve@	c #9B6035",
"We@	c #B59F8A",
"Xe@	c #CBBEB0",
"Ye@	c #B99980",
"Ze@	c #B8A494",
"`e@	c #C1AB9A",
" f@	c #B0805D",
".f@	c #AF8867",
"+f@	c #B69781",
"@f@	c #AB8060",
"#f@	c #AB744E",
"$f@	c #AF846B",
"%f@	c #AF7856",
"&f@	c #A36235",
"*f@	c #A86B47",
"=f@	c #A26344",
"-f@	c #A87551",
";f@	c #A26D46",
">f@	c #A77B5D",
",f@	c #BDA69A",
"'f@	c #B7AEA0",
")f@	c #B8AD9E",
"!f@	c #C3BAB3",
"~f@	c #BFB3A9",
"{f@	c #C5BFB2",
"]f@	c #C2B2AA",
"^f@	c #A39D9E",
"/f@	c #A16E5D",
"(f@	c #A07154",
"_f@	c #A16F55",
":f@	c #A46F56",
"<f@	c #9E6A51",
"[f@	c #9C664F",
"}f@	c #9D7054",
"|f@	c #976043",
"1f@	c #966246",
"2f@	c #9A6446",
"3f@	c #965C3B",
"4f@	c #8F5437",
"5f@	c #90593D",
"6f@	c #8F553A",
"7f@	c #925438",
"8f@	c #8D4F33",
"9f@	c #975A3B",
"0f@	c #925636",
"af@	c #945735",
"bf@	c #8F5737",
"cf@	c #98796C",
"df@	c #A89685",
"ef@	c #B58F6B",
"ff@	c #BA946F",
"gf@	c #B48A62",
"hf@	c #AA7D53",
"if@	c #B98758",
"jf@	c #BB8960",
"kf@	c #BF9363",
"lf@	c #BF9262",
"mf@	c #B19B83",
"nf@	c #A78E84",
"of@	c #AF8F7F",
"pf@	c #BFA191",
"qf@	c #AD8D78",
"rf@	c #A9765D",
"sf@	c #A97B5F",
"tf@	c #A6775C",
"uf@	c #A66943",
"vf@	c #A86E45",
"wf@	c #A77149",
"xf@	c #A7774E",
"yf@	c #BB967A",
"zf@	c #AE8160",
"Af@	c #A18B7D",
"Bf@	c #AA836E",
"Cf@	c #B39989",
"Df@	c #A87552",
"Ef@	c #A97A55",
"Ff@	c #A67348",
"Gf@	c #9D6439",
"Hf@	c #9A6338",
"If@	c #C9AF9F",
"Jf@	c #CCB09B",
"Kf@	c #A07D56",
"Lf@	c #AD8A64",
"Mf@	c #A67D60",
"Nf@	c #B18C70",
"Of@	c #9E958A",
"Pf@	c #BA9A81",
"Qf@	c #B78165",
"Rf@	c #B07153",
"Sf@	c #BE9181",
"Tf@	c #D0CCCB",
"Uf@	c #CBC9C8",
"Vf@	c #CABCB0",
"Wf@	c #C6AD9F",
"Xf@	c #CFC4C0",
"Yf@	c #CFCECA",
"Zf@	c #C5BAB5",
"`f@	c #C3B5AE",
" g@	c #BD9E8B",
".g@	c #B88A6A",
"+g@	c #BA8A69",
"@g@	c #BD8E70",
"#g@	c #BC957A",
"$g@	c #BE9F8B",
"%g@	c #B59681",
"&g@	c #9F6F49",
"*g@	c #A47148",
"=g@	c #BC8455",
"-g@	c #BB7E4B",
";g@	c #BA854D",
">g@	c #B5824E",
",g@	c #AC784B",
"'g@	c #A3754A",
")g@	c #B08D6A",
"!g@	c #A7805B",
"~g@	c #B48C72",
"{g@	c #C9B5AD",
"]g@	c #BEA99A",
"^g@	c #AA8263",
"/g@	c #C4B09C",
"(g@	c #B08A66",
"_g@	c #AC8E71",
":g@	c #B09372",
"<g@	c #ADA698",
"[g@	c #ACA9A6",
"}g@	c #AA6A40",
"|g@	c #A56D46",
"1g@	c #A66739",
"2g@	c #AD7750",
"3g@	c #AE8768",
"4g@	c #C4B9A8",
"5g@	c #CCC8BA",
"6g@	c #BCA085",
"7g@	c #C3AC9C",
"8g@	c #CBBBAE",
"9g@	c #AB7F5D",
"0g@	c #B18A69",
"ag@	c #B59879",
"bg@	c #B5937A",
"cg@	c #AB907E",
"dg@	c #A77D5D",
"eg@	c #A6633C",
"fg@	c #9F6035",
"gg@	c #A2603D",
"hg@	c #9B623D",
"ig@	c #996139",
"jg@	c #A0673F",
"kg@	c #A56E47",
"lg@	c #BDB4AC",
"mg@	c #B8AEA7",
"ng@	c #B8ACA3",
"og@	c #CBB5A6",
"pg@	c #B8A091",
"qg@	c #A49995",
"rg@	c #A27B69",
"sg@	c #A0725A",
"tg@	c #A16F59",
"ug@	c #9F6B55",
"vg@	c #9B654C",
"wg@	c #986347",
"xg@	c #996448",
"yg@	c #9D654A",
"zg@	c #985F44",
"Ag@	c #955D43",
"Bg@	c #8E5C41",
"Cg@	c #965F42",
"Dg@	c #91563A",
"Eg@	c #8D5A3E",
"Fg@	c #8B5C3F",
"Gg@	c #8D563B",
"Hg@	c #8A5137",
"Ig@	c #864C33",
"Jg@	c #8A4E33",
"Kg@	c #8E5035",
"Lg@	c #85482D",
"Mg@	c #864B2E",
"Ng@	c #91512E",
"Og@	c #934E2C",
"Pg@	c #8C4A2D",
"Qg@	c #8B563A",
"Rg@	c #9E847B",
"Sg@	c #9D9591",
"Tg@	c #A27B5D",
"Ug@	c #BE9269",
"Vg@	c #BF9366",
"Wg@	c #BB8E5D",
"Xg@	c #B88558",
"Yg@	c #B68352",
"Zg@	c #B88358",
"`g@	c #BC865C",
" h@	c #BA885D",
".h@	c #B8895E",
"+h@	c #BA8A60",
"@h@	c #BB8B63",
"#h@	c #C09366",
"$h@	c #BF9264",
"%h@	c #B68A5E",
"&h@	c #B58B61",
"*h@	c #B59C85",
"=h@	c #AD7F63",
"-h@	c #BFA999",
";h@	c #C9C6B6",
">h@	c #BFB099",
",h@	c #A9765B",
"'h@	c #A7775B",
")h@	c #AB7E62",
"!h@	c #B9856D",
"~h@	c #B07F65",
"{h@	c #A3643E",
"]h@	c #AA7249",
"^h@	c #AD8765",
"/h@	c #AA7B59",
"(h@	c #AF7E5B",
"_h@	c #B18266",
":h@	c #B28369",
"<h@	c #A29284",
"[h@	c #A7958F",
"}h@	c #A9866D",
"|h@	c #BA9883",
"1h@	c #B9A395",
"2h@	c #C7B8A8",
"3h@	c #A26C4A",
"4h@	c #A0724F",
"5h@	c #9A6846",
"6h@	c #9C613B",
"7h@	c #9C5D35",
"8h@	c #995D33",
"9h@	c #A36A42",
"0h@	c #B3896D",
"ah@	c #9D6833",
"bh@	c #9C6B3A",
"ch@	c #AA744B",
"dh@	c #B1815E",
"eh@	c #97826E",
"fh@	c #A29687",
"gh@	c #B9957F",
"hh@	c #B9907A",
"ih@	c #B98C75",
"jh@	c #BC998A",
"kh@	c #C9BDAF",
"lh@	c #CFC9C3",
"mh@	c #D0CAC4",
"nh@	c #CCC6C1",
"oh@	c #CCC6BF",
"ph@	c #CCC9C1",
"qh@	c #CDCCC5",
"rh@	c #CECCC8",
"sh@	c #CDCAC4",
"th@	c #CABEB9",
"uh@	c #C4BBBA",
"vh@	c #C2AFA6",
"wh@	c #B49685",
"xh@	c #B68E75",
"yh@	c #BA8969",
"zh@	c #C08A68",
"Ah@	c #C09073",
"Bh@	c #BF9780",
"Ch@	c #B0885D",
"Dh@	c #AA7C4F",
"Eh@	c #B67E4F",
"Fh@	c #B47F44",
"Gh@	c #AC7A46",
"Hh@	c #A67048",
"Ih@	c #A97149",
"Jh@	c #AC7546",
"Kh@	c #A3744A",
"Lh@	c #C0AE9E",
"Mh@	c #CEC2B5",
"Nh@	c #B09279",
"Oh@	c #BEA99B",
"Ph@	c #C6C2BE",
"Qh@	c #AD8F74",
"Rh@	c #AC8A66",
"Sh@	c #B69977",
"Th@	c #B7997C",
"Uh@	c #B37A4D",
"Vh@	c #B3845B",
"Wh@	c #AF7B51",
"Xh@	c #BDA08E",
"Yh@	c #B69482",
"Zh@	c #C5B5A6",
"`h@	c #C8B8AE",
" i@	c #BA9E8C",
".i@	c #A57553",
"+i@	c #A28474",
"@i@	c #AB8F7F",
"#i@	c #B29883",
"$i@	c #B4916E",
"%i@	c #B89175",
"&i@	c #A6623C",
"*i@	c #A5643F",
"=i@	c #9C5B36",
"-i@	c #9C5D3A",
";i@	c #925833",
">i@	c #975832",
",i@	c #9E5E39",
"'i@	c #9B5C37",
")i@	c #9F633F",
"!i@	c #A0633B",
"~i@	c #9E6E49",
"{i@	c #B49F90",
"]i@	c #B69D97",
"^i@	c #C3AEA6",
"/i@	c #C2AEA4",
"(i@	c #A97D6A",
"_i@	c #AF816E",
":i@	c #AC8676",
"<i@	c #C5B2A7",
"[i@	c #D0C0B5",
"}i@	c #AC9385",
"|i@	c #A19B9C",
"1i@	c #9D948E",
"2i@	c #A18068",
"3i@	c #9D745B",
"4i@	c #97654F",
"5i@	c #925D44",
"6i@	c #956044",
"7i@	c #905C43",
"8i@	c #8F5A42",
"9i@	c #8A563F",
"0i@	c #8C5B42",
"ai@	c #8D5B40",
"bi@	c #915137",
"ci@	c #895136",
"di@	c #855034",
"ei@	c #874A31",
"fi@	c #894A32",
"gi@	c #7F3F27",
"hi@	c #894930",
"ii@	c #8B4B31",
"ji@	c #85452B",
"ki@	c #93563A",
"li@	c #905333",
"mi@	c #955331",
"ni@	c #985230",
"oi@	c #884629",
"pi@	c #865136",
"qi@	c #997F74",
"ri@	c #9E9692",
"si@	c #B28F72",
"ti@	c #B6906D",
"ui@	c #C18D61",
"vi@	c #C18F5E",
"wi@	c #BF8C57",
"xi@	c #B47E4F",
"yi@	c #BC8554",
"zi@	c #B67F4B",
"Ai@	c #B7814D",
"Bi@	c #B88254",
"Ci@	c #BA8557",
"Di@	c #BC895B",
"Ei@	c #BE8A5D",
"Fi@	c #C08B5F",
"Gi@	c #C28E64",
"Hi@	c #BE9066",
"Ii@	c #BC936E",
"Ji@	c #B58F66",
"Ki@	c #B89982",
"Li@	c #A4948D",
"Mi@	c #C0B8A0",
"Ni@	c #AD8A76",
"Oi@	c #A87E68",
"Pi@	c #AE8870",
"Qi@	c #BD9780",
"Ri@	c #A47B64",
"Si@	c #9E613A",
"Ti@	c #B4825F",
"Ui@	c #A87047",
"Vi@	c #B18166",
"Wi@	c #AF8168",
"Xi@	c #AC7E64",
"Yi@	c #AB7D61",
"Zi@	c #A17C66",
"`i@	c #A57B61",
" j@	c #A67961",
".j@	c #A98066",
"+j@	c #AA836C",
"@j@	c #CAB09D",
"#j@	c #A97D59",
"$j@	c #AC805E",
"%j@	c #956648",
"&j@	c #8A4F31",
"*j@	c #A26340",
"=j@	c #A46438",
"-j@	c #A1602F",
";j@	c #9C6439",
">j@	c #9E653D",
",j@	c #9A6131",
"'j@	c #A6673E",
")j@	c #A07755",
"!j@	c #9B8D7C",
"~j@	c #B9937E",
"{j@	c #C6AB98",
"]j@	c #C5AFA0",
"^j@	c #CBB8AC",
"/j@	c #CCBFB4",
"(j@	c #C8C1B9",
"_j@	c #BCADA2",
":j@	c #CDC6B9",
"<j@	c #CBC8BF",
"[j@	c #C8BDB9",
"}j@	c #CDC7C4",
"|j@	c #C9BCB4",
"1j@	c #B8A297",
"2j@	c #C3AB9F",
"3j@	c #CDC4C0",
"4j@	c #CCC3BE",
"5j@	c #C7B2A7",
"6j@	c #BC9D8C",
"7j@	c #B58D75",
"8j@	c #BD9578",
"9j@	c #C49D82",
"0j@	c #C59F84",
"aj@	c #AE9A91",
"bj@	c #AE9B88",
"cj@	c #AB8D6B",
"dj@	c #AA8259",
"ej@	c #B78652",
"fj@	c #B68753",
"gj@	c #B18253",
"hj@	c #AE7D51",
"ij@	c #A77958",
"jj@	c #BDA593",
"kj@	c #B19B8D",
"lj@	c #C5BBB5",
"mj@	c #CAC5C2",
"nj@	c #C0AFA5",
"oj@	c #CDC3B8",
"pj@	c #B29981",
"qj@	c #AC8D6B",
"rj@	c #A99077",
"sj@	c #B58058",
"tj@	c #A67145",
"uj@	c #BCA288",
"vj@	c #AD8B6F",
"wj@	c #A67858",
"xj@	c #B38C7A",
"yj@	c #A2785E",
"zj@	c #B4927F",
"Aj@	c #AE866E",
"Bj@	c #9B664C",
"Cj@	c #9C6F5A",
"Dj@	c #A17A67",
"Ej@	c #9C775C",
"Fj@	c #9F7456",
"Gj@	c #AD7C5A",
"Hj@	c #B78862",
"Ij@	c #B78E68",
"Jj@	c #B38869",
"Kj@	c #AC7755",
"Lj@	c #AA6E49",
"Mj@	c #AF774D",
"Nj@	c #AB7550",
"Oj@	c #A26A4A",
"Pj@	c #955E3B",
"Qj@	c #A36442",
"Rj@	c #A0623F",
"Sj@	c #9A5B39",
"Tj@	c #9E613B",
"Uj@	c #A0714D",
"Vj@	c #9F6250",
"Wj@	c #A27B67",
"Xj@	c #B69E86",
"Yj@	c #A37861",
"Zj@	c #A3735B",
"`j@	c #A0715B",
" k@	c #B6A194",
".k@	c #C8B7AC",
"+k@	c #C9B6AB",
"@k@	c #BA9D8C",
"#k@	c #A1836F",
"$k@	c #A1876A",
"%k@	c #9D785E",
"&k@	c #94604C",
"*k@	c #915A43",
"=k@	c #945E43",
"-k@	c #925C3F",
";k@	c #8A573E",
">k@	c #895640",
",k@	c #8B583E",
"'k@	c #8D4B30",
")k@	c #7E3D25",
"!k@	c #82442A",
"~k@	c #82442B",
"{k@	c #874B32",
"]k@	c #80462F",
"^k@	c #82472E",
"/k@	c #894D34",
"(k@	c #8C5037",
"_k@	c #995C41",
":k@	c #965638",
"<k@	c #9A5737",
"[k@	c #975132",
"}k@	c #864629",
"|k@	c #865336",
"1k@	c #A89A8D",
"2k@	c #B19782",
"3k@	c #B88D67",
"4k@	c #BF8E66",
"5k@	c #BD8D61",
"6k@	c #BE8C59",
"7k@	c #BD8352",
"8k@	c #B87D4E",
"9k@	c #B77D47",
"0k@	c #B77E48",
"ak@	c #B77E4D",
"bk@	c #B78050",
"ck@	c #B57F51",
"dk@	c #BB8655",
"ek@	c #BE8758",
"fk@	c #B89372",
"gk@	c #B3937A",
"hk@	c #B5926E",
"ik@	c #C0976C",
"jk@	c #BA9D82",
"kk@	c #C9B5A1",
"lk@	c #B99A87",
"mk@	c #BB9885",
"nk@	c #CAB29D",
"ok@	c #C9A994",
"pk@	c #C09F89",
"qk@	c #A07E69",
"rk@	c #8A5A43",
"sk@	c #945A39",
"tk@	c #B27854",
"uk@	c #A96836",
"vk@	c #A56637",
"wk@	c #A2653A",
"xk@	c #A4673B",
"yk@	c #AB7045",
"zk@	c #AD7A5A",
"Ak@	c #AB7C5D",
"Bk@	c #9D7E6F",
"Ck@	c #AD8165",
"Dk@	c #AF7F63",
"Ek@	c #C29D84",
"Fk@	c #9B7150",
"Gk@	c #97735B",
"Hk@	c #99755B",
"Ik@	c #977257",
"Jk@	c #9E7A5E",
"Kk@	c #9C7255",
"Lk@	c #95654B",
"Mk@	c #9B6439",
"Nk@	c #A26944",
"Ok@	c #9D6442",
"Pk@	c #975F3E",
"Qk@	c #9D6242",
"Rk@	c #9D6846",
"Sk@	c #A29989",
"Tk@	c #B3907A",
"Uk@	c #BEAB98",
"Vk@	c #BCAA96",
"Wk@	c #C6B3A0",
"Xk@	c #C5B19B",
"Yk@	c #C6B9B0",
"Zk@	c #BAA090",
"`k@	c #BAA08D",
" l@	c #9F8574",
".l@	c #BEABA1",
"+l@	c #AA8371",
"@l@	c #A86848",
"#l@	c #C3B7A8",
"$l@	c #B49B8F",
"%l@	c #B69A90",
"&l@	c #B79B91",
"*l@	c #CAAE9F",
"=l@	c #B9957E",
"-l@	c #AF938D",
";l@	c #A38D77",
">l@	c #B28D72",
",l@	c #B99074",
"'l@	c #B48A6C",
")l@	c #AA9076",
"!l@	c #A68970",
"~l@	c #B6A397",
"{l@	c #C9C0BB",
"]l@	c #C7BEB8",
"^l@	c #CBBBB3",
"/l@	c #CDB6A9",
"(l@	c #B29682",
"_l@	c #B09378",
":l@	c #9A775A",
"<l@	c #A6927A",
"[l@	c #AFA3A1",
"}l@	c #AF9E93",
"|l@	c #9E7658",
"1l@	c #956C50",
"2l@	c #A06E53",
"3l@	c #9C6850",
"4l@	c #9B6850",
"5l@	c #946149",
"6l@	c #A27259",
"7l@	c #A4795F",
"8l@	c #A2775B",
"9l@	c #AC7F60",
"0l@	c #B0876B",
"al@	c #B0876A",
"bl@	c #AF876C",
"cl@	c #AB8470",
"dl@	c #A97D66",
"el@	c #A37052",
"fl@	c #A26948",
"gl@	c #9B6140",
"hl@	c #99603F",
"il@	c #955D3F",
"jl@	c #B0795B",
"kl@	c #9F785B",
"ll@	c #925940",
"ml@	c #9E5B36",
"nl@	c #B49886",
"ol@	c #AC8E7C",
"pl@	c #A37A6A",
"ql@	c #988067",
"rl@	c #997864",
"sl@	c #926756",
"tl@	c #8F6350",
"ul@	c #8F5D46",
"vl@	c #95593F",
"wl@	c #8B5339",
"xl@	c #855138",
"yl@	c #81513D",
"zl@	c #84543F",
"Al@	c #804C33",
"Bl@	c #96593D",
"Cl@	c #874631",
"Dl@	c #83422A",
"El@	c #7F422B",
"Fl@	c #7F4935",
"Gl@	c #865640",
"Hl@	c #7C4A34",
"Il@	c #86503B",
"Jl@	c #91553D",
"Kl@	c #95533B",
"Ll@	c #8F4D35",
"Ml@	c #914831",
"Nl@	c #92523C",
"Ol@	c #9C7661",
"Pl@	c #B68A61",
"Ql@	c #BD8250",
"Rl@	c #BC814E",
"Sl@	c #B87E49",
"Tl@	c #B57946",
"Ul@	c #B77B4C",
"Vl@	c #AF794C",
"Wl@	c #B68151",
"Xl@	c #B68050",
"Yl@	c #B29274",
"Zl@	c #B2947C",
"`l@	c #BA9378",
" m@	c #B0937E",
".m@	c #A68779",
"+m@	c #A48372",
"@m@	c #9E7D6D",
"#m@	c #997A6A",
"$m@	c #A48976",
"%m@	c #A98C74",
"&m@	c #A5876F",
"*m@	c #9A7560",
"=m@	c #A66A44",
"-m@	c #A26741",
";m@	c #A06640",
">m@	c #9E6842",
",m@	c #A16C48",
"'m@	c #A06C4C",
")m@	c #A07857",
"!m@	c #A87C63",
"~m@	c #A98C83",
"{m@	c #ACA2A5",
"]m@	c #A07C62",
"^m@	c #AB8268",
"/m@	c #A98068",
"(m@	c #AB8269",
"_m@	c #B38C71",
":m@	c #A59893",
"<m@	c #9A8B86",
"[m@	c #9E928A",
"}m@	c #A3998B",
"|m@	c #A89893",
"1m@	c #AB9790",
"2m@	c #AF9B8A",
"3m@	c #AE9A88",
"4m@	c #9F887D",
"5m@	c #A2968B",
"6m@	c #A48F85",
"7m@	c #AC8B80",
"8m@	c #A78879",
"9m@	c #B2A897",
"0m@	c #A0958C",
"am@	c #A19484",
"bm@	c #AFA2A0",
"cm@	c #AFA4A5",
"dm@	c #9F9A95",
"em@	c #A08E83",
"fm@	c #9F8F86",
"gm@	c #AB9A94",
"hm@	c #AB9993",
"im@	c #A27E63",
"jm@	c #9E856D",
"km@	c #9C8A7E",
"lm@	c #ACA3A5",
"mm@	c #ACA5A8",
"nm@	c #AD9F99",
"om@	c #A09187",
"pm@	c #A4948E",
"qm@	c #AF9E99",
"rm@	c #9E8174",
"sm@	c #9C8072",
"tm@	c #A08477",
"um@	c #A0877F",
"vm@	c #9F8B83",
"wm@	c #9C8981",
"xm@	c #9F8478",
"ym@	c #AEA1A0",
"zm@	c #A49793",
"Am@	c #AD9B97",
"Bm@	c #AA948C",
"Cm@	c #A7948C",
"Dm@	c #A2928B",
"Em@	c #A59695",
"Fm@	c #A79796",
"Gm@	c #9E8A86",
"Hm@	c #9F867D",
"Im@	c #9D8180",
"Jm@	c #957A76",
"Km@	c #90746B",
"Lm@	c #967D74",
"Mm@	c #958175",
"Nm@	c #998176",
"Om@	c #977B72",
"Pm@	c #91736A",
"Qm@	c #96776C",
"Rm@	c #98786C",
"Sm@	c #927167",
"Tm@	c #967366",
"Um@	c #9F8075",
"Vm@	c #9D8785",
"Wm@	c #A78C79",
"Xm@	c #A68C7A",
"Ym@	c #AA7D63",
"Zm@	c #AD8264",
"`m@	c #A98A76",
" n@	c #A18B79",
".n@	c #A6948A",
"+n@	c #9F9A94",
"@n@	c #AE9D9A",
"#n@	c #A5968D",
"$n@	c #A2928A",
"%n@	c #A6948D",
"&n@	c #AA9792",
"*n@	c #AF9F98",
"=n@	c #AE9F95",
"-n@	c #A68E86",
";n@	c #A8A3A3",
">n@	c #B1ACAA",
",n@	c #A4A5A1",
"'n@	c #A6A7A4",
")n@	c #A29E9E",
"!n@	c #A59DA0",
"~n@	c #A59A98",
"{n@	c #AD9C94",
"]n@	c #9F9E99",
"^n@	c #A19A99",
"/n@	c #AFA6A6",
"(n@	c #B0A7A5",
"_n@	c #A6A4A6",
":n@	c #B1A3A0",
"<n@	c #ACA7A7",
"[n@	c #AFACA9",
"}n@	c #ADADA9",
"|n@	c #A99B9B",
"1n@	c #A29B91",
"2n@	c #A09999",
"3n@	c #A09D95",
"4n@	c #9F9A93",
"5n@	c #AEA9A7",
"6n@	c #B1AAA4",
"7n@	c #B3ABAA",
"8n@	c #AFA8A7",
"9n@	c #AFA8A2",
"0n@	c #ABA1A1",
"an@	c #ADA8A0",
"bn@	c #ABA8A3",
"cn@	c #AFACA8",
"dn@	c #AA958A",
"en@	c #A08C7B",
"fn@	c #A38D7D",
"gn@	c #AA978B",
"hn@	c #AD9282",
"in@	c #A09FA2",
"jn@	c #A17651",
"kn@	c #A47853",
"ln@	c #A47C5D",
"mn@	c #A88567",
"nn@	c #A68467",
"on@	c #AC876E",
"pn@	c #AA836D",
"qn@	c #A4886F",
"rn@	c #A3816D",
"sn@	c #9A8B7F",
"tn@	c #A48C80",
"un@	c #9C7F77",
"vn@	c #9D8579",
"wn@	c #9C8B7B",
"xn@	c #98877F",
"yn@	c #AB9A91",
"zn@	c #A18D7F",
"An@	c #9E8778",
"Bn@	c #978070",
"Cn@	c #AD9081",
"Dn@	c #A98C7F",
"En@	c #A39489",
"Fn@	c #AD9F93",
"Gn@	c #B1A295",
"Hn@	c #B19B8F",
"In@	c #B09989",
"Jn@	c #A98E81",
"Kn@	c #AD907C",
"Ln@	c #A5877A",
"Mn@	c #B6A9A4",
"Nn@	c #B4A9A4",
"On@	c #A8938C",
"Pn@	c #A8958D",
"Qn@	c #A08F80",
"Rn@	c #A09A96",
"Sn@	c #99968D",
"Tn@	c #968A83",
"Un@	c #9B8882",
"Vn@	c #A3958F",
"Wn@	c #A7918A",
"Xn@	c #A7938E",
"Yn@	c #B0A8A9",
"Zn@	c #A99A94",
"`n@	c #AE9A8D",
" o@	c #AC9884",
".o@	c #AC9583",
"+o@	c #AB917E",
"@o@	c #A8927F",
"#o@	c #A3988C",
"$o@	c #A79EA1",
"%o@	c #AF968A",
"&o@	c #A98059",
"*o@	c #AC855B",
"=o@	c #AC865D",
"-o@	c #AE8662",
";o@	c #AD8565",
">o@	c #A88564",
",o@	c #A8835F",
"'o@	c #AA8C6D",
")o@	c #AD947D",
"!o@	c #AD8B73",
"~o@	c #A99078",
"{o@	c #AE987F",
"]o@	c #A28981",
"^o@	c #A38376",
"/o@	c #A78778",
"(o@	c #A78779",
"_o@	c #A1806F",
":o@	c #A88879",
"<o@	c #AB897C",
"[o@	c #A78578",
"}o@	c #A68676",
"|o@	c #A78775",
"1o@	c #A58473",
"2o@	c #A47F70",
"3o@	c #A78073",
"4o@	c #A78476",
"5o@	c #AA8B7A",
"6o@	c #976B4F",
"7o@	c #966E5A",
"8o@	c #816B66",
"9o@	c #9E9797",
"0o@	c #B2A89B",
"ao@	c #B39678",
"bo@	c #B99474",
"co@	c #B78A67",
"do@	c #B18462",
"eo@	c #AF8260",
"fo@	c #B08463",
"go@	c #B58B6B",
"ho@	c #A87E5F",
"io@	c #A7724A",
"jo@	c #B27649",
"ko@	c #B47439",
"lo@	c #AF6E32",
"mo@	c #AE6D33",
"no@	c #AD7040",
"oo@	c #AD774A",
"po@	c #A96C3C",
"qo@	c #B17445",
"ro@	c #AE8566",
"so@	c #AA9087",
"to@	c #A66D3F",
"uo@	c #A46834",
"vo@	c #A46835",
"wo@	c #A36935",
"xo@	c #A26635",
"yo@	c #A26838",
"zo@	c #A76F41",
"Ao@	c #AD703F",
"Bo@	c #A66D3D",
"Co@	c #AB703F",
"Do@	c #A66B3A",
"Eo@	c #A76F3D",
"Fo@	c #A87040",
"Go@	c #AA7244",
"Ho@	c #A86F43",
"Io@	c #AD7449",
"Jo@	c #AC7246",
"Ko@	c #9D817A",
"Lo@	c #BCB4AC",
"Mo@	c #B3AEA9",
"No@	c #BFB4AF",
"Oo@	c #BCAAA0",
"Po@	c #A77351",
"Qo@	c #935739",
"Ro@	c #99704F",
"So@	c #986D54",
"To@	c #B28E76",
"Uo@	c #8D664C",
"Vo@	c #9A7153",
"Wo@	c #A0775A",
"Xo@	c #A47E63",
"Yo@	c #AB856A",
"Zo@	c #AE8D71",
"`o@	c #AD9477",
" p@	c #A98B6F",
".p@	c #ABA197",
"+p@	c #BB9F91",
"@p@	c #BFAB9C",
"#p@	c #C0A794",
"$p@	c #BFA597",
"%p@	c #C5B3AB",
"&p@	c #B9AB9A",
"*p@	c #AB8367",
"=p@	c #B68C69",
"-p@	c #C4AF9C",
";p@	c #C7C3BC",
">p@	c #C3BBB4",
",p@	c #C9C0BA",
"'p@	c #A68D78",
")p@	c #9F9D93",
"!p@	c #A08C7E",
"~p@	c #A5887D",
"{p@	c #8E614B",
"]p@	c #A07864",
"^p@	c #A88572",
"/p@	c #957160",
"(p@	c #9A7F6C",
"_p@	c #947466",
":p@	c #986F5F",
"<p@	c #9C6D58",
"[p@	c #95694F",
"}p@	c #8F644E",
"|p@	c #8F6652",
"1p@	c #8D6551",
"2p@	c #8E6955",
"3p@	c #9A7561",
"4p@	c #9A7763",
"5p@	c #967562",
"6p@	c #A17F6C",
"7p@	c #A78471",
"8p@	c #B1A7A7",
"9p@	c #B2A4A0",
"0p@	c #B78E6C",
"ap@	c #A78A6F",
"bp@	c #A98D78",
"cp@	c #AD8E75",
"dp@	c #A6754B",
"ep@	c #B77D3E",
"fp@	c #B57B3B",
"gp@	c #B27942",
"hp@	c #B47C4C",
"ip@	c #AF7945",
"jp@	c #AF7A41",
"kp@	c #AE793E",
"lp@	c #B27F48",
"mp@	c #B18152",
"np@	c #AE865B",
"op@	c #B08D66",
"pp@	c #AE763B",
"qp@	c #AC7436",
"rp@	c #AD7739",
"sp@	c #AC773A",
"tp@	c #AC7638",
"up@	c #AC7639",
"vp@	c #AC753A",
"wp@	c #AC7236",
"xp@	c #AB6F2F",
"yp@	c #AD7438",
"zp@	c #B07B45",
"Ap@	c #B27A47",
"Bp@	c #B27B43",
"Cp@	c #B17C40",
"Dp@	c #B17D45",
"Ep@	c #B07A45",
"Fp@	c #AF7C47",
"Gp@	c #B07D4B",
"Hp@	c #B17F52",
"Ip@	c #B07B4A",
"Jp@	c #B57F4B",
"Kp@	c #B3834E",
"Lp@	c #B3906E",
"Mp@	c #A97E71",
"Np@	c #9C6D53",
"Op@	c #98684E",
"Pp@	c #96664C",
"Qp@	c #9F6341",
"Rp@	c #9C603D",
"Sp@	c #9B5E3B",
"Tp@	c #9E603D",
"Up@	c #A0633E",
"Vp@	c #A26641",
"Wp@	c #A26742",
"Xp@	c #9E623F",
"Yp@	c #A36544",
"Zp@	c #A36743",
"`p@	c #A16641",
" q@	c #A36742",
".q@	c #A36540",
"+q@	c #A56540",
"@q@	c #A5623A",
"#q@	c #956541",
"$q@	c #87614E",
"%q@	c #7A6156",
"&q@	c #948C88",
"*q@	c #B99C80",
"=q@	c #BF8E6F",
"-q@	c #BC8B6B",
";q@	c #B88D65",
">q@	c #BE926B",
",q@	c #A45E32",
"'q@	c #BA7B51",
")q@	c #C1855A",
"!q@	c #B97940",
"~q@	c #B77232",
"{q@	c #B57133",
"]q@	c #B4784B",
"^q@	c #B27A51",
"/q@	c #B06C39",
"(q@	c #B1713E",
"_q@	c #BA7F52",
":q@	c #AB8566",
"<q@	c #A6867A",
"[q@	c #A16436",
"}q@	c #A36637",
"|q@	c #A5673A",
"1q@	c #A46538",
"2q@	c #A46536",
"3q@	c #A16835",
"4q@	c #A16432",
"5q@	c #A36130",
"6q@	c #A66533",
"7q@	c #AA6937",
"8q@	c #AD6D3B",
"9q@	c #AD6E3E",
"0q@	c #A86B42",
"aq@	c #A76B41",
"bq@	c #A56635",
"cq@	c #A56531",
"dq@	c #AB6D38",
"eq@	c #AC6F3B",
"fq@	c #A86D41",
"gq@	c #AE927F",
"hq@	c #C8B8A8",
"iq@	c #CAC5BF",
"jq@	c #C5BDB7",
"kq@	c #C2B0A5",
"lq@	c #C09B83",
"mq@	c #A07656",
"nq@	c #A37959",
"oq@	c #B29A83",
"pq@	c #AB7956",
"qq@	c #A87A59",
"rq@	c #B79277",
"sq@	c #A27D60",
"tq@	c #B19173",
"uq@	c #B2967A",
"vq@	c #B79E80",
"wq@	c #BEA295",
"xq@	c #C5B7A6",
"yq@	c #CDC0B0",
"zq@	c #C9BBAB",
"Aq@	c #BEB09D",
"Bq@	c #C7B6A6",
"Cq@	c #C2B1A9",
"Dq@	c #C3AB9B",
"Eq@	c #B48D6F",
"Fq@	c #B5855F",
"Gq@	c #B78156",
"Hq@	c #B38D68",
"Iq@	c #AE8157",
"Jq@	c #AD7448",
"Kq@	c #C9C1B0",
"Lq@	c #CBC9C4",
"Mq@	c #D1C1B4",
"Nq@	c #B6A08C",
"Oq@	c #AA968F",
"Pq@	c #C6BEBC",
"Qq@	c #C1B9AD",
"Rq@	c #C1B0A6",
"Sq@	c #B6A8A0",
"Tq@	c #A0887A",
"Uq@	c #A38170",
"Vq@	c #976E5D",
"Wq@	c #A48875",
"Xq@	c #905F48",
"Yq@	c #905F49",
"Zq@	c #92634E",
"`q@	c #966650",
" r@	c #95644B",
".r@	c #97644B",
"+r@	c #9C6D54",
"@r@	c #A07158",
"#r@	c #AA836B",
"$r@	c #B18B71",
"%r@	c #BB9979",
"&r@	c #B7926F",
"*r@	c #B8936D",
"=r@	c #BEA588",
"-r@	c #C9BEAF",
";r@	c #CEC3B4",
">r@	c #CDC0AA",
",r@	c #A86C3C",
"'r@	c #BA8441",
")r@	c #B77F36",
"!r@	c #B27E4F",
"~r@	c #B17A3F",
"{r@	c #BD8D64",
"]r@	c #BF926C",
"^r@	c #BB9069",
"/r@	c #B68B61",
"(r@	c #A88C71",
"_r@	c #A97136",
":r@	c #AD753A",
"<r@	c #AB7536",
"[r@	c #AB7436",
"}r@	c #AB7336",
"|r@	c #AC6F33",
"1r@	c #A86D31",
"2r@	c #AD7334",
"3r@	c #B47837",
"4r@	c #B3793D",
"5r@	c #B47942",
"6r@	c #B07841",
"7r@	c #B17A45",
"8r@	c #AF7742",
"9r@	c #AE7338",
"0r@	c #AC7137",
"ar@	c #B37E43",
"br@	c #B17D49",
"cr@	c #B27A41",
"dr@	c #B47944",
"er@	c #B78154",
"fr@	c #9E6D54",
"gr@	c #936339",
"hr@	c #9D6641",
"ir@	c #9D643E",
"jr@	c #9B6239",
"kr@	c #9E6239",
"lr@	c #A0643B",
"mr@	c #A2663A",
"nr@	c #A76B40",
"or@	c #A76A3F",
"pr@	c #A2643B",
"qr@	c #A4643D",
"rr@	c #A2623B",
"sr@	c #A2643C",
"tr@	c #A5673F",
"ur@	c #A4683D",
"vr@	c #A96C41",
"wr@	c #A6693C",
"xr@	c #A56538",
"yr@	c #A76D38",
"zr@	c #9F6D46",
"Ar@	c #906249",
"Br@	c #83614E",
"Cr@	c #968E88",
"Dr@	c #B68F71",
"Er@	c #BD8C69",
"Fr@	c #BE8C6A",
"Gr@	c #BE8D68",
"Hr@	c #BD8C5F",
"Ir@	c #BB8559",
"Jr@	c #C0855A",
"Kr@	c #BA7F55",
"Lr@	c #B57243",
"Mr@	c #B16A3B",
"Nr@	c #B16F42",
"Or@	c #C99570",
"Pr@	c #B8784A",
"Qr@	c #BA8561",
"Rr@	c #C8A68D",
"Sr@	c #C79E81",
"Tr@	c #AF7346",
"Ur@	c #B27442",
"Vr@	c #BC8863",
"Wr@	c #BC9175",
"Xr@	c #C19273",
"Yr@	c #B88462",
"Zr@	c #A58277",
"`r@	c #9C603E",
" s@	c #9E6137",
".s@	c #A66B3E",
"+s@	c #A66639",
"@s@	c #A56333",
"#s@	c #A96938",
"$s@	c #A86A38",
"%s@	c #AB6B38",
"&s@	c #AE6C3D",
"*s@	c #AC693C",
"=s@	c #A76537",
"-s@	c #A86739",
";s@	c #A46234",
">s@	c #A15E30",
",s@	c #A36133",
"'s@	c #AB6C38",
")s@	c #AE6F3B",
"!s@	c #AE6E3D",
"~s@	c #AD6E3D",
"{s@	c #B17345",
"]s@	c #BBB0A2",
"^s@	c #C3BCB3",
"/s@	c #C6C0B7",
"(s@	c #BDAA99",
"_s@	c #A57C59",
":s@	c #94694C",
"<s@	c #B69581",
"[s@	c #B6A491",
"}s@	c #C3B7AB",
"|s@	c #C6AEA4",
"1s@	c #B18E7B",
"2s@	c #B19581",
"3s@	c #AC917D",
"4s@	c #B49172",
"5s@	c #B69579",
"6s@	c #B0907C",
"7s@	c #B99D90",
"8s@	c #B7998C",
"9s@	c #C7C4B9",
"0s@	c #CBBBAF",
"as@	c #C6B29E",
"bs@	c #B89F82",
"cs@	c #B78F74",
"ds@	c #B4815E",
"es@	c #B17B4E",
"fs@	c #B79174",
"gs@	c #B99273",
"hs@	c #AB764E",
"is@	c #B08160",
"js@	c #C6AC98",
"ks@	c #CEC0B1",
"ls@	c #CFC6C4",
"ms@	c #C9C8C8",
"ns@	c #CEBCAF",
"os@	c #9C9A9C",
"ps@	c #B1A29E",
"qs@	c #CBC0BB",
"rs@	c #B7AFA8",
"ss@	c #B8B0A9",
"ts@	c #C6BBB4",
"us@	c #BAA599",
"vs@	c #B9A59A",
"ws@	c #9F6C52",
"xs@	c #905B41",
"ys@	c #925C4A",
"zs@	c #97634B",
"As@	c #A06846",
"Bs@	c #9B5E39",
"Cs@	c #AA8368",
"Ds@	c #B98E77",
"Es@	c #AF846D",
"Fs@	c #A27F69",
"Gs@	c #B1998D",
"Hs@	c #B5987E",
"Is@	c #B89272",
"Js@	c #B79470",
"Ks@	c #BB976F",
"Ls@	c #BCA081",
"Ms@	c #D5C9BE",
"Ns@	c #B2763F",
"Os@	c #B2733B",
"Ps@	c #C59D70",
"Qs@	c #B48244",
"Rs@	c #BC966D",
"Ss@	c #C4AE95",
"Ts@	c #BE9E81",
"Us@	c #B57D49",
"Vs@	c #B88245",
"Ws@	c #BC916F",
"Xs@	c #B58E67",
"Ys@	c #AF8C68",
"Zs@	c #A76C3F",
"`s@	c #AC753D",
" t@	c #AD773E",
".t@	c #AE7138",
"+t@	c #B27538",
"@t@	c #B27638",
"#t@	c #B2783A",
"$t@	c #B3793B",
"%t@	c #B67842",
"&t@	c #AE743D",
"*t@	c #AC6F36",
"=t@	c #A76931",
"-t@	c #AD6E35",
";t@	c #B27236",
">t@	c #B5793B",
",t@	c #B67B41",
"'t@	c #B77F48",
")t@	c #A26C4B",
"!t@	c #A05F3C",
"~t@	c #A66A42",
"{t@	c #A86C43",
"]t@	c #AD7042",
"^t@	c #AE7142",
"/t@	c #AF7243",
"(t@	c #AD7142",
"_t@	c #AE683D",
":t@	c #AE643A",
"<t@	c #AB653B",
"[t@	c #AC6A43",
"}t@	c #AE6D3F",
"|t@	c #AC6B3C",
"1t@	c #AC6B3A",
"2t@	c #AD6D37",
"3t@	c #B47643",
"4t@	c #B17341",
"5t@	c #A67349",
"6t@	c #895F45",
"7t@	c #785B4E",
"8t@	c #988C87",
"9t@	c #C1A690",
"0t@	c #BE997F",
"at@	c #C19168",
"bt@	c #BE9065",
"ct@	c #BB8F63",
"dt@	c #B88553",
"et@	c #B97E4C",
"ft@	c #BF8055",
"gt@	c #BB875B",
"ht@	c #BD8052",
"it@	c #B06B39",
"jt@	c #B3794C",
"kt@	c #CFAE96",
"lt@	c #D0B9A3",
"mt@	c #BC9173",
"nt@	c #C19474",
"ot@	c #BB9576",
"pt@	c #BA8A62",
"qt@	c #AF7F54",
"rt@	c #A28070",
"st@	c #9C613E",
"tt@	c #9F6238",
"ut@	c #A76A3C",
"vt@	c #A66B3D",
"wt@	c #A66637",
"xt@	c #A66432",
"yt@	c #A86937",
"zt@	c #AF6F3C",
"At@	c #B06F3C",
"Bt@	c #A86034",
"Ct@	c #A45D30",
"Dt@	c #A35D30",
"Et@	c #A45E31",
"Ft@	c #A86236",
"Gt@	c #A76336",
"Ht@	c #A25E31",
"It@	c #A76734",
"Jt@	c #AB6A37",
"Kt@	c #AC6B3B",
"Lt@	c #AA6938",
"Mt@	c #A86737",
"Nt@	c #B19280",
"Ot@	c #C0B3A7",
"Pt@	c #976847",
"Qt@	c #9F714E",
"Rt@	c #A27C5E",
"St@	c #966647",
"Tt@	c #956E4C",
"Ut@	c #98715A",
"Vt@	c #A68B7B",
"Wt@	c #AEA294",
"Xt@	c #C3B8AF",
"Yt@	c #C2A99F",
"Zt@	c #BA9582",
"`t@	c #C5AD9F",
" u@	c #C3B3AA",
".u@	c #C4BAAE",
"+u@	c #BCB3A3",
"@u@	c #B4A08B",
"#u@	c #AE856C",
"$u@	c #B08970",
"%u@	c #B18A74",
"&u@	c #AC846D",
"*u@	c #AB8E7E",
"=u@	c #B39F92",
"-u@	c #B49C8D",
";u@	c #C5BBB1",
">u@	c #BCADA0",
",u@	c #BA9D87",
"'u@	c #B48362",
")u@	c #AF7B52",
"!u@	c #AB784C",
"~u@	c #AE835D",
"{u@	c #AC7955",
"]u@	c #BCA79A",
"^u@	c #C0B7AB",
"/u@	c #BDB0A6",
"(u@	c #9D9690",
"_u@	c #AD9A91",
":u@	c #C5B5AD",
"<u@	c #C2B8B0",
"[u@	c #C7BDB5",
"}u@	c #C5BBB4",
"|u@	c #B8B0AA",
"1u@	c #B6AEA8",
"2u@	c #A58B75",
"3u@	c #9A7359",
"4u@	c #98634B",
"5u@	c #986346",
"6u@	c #9C6C51",
"7u@	c #A6765B",
"8u@	c #B08B74",
"9u@	c #B0988C",
"0u@	c #BEA087",
"au@	c #BA9371",
"bu@	c #BC9670",
"cu@	c #C0966A",
"du@	c #BE9C79",
"eu@	c #CDC1B3",
"fu@	c #C6AB94",
"gu@	c #BA9571",
"hu@	c #D0BBAD",
"iu@	c #C9C2B4",
"ju@	c #CEBBA8",
"ku@	c #B49370",
"lu@	c #C39E7A",
"mu@	c #C09069",
"nu@	c #B78D61",
"ou@	c #B79069",
"pu@	c #AF8355",
"qu@	c #A38974",
"ru@	c #AF7740",
"su@	c #AE783F",
"tu@	c #B17537",
"uu@	c #B5783B",
"vu@	c #B57A3C",
"wu@	c #B67B3D",
"xu@	c #B4723D",
"yu@	c #AB6A35",
"zu@	c #AA6B35",
"Au@	c #AD7037",
"Bu@	c #AB6B33",
"Cu@	c #B17135",
"Du@	c #B07436",
"Eu@	c #B1783B",
"Fu@	c #B4793F",
"Gu@	c #B0763C",
"Hu@	c #B2783D",
"Iu@	c #B78048",
"Ju@	c #A46D4B",
"Ku@	c #A56440",
"Lu@	c #AC7044",
"Mu@	c #AD7144",
"Nu@	c #AD6C3B",
"Ou@	c #AF6D3C",
"Pu@	c #B37241",
"Qu@	c #B07240",
"Ru@	c #B17543",
"Su@	c #B17643",
"Tu@	c #B1713F",
"Uu@	c #AC6138",
"Vu@	c #AA643A",
"Wu@	c #AA673C",
"Xu@	c #AC6A3F",
"Yu@	c #AD6C3D",
"Zu@	c #AB6A38",
"`u@	c #AB6A3B",
" v@	c #AE6E38",
".v@	c #AF703C",
"+v@	c #B27341",
"@v@	c #AC7645",
"#v@	c #9B6E48",
"$v@	c #7C5F4C",
"%v@	c #786053",
"&v@	c #9D918A",
"*v@	c #B9977C",
"=v@	c #B98A61",
"-v@	c #BC8D61",
";v@	c #C09268",
">v@	c #BC9069",
",v@	c #B98357",
"'v@	c #B97D4B",
")v@	c #B57E4E",
"!v@	c #B37948",
"~v@	c #B5764A",
"{v@	c #BC8D6F",
"]v@	c #CEB7AA",
"^v@	c #CDC2B5",
"/v@	c #D1C3B3",
"(v@	c #BFA489",
"_v@	c #C1A992",
":v@	c #CDB3A4",
"<v@	c #C1A892",
"[v@	c #BA9B7E",
"}v@	c #B28A66",
"|v@	c #9A6040",
"1v@	c #A2633A",
"2v@	c #A46237",
"3v@	c #A26334",
"4v@	c #A96A3B",
"5v@	c #AC663A",
"6v@	c #A96036",
"7v@	c #A55C32",
"8v@	c #A55F33",
"9v@	c #A76135",
"0v@	c #A76337",
"av@	c #A76437",
"bv@	c #A56235",
"cv@	c #B4A394",
"dv@	c #B1A08C",
"ev@	c #96644A",
"fv@	c #966C4B",
"gv@	c #8C5733",
"hv@	c #A17258",
"iv@	c #AE907F",
"jv@	c #C2BBB2",
"kv@	c #C5C1BC",
"lv@	c #B7998D",
"mv@	c #A6755B",
"nv@	c #A68778",
"ov@	c #AF9D94",
"pv@	c #B5A59C",
"qv@	c #AD8B71",
"rv@	c #B1917B",
"sv@	c #A98B7F",
"tv@	c #BDAB9C",
"uv@	c #BDA493",
"vv@	c #B1896D",
"wv@	c #B58B70",
"xv@	c #B18064",
"yv@	c #AC7B60",
"zv@	c #AC7D5E",
"Av@	c #AD7E60",
"Bv@	c #A97A5B",
"Cv@	c #B3815B",
"Dv@	c #A7764C",
"Ev@	c #AD764E",
"Fv@	c #A76B42",
"Gv@	c #AC7045",
"Hv@	c #BDA396",
"Iv@	c #B6947C",
"Jv@	c #B59C89",
"Kv@	c #9B938D",
"Lv@	c #B9A396",
"Mv@	c #BDACA0",
"Nv@	c #BEB4AB",
"Ov@	c #B8B0A7",
"Pv@	c #AAA096",
"Qv@	c #B2A290",
"Rv@	c #BCB19F",
"Sv@	c #C4BCAE",
"Tv@	c #905B3C",
"Uv@	c #885134",
"Vv@	c #975C36",
"Wv@	c #915833",
"Xv@	c #946A53",
"Yv@	c #BAA394",
"Zv@	c #BB9A85",
"`v@	c #8F5A3D",
" w@	c #AC9585",
".w@	c #C2A387",
"+w@	c #B89373",
"@w@	c #BB946F",
"#w@	c #BD956B",
"$w@	c #C19669",
"%w@	c #C19B76",
"&w@	c #C3B3A3",
"*w@	c #D4CCC5",
"=w@	c #BE9D7F",
"-w@	c #B58761",
";w@	c #C2A180",
">w@	c #B58151",
",w@	c #BA9C7A",
"'w@	c #CCBFAB",
")w@	c #CFC4B8",
"!w@	c #CEC0AE",
"~w@	c #C4A887",
"{w@	c #B58854",
"]w@	c #B28A59",
"^w@	c #B58B60",
"/w@	c #AF8051",
"(w@	c #A38167",
"_w@	c #AA723E",
":w@	c #AD753F",
"<w@	c #AD6F39",
"[w@	c #AE7137",
"}w@	c #B2753A",
"|w@	c #B2763B",
"1w@	c #B5703C",
"2w@	c #B06B38",
"3w@	c #AC6A38",
"4w@	c #AE6C3A",
"5w@	c #B1713D",
"6w@	c #B0733C",
"7w@	c #B07135",
"8w@	c #B2793C",
"9w@	c #B2773D",
"0w@	c #AD7238",
"aw@	c #AE753A",
"bw@	c #B67E48",
"cw@	c #A5643E",
"dw@	c #AC7241",
"ew@	c #AA6D39",
"fw@	c #AD703A",
"gw@	c #AF733E",
"hw@	c #B0743E",
"iw@	c #B1743F",
"jw@	c #B2723F",
"kw@	c #B36F3E",
"lw@	c #AE683C",
"mw@	c #AB6A3D",
"nw@	c #AB6C3E",
"ow@	c #AF703A",
"pw@	c #B37543",
"qw@	c #B37542",
"rw@	c #A77643",
"sw@	c #996D42",
"tw@	c #806248",
"uw@	c #83664F",
"vw@	c #BC997B",
"ww@	c #BC885B",
"xw@	c #BA8551",
"yw@	c #BA885A",
"zw@	c #B68557",
"Aw@	c #B88559",
"Bw@	c #BC865E",
"Cw@	c #BC855D",
"Dw@	c #BF8A62",
"Ew@	c #BA9982",
"Fw@	c #D0BBAB",
"Gw@	c #D0BEAC",
"Hw@	c #C4AB92",
"Iw@	c #C19F7F",
"Jw@	c #BA9E83",
"Kw@	c #BCA58E",
"Lw@	c #BB987D",
"Mw@	c #B08767",
"Nw@	c #B07650",
"Ow@	c #AD8671",
"Pw@	c #A38272",
"Qw@	c #935D44",
"Rw@	c #905739",
"Sw@	c #955C38",
"Tw@	c #975A37",
"Uw@	c #9A5A31",
"Vw@	c #9E5E35",
"Ww@	c #9D6036",
"Xw@	c #9E6338",
"Yw@	c #A36139",
"Zw@	c #A15D36",
"`w@	c #A05D35",
" x@	c #A16138",
".x@	c #A36238",
"+x@	c #A36230",
"@x@	c #A4622F",
"#x@	c #A86734",
"$x@	c #A76639",
"%x@	c #A36336",
"&x@	c #A4653A",
"*x@	c #AB6A3E",
"=x@	c #AE917A",
"-x@	c #C4B8AC",
";x@	c #C1B6A9",
">x@	c #C1AF9E",
",x@	c #A37662",
"'x@	c #915B41",
")x@	c #8D5B3C",
"!x@	c #885434",
"~x@	c #875334",
"{x@	c #946045",
"]x@	c #996A55",
"^x@	c #B9AA9D",
"/x@	c #B5958B",
"(x@	c #966250",
"_x@	c #875A45",
":x@	c #876651",
"<x@	c #947965",
"[x@	c #93725D",
"}x@	c #9C735A",
"|x@	c #A9856C",
"1x@	c #B18F76",
"2x@	c #B09588",
"3x@	c #C3A690",
"4x@	c #BD9F89",
"5x@	c #B5917A",
"6x@	c #B08368",
"7x@	c #AC7E65",
"8x@	c #A87A61",
"9x@	c #A77B61",
"0x@	c #AC8168",
"ax@	c #A37961",
"bx@	c #AC7552",
"cx@	c #AC6F48",
"dx@	c #A76E47",
"ex@	c #AB7146",
"fx@	c #AC7651",
"gx@	c #9F6942",
"hx@	c #A67049",
"ix@	c #A9734F",
"jx@	c #A57D5D",
"kx@	c #B5A395",
"lx@	c #9A978E",
"mx@	c #A98B78",
"nx@	c #A78977",
"ox@	c #A58A7B",
"px@	c #AD9482",
"qx@	c #9E8872",
"rx@	c #B09B8A",
"sx@	c #B9A995",
"tx@	c #9F715D",
"ux@	c #8E5A3D",
"vx@	c #864F31",
"wx@	c #895133",
"xx@	c #915735",
"yx@	c #956650",
"zx@	c #C2AEA2",
"Ax@	c #99654D",
"Bx@	c #8E5A40",
"Cx@	c #A98571",
"Dx@	c #BD9B74",
"Ex@	c #BE9B7F",
"Fx@	c #C5AF9A",
"Gx@	c #BFAA97",
"Hx@	c #C4B59E",
"Ix@	c #B38E74",
"Jx@	c #C8A683",
"Kx@	c #C69E73",
"Lx@	c #BD9A72",
"Mx@	c #C4AE91",
"Nx@	c #CEC1B1",
"Ox@	c #CEC1B2",
"Px@	c #C2AE98",
"Qx@	c #BDA284",
"Rx@	c #B6946E",
"Sx@	c #B68757",
"Tx@	c #B68A5C",
"Ux@	c #A58269",
"Vx@	c #A47E65",
"Wx@	c #9C663B",
"Xx@	c #A16A3D",
"Yx@	c #A36A3F",
"Zx@	c #A2673B",
"`x@	c #A56738",
" y@	c #A96C38",
".y@	c #A96E38",
"+y@	c #A96F3B",
"@y@	c #AC713D",
"#y@	c #AC6838",
"$y@	c #A86938",
"%y@	c #A96B3C",
"&y@	c #AA6F3D",
"*y@	c #A96E34",
"=y@	c #B0753B",
"-y@	c #AF753A",
";y@	c #AB7236",
">y@	c #AC7337",
",y@	c #A5704D",
"'y@	c #A7683C",
")y@	c #A96F3F",
"!y@	c #AA6D3D",
"~y@	c #AB703B",
"{y@	c #A96C36",
"]y@	c #B1733E",
"^y@	c #B57544",
"/y@	c #B27342",
"(y@	c #B07343",
"_y@	c #AE7346",
":y@	c #AA6D3E",
"<y@	c #AD693C",
"[y@	c #B0713D",
"}y@	c #B67844",
"|y@	c #A17042",
"1y@	c #836549",
"2y@	c #886A54",
"3y@	c #C3A48D",
"4y@	c #BEA18B",
"5y@	c #BEA18A",
"6y@	c #C1A289",
"7y@	c #BE9271",
"8y@	c #B28150",
"9y@	c #BB885E",
"0y@	c #B98157",
"ay@	c #C29D7E",
"by@	c #B0906C",
"cy@	c #B6936F",
"dy@	c #B78058",
"ey@	c #B2784C",
"fy@	c #98705B",
"gy@	c #93624B",
"hy@	c #915A40",
"iy@	c #935D40",
"jy@	c #935633",
"ky@	c #925531",
"ly@	c #965935",
"my@	c #9C5C38",
"ny@	c #9A5936",
"oy@	c #9D5D39",
"py@	c #995C3A",
"qy@	c #965A38",
"ry@	c #9B5F3C",
"sy@	c #A1633C",
"ty@	c #9C5D33",
"uy@	c #9E5F35",
"vy@	c #A26439",
"wy@	c #A2653C",
"xy@	c #9C5F35",
"yy@	c #9C623A",
"zy@	c #AA6D3F",
"Ay@	c #A78F87",
"By@	c #BAA396",
"Cy@	c #B49C8B",
"Dy@	c #A4806E",
"Ey@	c #986A62",
"Fy@	c #B39689",
"Gy@	c #8F654B",
"Hy@	c #91684D",
"Iy@	c #966C50",
"Jy@	c #94684A",
"Ky@	c #9B6D56",
"Ly@	c #915E43",
"My@	c #8B634C",
"Ny@	c #8D6753",
"Oy@	c #8B6652",
"Py@	c #89614E",
"Qy@	c #855D49",
"Ry@	c #936B55",
"Sy@	c #9C6E59",
"Ty@	c #966B55",
"Uy@	c #986E55",
"Vy@	c #B89479",
"Wy@	c #AF8766",
"Xy@	c #A98163",
"Yy@	c #AE8469",
"Zy@	c #A1755C",
"`y@	c #A47961",
" z@	c #A67C64",
".z@	c #B07246",
"+z@	c #A8734C",
"@z@	c #AC7F62",
"#z@	c #A67B5F",
"$z@	c #A77D5F",
"%z@	c #A7815F",
"&z@	c #AB845D",
"*z@	c #AC7351",
"=z@	c #B27956",
"-z@	c #A9907D",
";z@	c #9C998F",
">z@	c #AF8F7A",
",z@	c #A6816B",
"'z@	c #AC8772",
")z@	c #A27F66",
"!z@	c #9B795A",
"~z@	c #955F44",
"{z@	c #A17D6C",
"]z@	c #9D6E4F",
"^z@	c #905A3F",
"/z@	c #935E45",
"(z@	c #925E45",
"_z@	c #95644F",
":z@	c #C2ADA0",
"<z@	c #C0A493",
"[z@	c #BEA188",
"}z@	c #9D7459",
"|z@	c #A07559",
"1z@	c #A3755A",
"2z@	c #A68573",
"3z@	c #A09790",
"4z@	c #A1998E",
"5z@	c #B8A18D",
"6z@	c #C5AF98",
"7z@	c #C0AD93",
"8z@	c #BFAC98",
"9z@	c #BFAC99",
"0z@	c #C1AB96",
"az@	c #B9986C",
"bz@	c #BA9A7E",
"cz@	c #C0AF91",
"dz@	c #B0865E",
"ez@	c #B1895E",
"fz@	c #B8946C",
"gz@	c #B89A77",
"hz@	c #BEA68C",
"iz@	c #B69C7D",
"jz@	c #B69372",
"kz@	c #BB9472",
"lz@	c #B18658",
"mz@	c #B78659",
"nz@	c #B38155",
"oz@	c #A8866C",
"pz@	c #A98874",
"qz@	c #9A6743",
"rz@	c #9C6A45",
"sz@	c #9E633C",
"tz@	c #A26739",
"uz@	c #A66C3D",
"vz@	c #A56C3E",
"wz@	c #A3673B",
"xz@	c #A66A3B",
"yz@	c #A2673D",
"zz@	c #A76D3F",
"Az@	c #A96F3C",
"Bz@	c #A66B36",
"Cz@	c #A86C37",
"Dz@	c #A66B34",
"Ez@	c #A86F34",
"Fz@	c #B27E4B",
"Gz@	c #A79B8D",
"Hz@	c #AA6E3E",
"Iz@	c #AA6E3A",
"Jz@	c #A86A35",
"Kz@	c #A66932",
"Lz@	c #A96C37",
"Mz@	c #B47846",
"Nz@	c #B27646",
"Oz@	c #AE7447",
"Pz@	c #B07444",
"Qz@	c #B47D4C",
"Rz@	c #B27A48",
"Sz@	c #B57B4A",
"Tz@	c #97724A",
"Uz@	c #936F50",
"Vz@	c #89694F",
"Wz@	c #9C7E64",
"Xz@	c #A7A2A2",
"Yz@	c #B59380",
"Zz@	c #B79885",
"`z@	c #BDA597",
" A@	c #BCAB9D",
".A@	c #C2AE9C",
"+A@	c #B78D6E",
"@A@	c #A57B5B",
"#A@	c #AC917F",
"$A@	c #AA9382",
"%A@	c #A6917F",
"&A@	c #A68B79",
"*A@	c #A38067",
"=A@	c #A97750",
"-A@	c #B27750",
";A@	c #A0867E",
">A@	c #A07E74",
",A@	c #977465",
"'A@	c #987565",
")A@	c #9B7767",
"!A@	c #95705C",
"~A@	c #996C56",
"{A@	c #9A6B4F",
"]A@	c #9F6E54",
"^A@	c #9B6D55",
"/A@	c #9D6F59",
"(A@	c #9C6E57",
"_A@	c #9E725D",
":A@	c #A27762",
"<A@	c #9F745F",
"[A@	c #9E715A",
"}A@	c #9B6E55",
"|A@	c #97694E",
"1A@	c #996850",
"2A@	c #99684F",
"3A@	c #986A4F",
"4A@	c #9A6B55",
"5A@	c #A8806C",
"6A@	c #94786B",
"7A@	c #886D5F",
"8A@	c #9C7C6B",
"9A@	c #987968",
"0A@	c #957767",
"aA@	c #987C6C",
"bA@	c #947B6A",
"cA@	c #9A7B63",
"dA@	c #937962",
"eA@	c #997E6C",
"fA@	c #9C7E6F",
"gA@	c #987F73",
"hA@	c #9D8279",
"iA@	c #9B8078",
"jA@	c #AD998A",
"kA@	c #A58E78",
"lA@	c #A88774",
"mA@	c #A17E6C",
"nA@	c #A68572",
"oA@	c #A58169",
"pA@	c #A88166",
"qA@	c #A58B7A",
"rA@	c #A18770",
"sA@	c #A88674",
"tA@	c #AA8B7D",
"uA@	c #A18477",
"vA@	c #9F7B69",
"wA@	c #9D8A7C",
"xA@	c #9E9C94",
"yA@	c #967D6A",
"zA@	c #AC9182",
"AA@	c #B09481",
"BA@	c #A77E64",
"CA@	c #8C5D43",
"DA@	c #865D47",
"EA@	c #936956",
"FA@	c #936D5D",
"GA@	c #946B53",
"HA@	c #8E6655",
"IA@	c #8B6556",
"JA@	c #9A7567",
"KA@	c #A17D6E",
"LA@	c #9B7666",
"MA@	c #AE9482",
"NA@	c #B09982",
"OA@	c #AD846E",
"PA@	c #B79073",
"QA@	c #AF9273",
"RA@	c #A17962",
"SA@	c #A08577",
"TA@	c #B6A697",
"UA@	c #C6B5A3",
"VA@	c #C1B6A4",
"WA@	c #C7BCB2",
"XA@	c #BEA993",
"YA@	c #B89875",
"ZA@	c #B48C57",
"`A@	c #AD7E51",
" B@	c #AC8869",
".B@	c #AA8F72",
"+B@	c #A98F79",
"@B@	c #A89078",
"#B@	c #AA9379",
"$B@	c #A89075",
"%B@	c #AA7E53",
"&B@	c #B3845A",
"*B@	c #B18157",
"=B@	c #A39082",
"-B@	c #A08576",
";B@	c #9F806E",
">B@	c #9D7D66",
",B@	c #A07E67",
"'B@	c #9F7761",
")B@	c #A17051",
"!B@	c #A57555",
"~B@	c #A17657",
"{B@	c #A5785A",
"]B@	c #A57454",
"^B@	c #9F6D47",
"/B@	c #A2704C",
"(B@	c #A5714E",
"_B@	c #AC8F79",
":B@	c #AC784C",
"<B@	c #AB7A4D",
"[B@	c #AD7C52",
"}B@	c #AA774E",
"|B@	c #AA7B53",
"1B@	c #B0825A",
"2B@	c #B18058",
"3B@	c #AF8562",
"4B@	c #A3907D",
"5B@	c #A89582",
"6B@	c #A7A4A6",
"7B@	c #A4A398",
"8B@	c #AE9E96",
"9B@	c #B0A199",
"0B@	c #AE9C94",
"aB@	c #A9A193",
"bB@	c #AC9C9A",
"cB@	c #A99E9E",
"dB@	c #AAA0A1",
"eB@	c #A19B97",
"fB@	c #AEAAA3",
"gB@	c #AFA9A2",
"hB@	c #AEAAA5",
"iB@	c #B2AAA6",
"jB@	c #AFA6A5",
"kB@	c #AEA196",
"lB@	c #A79988",
"mB@	c #A09896",
"nB@	c #A09795",
"oB@	c #AC9F91",
"pB@	c #A39EA0",
"qB@	c #9E9190",
"rB@	c #AC9D99",
"sB@	c #9F918B",
"tB@	c #A9958D",
"uB@	c #AA9890",
"vB@	c #ADA195",
"wB@	c #AE9B94",
"xB@	c #AA9A96",
"yB@	c #9E9488",
"zB@	c #9A9086",
"AB@	c #A7A1A2",
"BB@	c #ACA09B",
"CB@	c #A49897",
"DB@	c #A59A8B",
"EB@	c #A39585",
"FB@	c #B1ADAA",
"GB@	c #A49380",
"HB@	c #A18F7B",
"IB@	c #AC8E74",
"JB@	c #AF9A86",
"KB@	c #A79B8F",
"LB@	c #A5A3A3",
"MB@	c #B1AEAD",
"NB@	c #B1AFAE",
"OB@	c #B0AEAE",
"PB@	c #9C938D",
"QB@	c #9C9591",
"RB@	c #9C9996",
"SB@	c #A19997",
"TB@	c #A39998",
"UB@	c #9C978F",
"VB@	c #9D8B87",
"WB@	c #9A8883",
"XB@	c #9D8C85",
"YB@	c #998780",
"ZB@	c #9A7C69",
"`B@	c #96837B",
" C@	c #9D9794",
".C@	c #ACABA9",
"+C@	c #A9A7A6",
"@C@	c #AC9381",
"#C@	c #B1A094",
"$C@	c #AA8E7E",
"%C@	c #AA9181",
"&C@	c #AA9383",
"*C@	c #A0897B",
"=C@	c #AC927B",
"-C@	c #AE947E",
";C@	c #B19783",
">C@	c #B19A84",
",C@	c #AF9275",
"'C@	c #A77F5B",
")C@	c #A6835E",
"!C@	c #A3876E",
"~C@	c #B08D7B",
"{C@	c #A77658",
"]C@	c #A56C47",
"^C@	c #AA7D5E",
"/C@	c #A27654",
"(C@	c #A7785A",
"_C@	c #A77E66",
":C@	c #AE9080",
"<C@	c #A98A6B",
"[C@	c #A18466",
"}C@	c #A68C6D",
"|C@	c #A88C72",
"1C@	c #B08E6E",
"2C@	c #B79673",
"3C@	c #AE9279",
"4C@	c #B0987F",
"5C@	c #A2866A",
"6C@	c #9F8569",
"7C@	c #A1896A",
"8C@	c #A38D6F",
"9C@	c #A8927B",
"0C@	c #C0AC9B",
"aC@	c #C9BCAF",
"bC@	c #C8BCAE",
"cC@	c #B09683",
"dC@	c #B39988",
"eC@	c #B09785",
"fC@	c #9D8771",
"gC@	c #9B826C",
"hC@	c #9F816C",
"iC@	c #A1816A",
"jC@	c #A07B62",
"kC@	c #A17757",
"lC@	c #9D7254",
"mC@	c #996D51",
"nC@	c #976949",
"oC@	c #A3754F",
"pC@	c #BA7F4A",
"qC@	c #BD8A5B",
"rC@	c #A0816E",
"sC@	c #A58571",
"tC@	c #9D8674",
"uC@	c #9B8271",
"vC@	c #A08070",
"wC@	c #97785F",
"xC@	c #98785F",
"yC@	c #97755C",
"zC@	c #9D7159",
"AC@	c #A07459",
"BC@	c #9B7157",
"CC@	c #9F765D",
"DC@	c #9A735C",
"EC@	c #9D7A67",
"FC@	c #9B7A68",
"GC@	c #9D7D6B",
"HC@	c #A08675",
"IC@	c #947560",
"JC@	c #967864",
"KC@	c #9A7B6B",
"LC@	c #A18271",
"MC@	c #967766",
"NC@	c #90735F",
"OC@	c #917866",
"PC@	c #A89486",
"QC@	c #B1A49D",
"RC@	c #98806D",
"SC@	c #8E6B5C",
"TC@	c #825F4F",
"UC@	c #8A6757",
"VC@	c #8B6856",
"WC@	c #8C6857",
"XC@	c #926D5B",
"YC@	c #95705F",
"ZC@	c #988176",
"`C@	c #AFA6A1",
" D@	c #AD9E94",
".D@	c #9B8979",
"+D@	c #927F6F",
"@D@	c #8C7565",
"#D@	c #6C5040",
"$D@	c #6C4638",
"%D@	c #6D4431",
"&D@	c #7C523A",
"*D@	c #865A40",
"=D@	c #875A3F",
"-D@	c #89583C",
";D@	c #945E36",
">D@	c #A48E7B",
",D@	c #A27D62",
"'D@	c #A9876F",
")D@	c #AF9483",
"!D@	c #A48776",
"~D@	c #B8A396",
"{D@	c #A78C7B",
"]D@	c #9F7B63",
"^D@	c #A18169",
"/D@	c #AD9988",
"(D@	c #AF9E91",
"_D@	c #B49F93",
":D@	c #A38573",
"<D@	c #9B8575",
"[D@	c #B0A39C",
"}D@	c #AF937A",
"|D@	c #A57445",
"1D@	c #B17A47",
"2D@	c #AA7544",
"3D@	c #AB7547",
"4D@	c #AA7449",
"5D@	c #BFB09D",
"6D@	c #C1B29F",
"7D@	c #C1AF9D",
"8D@	c #BFAB99",
"9D@	c #C9B6A2",
"0D@	c #B6A28C",
"aD@	c #BAA085",
"bD@	c #A2774F",
"cD@	c #9B6233",
"dD@	c #B1865B",
"eD@	c #AC8A62",
"fD@	c #A69A8D",
"gD@	c #B3743C",
"hD@	c #AC6D34",
"iD@	c #B1743B",
"jD@	c #AF7239",
"kD@	c #A96D40",
"lD@	c #AD7141",
"mD@	c #AB6C3D",
"nD@	c #AC6D3D",
"oD@	c #AA6B3B",
"pD@	c #A86A3A",
"qD@	c #A26F48",
"rD@	c #AF836D",
"sD@	c #A69489",
"tD@	c #A38365",
"uD@	c #C1A485",
"vD@	c #B9997A",
"wD@	c #B28D6C",
"xD@	c #AE8D72",
"yD@	c #B1855F",
"zD@	c #C4A88B",
"AD@	c #C4AA88",
"BD@	c #B69D77",
"CD@	c #AE8F67",
"DD@	c #AF9272",
"ED@	c #C2B6A2",
"FD@	c #C0AD94",
"GD@	c #AA8B6B",
"HD@	c #AD947C",
"ID@	c #BCAC9B",
"JD@	c #CDC7B7",
"KD@	c #B18E6C",
"LD@	c #B68E70",
"MD@	c #A28264",
"ND@	c #9D7E60",
"OD@	c #9C7D61",
"PD@	c #AC7A52",
"QD@	c #A9784A",
"RD@	c #A67444",
"SD@	c #986C4A",
"TD@	c #9F704A",
"UD@	c #AB7B48",
"VD@	c #B17C4A",
"WD@	c #BB824C",
"XD@	c #C3884D",
"YD@	c #A98364",
"ZD@	c #BE977A",
"`D@	c #AD7F5A",
" E@	c #AD835B",
".E@	c #AF8160",
"+E@	c #9A6748",
"@E@	c #895031",
"#E@	c #A46533",
"$E@	c #A0612A",
"%E@	c #A1622A",
"&E@	c #9F6033",
"*E@	c #A06333",
"=E@	c #9D6130",
"-E@	c #9C5F2F",
";E@	c #9E5E30",
">E@	c #A2714D",
",E@	c #9D7251",
"'E@	c #9A704E",
")E@	c #966B4A",
"!E@	c #96653F",
"~E@	c #9B693F",
"{E@	c #9F724F",
"]E@	c #9B6F4D",
"^E@	c #A47B60",
"/E@	c #A17254",
"(E@	c #9D6E51",
"_E@	c #9C6C4F",
":E@	c #966648",
"<E@	c #946446",
"[E@	c #90603E",
"}E@	c #996445",
"|E@	c #9F9690",
"1E@	c #AD9582",
"2E@	c #B59C8A",
"3E@	c #B5A092",
"4E@	c #B8A99F",
"5E@	c #B3A49B",
"6E@	c #B2A49A",
"7E@	c #B3A89E",
"8E@	c #B19D93",
"9E@	c #9F8576",
"0E@	c #71513F",
"aE@	c #744D36",
"bE@	c #794E34",
"cE@	c #835537",
"dE@	c #925F3D",
"eE@	c #8D5A37",
"fE@	c #835538",
"gE@	c #915F38",
"hE@	c #9E6639",
"iE@	c #A06542",
"jE@	c #A28776",
"kE@	c #AC7B56",
"lE@	c #A46D3D",
"mE@	c #A87140",
"nE@	c #A77045",
"oE@	c #A7825B",
"pE@	c #BCA98C",
"qE@	c #C7B6A3",
"rE@	c #BDA998",
"sE@	c #C1A088",
"tE@	c #C2A38F",
"uE@	c #BEA389",
"vE@	c #C5B4AA",
"wE@	c #C7BDB1",
"xE@	c #CBBBAC",
"yE@	c #C6B6A7",
"zE@	c #C1AC9B",
"AE@	c #B38C6D",
"BE@	c #B89377",
"CE@	c #AC998D",
"DE@	c #A7A9A1",
"EE@	c #B29D8D",
"FE@	c #B28550",
"GE@	c #B47F45",
"HE@	c #BB8449",
"IE@	c #B37B44",
"JE@	c #B17840",
"KE@	c #B27949",
"LE@	c #C8BDAF",
"ME@	c #CABEB1",
"NE@	c #CBBDB0",
"OE@	c #BCACA0",
"PE@	c #BFB3A7",
"QE@	c #C4BCAD",
"RE@	c #C5B7A1",
"SE@	c #C1AF95",
"TE@	c #B8A186",
"UE@	c #9F7757",
"VE@	c #986032",
"WE@	c #9B683D",
"XE@	c #AE8A63",
"YE@	c #B6773E",
"ZE@	c #B3743B",
"`E@	c #B17439",
" F@	c #B6793E",
".F@	c #B3763B",
"+F@	c #B07339",
"@F@	c #B4773E",
"#F@	c #B5783F",
"$F@	c #B2743E",
"%F@	c #AF6F3A",
"&F@	c #B07036",
"*F@	c #AA7343",
"=F@	c #A77041",
"-F@	c #A3693D",
";F@	c #AA7B5C",
">F@	c #A98E76",
",F@	c #A68461",
"'F@	c #B0997D",
")F@	c #C7AD94",
"!F@	c #C7AC94",
"~F@	c #C4A890",
"{F@	c #C7B9A7",
"]F@	c #C8AB92",
"^F@	c #CDB8A6",
"/F@	c #D2C2BD",
"(F@	c #CFC0B4",
"_F@	c #C5B9A1",
":F@	c #C9B69F",
"<F@	c #C9BCAA",
"[F@	c #C5BDAB",
"}F@	c #C0B4A0",
"|F@	c #C9BDB0",
"1F@	c #CDBDB0",
"2F@	c #CECBC8",
"3F@	c #CEC8C0",
"4F@	c #C1B19C",
"5F@	c #BF936C",
"6F@	c #9F7C5C",
"7F@	c #AB7849",
"8F@	c #A97148",
"9F@	c #A2754A",
"0F@	c #A67546",
"aF@	c #B38255",
"bF@	c #A97A4F",
"cF@	c #B08563",
"dF@	c #AD7D54",
"eF@	c #955635",
"fF@	c #964F2D",
"gF@	c #9E6133",
"hF@	c #A46D3E",
"iF@	c #B3774A",
"jF@	c #A66A34",
"kF@	c #A2652C",
"lF@	c #A96D43",
"mF@	c #A1673B",
"nF@	c #A16131",
"oF@	c #AD7346",
"pF@	c #AB7447",
"qF@	c #A47349",
"rF@	c #986F4C",
"sF@	c #9B8A7F",
"tF@	c #A38E80",
"uF@	c #A07453",
"vF@	c #A17550",
"wF@	c #A07148",
"xF@	c #A2724A",
"yF@	c #9F6C44",
"zF@	c #9E714E",
"AF@	c #9F7152",
"BF@	c #9C6E4F",
"CF@	c #956747",
"DF@	c #92633E",
"EF@	c #996943",
"FF@	c #9B6943",
"GF@	c #925A3B",
"HF@	c #9A776C",
"IF@	c #A59898",
"JF@	c #AFA095",
"KF@	c #ADA296",
"LF@	c #B39B8E",
"MF@	c #6D4D3A",
"NF@	c #764F39",
"OF@	c #7C5136",
"PF@	c #7E5133",
"QF@	c #905C3A",
"RF@	c #935E3F",
"SF@	c #AE7C5C",
"TF@	c #B99982",
"UF@	c #CAB7A3",
"VF@	c #CCBDAF",
"WF@	c #B4967D",
"XF@	c #C1B6A5",
"YF@	c #BAA48C",
"ZF@	c #C2B5A4",
"`F@	c #C4B49F",
" G@	c #C1A48F",
".G@	c #B69575",
"+G@	c #B18A67",
"@G@	c #AB8D7F",
"#G@	c #B88753",
"$G@	c #BF8955",
"%G@	c #BE8646",
"&G@	c #B47E48",
"*G@	c #B17E4A",
"=G@	c #AF7B46",
"-G@	c #C9C0B8",
";G@	c #C7C3B6",
">G@	c #C3B59D",
",G@	c #9F7451",
"'G@	c #A8795C",
")G@	c #C2A591",
"!G@	c #B29172",
"~G@	c #B27F50",
"{G@	c #B5773C",
"]G@	c #BC7F42",
"^G@	c #B57939",
"/G@	c #B6793A",
"(G@	c #B4783A",
"_G@	c #B4773A",
":G@	c #B4763A",
"<G@	c #B8763E",
"[G@	c #B5733B",
"}G@	c #B17036",
"|G@	c #B27133",
"1G@	c #B7793D",
"2G@	c #B97C42",
"3G@	c #BA7E42",
"4G@	c #BB7F43",
"5G@	c #B97C3F",
"6G@	c #B3773B",
"7G@	c #B27840",
"8G@	c #B57B48",
"9G@	c #B47B43",
"0G@	c #AF8E6C",
"aG@	c #C3A480",
"bG@	c #C3B69B",
"cG@	c #C8B09A",
"dG@	c #CBB7A2",
"eG@	c #CDC4BA",
"fG@	c #B9A086",
"gG@	c #BDAE9C",
"hG@	c #D0C6BE",
"iG@	c #CFC4B9",
"jG@	c #CCC5B7",
"kG@	c #CDC5B8",
"lG@	c #CCC4B7",
"mG@	c #D0CABF",
"nG@	c #CFC6BC",
"oG@	c #CAB8AA",
"pG@	c #BAABA0",
"qG@	c #CEC7C0",
"rG@	c #C3B5A5",
"sG@	c #D0C0B3",
"tG@	c #B08B68",
"uG@	c #BD9267",
"vG@	c #B68D63",
"wG@	c #AC835D",
"xG@	c #A9805C",
"yG@	c #AB7F5C",
"zG@	c #B4835B",
"AG@	c #BB8B58",
"BG@	c #B88856",
"CG@	c #AB8565",
"DG@	c #AA7D5B",
"EG@	c #A87B59",
"FG@	c #B07D53",
"GG@	c #AD7447",
"HG@	c #A4693B",
"IG@	c #9E572E",
"JG@	c #B1724A",
"KG@	c #A56A3C",
"LG@	c #AB7349",
"MG@	c #AD774D",
"NG@	c #9D8676",
"OG@	c #997252",
"PG@	c #9A7453",
"QG@	c #A17A58",
"RG@	c #A87854",
"SG@	c #9F6F45",
"TG@	c #956038",
"UG@	c #9F6F52",
"VG@	c #9F7051",
"WG@	c #9D6D4F",
"XG@	c #9F704E",
"YG@	c #956543",
"ZG@	c #976644",
"`G@	c #9B6845",
" H@	c #966445",
".H@	c #977B6E",
"+H@	c #A68D79",
"@H@	c #B2A197",
"#H@	c #A89282",
"$H@	c #B0A396",
"%H@	c #B1A495",
"&H@	c #A98D7E",
"*H@	c #AA9386",
"=H@	c #7B5B46",
"-H@	c #764F36",
";H@	c #7E5438",
">H@	c #855536",
",H@	c #815136",
"'H@	c #8C674E",
")H@	c #988D86",
"!H@	c #A56E43",
"~H@	c #BB8D72",
"{H@	c #C49A84",
"]H@	c #BDA18A",
"^H@	c #C2AF99",
"/H@	c #B58860",
"(H@	c #C1ABA0",
"_H@	c #C8BBB0",
":H@	c #C6C1B0",
"<H@	c #C5B093",
"[H@	c #BC997C",
"}H@	c #C3A984",
"|H@	c #C1A687",
"1H@	c #C5B39D",
"2H@	c #A6A1A3",
"3H@	c #A99884",
"4H@	c #BE8947",
"5H@	c #C38C4B",
"6H@	c #B3814F",
"7H@	c #AD7D4E",
"8H@	c #B28352",
"9H@	c #AE7E4A",
"0H@	c #AE7D4B",
"aH@	c #AE7F4F",
"bH@	c #B18250",
"cH@	c #C8B9AB",
"dH@	c #CBBBAA",
"eH@	c #C7B7A5",
"fH@	c #CABBAD",
"gH@	c #C9B6A5",
"hH@	c #A27D63",
"iH@	c #C0A28D",
"jH@	c #A97F62",
"kH@	c #AE8564",
"lH@	c #C3A991",
"mH@	c #A78B73",
"nH@	c #B77A3F",
"oH@	c #BA7D40",
"pH@	c #BA7E40",
"qH@	c #B67D3A",
"rH@	c #B67937",
"sH@	c #B47435",
"tH@	c #AF7234",
"uH@	c #B5773B",
"vH@	c #B17137",
"wH@	c #B27135",
"xH@	c #B7773B",
"yH@	c #BA7B3E",
"zH@	c #BB7F3F",
"AH@	c #BC803E",
"BH@	c #BB7F3E",
"CH@	c #BA7E3E",
"DH@	c #B2783B",
"EH@	c #B77D3F",
"FH@	c #AE733F",
"GH@	c #AC7B59",
"HH@	c #AD9374",
"IH@	c #C3AD96",
"JH@	c #CABDAA",
"KH@	c #C4B19E",
"LH@	c #C4B19B",
"MH@	c #C2A88E",
"NH@	c #C5B099",
"OH@	c #CEBEAE",
"PH@	c #C6B29C",
"QH@	c #B6A389",
"RH@	c #D0C7BB",
"SH@	c #CCC3BB",
"TH@	c #CFC7BE",
"UH@	c #CFCCC3",
"VH@	c #CBC3BE",
"WH@	c #D0C7C0",
"XH@	c #C6B197",
"YH@	c #C4A48D",
"ZH@	c #B19A87",
"`H@	c #B1835E",
" I@	c #B88D5E",
".I@	c #BB8C60",
"+I@	c #B0815A",
"@I@	c #B08159",
"#I@	c #AD784D",
"$I@	c #AB774C",
"%I@	c #B37C49",
"&I@	c #BE834E",
"*I@	c #BF854B",
"=I@	c #B78051",
"-I@	c #A19F9D",
";I@	c #AC8A6B",
">I@	c #AB8260",
",I@	c #AC805C",
"'I@	c #B68359",
")I@	c #AE7C4F",
"!I@	c #A67144",
"~I@	c #A76232",
"{I@	c #A6693D",
"]I@	c #AA7655",
"^I@	c #AA785A",
"/I@	c #A77451",
"(I@	c #AF8057",
"_I@	c #A67951",
":I@	c #A26E45",
"<I@	c #957A65",
"[I@	c #9D8D81",
"}I@	c #9B7354",
"|I@	c #A77A57",
"1I@	c #AC7958",
"2I@	c #9E6D43",
"3I@	c #A16D47",
"4I@	c #9E6A44",
"5I@	c #A16C4F",
"6I@	c #A07256",
"7I@	c #9A6D4A",
"8I@	c #996B4A",
"9I@	c #9C6D4E",
"0I@	c #9F6E4F",
"aI@	c #9A7C6D",
"bI@	c #9F9F9C",
"cI@	c #A28A74",
"dI@	c #AB917F",
"eI@	c #B49C8F",
"fI@	c #B4A89E",
"gI@	c #B2A193",
"hI@	c #B6A499",
"iI@	c #B2988A",
"jI@	c #B69C90",
"kI@	c #9D8977",
"lI@	c #875D3D",
"mI@	c #815734",
"nI@	c #835838",
"oI@	c #8F5B38",
"pI@	c #996541",
"qI@	c #A06740",
"rI@	c #9E6741",
"sI@	c #865433",
"tI@	c #7F4D2E",
"uI@	c #8E644B",
"vI@	c #995E37",
"wI@	c #A4673F",
"xI@	c #A46137",
"yI@	c #A66235",
"zI@	c #A8866A",
"AI@	c #C1A89B",
"BI@	c #CEB39D",
"CI@	c #A46A49",
"DI@	c #BA997E",
"EI@	c #C4AA9A",
"FI@	c #C6AFA0",
"GI@	c #CBBBA4",
"HI@	c #C5AC94",
"II@	c #C8AF93",
"JI@	c #C39F7F",
"KI@	c #BFA180",
"LI@	c #C1A887",
"MI@	c #C0A88E",
"NI@	c #C1AD99",
"OI@	c #C3B09C",
"PI@	c #B58A66",
"QI@	c #BF8B58",
"RI@	c #BD8E55",
"SI@	c #BE9056",
"TI@	c #B3834F",
"UI@	c #AD7D50",
"VI@	c #AC7D4F",
"WI@	c #B08051",
"XI@	c #C2AA8F",
"YI@	c #C2AC93",
"ZI@	c #C4AF99",
"`I@	c #BDA892",
" J@	c #BEA791",
".J@	c #C2AE9E",
"+J@	c #C4ADA1",
"@J@	c #C6B4AC",
"#J@	c #966C49",
"$J@	c #C1A78D",
"%J@	c #B38154",
"&J@	c #B87B41",
"*J@	c #B97E40",
"=J@	c #BC8042",
"-J@	c #BD8143",
";J@	c #BB823F",
">J@	c #B87B39",
",J@	c #B47434",
"'J@	c #AF7235",
")J@	c #B4783B",
"!J@	c #B5783D",
"~J@	c #B77B3D",
"{J@	c #BB7E41",
"]J@	c #BB7F41",
"^J@	c #BA7E3C",
"/J@	c #B77B39",
"(J@	c #B97D3D",
"_J@	c #B67939",
":J@	c #B77B3B",
"<J@	c #AF7440",
"[J@	c #AE7D5A",
"}J@	c #AD8E73",
"|J@	c #BD9F81",
"1J@	c #C9BEAE",
"2J@	c #C5B9AB",
"3J@	c #C5B1A2",
"4J@	c #B99F83",
"5J@	c #CAB49F",
"6J@	c #CCC1B2",
"7J@	c #CEC3B7",
"8J@	c #C7BFB6",
"9J@	c #C9C2B9",
"0J@	c #CAC5BC",
"aJ@	c #CFC9C1",
"bJ@	c #C9C5BD",
"cJ@	c #C7C3BB",
"dJ@	c #BEA080",
"eJ@	c #B48958",
"fJ@	c #BE8A5C",
"gJ@	c #B58158",
"hJ@	c #AA774D",
"iJ@	c #AE7B51",
"jJ@	c #AE794D",
"kJ@	c #AC7548",
"lJ@	c #AE7245",
"mJ@	c #B07648",
"nJ@	c #B77C46",
"oJ@	c #BF7F41",
"pJ@	c #BA7D47",
"qJ@	c #B27C4E",
"rJ@	c #A37A58",
"sJ@	c #B07F57",
"tJ@	c #A8764D",
"uJ@	c #A9764E",
"vJ@	c #A7734B",
"wJ@	c #A8724A",
"xJ@	c #A76F46",
"yJ@	c #AC7752",
"zJ@	c #A86F4A",
"AJ@	c #A56944",
"BJ@	c #A46D47",
"CJ@	c #A97B59",
"DJ@	c #A57754",
"EJ@	c #9E6840",
"FJ@	c #9B7256",
"GJ@	c #A17857",
"HJ@	c #A47A57",
"IJ@	c #A0714C",
"JJ@	c #A17154",
"KJ@	c #98694A",
"LJ@	c #9E7456",
"MJ@	c #956849",
"NJ@	c #9E9A95",
"OJ@	c #9F968B",
"PJ@	c #AB8F74",
"QJ@	c #AB907C",
"RJ@	c #B4A197",
"SJ@	c #B4A49B",
"TJ@	c #B5A9A0",
"UJ@	c #B3ADA1",
"VJ@	c #BAAC9F",
"WJ@	c #936E5A",
"XJ@	c #AF8C7C",
"YJ@	c #8D5C3E",
"ZJ@	c #845233",
"`J@	c #855D45",
" K@	c #A06843",
".K@	c #947159",
"+K@	c #9C8B7F",
"@K@	c #915736",
"#K@	c #C1A28C",
"$K@	c #AC7D63",
"%K@	c #BB987F",
"&K@	c #AD8667",
"*K@	c #C6B2A1",
"=K@	c #B6957A",
"-K@	c #C3A284",
";K@	c #BEA07D",
">K@	c #C2A681",
",K@	c #A5896E",
"'K@	c #A57C58",
")K@	c #A69085",
"!K@	c #AC9D8E",
"~K@	c #B28863",
"{K@	c #B08453",
"]K@	c #B88A52",
"^K@	c #B1814D",
"/K@	c #A0764E",
"(K@	c #9E754B",
"_K@	c #AE7D4C",
":K@	c #B38254",
"<K@	c #A5835E",
"[K@	c #A98A69",
"}K@	c #BFA58A",
"|K@	c #9E7E69",
"1K@	c #9E796A",
"2K@	c #99816D",
"3K@	c #BDAF9A",
"4K@	c #BBAA95",
"5K@	c #8F6D55",
"6K@	c #A5826D",
"7K@	c #BC7F44",
"8K@	c #BC8143",
"9K@	c #BE8744",
"0K@	c #BD813F",
"aK@	c #BA7C3C",
"bK@	c #B3773A",
"cK@	c #B88042",
"dK@	c #B67B38",
"eK@	c #AF7331",
"fK@	c #AF7333",
"gK@	c #B37737",
"hK@	c #B47939",
"iK@	c #B1783A",
"jK@	c #B37D38",
"kK@	c #AF7637",
"lK@	c #AC8561",
"mK@	c #C4BCAF",
"nK@	c #C9BBAC",
"oK@	c #C5BEA9",
"pK@	c #BDB09C",
"qK@	c #C7B8AC",
"rK@	c #CBC3BA",
"sK@	c #CBC6BB",
"tK@	c #CBC3BD",
"uK@	c #C1BBAC",
"vK@	c #CFC4B3",
"wK@	c #CBC5B8",
"xK@	c #C7C0B2",
"yK@	c #BDA082",
"zK@	c #C3A47D",
"AK@	c #C5A682",
"BK@	c #BFA079",
"CK@	c #AF9D8A",
"DK@	c #B88F67",
"EK@	c #B38357",
"FK@	c #B37F52",
"GK@	c #B47E51",
"HK@	c #B17B4D",
"IK@	c #AB7549",
"JK@	c #AD7546",
"KK@	c #AD6F3F",
"LK@	c #B07243",
"MK@	c #B17544",
"NK@	c #AD7644",
"OK@	c #B57E44",
"PK@	c #B8814E",
"QK@	c #AD7B44",
"RK@	c #AA7F5E",
"SK@	c #A67C5B",
"TK@	c #A87D5B",
"UK@	c #A7764E",
"VK@	c #A97853",
"WK@	c #A77550",
"XK@	c #A4734B",
"YK@	c #A66B42",
"ZK@	c #A26941",
"`K@	c #A27353",
" L@	c #9B8676",
".L@	c #9D7359",
"+L@	c #9F764E",
"@L@	c #9D734E",
"#L@	c #9D724F",
"$L@	c #9D7257",
"%L@	c #955F39",
"&L@	c #98623C",
"*L@	c #95684C",
"=L@	c #9F7659",
"-L@	c #946D5B",
";L@	c #9E9185",
">L@	c #A38366",
",L@	c #AD9486",
"'L@	c #B3A193",
")L@	c #B6A99B",
"!L@	c #9A7A64",
"~L@	c #997057",
"{L@	c #825538",
"]L@	c #835336",
"^L@	c #87573C",
"/L@	c #88573C",
"(L@	c #895A3D",
"_L@	c #9F785C",
":L@	c #9C8067",
"<L@	c #987768",
"[L@	c #8F6E60",
"}L@	c #AC978F",
"|L@	c #B8A9A3",
"1L@	c #B9A59B",
"2L@	c #B0927F",
"3L@	c #A89A8B",
"4L@	c #95634A",
"5L@	c #CFC4B5",
"6L@	c #AC957B",
"7L@	c #AC8867",
"8L@	c #A77F67",
"9L@	c #AE896C",
"0L@	c #C19D81",
"aL@	c #B4957B",
"bL@	c #9F613C",
"cL@	c #9C603A",
"dL@	c #9E5C3A",
"eL@	c #A16344",
"fL@	c #B18E74",
"gL@	c #A97752",
"hL@	c #BB9D7A",
"iL@	c #BBA482",
"jL@	c #BAA087",
"kL@	c #A17E5F",
"lL@	c #9F8473",
"mL@	c #A0A09A",
"nL@	c #A9A395",
"oL@	c #B6936C",
"pL@	c #BF8B50",
"qL@	c #C18E51",
"rL@	c #A98056",
"sL@	c #B4844F",
"tL@	c #A47B4E",
"uL@	c #9F764F",
"vL@	c #9D7449",
"wL@	c #B18055",
"xL@	c #86674A",
"yL@	c #87684C",
"zL@	c #936C50",
"AL@	c #8E745A",
"BL@	c #B7A690",
"CL@	c #B4967F",
"DL@	c #B5906F",
"EL@	c #BB8546",
"FL@	c #B98648",
"GL@	c #B88647",
"HL@	c #BA8647",
"IL@	c #BA8546",
"JL@	c #B68143",
"KL@	c #B87F42",
"LL@	c #B78043",
"ML@	c #BA8246",
"NL@	c #B88447",
"OL@	c #BA8549",
"PL@	c #B87D3C",
"QL@	c #B47937",
"RL@	c #B37937",
"SL@	c #B47C40",
"TL@	c #B67F42",
"UL@	c #B47E3F",
"VL@	c #B57E40",
"WL@	c #B57F40",
"XL@	c #B5803F",
"YL@	c #B47D3A",
"ZL@	c #A07C63",
"`L@	c #C0AFA1",
" M@	c #C2B6A8",
".M@	c #C7BAAE",
"+M@	c #B49E85",
"@M@	c #A88665",
"#M@	c #CABDB0",
"$M@	c #B2A190",
"%M@	c #BCA89B",
"&M@	c #BCAFA0",
"*M@	c #B7A091",
"=M@	c #C4B2A1",
"-M@	c #BDAD9B",
";M@	c #C0AE9B",
">M@	c #BEA98D",
",M@	c #B79F80",
"'M@	c #B69D7E",
")M@	c #A97C58",
"!M@	c #A96E41",
"~M@	c #A66E45",
"{M@	c #A36D44",
"]M@	c #A66F42",
"^M@	c #AB6D42",
"/M@	c #AC6E43",
"(M@	c #B27948",
"_M@	c #AD7341",
":M@	c #A07049",
"<M@	c #A16C3F",
"[M@	c #A17961",
"}M@	c #A57D65",
"|M@	c #9D765B",
"1M@	c #9F775A",
"2M@	c #987151",
"3M@	c #9D7556",
"4M@	c #A06E48",
"5M@	c #A16F45",
"6M@	c #A16941",
"7M@	c #A26841",
"8M@	c #A2806F",
"9M@	c #977A6A",
"0M@	c #9A6F4B",
"aM@	c #9C7350",
"bM@	c #956A4F",
"cM@	c #996C52",
"dM@	c #9B7054",
"eM@	c #986E51",
"fM@	c #986C4F",
"gM@	c #966A4B",
"hM@	c #916444",
"iM@	c #916241",
"jM@	c #905F3D",
"kM@	c #8D5E42",
"lM@	c #8F6248",
"mM@	c #93654C",
"nM@	c #946749",
"oM@	c #936748",
"pM@	c #8F6345",
"qM@	c #937666",
"rM@	c #B6A08E",
"sM@	c #9C7C65",
"tM@	c #87553B",
"uM@	c #7F4D34",
"vM@	c #7D4B31",
"wM@	c #7E4C32",
"xM@	c #7F4C32",
"yM@	c #7F5336",
"zM@	c #917056",
"AM@	c #B4ACA7",
"BM@	c #B9B2AD",
"CM@	c #BBB4B0",
"DM@	c #B5AFA9",
"EM@	c #B7ADA6",
"FM@	c #B7A99E",
"GM@	c #9C9A93",
"HM@	c #9B8C7D",
"IM@	c #B6927F",
"JM@	c #C6B9AD",
"KM@	c #C7BCAF",
"LM@	c #937154",
"MM@	c #947054",
"NM@	c #A16E50",
"OM@	c #A37354",
"PM@	c #9D7553",
"QM@	c #A37B59",
"RM@	c #987653",
"SM@	c #A2815E",
"TM@	c #A68563",
"UM@	c #9F7D61",
"VM@	c #977458",
"WM@	c #A18167",
"XM@	c #9FA098",
"YM@	c #B39676",
"ZM@	c #BE8C4E",
"`M@	c #C48C4B",
" N@	c #AC8353",
".N@	c #AD7E50",
"+N@	c #A47446",
"@N@	c #A77751",
"#N@	c #A97755",
"$N@	c #9E8F83",
"%N@	c #9A8C80",
"&N@	c #96887C",
"*N@	c #95877B",
"=N@	c #A09489",
"-N@	c #9D8B7C",
";N@	c #9C8777",
">N@	c #B39477",
",N@	c #B39068",
"'N@	c #B18D67",
")N@	c #B28E69",
"!N@	c #B08D67",
"~N@	c #B69170",
"{N@	c #B09072",
"]N@	c #AE8E70",
"^N@	c #B49679",
"/N@	c #AD9074",
"(N@	c #AD9177",
"_N@	c #B29475",
":N@	c #B49477",
"<N@	c #B19476",
"[N@	c #AE9477",
"}N@	c #AE9B8B",
"|N@	c #AEA19F",
"1N@	c #9F9387",
"2N@	c #A39F96",
"3N@	c #A89B8E",
"4N@	c #A69C90",
"5N@	c #AB9382",
"6N@	c #A58366",
"7N@	c #A68870",
"8N@	c #A18775",
"9N@	c #A17F6B",
"0N@	c #A08472",
"aN@	c #A18673",
"bN@	c #9F7A65",
"cN@	c #A4806A",
"dN@	c #A38978",
"eN@	c #AB8C79",
"fN@	c #9A816F",
"gN@	c #A18674",
"hN@	c #AC9480",
"iN@	c #9F8572",
"jN@	c #9E7C65",
"kN@	c #94715A",
"lN@	c #A27D61",
"mN@	c #A9A9A6",
"nN@	c #A18C7F",
"oN@	c #96837A",
"pN@	c #948278",
"qN@	c #99847B",
"rN@	c #9E887E",
"sN@	c #9B8779",
"tN@	c #9D897B",
"uN@	c #998477",
"vN@	c #998577",
"wN@	c #A28D82",
"xN@	c #948073",
"yN@	c #A49288",
"zN@	c #A58B7C",
"AN@	c #A08E82",
"BN@	c #8D786D",
"CN@	c #907B72",
"DN@	c #937F76",
"EN@	c #8F7B74",
"FN@	c #8B7870",
"GN@	c #937F78",
"HN@	c #8E7B73",
"IN@	c #88756A",
"JN@	c #8E7D72",
"KN@	c #A09A95",
"LN@	c #A69484",
"MN@	c #A08A77",
"NN@	c #9C8774",
"ON@	c #968371",
"PN@	c #A08A7D",
"QN@	c #B09B91",
"RN@	c #A08D81",
"SN@	c #AE977E",
"TN@	c #B1916F",
"UN@	c #AE9070",
"VN@	c #A88F73",
"WN@	c #A08975",
"XN@	c #9D8675",
"YN@	c #A78F81",
"ZN@	c #ABA4A5",
"`N@	c #A9A4A8",
" O@	c #A9ABA7",
".O@	c #AFA6A0",
"+O@	c #ACA2A4",
"@O@	c #ADABA8",
"#O@	c #B1ACAC",
"$O@	c #AEADAC",
"%O@	c #ADAEAC",
"&O@	c #ACADAB",
"*O@	c #A9AAA8",
"=O@	c #A7A5A5",
"-O@	c #A39B91",
";O@	c #A1A4A1",
">O@	c #A09B97",
",O@	c #A09B94",
"'O@	c #A09B91",
")O@	c #A09A9A",
"!O@	c #A7A196",
"~O@	c #AE9993",
"{O@	c #AB958F",
"]O@	c #9E7F67",
"^O@	c #AC8C79",
"/O@	c #A68871",
"(O@	c #A38570",
"_O@	c #A38470",
":O@	c #AB8A77",
"<O@	c #9A9384",
"[O@	c #968279",
"}O@	c #9C8A80",
"|O@	c #A39087",
"1O@	c #A58F87",
"2O@	c #9E958E",
"3O@	c #9A8079",
"4O@	c #AEA6A5",
"5O@	c #9B8C85",
"6O@	c #93796F",
"7O@	c #927570",
"8O@	c #95796D",
"9O@	c #957D6C",
"0O@	c #968176",
"aO@	c #8E716B",
"bO@	c #8D766E",
"cO@	c #977F72",
"dO@	c #917568",
"eO@	c #9A796A",
"fO@	c #A4856F",
"gO@	c #A5917F",
"hO@	c #A88F82",
"iO@	c #A99081",
"jO@	c #A58A74",
"kO@	c #AE978A",
"lO@	c #A88F81",
"mO@	c #A28878",
"nO@	c #AB9285",
"oO@	c #A78F7C",
"pO@	c #9F8E87",
"qO@	c #A1988A",
"rO@	c #A59D91",
"sO@	c #B49C91",
"tO@	c #AD9A94",
"uO@	c #A19688",
"vO@	c #9E9183",
"wO@	c #A69794",
"xO@	c #A3938F",
"yO@	c #9F928B",
"zO@	c #A0999B",
"AO@	c #A8A6A5",
"BO@	c #A9958B",
"CO@	c #A38778",
"DO@	c #A88B7C",
"EO@	c #AA8C7F",
"FO@	c #AB8D80",
"GO@	c #AE9184",
"HO@	c #AD9287",
"IO@	c #AC8F86",
"JO@	c #A68A80",
"KO@	c #A68C7F",
"LO@	c #A68C7E",
"MO@	c #AD9588",
"NO@	c #A4948F",
"OO@	c #9E755D",
"PO@	c #9D755D",
"QO@	c #9B745A",
"RO@	c #9B7359",
"SO@	c #9C7E6C",
"TO@	c #A2826D",
"UO@	c #977D6D",
"VO@	c #947A6A",
"WO@	c #8F7769",
"XO@	c #93735E",
"YO@	c #9A6C4C",
"ZO@	c #966746",
"`O@	c #9F6A48",
" P@	c #A06A48",
".P@	c #A06A38",
"+P@	c #9F6938",
"@P@	c #9F683D",
"#P@	c #9F683B",
"$P@	c #9E6537",
"%P@	c #A1724B",
"&P@	c #A67247",
"*P@	c #A57343",
"=P@	c #A37243",
"-P@	c #A27046",
";P@	c #A56E42",
">P@	c #AA7549",
",P@	c #AB8167",
"'P@	c #9F8E80",
")P@	c #8E6B5A",
"!P@	c #875438",
"~P@	c #875233",
"{P@	c #824F2F",
"]P@	c #814E2F",
"^P@	c #865234",
"/P@	c #835232",
"(P@	c #895335",
"_P@	c #885234",
":P@	c #85543A",
"<P@	c #97796D",
"[P@	c #978779",
"}P@	c #8E6B57",
"|P@	c #82553A",
"1P@	c #834F37",
"2P@	c #7A462E",
"3P@	c #896759",
"4P@	c #977F78",
"5P@	c #948478",
"6P@	c #978578",
"7P@	c #907E71",
"8P@	c #978579",
"9P@	c #998A81",
"0P@	c #946F5E",
"aP@	c #956449",
"bP@	c #956344",
"cP@	c #956547",
"dP@	c #96674A",
"eP@	c #97674B",
"fP@	c #844C35",
"gP@	c #7F4333",
"hP@	c #7F4C38",
"iP@	c #906147",
"jP@	c #93684D",
"kP@	c #7D5946",
"lP@	c #8E6958",
"mP@	c #936555",
"nP@	c #9F7462",
"oP@	c #BE9A80",
"pP@	c #B49279",
"qP@	c #A07460",
"rP@	c #A07552",
"sP@	c #9F6C49",
"tP@	c #A87147",
"uP@	c #AC7343",
"vP@	c #A6754D",
"wP@	c #A67756",
"xP@	c #A97C52",
"yP@	c #9D887A",
"zP@	c #9E9693",
"AP@	c #BDAB9D",
"BP@	c #BDADA1",
"CP@	c #C6BCB0",
"DP@	c #B08F6E",
"EP@	c #B49A81",
"FP@	c #CEBEB1",
"GP@	c #CAB9AB",
"HP@	c #CBBCAF",
"IP@	c #CEBAAB",
"JP@	c #CBBEB1",
"KP@	c #C6B9AC",
"LP@	c #CABBAC",
"MP@	c #CEB8A4",
"NP@	c #C7AF93",
"OP@	c #C6AE92",
"PP@	c #B79F8D",
"QP@	c #AE9582",
"RP@	c #B9A795",
"SP@	c #BDB0A4",
"TP@	c #C2B3A7",
"UP@	c #C1B1A4",
"VP@	c #B8A89C",
"WP@	c #B8A89B",
"XP@	c #BBAA9E",
"YP@	c #C1AFA3",
"ZP@	c #C8B7AA",
"`P@	c #C5BDB6",
" Q@	c #C5BCB6",
".Q@	c #C0B8AF",
"+Q@	c #C0B8AD",
"@Q@	c #C3BBB0",
"#Q@	c #BFB5AA",
"$Q@	c #C2B0A3",
"%Q@	c #A7968B",
"&Q@	c #A37457",
"*Q@	c #A37050",
"=Q@	c #A77250",
"-Q@	c #A46D49",
";Q@	c #A46C45",
">Q@	c #AA744A",
",Q@	c #A66E47",
"'Q@	c #AB744F",
")Q@	c #A9714D",
"!Q@	c #A8734D",
"~Q@	c #A87248",
"{Q@	c #A56B43",
"]Q@	c #968275",
"^Q@	c #8F7669",
"/Q@	c #AE998F",
"(Q@	c #9E7C63",
"_Q@	c #9F7C61",
":Q@	c #A27C61",
"<Q@	c #9F775C",
"[Q@	c #A2785B",
"}Q@	c #9A7861",
"|Q@	c #977862",
"1Q@	c #93745D",
"2Q@	c #94786C",
"3Q@	c #8F7766",
"4Q@	c #8C7764",
"5Q@	c #917360",
"6Q@	c #A1785A",
"7Q@	c #AE7758",
"8Q@	c #AC7853",
"9Q@	c #AD7B55",
"0Q@	c #AE8C74",
"aQ@	c #9D6538",
"bQ@	c #9D6638",
"cQ@	c #9C6334",
"dQ@	c #986131",
"eQ@	c #9C6534",
"fQ@	c #A56B38",
"gQ@	c #A9703B",
"hQ@	c #A76E44",
"iQ@	c #A56C43",
"jQ@	c #9F6735",
"kQ@	c #A36737",
"lQ@	c #A76D3C",
"mQ@	c #AF7544",
"nQ@	c #AE7443",
"oQ@	c #987E6C",
"pQ@	c #8E6044",
"qQ@	c #905426",
"rQ@	c #8D5029",
"sQ@	c #8B4E2C",
"tQ@	c #8D5230",
"uQ@	c #8E5331",
"vQ@	c #8A4F2E",
"wQ@	c #8A5231",
"xQ@	c #875941",
"yQ@	c #9E877E",
"zQ@	c #A08A7E",
"AQ@	c #8E6E5B",
"BQ@	c #95776B",
"CQ@	c #9F8477",
"DQ@	c #9A7E67",
"EQ@	c #875D47",
"FQ@	c #8D6858",
"GQ@	c #927268",
"HQ@	c #977C70",
"IQ@	c #978275",
"JQ@	c #948276",
"KQ@	c #928074",
"LQ@	c #8E7C6E",
"MQ@	c #928174",
"NQ@	c #A1928A",
"OQ@	c #9F978B",
"PQ@	c #9F7461",
"QQ@	c #9C6649",
"RQ@	c #985F3D",
"SQ@	c #99603D",
"TQ@	c #98603B",
"UQ@	c #8F552F",
"VQ@	c #945C37",
"WQ@	c #874F30",
"XQ@	c #834A31",
"YQ@	c #895338",
"ZQ@	c #936645",
"`Q@	c #8E5940",
" R@	c #A27B66",
".R@	c #B49D84",
"+R@	c #BDA78F",
"@R@	c #AF8873",
"#R@	c #C2A793",
"$R@	c #BFAC9B",
"%R@	c #AE9C80",
"&R@	c #AF9379",
"*R@	c #9F7561",
"=R@	c #AF8467",
"-R@	c #AD8566",
";R@	c #A37754",
">R@	c #A07351",
",R@	c #A86E41",
"'R@	c #AB6C39",
")R@	c #AA7B54",
"!R@	c #AB825F",
"~R@	c #AA7F57",
"{R@	c #AB7C4F",
"]R@	c #A97A4D",
"^R@	c #AB9691",
"/R@	c #B3865E",
"(R@	c #CFC7BC",
"_R@	c #CBC1B3",
":R@	c #CEBFB6",
"<R@	c #D0C9BF",
"[R@	c #CFCBC2",
"}R@	c #CCCBC0",
"|R@	c #CEC9C0",
"1R@	c #BDA484",
"2R@	c #BC9A74",
"3R@	c #BF9C74",
"4R@	c #BC9E77",
"5R@	c #BEA183",
"6R@	c #C6B8AC",
"7R@	c #CCC5BE",
"8R@	c #C8C7C1",
"9R@	c #C9C9C2",
"0R@	c #CDCBC5",
"aR@	c #C8C6BE",
"bR@	c #C9C4BD",
"cR@	c #CBC6C4",
"dR@	c #CAC7C8",
"eR@	c #CBC7C8",
"fR@	c #CBC6C8",
"gR@	c #CAC6C7",
"hR@	c #C9CAC5",
"iR@	c #C6B6A6",
"jR@	c #AF9A8A",
"kR@	c #A46E4A",
"lR@	c #A77048",
"mR@	c #A87148",
"nR@	c #A66E46",
"oR@	c #A76E45",
"pR@	c #A97141",
"qR@	c #AA7342",
"rR@	c #B07847",
"sR@	c #B0744A",
"tR@	c #AC7148",
"uR@	c #AC7249",
"vR@	c #AB6E3F",
"wR@	c #B17741",
"xR@	c #B17C49",
"yR@	c #B27A45",
"zR@	c #A08778",
"AR@	c #B69F91",
"BR@	c #C6B8A8",
"CR@	c #C5BCA9",
"DR@	c #A17C61",
"ER@	c #9C7759",
"FR@	c #98755E",
"GR@	c #957763",
"HR@	c #8F7665",
"IR@	c #927A69",
"JR@	c #8C7465",
"KR@	c #8B7465",
"LR@	c #8B7264",
"MR@	c #8F7260",
"NR@	c #AA7152",
"OR@	c #986141",
"PR@	c #9D673E",
"QR@	c #A1683F",
"RR@	c #A66B3F",
"SR@	c #A56B3D",
"TR@	c #A96C40",
"UR@	c #A1633B",
"VR@	c #A1643A",
"WR@	c #9E6135",
"XR@	c #9B5D31",
"YR@	c #9D6034",
"ZR@	c #A16538",
"`R@	c #AA703F",
" S@	c #AB6E3E",
".S@	c #A6978B",
"+S@	c #A38878",
"@S@	c #9A755D",
"#S@	c #90562F",
"$S@	c #98592A",
"%S@	c #995D2D",
"&S@	c #995D2C",
"*S@	c #945726",
"=S@	c #925529",
"-S@	c #91532C",
";S@	c #94532F",
">S@	c #946F55",
",S@	c #997E6D",
"'S@	c #9A816A",
")S@	c #987E68",
"!S@	c #987D69",
"~S@	c #977D6B",
"{S@	c #988171",
"]S@	c #978273",
"^S@	c #917D70",
"/S@	c #998578",
"(S@	c #946C56",
"_S@	c #955E43",
":S@	c #94573A",
"<S@	c #915437",
"[S@	c #95583A",
"}S@	c #985F40",
"|S@	c #8C4E31",
"1S@	c #925037",
"2S@	c #8B4E39",
"3S@	c #7D4C32",
"4S@	c #89563C",
"5S@	c #905E43",
"6S@	c #9E7355",
"7S@	c #8B5A40",
"8S@	c #906A4F",
"9S@	c #B69E7E",
"0S@	c #B7A892",
"aS@	c #A78771",
"bS@	c #A07561",
"cS@	c #A37856",
"dS@	c #A87C58",
"eS@	c #A67249",
"fS@	c #A77A50",
"gS@	c #AD7E56",
"hS@	c #AC7D54",
"iS@	c #AE7D50",
"jS@	c #AD7B4D",
"kS@	c #AC7B4F",
"lS@	c #AB7A54",
"mS@	c #AC8160",
"nS@	c #BA956F",
"oS@	c #CBBDAD",
"pS@	c #CFC2B6",
"qS@	c #BDA992",
"rS@	c #CEC0AB",
"sS@	c #CCC1B3",
"tS@	c #D2CECA",
"uS@	c #D2CFCB",
"vS@	c #D4CDC7",
"wS@	c #D3CEC7",
"xS@	c #D0C5BA",
"yS@	c #CFCAC0",
"zS@	c #D1C3AE",
"AS@	c #CDB093",
"BS@	c #BEA385",
"CS@	c #A19A8E",
"DS@	c #C3B7AA",
"ES@	c #CCC8C5",
"FS@	c #CCC6C7",
"GS@	c #C7C1BB",
"HS@	c #CBC3B7",
"IS@	c #CDC6BC",
"JS@	c #BEAB9E",
"KS@	c #C8BAB2",
"LS@	c #BFB7AD",
"MS@	c #CBC5BD",
"NS@	c #CAC9C8",
"OS@	c #CEC8C8",
"PS@	c #CDC7C7",
"QS@	c #CDC8C7",
"RS@	c #CCCCC8",
"SS@	c #CCCBCA",
"TS@	c #CFCBCE",
"US@	c #D3C5BF",
"VS@	c #C0A596",
"WS@	c #B09685",
"XS@	c #AA9C8E",
"YS@	c #AA7A57",
"ZS@	c #A76E42",
"`S@	c #AC7349",
" T@	c #B0784D",
".T@	c #B07649",
"+T@	c #B4794A",
"@T@	c #AE7143",
"#T@	c #B37847",
"$T@	c #B27640",
"%T@	c #B87F49",
"&T@	c #B77F4A",
"*T@	c #B08969",
"=T@	c #A58774",
"-T@	c #C6BCB2",
";T@	c #9A7962",
">T@	c #A37E62",
",T@	c #9D7453",
"'T@	c #99735A",
")T@	c #95735D",
"!T@	c #8F7360",
"~T@	c #8A7363",
"{T@	c #8E7868",
"]T@	c #8E7869",
"^T@	c #877062",
"/T@	c #856F60",
"(T@	c #86715F",
"_T@	c #907560",
":T@	c #AA7B58",
"<T@	c #A38374",
"[T@	c #966040",
"}T@	c #A3663C",
"|T@	c #AB7042",
"1T@	c #AA6F41",
"2T@	c #9C5E36",
"3T@	c #9D5F37",
"4T@	c #A16438",
"5T@	c #9C5F34",
"6T@	c #9B5E33",
"7T@	c #A16739",
"8T@	c #A56A3A",
"9T@	c #A18677",
"0T@	c #9A5C2C",
"aT@	c #9A5D2D",
"bT@	c #975A29",
"cT@	c #935725",
"dT@	c #935529",
"eT@	c #90522D",
"fT@	c #936348",
"gT@	c #9B7A65",
"hT@	c #9D8B7B",
"iT@	c #9D8F82",
"jT@	c #9E8E84",
"kT@	c #9E8470",
"lT@	c #A08269",
"mT@	c #9A7C61",
"nT@	c #9E826C",
"oT@	c #946C55",
"pT@	c #8C563A",
"qT@	c #8C4F31",
"rT@	c #894C2F",
"sT@	c #85492D",
"tT@	c #844A30",
"uT@	c #81472E",
"vT@	c #8C533C",
"wT@	c #884A36",
"xT@	c #805035",
"yT@	c #845137",
"zT@	c #88563C",
"AT@	c #895D3E",
"BT@	c #854E33",
"CT@	c #8D563D",
"DT@	c #945F46",
"ET@	c #905D43",
"FT@	c #916147",
"GT@	c #9C6F55",
"HT@	c #9F7257",
"IT@	c #B59B87",
"JT@	c #A29387",
"KT@	c #B17F57",
"LT@	c #A97A54",
"MT@	c #AE7A55",
"NT@	c #B07C57",
"OT@	c #AF7C52",
"PT@	c #AD7B50",
"QT@	c #B5865A",
"RT@	c #B38863",
"ST@	c #B09884",
"TT@	c #C29D78",
"UT@	c #CFC1B2",
"VT@	c #C8AF98",
"WT@	c #D3BEAB",
"XT@	c #D4C2AF",
"YT@	c #BA9E81",
"ZT@	c #CFC2B1",
"`T@	c #D1C9C4",
" U@	c #D3CBC6",
".U@	c #CDC8C1",
"+U@	c #D4CEC8",
"@U@	c #CBC2BA",
"#U@	c #CDBDAF",
"$U@	c #D6CCC1",
"%U@	c #CEBCAD",
"&U@	c #BC9D85",
"*U@	c #C8AF9E",
"=U@	c #D3C5B7",
"-U@	c #B9A588",
";U@	c #9F958A",
">U@	c #B19C85",
",U@	c #BCB2A7",
"'U@	c #C3B7A7",
")U@	c #BBB0A1",
"!U@	c #B5A493",
"~U@	c #A47E61",
"{U@	c #B0886E",
"]U@	c #C9C5C0",
"^U@	c #CBCCCA",
"/U@	c #CDCECA",
"(U@	c #CDCDCA",
"_U@	c #CBCBC8",
":U@	c #CFCCCA",
"<U@	c #C6B8AD",
"[U@	c #B27B4A",
"}U@	c #B67D4A",
"|U@	c #B37A47",
"1U@	c #B27846",
"2U@	c #B77D49",
"3U@	c #B8804B",
"4U@	c #BA834D",
"5U@	c #B87D4C",
"6U@	c #B7794A",
"7U@	c #B57846",
"8U@	c #B47845",
"9U@	c #B57C44",
"0U@	c #B87F47",
"aU@	c #B88049",
"bU@	c #C7C0BA",
"cU@	c #977964",
"dU@	c #A28068",
"eU@	c #9B775F",
"fU@	c #8F7362",
"gU@	c #8A7567",
"hU@	c #8C7769",
"iU@	c #897466",
"jU@	c #867064",
"kU@	c #867165",
"lU@	c #867367",
"mU@	c #806F60",
"nU@	c #867163",
"oU@	c #8E765F",
"pU@	c #A48164",
"qU@	c #AD7F5E",
"rU@	c #AC7A5E",
"sU@	c #A78772",
"tU@	c #9B653C",
"uU@	c #A2663E",
"vU@	c #A0653B",
"wU@	c #A56A3E",
"xU@	c #A4693E",
"yU@	c #9D6038",
"zU@	c #A0643A",
"AU@	c #9F6339",
"BU@	c #A56C3D",
"CU@	c #A46839",
"DU@	c #A07A62",
"EU@	c #9B623C",
"FU@	c #9B5E2E",
"GU@	c #9B602F",
"HU@	c #965B2A",
"IU@	c #93572A",
"JU@	c #8C502A",
"KU@	c #987366",
"LU@	c #A28C84",
"MU@	c #9D806B",
"NU@	c #997758",
"OU@	c #9D7B5E",
"PU@	c #9B806C",
"QU@	c #9D8574",
"RU@	c #A08B7B",
"SU@	c #834E33",
"TU@	c #884C2E",
"UU@	c #87482C",
"VU@	c #81472D",
"WU@	c #7F4530",
"XU@	c #7B452F",
"YU@	c #8E5D46",
"ZU@	c #844835",
"`U@	c #724128",
" V@	c #7A472F",
".V@	c #7F5033",
"+V@	c #885036",
"@V@	c #905840",
"#V@	c #8A553C",
"$V@	c #89543B",
"%V@	c #8A523C",
"&V@	c #8A5841",
"*V@	c #905D46",
"=V@	c #935F49",
"-V@	c #B29786",
";V@	c #A29185",
">V@	c #AF794F",
",V@	c #AD7D4C",
"'V@	c #AC835E",
")V@	c #AD8462",
"!V@	c #A0846E",
"~V@	c #B19886",
"{V@	c #C19D76",
"]V@	c #C7B7A6",
"^V@	c #CDB9AA",
"/V@	c #D4C5BB",
"(V@	c #D0BCAE",
"_V@	c #C09B7F",
":V@	c #D3C6BF",
"<V@	c #CFC6BF",
"[V@	c #CFC4BA",
"}V@	c #CEC3B8",
"|V@	c #CFC7BF",
"1V@	c #D3CBC3",
"2V@	c #D1C9C7",
"3V@	c #D4C6B9",
"4V@	c #BAA188",
"5V@	c #B59679",
"6V@	c #B79984",
"7V@	c #CCC9C9",
"8V@	c #B29D87",
"9V@	c #BDA995",
"0V@	c #BDB3A1",
"aV@	c #CCCCC5",
"bV@	c #CACDCB",
"cV@	c #CFCCCB",
"dV@	c #CDCCCB",
"eV@	c #CCCACA",
"fV@	c #CCCBC8",
"gV@	c #CCCAC4",
"hV@	c #CDC5B7",
"iV@	c #BAA892",
"jV@	c #B1794C",
"kV@	c #B57E49",
"lV@	c #B57D48",
"mV@	c #B87E45",
"nV@	c #B88046",
"oV@	c #B68045",
"pV@	c #B78046",
"qV@	c #B87E4B",
"rV@	c #B37645",
"sV@	c #B27645",
"tV@	c #BA8248",
"uV@	c #B87B48",
"vV@	c #B77F47",
"wV@	c #B6906E",
"xV@	c #B19A8B",
"yV@	c #967764",
"zV@	c #997863",
"AV@	c #9E7B65",
"BV@	c #A47D65",
"CV@	c #9C775F",
"DV@	c #95745F",
"EV@	c #8C715F",
"FV@	c #8B7565",
"GV@	c #8C7666",
"HV@	c #897469",
"IV@	c #877367",
"JV@	c #887467",
"KV@	c #877466",
"LV@	c #897363",
"MV@	c #8A7463",
"NV@	c #937867",
"OV@	c #A07A64",
"PV@	c #AA7858",
"QV@	c #8A5C41",
"RV@	c #8A593B",
"SV@	c #915B3E",
"TV@	c #945A3B",
"UV@	c #985A36",
"VV@	c #9A5F37",
"WV@	c #9F6542",
"XV@	c #9B603C",
"YV@	c #995E39",
"ZV@	c #9A5D38",
"`V@	c #99603C",
" W@	c #9A623D",
".W@	c #9C6539",
"+W@	c #9A6235",
"@W@	c #A0663C",
"#W@	c #AA6E47",
"$W@	c #996330",
"%W@	c #93674C",
"&W@	c #997156",
"*W@	c #936D50",
"=W@	c #9A7252",
"-W@	c #987F67",
";W@	c #9A8977",
">W@	c #9B8E7E",
",W@	c #9A9084",
"'W@	c #957155",
")W@	c #976747",
"!W@	c #904F30",
"~W@	c #8C4F39",
"{W@	c #8F5741",
"]W@	c #7E4530",
"^W@	c #7C4530",
"/W@	c #75422D",
"(W@	c #6C3B26",
"_W@	c #7B4733",
":W@	c #864D3B",
"<W@	c #854B38",
"[W@	c #7C402D",
"}W@	c #824532",
"|W@	c #864D3A",
"1W@	c #804B37",
"2W@	c #7C4936",
"3W@	c #835441",
"4W@	c #855946",
"5W@	c #845543",
"6W@	c #845443",
"7W@	c #8C5D4A",
"8W@	c #8E614A",
"9W@	c #92654F",
"0W@	c #9F7560",
"aW@	c #A8846C",
"bW@	c #98745F",
"cW@	c #A36F4E",
"dW@	c #AA7040",
"eW@	c #A5734A",
"fW@	c #AC7A56",
"gW@	c #B48357",
"hW@	c #B28056",
"iW@	c #AE805A",
"jW@	c #AE8665",
"kW@	c #AC855F",
"lW@	c #AA886B",
"mW@	c #B79265",
"nW@	c #C7B3A2",
"oW@	c #C9B49D",
"pW@	c #D0C1B2",
"qW@	c #D1B7A8",
"rW@	c #D0B19E",
"sW@	c #D1C3B9",
"tW@	c #CDB8A2",
"uW@	c #CAB09A",
"vW@	c #CDB6A1",
"wW@	c #CAB7A6",
"xW@	c #CEC0B2",
"yW@	c #D1C9BD",
"zW@	c #D2C6BC",
"AW@	c #B9A093",
"BW@	c #B69A7F",
"CW@	c #AE9072",
"DW@	c #CAC8C5",
"EW@	c #D0C4C3",
"FW@	c #B6A28D",
"GW@	c #9F7D5B",
"HW@	c #9A7656",
"IW@	c #A4784E",
"JW@	c #C8C8C4",
"KW@	c #D2C5BB",
"LW@	c #C3AE99",
"MW@	c #B29471",
"NW@	c #B29D84",
"OW@	c #B17948",
"PW@	c #B17944",
"QW@	c #B57B44",
"RW@	c #B2793F",
"SW@	c #B77E44",
"TW@	c #BA8148",
"UW@	c #B77E4C",
"VW@	c #B77C4E",
"WW@	c #B07543",
"XW@	c #AF7441",
"YW@	c #B47B44",
"ZW@	c #B87F48",
"`W@	c #BF874F",
" X@	c #C07F4D",
".X@	c #C0814F",
"+X@	c #AB9077",
"@X@	c #BAA89A",
"#X@	c #C8BFBC",
"$X@	c #C9BDB9",
"%X@	c #A17B68",
"&X@	c #A57C65",
"*X@	c #A57A61",
"=X@	c #A17A5D",
"-X@	c #9F7961",
";X@	c #8C7466",
">X@	c #8A7264",
",X@	c #877464",
"'X@	c #847163",
")X@	c #826E61",
"!X@	c #826E63",
"~X@	c #7F6A60",
"{X@	c #80695E",
"]X@	c #856F62",
"^X@	c #8C7668",
"/X@	c #897263",
"(X@	c #92735B",
"_X@	c #A89B9B",
":X@	c #A78C83",
"<X@	c #8E5E4A",
"[X@	c #8A5B41",
"}X@	c #8E5F42",
"|X@	c #8A5B43",
"1X@	c #8E5B3F",
"2X@	c #8E5736",
"3X@	c #8D5531",
"4X@	c #8E5631",
"5X@	c #925A36",
"6X@	c #975D41",
"7X@	c #9B6044",
"8X@	c #965B3E",
"9X@	c #965A3D",
"0X@	c #985D3E",
"aX@	c #965B3A",
"bX@	c #985F3A",
"cX@	c #985E38",
"dX@	c #996039",
"eX@	c #9C5A35",
"fX@	c #9A5C35",
"gX@	c #9B633A",
"hX@	c #A76B49",
"iX@	c #B19588",
"jX@	c #9E724F",
"kX@	c #9F6334",
"lX@	c #98663A",
"mX@	c #94755E",
"nX@	c #937357",
"oX@	c #9E826D",
"pX@	c #9E8168",
"qX@	c #966E4D",
"rX@	c #97765C",
"sX@	c #9A816C",
"tX@	c #9A8A7A",
"uX@	c #B2907A",
"vX@	c #A37558",
"wX@	c #8E4E34",
"xX@	c #8E503D",
"yX@	c #945C45",
"zX@	c #88553E",
"AX@	c #81533C",
"BX@	c #7C5039",
"CX@	c #81553E",
"DX@	c #85563F",
"EX@	c #88533F",
"FX@	c #87523D",
"GX@	c #88513C",
"HX@	c #884E3A",
"IX@	c #7D4932",
"JX@	c #7D4E38",
"KX@	c #80543E",
"LX@	c #815440",
"MX@	c #7D4F3D",
"NX@	c #7D4B3A",
"OX@	c #7C4B3B",
"PX@	c #8B5C49",
"QX@	c #845B43",
"RX@	c #845A43",
"SX@	c #8F664E",
"TX@	c #9C735B",
"UX@	c #966D56",
"VX@	c #9C7966",
"WX@	c #A97143",
"XX@	c #AF7647",
"YX@	c #A66F41",
"ZX@	c #A77650",
"`X@	c #B27E56",
" Y@	c #A77B56",
".Y@	c #AB7D53",
"+Y@	c #AC7E4E",
"@Y@	c #AB7A49",
"#Y@	c #A97746",
"$Y@	c #A78B6B",
"%Y@	c #B6916F",
"&Y@	c #C1A78B",
"*Y@	c #C5AE96",
"=Y@	c #C3A285",
"-Y@	c #BB9475",
";Y@	c #B3856C",
">Y@	c #BE8E6A",
",Y@	c #BDA07B",
"'Y@	c #C4AE8E",
")Y@	c #BEA380",
"!Y@	c #B5956C",
"~Y@	c #B3906C",
"{Y@	c #BEA58C",
"]Y@	c #B79D86",
"^Y@	c #AD8B6C",
"/Y@	c #AC8768",
"(Y@	c #B1947C",
"_Y@	c #BBAC9F",
":Y@	c #D4C9C0",
"<Y@	c #D4C9C1",
"[Y@	c #B1A196",
"}Y@	c #A88A6D",
"|Y@	c #C1AB93",
"1Y@	c #CFC2C1",
"2Y@	c #B9AD9D",
"3Y@	c #A4896D",
"4Y@	c #A78B70",
"5Y@	c #B19F94",
"6Y@	c #CAC0BC",
"7Y@	c #CDC3BD",
"8Y@	c #CCCBC5",
"9Y@	c #CFCDC7",
"0Y@	c #B9B0A9",
"aY@	c #A89581",
"bY@	c #AEA8A9",
"cY@	c #AE9A8F",
"dY@	c #AE7840",
"eY@	c #B27C46",
"fY@	c #B37B46",
"gY@	c #B27B45",
"hY@	c #AF753D",
"iY@	c #AE753B",
"jY@	c #B1783E",
"kY@	c #B8814D",
"lY@	c #B5814E",
"mY@	c #B9844D",
"nY@	c #BA8751",
"oY@	c #BB8852",
"pY@	c #BC8754",
"qY@	c #B5A9A2",
"rY@	c #A08E81",
"sY@	c #B09E93",
"tY@	c #BCADA7",
"uY@	c #968070",
"vY@	c #9C7B64",
"wY@	c #9A7860",
"xY@	c #9B7A63",
"yY@	c #998476",
"zY@	c #927D73",
"AY@	c #8B756B",
"BY@	c #897569",
"CY@	c #837062",
"DY@	c #857266",
"EY@	c #87736E",
"FY@	c #8D7873",
"GY@	c #89746E",
"HY@	c #87726B",
"IY@	c #8C766E",
"JY@	c #8B7065",
"KY@	c #9E887B",
"LY@	c #9E7E73",
"MY@	c #997868",
"NY@	c #977662",
"OY@	c #92634B",
"PY@	c #94664C",
"QY@	c #8F6046",
"RY@	c #99705A",
"SY@	c #9A6F59",
"TY@	c #986D57",
"UY@	c #976A51",
"VY@	c #986B51",
"WY@	c #956C54",
"XY@	c #9C745D",
"YY@	c #9A725C",
"ZY@	c #966E58",
"`Y@	c #956C57",
" Z@	c #956753",
".Z@	c #986553",
"+Z@	c #9C7560",
"@Z@	c #A4867B",
"#Z@	c #A58F7C",
"$Z@	c #997E67",
"%Z@	c #936C4E",
"&Z@	c #956B4C",
"*Z@	c #957355",
"=Z@	c #94755D",
"-Z@	c #9D8372",
";Z@	c #9D8174",
">Z@	c #9C816D",
",Z@	c #9B7D64",
"'Z@	c #997659",
")Z@	c #946D49",
"!Z@	c #916D4A",
"~Z@	c #957D66",
"{Z@	c #9F8978",
"]Z@	c #9C897A",
"^Z@	c #9B8B7A",
"/Z@	c #9D8D7B",
"(Z@	c #9A8A7B",
"_Z@	c #947E7A",
":Z@	c #926E63",
"<Z@	c #917365",
"[Z@	c #91786D",
"}Z@	c #907466",
"|Z@	c #8B6D60",
"1Z@	c #887061",
"2Z@	c #927A6B",
"3Z@	c #93786B",
"4Z@	c #8F7266",
"5Z@	c #8E6E62",
"6Z@	c #8F6D62",
"7Z@	c #8F7367",
"8Z@	c #8F7B6D",
"9Z@	c #917F72",
"0Z@	c #957E74",
"aZ@	c #957D75",
"bZ@	c #8E7C73",
"cZ@	c #907F77",
"dZ@	c #9D8E89",
"eZ@	c #A17E6D",
"fZ@	c #A27963",
"gZ@	c #996F4F",
"hZ@	c #986F57",
"iZ@	c #A27B63",
"jZ@	c #9F7960",
"kZ@	c #A37D64",
"lZ@	c #A8856F",
"mZ@	c #A88F7E",
"nZ@	c #A28679",
"oZ@	c #A17965",
"pZ@	c #A17C64",
"qZ@	c #9F7F68",
"rZ@	c #A9856A",
"sZ@	c #AA8977",
"tZ@	c #A8A69E",
"uZ@	c #AE9A89",
"vZ@	c #B69273",
"wZ@	c #B18D70",
"xZ@	c #B18D74",
"yZ@	c #B9977B",
"zZ@	c #AF8F74",
"AZ@	c #B9A08A",
"BZ@	c #AF9F91",
"CZ@	c #BDAE99",
"DZ@	c #BFAD94",
"EZ@	c #AFA498",
"FZ@	c #976E4A",
"GZ@	c #A28161",
"HZ@	c #A88A6C",
"IZ@	c #A2835F",
"JZ@	c #B8A086",
"KZ@	c #B9A692",
"LZ@	c #AE9F8C",
"MZ@	c #AB967E",
"NZ@	c #A08062",
"OZ@	c #9B7659",
"PZ@	c #A38466",
"QZ@	c #BFB0A6",
"RZ@	c #B6AAA0",
"SZ@	c #B2B0AA",
"TZ@	c #AFACA7",
"UZ@	c #9E9594",
"VZ@	c #9E9595",
"WZ@	c #9F9692",
"XZ@	c #A19E9D",
"YZ@	c #A8A2A4",
"ZZ@	c #ACA4A5",
"`Z@	c #AFA496",
" `@	c #B18D62",
".`@	c #AE814D",
"+`@	c #B28552",
"@`@	c #B48653",
"#`@	c #B0814F",
"$`@	c #AE7F4C",
"%`@	c #B7895C",
"&`@	c #B6875A",
"*`@	c #B58758",
"=`@	c #B58555",
"-`@	c #B28250",
";`@	c #B58659",
">`@	c #B38456",
",`@	c #B9895A",
"'`@	c #B88A55",
")`@	c #B29E8C",
"!`@	c #B0A9A7",
"~`@	c #A09796",
"{`@	c #A19990",
"]`@	c #9F9896",
"^`@	c #AAAAA5",
"/`@	c #ABAAA3",
"(`@	c #ACA7A8",
"_`@	c #A9A49B",
":`@	c #A39289",
"<`@	c #A59896",
"[`@	c #A8A59D",
"}`@	c #A7A79F",
"|`@	c #AD9A95",
"1`@	c #A0988E",
"2`@	c #A99E93",
"3`@	c #A3A095",
"4`@	c #A4A299",
"5`@	c #A89B99",
"6`@	c #9C8679",
"7`@	c #9A8473",
"8`@	c #97806C",
"9`@	c #A18B78",
"0`@	c #9F958F",
"a`@	c #A1988E",
"b`@	c #A09792",
"c`@	c #A1999A",
"d`@	c #9E9798",
"e`@	c #A29F9E",
"f`@	c #A6A6A2",
"g`@	c #9F9486",
"h`@	c #A59989",
"i`@	c #AC9E91",
"j`@	c #B09F96",
"k`@	c #AC9C86",
"l`@	c #AA9580",
"m`@	c #ADA8A9",
"n`@	c #AFA9A9",
"o`@	c #AC9C96",
"p`@	c #AEA8AA",
"q`@	c #B2AAAB",
"r`@	c #B2A5A3",
"s`@	c #ADA399",
"t`@	c #AFA59D",
"u`@	c #9B9085",
"v`@	c #A09487",
"w`@	c #A3948B",
"x`@	c #98887A",
"y`@	c #9A8573",
"z`@	c #9B8372",
"A`@	c #A89990",
"B`@	c #B29F9A",
"C`@	c #B3A19D",
"D`@	c #AEA29D",
"E`@	c #A4998A",
"F`@	c #AD9C99",
"G`@	c #A29A8C",
"H`@	c #A39D8E",
"I`@	c #A9938A",
"J`@	c #A18E7C",
"K`@	c #9D8F7E",
"L`@	c #A29381",
"M`@	c #A49998",
"N`@	c #AEA297",
"O`@	c #A2908A",
"P`@	c #A29997",
"Q`@	c #9F8F7E",
"R`@	c #9E9082",
"S`@	c #AE937C",
"T`@	c #B08D76",
"U`@	c #A79888",
"V`@	c #AB9F91",
"W`@	c #B1A18E",
"X`@	c #B5A898",
"Y`@	c #B1A292",
"Z`@	c #A0917E",
"``@	c #A6917E",
"  #	c #96806D",
". #	c #967E6C",
"+ #	c #AB8867",
"@ #	c #A6805D",
"# #	c #A48263",
"$ #	c #A28266",
"% #	c #9A7C5F",
"& #	c #997B5E",
"* #	c #9A7D61",
"= #	c #A48571",
"- #	c #A8A4A6",
"; #	c #ACAAAA",
"> #	c #B3A9A2",
", #	c #BBA492",
"' #	c #BBA188",
") #	c #BAA287",
"! #	c #BDA489",
"~ #	c #BB9B83",
"{ #	c #B7977F",
"] #	c #B39178",
"^ #	c #B39075",
"/ #	c #B9977A",
"( #	c #B6977A",
"_ #	c #B89D84",
": #	c #B59B85",
"< #	c #B59981",
"[ #	c #BA9A7C",
"} #	c #B89672",
"| #	c #BC9778",
"1 #	c #BF9D80",
"2 #	c #B38F71",
"3 #	c #BE9678",
"4 #	c #9E9992",
"5 #	c #B3ADA7",
"6 #	c #B3A69F",
"7 #	c #936D52",
"8 #	c #956A55",
"9 #	c #926650",
"0 #	c #B39685",
"a #	c #B49781",
"b #	c #9A7457",
"c #	c #885F41",
"d #	c #8C6B52",
"e #	c #9A8474",
"f #	c #B4927B",
"g #	c #B99C89",
"h #	c #BDA395",
"i #	c #C0A597",
"j #	c #C3A698",
"k #	c #BB9D8D",
"l #	c #BBA092",
"m #	c #BEACA4",
"n #	c #AC9283",
"o #	c #AC866F",
"p #	c #AA7F65",
"q #	c #AB7F66",
"r #	c #A87E65",
"s #	c #B8927D",
"t #	c #AB8674",
"u #	c #BA9B88",
"v #	c #A3775E",
"w #	c #AC6E4D",
"x #	c #B2806B",
"y #	c #CAC3BC",
"z #	c #C6C1B8",
"A #	c #B9AEA4",
"B #	c #B7A397",
"C #	c #BDA498",
"D #	c #B79D8F",
"E #	c #B9B2A9",
"F #	c #BBB2A9",
"G #	c #B5A498",
"H #	c #BAA497",
"I #	c #BAA598",
"J #	c #B59D8E",
"K #	c #A07A58",
"L #	c #A37D5B",
"M #	c #9E795A",
"N #	c #AC8A6D",
"O #	c #AB865F",
"P #	c #AD8962",
"Q #	c #9E7D58",
"R #	c #9E7D57",
"S #	c #B6A497",
"T #	c #B7A699",
"U #	c #AF967F",
"V #	c #BAA28D",
"W #	c #B39883",
"X #	c #B29178",
"Y #	c #B6977E",
"Z #	c #B59882",
"` #	c #B3916E",
" .#	c #A09282",
"..#	c #B09882",
"+.#	c #AD937C",
"@.#	c #B49A89",
"#.#	c #B09980",
"$.#	c #BEB2AC",
"%.#	c #BEB0A5",
"&.#	c #B49471",
"*.#	c #B4A08C",
"=.#	c #B4A28F",
"-.#	c #B0977E",
";.#	c #AD805E",
">.#	c #9E8C80",
",.#	c #B38B6E",
"'.#	c #B79173",
").#	c #AC896C",
"!.#	c #AD8769",
"~.#	c #B08256",
"{.#	c #B27647",
"].#	c #B37A52",
"^.#	c #B4784C",
"/.#	c #B5733A",
"(.#	c #A7866E",
"_.#	c #A6866E",
":.#	c #AE8A72",
"<.#	c #CABAAE",
"[.#	c #C9C1B5",
"}.#	c #C7C2B8",
"|.#	c #AA9C8C",
"1.#	c #947A5E",
"2.#	c #A0856A",
"3.#	c #B19E81",
"4.#	c #AA8F71",
"5.#	c #A88261",
"6.#	c #BE9C7A",
"7.#	c #B28256",
"8.#	c #A67243",
"9.#	c #A16F40",
"0.#	c #AC7A4D",
"a.#	c #AE7D47",
"b.#	c #AF8052",
"c.#	c #9D7956",
"d.#	c #A57D61",
"e.#	c #9F8471",
"f.#	c #A7A5A7",
"g.#	c #BD9574",
"h.#	c #C39569",
"i.#	c #C09363",
"j.#	c #C39464",
"k.#	c #C18E61",
"l.#	c #BB8657",
"m.#	c #BB8558",
"n.#	c #B88353",
"o.#	c #BE8954",
"p.#	c #C1915B",
"q.#	c #BF9868",
"r.#	c #C5A78D",
"s.#	c #BC987B",
"t.#	c #BB9370",
"u.#	c #BFA080",
"v.#	c #CAAF98",
"w.#	c #CAAB96",
"x.#	c #B9936D",
"y.#	c #C1A384",
"z.#	c #BD9C7B",
"A.#	c #CEAE8D",
"B.#	c #C49B73",
"C.#	c #C38F62",
"D.#	c #A3907C",
"E.#	c #A1917E",
"F.#	c #AFA098",
"G.#	c #B4A59F",
"H.#	c #C4B8B3",
"I.#	c #C3BBB9",
"J.#	c #BBB4AC",
"K.#	c #B9A99F",
"L.#	c #A26B48",
"M.#	c #A36B4A",
"N.#	c #A47A5D",
"O.#	c #AB8369",
"P.#	c #BBA69A",
"Q.#	c #C0B1A5",
"R.#	c #BCA08F",
"S.#	c #A47E67",
"T.#	c #9C795D",
"U.#	c #9E826A",
"V.#	c #C19D8C",
"W.#	c #C8B4A4",
"X.#	c #CDB7A7",
"Y.#	c #C6A597",
"Z.#	c #CBB2A7",
"`.#	c #C3AFA5",
" +#	c #C1A597",
".+#	c #CDB0A5",
"++#	c #D2BAAF",
"@+#	c #C9B5A8",
"#+#	c #D1C4B7",
"$+#	c #C19E8E",
"%+#	c #BA7C68",
"&+#	c #CAA09A",
"*+#	c #D2C7C0",
"=+#	c #CBCAC0",
"-+#	c #B09E99",
";+#	c #AB9E89",
">+#	c #AF8E6B",
",+#	c #B18E70",
"'+#	c #C3B9AE",
")+#	c #AE9D8B",
"!+#	c #A97F5B",
"~+#	c #A77D53",
"{+#	c #B48F62",
"]+#	c #BEA187",
"^+#	c #A9835D",
"/+#	c #B4937A",
"(+#	c #CBB9AB",
"_+#	c #CDC9BD",
":+#	c #CECABF",
"<+#	c #C8C4B9",
"[+#	c #BFAC96",
"}+#	c #B79379",
"|+#	c #C2A799",
"1+#	c #C5AA97",
"2+#	c #C0A48B",
"3+#	c #BA8A57",
"4+#	c #B88958",
"5+#	c #BC8E60",
"6+#	c #C19D77",
"7+#	c #A09B9C",
"8+#	c #AC978E",
"9+#	c #B79878",
"0+#	c #B48E64",
"a+#	c #B7916A",
"b+#	c #B6926D",
"c+#	c #BD9570",
"d+#	c #C09777",
"e+#	c #C09976",
"f+#	c #BA9770",
"g+#	c #C3B2A1",
"h+#	c #CCCDCF",
"i+#	c #CFC8C1",
"j+#	c #CFCAC1",
"k+#	c #C9C3B5",
"l+#	c #CCBCAB",
"m+#	c #C1AF98",
"n+#	c #C8BBA9",
"o+#	c #CCC3B0",
"p+#	c #D0C0AC",
"q+#	c #D4C6BE",
"r+#	c #C5A693",
"s+#	c #A4846B",
"t+#	c #A18E82",
"u+#	c #BA8D6E",
"v+#	c #B89070",
"w+#	c #B18666",
"x+#	c #B38258",
"y+#	c #AF794E",
"z+#	c #B87C41",
"A+#	c #B98254",
"B+#	c #AD8A72",
"C+#	c #B4A290",
"D+#	c #CBBCAC",
"E+#	c #C6B9AE",
"F+#	c #BBABA1",
"G+#	c #C6B6AB",
"H+#	c #B59D8F",
"I+#	c #BFB19E",
"J+#	c #BBAB91",
"K+#	c #C0A890",
"L+#	c #C1B090",
"M+#	c #C7B99F",
"N+#	c #C9AE91",
"O+#	c #AB774F",
"P+#	c #A36839",
"Q+#	c #AA7041",
"R+#	c #A97644",
"S+#	c #AB7F4C",
"T+#	c #B7926B",
"U+#	c #C6A687",
"V+#	c #B89E85",
"W+#	c #AE9D8D",
"X+#	c #BC834D",
"Y+#	c #BF8046",
"Z+#	c #C28142",
"`+#	c #C08041",
" @#	c #BD7F44",
".@#	c #CA8E59",
"+@#	c #C18950",
"@@#	c #C5A37B",
"#@#	c #D2C0AD",
"$@#	c #CFBCA9",
"%@#	c #D2C6BA",
"&@#	c #D5CAC0",
"*@#	c #D3C2B5",
"=@#	c #CBB59E",
"-@#	c #D4C8B8",
";@#	c #CDC2B2",
">@#	c #CAA886",
",@#	c #C48E5D",
"'@#	c #CA8A50",
")@#	c #C68853",
"!@#	c #C38D5B",
"~@#	c #AB9178",
"{@#	c #B5A394",
"]@#	c #C6C0B8",
"^@#	c #C7C4BB",
"/@#	c #C4C0BB",
"(@#	c #C7C4C0",
"_@#	c #C9C5C3",
":@#	c #CBC6C6",
"<@#	c #C4B9B6",
"[@#	c #BEB4A6",
"}@#	c #A88577",
"|@#	c #9A5F49",
"1@#	c #9B5D33",
"2@#	c #985930",
"3@#	c #9B5E37",
"4@#	c #975D3B",
"5@#	c #9A6242",
"6@#	c #A7836E",
"7@#	c #C1BDB6",
"8@#	c #CFBDB8",
"9@#	c #A68672",
"0@#	c #A88C73",
"a@#	c #BD9683",
"b@#	c #BE9E8B",
"c@#	c #C5A490",
"d@#	c #D2B19D",
"e@#	c #C2A08C",
"f@#	c #C1A092",
"g@#	c #D2C7C4",
"h@#	c #CEBEB7",
"i@#	c #BEA99E",
"j@#	c #C9B6AF",
"k@#	c #C8BDB4",
"l@#	c #D3CCC2",
"m@#	c #D2CBC2",
"n@#	c #D2C9C2",
"o@#	c #CABAB5",
"p@#	c #D0C8C4",
"q@#	c #BCA083",
"r@#	c #B8A28F",
"s@#	c #AF9A81",
"t@#	c #A98F7A",
"u@#	c #A27D5D",
"v@#	c #AE896A",
"w@#	c #B68C64",
"x@#	c #AE7C4C",
"y@#	c #B27944",
"z@#	c #AD743E",
"A@#	c #A77141",
"B@#	c #A3774B",
"C@#	c #AA7C47",
"D@#	c #A78260",
"E@#	c #B29170",
"F@#	c #B28859",
"G@#	c #B1895F",
"H@#	c #B19786",
"I@#	c #CBC4B6",
"J@#	c #CFC1AF",
"K@#	c #C2B09B",
"L@#	c #BA977A",
"M@#	c #B98B5F",
"N@#	c #C4A78E",
"O@#	c #B5885E",
"P@#	c #B97E4E",
"Q@#	c #B87E4C",
"R@#	c #B9824A",
"S@#	c #B98045",
"T@#	c #BC8247",
"U@#	c #BD854A",
"V@#	c #BD874F",
"W@#	c #BB854D",
"X@#	c #BC8556",
"Y@#	c #C1966D",
"Z@#	c #9C9793",
"`@#	c #C3A17A",
" ##	c #C19A70",
".##	c #BA9268",
"+##	c #BD9569",
"@##	c #C19363",
"###	c #BF9160",
"$##	c #BD9163",
"%##	c #C7A583",
"&##	c #BC9B7C",
"*##	c #B99B7E",
"=##	c #CFD0CF",
"-##	c #CFCFCD",
";##	c #D3CFCC",
">##	c #CDCBC6",
",##	c #C2B7A8",
"'##	c #B39070",
")##	c #B7997B",
"!##	c #C8B7A2",
"~##	c #C3A57C",
"{##	c #C09769",
"]##	c #C7A283",
"^##	c #C8A585",
"/##	c #A28E80",
"(##	c #BA9573",
"_##	c #B99172",
":##	c #B58866",
"<##	c #AD8664",
"[##	c #AF825C",
"}##	c #AE7B53",
"|##	c #B07641",
"1##	c #B17E54",
"2##	c #A38E78",
"3##	c #B09F83",
"4##	c #C8BAA6",
"5##	c #CDC0B4",
"6##	c #CAC7BF",
"7##	c #C4B5B1",
"8##	c #C0AEA9",
"9##	c #CEBDB8",
"0##	c #CFC0BA",
"a##	c #CABCAB",
"b##	c #CABFB4",
"c##	c #CABEB0",
"d##	c #CBBCAE",
"e##	c #B8977B",
"f##	c #A56136",
"g##	c #A25F32",
"h##	c #A56E3B",
"i##	c #B0895C",
"j##	c #C6AA8B",
"k##	c #BDAB99",
"l##	c #AC8D67",
"m##	c #A39078",
"n##	c #B49C88",
"o##	c #BD885C",
"p##	c #C38549",
"q##	c #C28448",
"r##	c #C08042",
"s##	c #C2803C",
"t##	c #C58341",
"u##	c #C78447",
"v##	c #C88548",
"w##	c #C78548",
"x##	c #C38646",
"y##	c #C5A98B",
"z##	c #D0CABD",
"A##	c #D1CBBE",
"B##	c #D4CCC2",
"C##	c #CEB3A2",
"D##	c #C5A68E",
"E##	c #D5CDC0",
"F##	c #CCBCA9",
"G##	c #CDB9A2",
"H##	c #CBA37F",
"I##	c #C58754",
"J##	c #C78C57",
"K##	c #BA9170",
"L##	c #A3A198",
"M##	c #AF9D85",
"N##	c #C6B6A4",
"O##	c #CEC5C1",
"P##	c #A68E77",
"Q##	c #9D755A",
"R##	c #955D39",
"S##	c #955D38",
"T##	c #9C633C",
"U##	c #A7724F",
"V##	c #B3A08D",
"W##	c #C4AE9F",
"X##	c #9E7963",
"Y##	c #996A4C",
"Z##	c #AA876C",
"`##	c #A48970",
" $#	c #C29780",
".$#	c #C08F75",
"+$#	c #BF8D72",
"@$#	c #BE8E71",
"#$#	c #C4947C",
"$$#	c #C09C87",
"%$#	c #CBB2A4",
"&$#	c #BEA08E",
"*$#	c #C49D88",
"=$#	c #BE9786",
"-$#	c #C6A594",
";$#	c #C1A898",
">$#	c #C9C3BE",
",$#	c #C3C1B8",
"'$#	c #C7BFB9",
")$#	c #C9C8C2",
"!$#	c #D0CECB",
"~$#	c #D2C7C2",
"{$#	c #C1AE9F",
"]$#	c #AB9E93",
"^$#	c #C5B3A1",
"/$#	c #BAA99A",
"($#	c #B8A08C",
"_$#	c #C8B29F",
":$#	c #B79981",
"<$#	c #AE7A4A",
"[$#	c #AE7B4A",
"}$#	c #A47544",
"|$#	c #9E744A",
"1$#	c #9C714C",
"2$#	c #A4754D",
"3$#	c #A8784B",
"4$#	c #A87746",
"5$#	c #BC854D",
"6$#	c #BA8D5B",
"7$#	c #B68A57",
"8$#	c #AE8855",
"9$#	c #AC7C4B",
"0$#	c #B19685",
"a$#	c #ACA499",
"b$#	c #B89670",
"c$#	c #C4AF93",
"d$#	c #CCBCA7",
"e$#	c #C2A587",
"f$#	c #C59B75",
"g$#	c #B88155",
"h$#	c #BD7F51",
"i$#	c #BF8650",
"j$#	c #BD8950",
"k$#	c #C49B69",
"l$#	c #BE7C41",
"m$#	c #BD7C47",
"n$#	c #BD7F48",
"o$#	c #BC8245",
"p$#	c #BB8144",
"q$#	c #BB8043",
"r$#	c #BF874D",
"s$#	c #BD864D",
"t$#	c #C39E7E",
"u$#	c #9F9B92",
"v$#	c #B19C86",
"w$#	c #BC9D73",
"x$#	c #B9956D",
"y$#	c #BB9368",
"z$#	c #C29769",
"A$#	c #BF9666",
"B$#	c #BA9161",
"C$#	c #B79061",
"D$#	c #BD9E7B",
"E$#	c #CBAD93",
"F$#	c #C6AC9B",
"G$#	c #CFD0CE",
"H$#	c #D5CFC8",
"I$#	c #CFCCC6",
"J$#	c #B89676",
"K$#	c #C5B4A0",
"L$#	c #C29F7D",
"M$#	c #C29255",
"N$#	c #C58E4C",
"O$#	c #BF8D58",
"P$#	c #BB976B",
"Q$#	c #A9866A",
"R$#	c #AA8669",
"S$#	c #AA846E",
"T$#	c #A5897B",
"U$#	c #B49479",
"V$#	c #BB9373",
"W$#	c #BC8E71",
"X$#	c #B98661",
"Y$#	c #B08566",
"Z$#	c #A9876C",
"`$#	c #9F8067",
" %#	c #A1826A",
".%#	c #CFBAAB",
"+%#	c #AD9176",
"@%#	c #C5B9AA",
"#%#	c #CDC5BA",
"$%#	c #BDAEA6",
"%%#	c #B1998E",
"&%#	c #CBB9B1",
"*%#	c #CEC5BC",
"=%#	c #C7BFB1",
"-%#	c #CCC5BD",
";%#	c #CCC5BC",
">%#	c #CBBFB6",
",%#	c #A46B3E",
"'%#	c #A96439",
")%#	c #A26839",
"!%#	c #A76830",
"~%#	c #C3AA91",
"{%#	c #C0AE99",
"]%#	c #C2844C",
"^%#	c #C1834B",
"/%#	c #C17E44",
"(%#	c #C37D3F",
"_%#	c #C5813F",
":%#	c #C68544",
"<%#	c #C78544",
"[%#	c #C39361",
"}%#	c #CDBAA4",
"|%#	c #D2D0CA",
"1%#	c #D6CFC9",
"2%#	c #D3CCC8",
"3%#	c #CCBAA6",
"4%#	c #D2C6B8",
"5%#	c #CEB7A1",
"6%#	c #CDBCAE",
"7%#	c #CCAC91",
"8%#	c #C0834F",
"9%#	c #C88850",
"0%#	c #BB906B",
"a%#	c #A1A098",
"b%#	c #A48D78",
"c%#	c #A48774",
"d%#	c #C8C7C0",
"e%#	c #CDC4C2",
"f%#	c #CAC4C1",
"g%#	c #C4BAB3",
"h%#	c #B09885",
"i%#	c #C0A796",
"j%#	c #9F6A44",
"k%#	c #955F3D",
"l%#	c #935E3D",
"m%#	c #905D3B",
"n%#	c #8F5B3B",
"o%#	c #94603E",
"p%#	c #AD8360",
"q%#	c #CAB4A7",
"r%#	c #916650",
"s%#	c #BC9D8A",
"t%#	c #BC9C88",
"u%#	c #BE927E",
"v%#	c #BC8E75",
"w%#	c #BB8A6A",
"x%#	c #BE8563",
"y%#	c #BE8565",
"z%#	c #BE896A",
"A%#	c #BC8869",
"B%#	c #B88364",
"C%#	c #BC896B",
"D%#	c #B78263",
"E%#	c #BF8664",
"F%#	c #BB7E5A",
"G%#	c #BD9C88",
"H%#	c #D2C4BE",
"I%#	c #D2BDB4",
"J%#	c #BF9B8C",
"K%#	c #CCB2A8",
"L%#	c #CAC5B8",
"M%#	c #BFBDB4",
"N%#	c #C0BAB7",
"O%#	c #D0C8C5",
"P%#	c #CEC4B8",
"Q%#	c #C0A497",
"R%#	c #BFAB9A",
"S%#	c #BE9C83",
"T%#	c #C6A894",
"U%#	c #BEA89A",
"V%#	c #CFC1BA",
"W%#	c #D2C3BD",
"X%#	c #B79B79",
"Y%#	c #B59570",
"Z%#	c #BAA793",
"`%#	c #AF8A6B",
" &#	c #AE8C6F",
".&#	c #C1A999",
"+&#	c #AA835B",
"@&#	c #AB8259",
"#&#	c #AB7946",
"$&#	c #B37F42",
"%&#	c #BC8644",
"&&#	c #BB8443",
"*&#	c #AF9073",
"=&#	c #B3916B",
"-&#	c #C1A180",
";&#	c #BD936C",
">&#	c #BE8653",
",&#	c #BE834D",
"'&#	c #C0874B",
")&#	c #C0884C",
"!&#	c #C08B4E",
"~&#	c #BF874C",
"{&#	c #C3824C",
"]&#	c #C07E47",
"^&#	c #BB7D45",
"/&#	c #BC7E44",
"(&#	c #BF8548",
"_&#	c #C0894A",
":&#	c #C3884B",
"<&#	c #C59871",
"[&#	c #C5A587",
"}&#	c #AE9D8A",
"|&#	c #B3A08B",
"1&#	c #B89D7C",
"2&#	c #C1996A",
"3&#	c #C4996D",
"4&#	c #BC986F",
"5&#	c #BFA187",
"6&#	c #BFAD9D",
"7&#	c #D2D1CE",
"8&#	c #D4CFCB",
"9&#	c #D5CFCB",
"0&#	c #D3CAC9",
"a&#	c #B08760",
"b&#	c #B28861",
"c&#	c #C09E75",
"d&#	c #CFB8A0",
"e&#	c #C5AE94",
"f&#	c #AA8268",
"g&#	c #A58472",
"h&#	c #BD8F66",
"i&#	c #AE8364",
"j&#	c #A98162",
"k&#	c #A98161",
"l&#	c #A87F5D",
"m&#	c #A98166",
"n&#	c #A8896D",
"o&#	c #BD977A",
"p&#	c #C2A082",
"q&#	c #AD855D",
"r&#	c #CFC2B3",
"s&#	c #C6BFB1",
"t&#	c #CCC6BD",
"u&#	c #CBC6BE",
"v&#	c #CEC6BF",
"w&#	c #CEC4BB",
"x&#	c #C6BAA9",
"y&#	c #A47046",
"z&#	c #A67B55",
"A&#	c #BEB1A0",
"B&#	c #B59C87",
"C&#	c #B98358",
"D&#	c #C18350",
"E&#	c #BE804D",
"F&#	c #BD7B47",
"G&#	c #BD7943",
"H&#	c #C18147",
"I&#	c #C18E63",
"J&#	c #D6B79F",
"K&#	c #D1C9C0",
"L&#	c #CDD2CD",
"M&#	c #CCC8BE",
"N&#	c #D1C9BF",
"O&#	c #CDC3B4",
"P&#	c #D0BEAD",
"Q&#	c #C2AB97",
"R&#	c #CAB9AA",
"S&#	c #D0BBAA",
"T&#	c #C38046",
"U&#	c #C58650",
"V&#	c #A48873",
"W&#	c #B9A595",
"X&#	c #C9C7BC",
"Y&#	c #957E6D",
"Z&#	c #BFB2A8",
"`&#	c #9D6138",
" *#	c #8C5C3B",
".*#	c #945F39",
"+*#	c #B29884",
"@*#	c #C6B4A8",
"#*#	c #B9A291",
"$*#	c #AF8D76",
"%*#	c #BFA695",
"&*#	c #BB9E8D",
"**#	c #B99B84",
"=*#	c #BA8C73",
"-*#	c #B97D63",
";*#	c #B88265",
">*#	c #B68164",
",*#	c #B38062",
"'*#	c #B07E61",
")*#	c #AB7556",
"!*#	c #BF7C53",
"~*#	c #B6774B",
"{*#	c #B88768",
"]*#	c #B27F60",
"^*#	c #B67754",
"/*#	c #AE6F53",
"(*#	c #C3A795",
"_*#	c #C7BEB6",
":*#	c #CFC5C1",
"<*#	c #C3AA98",
"[*#	c #C2A998",
"}*#	c #BB9579",
"|*#	c #BF9A7C",
"1*#	c #C8A88E",
"2*#	c #B18C63",
"3*#	c #B69570",
"4*#	c #B59274",
"5*#	c #B7987E",
"6*#	c #C9BDB5",
"7*#	c #B3947A",
"8*#	c #A97849",
"9*#	c #A97446",
"0*#	c #B67E3E",
"a*#	c #BE813D",
"b*#	c #BC803C",
"c*#	c #BB9776",
"d*#	c #B3997F",
"e*#	c #B2906B",
"f*#	c #B88451",
"g*#	c #BD854D",
"h*#	c #BD844A",
"i*#	c #BE8449",
"j*#	c #BD8543",
"k*#	c #BF8945",
"l*#	c #C08948",
"m*#	c #C58851",
"n*#	c #C1854E",
"o*#	c #BA824C",
"p*#	c #BC7C42",
"q*#	c #BA7A42",
"r*#	c #BA7C41",
"s*#	c #C08C4D",
"t*#	c #C28F50",
"u*#	c #C49765",
"v*#	c #C59F76",
"w*#	c #CAAD93",
"x*#	c #C4AB90",
"y*#	c #A99D8F",
"z*#	c #BE9D7B",
"A*#	c #BE9972",
"B*#	c #C39E72",
"C*#	c #C7A17A",
"D*#	c #BA9975",
"E*#	c #B3936F",
"F*#	c #B5997D",
"G*#	c #CABAA9",
"H*#	c #D1CBC3",
"I*#	c #C8C5C0",
"J*#	c #C6AFA2",
"K*#	c #AB855F",
"L*#	c #A78059",
"M*#	c #AF855E",
"N*#	c #CBB4A5",
"O*#	c #D5CDCB",
"P*#	c #D7CFCD",
"Q*#	c #A6866B",
"R*#	c #AD8768",
"S*#	c #A58873",
"T*#	c #A39692",
"U*#	c #B28761",
"V*#	c #AE8261",
"W*#	c #A68466",
"X*#	c #9F7C5F",
"Y*#	c #A5866C",
"Z*#	c #A88970",
"`*#	c #B99773",
" =#	c #B48F6B",
".=#	c #C3B9A7",
"+=#	c #C5C3B7",
"@=#	c #C9C2B2",
"#=#	c #BEB5AA",
"$=#	c #BCB4A5",
"%=#	c #C5C1B9",
"&=#	c #C8BCB1",
"*=#	c #A08061",
"==#	c #BDA788",
"-=#	c #BBA287",
";=#	c #C6BEB0",
">=#	c #A78F75",
",=#	c #A07956",
"'=#	c #B68157",
")=#	c #B4794C",
"!=#	c #B87B4D",
"~=#	c #B57548",
"{=#	c #C09477",
"]=#	c #D2B6A4",
"^=#	c #CFC6BA",
"/=#	c #D2BFB0",
"(=#	c #C5B4A1",
"_=#	c #CBC1B9",
":=#	c #CCC2BA",
"<=#	c #D6C2B0",
"[=#	c #BA875D",
"}=#	c #BC8557",
"|=#	c #A38672",
"1=#	c #A88E79",
"2=#	c #CABFBB",
"3=#	c #ADA398",
"4=#	c #856C59",
"5=#	c #987258",
"6=#	c #9D6942",
"7=#	c #9A6540",
"8=#	c #95603F",
"9=#	c #915C3B",
"0=#	c #8A5837",
"a=#	c #865D39",
"b=#	c #8B623F",
"c=#	c #8A5F3D",
"d=#	c #957055",
"e=#	c #9C7E61",
"f=#	c #C2AB95",
"g=#	c #B6997C",
"h=#	c #C1AD9F",
"i=#	c #9D988B",
"j=#	c #B97D64",
"k=#	c #B68568",
"l=#	c #B6856B",
"m=#	c #B07E66",
"n=#	c #AD7E65",
"o=#	c #B08168",
"p=#	c #AD785A",
"q=#	c #B27551",
"r=#	c #B26F46",
"s=#	c #B26E42",
"t=#	c #B37954",
"u=#	c #BB8263",
"v=#	c #B47257",
"w=#	c #AD6E4D",
"x=#	c #AD8062",
"y=#	c #C4AEA0",
"z=#	c #CBC4B5",
"A=#	c #CAB2A9",
"B=#	c #C0A695",
"C=#	c #D4C7B9",
"D=#	c #BEA092",
"E=#	c #B2865F",
"F=#	c #B38860",
"G=#	c #A88762",
"H=#	c #BCA38E",
"I=#	c #CEC7C2",
"J=#	c #CCC8C2",
"K=#	c #CAB1A2",
"L=#	c #AC8862",
"M=#	c #AD7C49",
"N=#	c #B88344",
"O=#	c #BA834A",
"P=#	c #BE8553",
"Q=#	c #B2844D",
"R=#	c #B78E64",
"S=#	c #C2A589",
"T=#	c #B5A290",
"U=#	c #AA9478",
"V=#	c #B78855",
"W=#	c #B7864E",
"X=#	c #BC8549",
"Y=#	c #BB8448",
"Z=#	c #B57F42",
"`=#	c #BB8447",
" -#	c #C08A4C",
".-#	c #C18C4F",
"+-#	c #BD8953",
"@-#	c #BC8A56",
"#-#	c #BE8C58",
"$-#	c #BD8B58",
"%-#	c #BB8654",
"&-#	c #BB8754",
"*-#	c #BE8C55",
"=-#	c #BE9057",
"--#	c #BF945C",
";-#	c #BF9663",
">-#	c #BF9869",
",-#	c #C29F77",
"'-#	c #C4A489",
")-#	c #A2A1A2",
"!-#	c #B3A28B",
"~-#	c #B59B7E",
"{-#	c #BD9D76",
"]-#	c #C39F7B",
"^-#	c #BE9E7E",
"/-#	c #B69D7F",
"(-#	c #B2A18D",
"_-#	c #BEAD9C",
":-#	c #BCA999",
"<-#	c #B8A696",
"[-#	c #B7AA9D",
"}-#	c #CBBEB4",
"|-#	c #AF8768",
"1-#	c #A88860",
"2-#	c #A68A66",
"3-#	c #B99877",
"4-#	c #B18F6E",
"5-#	c #B79678",
"6-#	c #C2AC9D",
"7-#	c #C6B3A8",
"8-#	c #A8846A",
"9-#	c #B17952",
"0-#	c #B37951",
"a-#	c #A87A5F",
"b-#	c #A77A5C",
"c-#	c #A77E65",
"d-#	c #AC876D",
"e-#	c #A8846D",
"f-#	c #A8836B",
"g-#	c #A58773",
"h-#	c #BFA386",
"i-#	c #C2A896",
"j-#	c #C2B3A5",
"k-#	c #C0B2A3",
"l-#	c #B7A995",
"m-#	c #C1B19E",
"n-#	c #BEAD9A",
"o-#	c #B7A492",
"p-#	c #B9A694",
"q-#	c #C1B4A8",
"r-#	c #C9BBB1",
"s-#	c #BDAFA3",
"t-#	c #A3856C",
"u-#	c #9E8369",
"v-#	c #C6B8AA",
"w-#	c #C6B8AB",
"x-#	c #BCAFA3",
"y-#	c #BAAEA4",
"z-#	c #B3A59A",
"A-#	c #B19F90",
"B-#	c #98816D",
"C-#	c #B0A191",
"D-#	c #BA916F",
"E-#	c #BA8769",
"F-#	c #BC8D71",
"G-#	c #BA8C6E",
"H-#	c #B88B6A",
"I-#	c #B98B6B",
"J-#	c #B38663",
"K-#	c #D1BCAE",
"L-#	c #CBBCAB",
"M-#	c #C6B3A6",
"N-#	c #BEA99D",
"O-#	c #CDC6B8",
"P-#	c #C4AA97",
"Q-#	c #CEBFB7",
"R-#	c #CFC0B8",
"S-#	c #CEC0B7",
"T-#	c #BEAEA0",
"U-#	c #B58E73",
"V-#	c #947567",
"W-#	c #927468",
"X-#	c #A3887B",
"Y-#	c #B39E93",
"Z-#	c #B3A298",
"`-#	c #BCAEA4",
" ;#	c #958377",
".;#	c #917563",
"+;#	c #9E7F69",
"@;#	c #9B7A5A",
"#;#	c #9D7857",
"$;#	c #916A4A",
"%;#	c #92684C",
"&;#	c #92684B",
"*;#	c #906749",
"=;#	c #886042",
"-;#	c #A27958",
";;#	c #AE9078",
">;#	c #BA967F",
",;#	c #A07B61",
"';#	c #AC8B6B",
");#	c #A0988C",
"!;#	c #A39794",
"~;#	c #B2978D",
"{;#	c #B8927F",
"];#	c #B4866A",
"^;#	c #AC785E",
"/;#	c #AC8163",
"(;#	c #B48066",
"_;#	c #AA6D57",
":;#	c #AB715B",
"<;#	c #AD745E",
"[;#	c #B07862",
"};#	c #AF7D65",
"|;#	c #B1795B",
"1;#	c #B67657",
"2;#	c #B77B5E",
"3;#	c #B57F60",
"4;#	c #AF8062",
"5;#	c #BB917C",
"6;#	c #AF7B68",
"7;#	c #B28B77",
"8;#	c #A08879",
"9;#	c #A28570",
"0;#	c #A3866D",
"a;#	c #BAA79A",
"b;#	c #B7A79B",
"c;#	c #C6B8AF",
"d;#	c #C0B1A6",
"e;#	c #C0A395",
"f;#	c #BAA784",
"g;#	c #A88257",
"h;#	c #AF8053",
"i;#	c #B48558",
"j;#	c #B78D5F",
"k;#	c #B88F65",
"l;#	c #BA9269",
"m;#	c #B68960",
"n;#	c #B2835E",
"o;#	c #B58D71",
"p;#	c #BC9F86",
"q;#	c #A39688",
"r;#	c #B28F66",
"s;#	c #B48A5E",
"t;#	c #B68B5E",
"u;#	c #B68C5D",
"v;#	c #BB9164",
"w;#	c #B88D5F",
"x;#	c #BD8C59",
"y;#	c #BD905F",
"z;#	c #BC9266",
"A;#	c #BD9367",
"B;#	c #BA9165",
"C;#	c #BC9368",
"D;#	c #BB9367",
"E;#	c #B18F68",
"F;#	c #BEA27F",
"G;#	c #C5AB8C",
"H;#	c #C6AC95",
"I;#	c #B9A898",
"J;#	c #A8A49C",
"K;#	c #B9A691",
"L;#	c #B6A999",
"M;#	c #B3A596",
"N;#	c #B0A292",
"O;#	c #B7ABA0",
"P;#	c #B7A291",
"Q;#	c #AE9272",
"R;#	c #B8A78C",
"S;#	c #BEAA92",
"T;#	c #C8B29C",
"U;#	c #C8B199",
"V;#	c #B9A48B",
"W;#	c #BFA892",
"X;#	c #C1A184",
"Y;#	c #AD9485",
"Z;#	c #A78A7D",
"`;#	c #A58E7D",
" >#	c #A48F7E",
".>#	c #9D7E6D",
"+>#	c #A27865",
"@>#	c #A37763",
"#>#	c #A37863",
"$>#	c #A7816A",
"%>#	c #A19182",
"&>#	c #A6A6A4",
"*>#	c #B09D8C",
"=>#	c #B19586",
"->#	c #AE9B8E",
";>#	c #B09E92",
">>#	c #AD9C8E",
",>#	c #9B9491",
"'>#	c #9F8F85",
")>#	c #988982",
"!>#	c #9A897E",
"~>#	c #A18D81",
"{>#	c #9A8675",
"]>#	c #9A8777",
"^>#	c #9C867E",
"/>#	c #A18A83",
"(>#	c #9F877D",
"_>#	c #A18979",
":>#	c #9A8C87",
"<>#	c #9B8F81",
"[>#	c #9D9D9A",
"}>#	c #A19B9E",
"|>#	c #9E8F89",
"1>#	c #AD978B",
"2>#	c #B0968D",
"3>#	c #AB968E",
"4>#	c #AE9790",
"5>#	c #B29B94",
"6>#	c #B59DA1",
"7>#	c #AFA1A0",
"8>#	c #AD998F",
"9>#	c #A99C90",
"0>#	c #A79883",
"a>#	c #A78978",
"b>#	c #A8947D",
"c>#	c #A98F78",
"d>#	c #A7917D",
"e>#	c #A8917C",
"f>#	c #AE9681",
"g>#	c #A89383",
"h>#	c #A59180",
"i>#	c #AD9680",
"j>#	c #AD9788",
"k>#	c #AD9A88",
"l>#	c #B1A08F",
"m>#	c #B39E88",
"n>#	c #AAA6A8",
"o>#	c #A18C7B",
"p>#	c #AE9A81",
"q>#	c #B19472",
"r>#	c #AB8C6A",
"s>#	c #AB8E6B",
"t>#	c #B19170",
"u>#	c #AE9E92",
"v>#	c #ADAAA4",
"w>#	c #AFA5A4",
"x>#	c #A39C9C",
"y>#	c #A69D9E",
"z>#	c #9F9F95",
"A>#	c #A4A39B",
"B>#	c #A39897",
"C>#	c #AEA7A6",
"D>#	c #AAAAA3",
"E>#	c #A8A79E",
"F>#	c #ADA09D",
"G>#	c #A28B81",
"H>#	c #AEA199",
"I>#	c #A7928A",
"J>#	c #A1877E",
"K>#	c #9F867B",
"L>#	c #A0857A",
"M>#	c #A27F72",
"N>#	c #A47B69",
"O>#	c #A78478",
"P>#	c #A68274",
"Q>#	c #A57B6D",
"R>#	c #A67C6D",
"S>#	c #A9887E",
"T>#	c #A18977",
"U>#	c #9B7B68",
"V>#	c #9D7969",
"W>#	c #977A6B",
"X>#	c #927B6C",
"Y>#	c #967C6E",
"Z>#	c #9B8272",
"`>#	c #9D8978",
" ,#	c #A18C80",
".,#	c #9E9286",
"+,#	c #AAA89D",
"@,#	c #AF9C87",
"#,#	c #B59477",
"$,#	c #AE9273",
"%,#	c #AD9071",
"&,#	c #AF8F71",
"*,#	c #B28F6B",
"=,#	c #AF9271",
"-,#	c #AE9373",
";,#	c #AF9072",
">,#	c #AC8D73",
",,#	c #AE9177",
"',#	c #AF9277",
"),#	c #AD9274",
"!,#	c #B19C89",
"~,#	c #968B84",
"{,#	c #9A918B",
"],#	c #9F9490",
"^,#	c #958981",
"/,#	c #9D908A",
"(,#	c #9B8E88",
"_,#	c #9A8881",
":,#	c #97857D",
"<,#	c #9B8A7E",
"[,#	c #988373",
"},#	c #98826F",
"|,#	c #AB9C97",
"1,#	c #A99388",
"2,#	c #A88B7F",
"3,#	c #AA8D7F",
"4,#	c #AB9081",
"5,#	c #AE9687",
"6,#	c #A98E79",
"7,#	c #A68D76",
"8,#	c #AC8F7C",
"9,#	c #A9A0A5",
"0,#	c #A5927F",
"a,#	c #AA9B8A",
"b,#	c #A69084",
"c,#	c #A99085",
"d,#	c #A08F81",
"e,#	c #A09088",
"f,#	c #AC9289",
"g,#	c #A57A69",
"h,#	c #9C7865",
"i,#	c #9C7868",
"j,#	c #9D7C6C",
"k,#	c #A38474",
"l,#	c #A18376",
"m,#	c #A28079",
"n,#	c #AD9992",
"o,#	c #A28577",
"p,#	c #A3683A",
"q,#	c #A56236",
"r,#	c #A35F35",
"s,#	c #A76941",
"t,#	c #9C5E34",
"u,#	c #9F6239",
"v,#	c #A66F49",
"w,#	c #B3A29A",
"x,#	c #BCABA4",
"y,#	c #B7A6A2",
"z,#	c #B7A098",
"A,#	c #B69B90",
"B,#	c #B79D90",
"C,#	c #B8A399",
"D,#	c #BEAEA7",
"E,#	c #BBAEAA",
"F,#	c #BCAFAB",
"G,#	c #BCB0AB",
"H,#	c #B4A9A0",
"I,#	c #BCAA9E",
"J,#	c #BDB0A7",
"K,#	c #B6AAA2",
"L,#	c #B8AAA0",
"M,#	c #BAA39C",
"N,#	c #B8A197",
"O,#	c #B49A8F",
"P,#	c #B0806C",
"Q,#	c #A86E52",
"R,#	c #A8745D",
"S,#	c #AE7B62",
"T,#	c #B28061",
"U,#	c #B37758",
"V,#	c #B28167",
"W,#	c #A39E95",
"X,#	c #AD9F91",
"Y,#	c #A8774F",
"Z,#	c #B87741",
"`,#	c #AA6D3B",
" '#	c #9D6943",
".'#	c #996340",
"+'#	c #865635",
"@'#	c #8A5938",
"#'#	c #936040",
"$'#	c #956D55",
"%'#	c #8E6C52",
"&'#	c #8C6C51",
"*'#	c #98765C",
"='#	c #A3805E",
"-'#	c #A47D5B",
";'#	c #A48671",
">'#	c #ACA799",
",'#	c #B5926B",
"''#	c #BB8551",
")'#	c #BB844F",
"!'#	c #B47B41",
"~'#	c #B6824E",
"{'#	c #B78150",
"]'#	c #B8824C",
"^'#	c #B98447",
"/'#	c #B98246",
"('#	c #B57D41",
"_'#	c #AF783D",
":'#	c #B07A41",
"<'#	c #B27D42",
"['#	c #B37F45",
"}'#	c #B48145",
"|'#	c #B38042",
"1'#	c #B17F41",
"2'#	c #B17F49",
"3'#	c #B38F72",
"4'#	c #ADA09E",
"5'#	c #9E7C67",
"6'#	c #BDAE9E",
"7'#	c #9A765A",
"8'#	c #B6A18F",
"9'#	c #BBA894",
"0'#	c #A58876",
"a'#	c #BB9F8C",
"b'#	c #B29683",
"c'#	c #B89C89",
"d'#	c #BFA692",
"e'#	c #BAA28F",
"f'#	c #BFA898",
"g'#	c #BDA697",
"h'#	c #B5997E",
"i'#	c #B58363",
"j'#	c #B07443",
"k'#	c #B3703F",
"l'#	c #B2703B",
"m'#	c #B47144",
"n'#	c #AF764B",
"o'#	c #AE754A",
"p'#	c #B0764F",
"q'#	c #AD7043",
"r'#	c #B27449",
"s'#	c #B07146",
"t'#	c #AD6F3C",
"u'#	c #A96B39",
"v'#	c #AB6C3F",
"w'#	c #AC7049",
"x'#	c #A9714E",
"y'#	c #A87553",
"z'#	c #AE7F64",
"A'#	c #B79280",
"B'#	c #AE9475",
"C'#	c #BD9C77",
"D'#	c #C3AA8D",
"E'#	c #BCA488",
"F'#	c #AC835B",
"G'#	c #A47B4F",
"H'#	c #AA8154",
"I'#	c #AB8354",
"J'#	c #AF875D",
"K'#	c #AA825E",
"L'#	c #B08A65",
"M'#	c #B38C66",
"N'#	c #9F754D",
"O'#	c #A87F56",
"P'#	c #AD8459",
"Q'#	c #AB8155",
"R'#	c #A48971",
"S'#	c #9E6E48",
"T'#	c #9A6C42",
"U'#	c #9E7044",
"V'#	c #9E7C5A",
"W'#	c #A38066",
"X'#	c #AF8A67",
"Y'#	c #B18B6E",
"Z'#	c #B2816D",
"`'#	c #A95D36",
" )#	c #AA6436",
".)#	c #A96A40",
"+)#	c #A66C48",
"@)#	c #975731",
"#)#	c #9E5C33",
"$)#	c #9D6542",
"%)#	c #AD6F47",
"&)#	c #A7682F",
"*)#	c #A7612A",
"=)#	c #A96330",
"-)#	c #AB6B3F",
";)#	c #A6673A",
">)#	c #9E5F31",
",)#	c #A16133",
"')#	c #AD7A4C",
"))#	c #A9774B",
"!)#	c #A5754B",
"~)#	c #9F9997",
"{)#	c #B8B0A8",
"])#	c #C1B8B1",
"^)#	c #BDB0AC",
"/)#	c #BBA8A1",
"()#	c #BCA79D",
"_)#	c #BCAAA2",
":)#	c #BBAEAB",
"<)#	c #BCB2B2",
"[)#	c #BEB3B1",
"})#	c #C4B8B5",
"|)#	c #C3B4AF",
"1)#	c #AE9181",
"2)#	c #C0AEA5",
"3)#	c #B6ACA6",
"4)#	c #BDB4AE",
"5)#	c #BCB3AD",
"6)#	c #B7ADA4",
"7)#	c #B4A69B",
"8)#	c #A97962",
"9)#	c #AD6E50",
"0)#	c #B0795E",
"a)#	c #B18163",
"b)#	c #BD9278",
"c)#	c #BE9A84",
"d)#	c #B69D90",
"e)#	c #BA7740",
"f)#	c #946542",
"g)#	c #A36D3C",
"h)#	c #915E3D",
"i)#	c #8B5E3A",
"j)#	c #996242",
"k)#	c #A17054",
"l)#	c #8F6B50",
"m)#	c #8E6C51",
"n)#	c #967257",
"o)#	c #9B775E",
"p)#	c #B8875F",
"q)#	c #ACA291",
"r)#	c #BB8D5B",
"s)#	c #BD8344",
"t)#	c #B7844A",
"u)#	c #B6834D",
"v)#	c #B7824D",
"w)#	c #B6844B",
"x)#	c #B38246",
"y)#	c #B67E44",
"z)#	c #B37942",
"A)#	c #B3814E",
"B)#	c #B5804E",
"C)#	c #B7804E",
"D)#	c #B78146",
"E)#	c #B88146",
"F)#	c #B78044",
"G)#	c #B17A3E",
"H)#	c #A97439",
"I)#	c #AF7A40",
"J)#	c #AF7B40",
"K)#	c #AF7C41",
"L)#	c #AE7B3F",
"M)#	c #AF7C3F",
"N)#	c #AE7B3E",
"O)#	c #AC7941",
"P)#	c #A08E80",
"Q)#	c #AF8D75",
"R)#	c #CAB7AA",
"S)#	c #CAB8A8",
"T)#	c #C0B09D",
"U)#	c #BDB19B",
"V)#	c #BDB69C",
"W)#	c #C4BAAA",
"X)#	c #BCB2A3",
"Y)#	c #BFB7A7",
"Z)#	c #C9BEB0",
"`)#	c #C7BCAC",
" !#	c #C3B4A2",
".!#	c #CDBFAD",
"+!#	c #C8BBAA",
"@!#	c #C9BBA9",
"#!#	c #BCAF9C",
"$!#	c #AB7A52",
"%!#	c #B0835D",
"&!#	c #A49B8F",
"*!#	c #A8998A",
"=!#	c #BF8554",
"-!#	c #BC7B40",
";!#	c #B7733A",
">!#	c #B97B40",
",!#	c #B87D40",
"'!#	c #BB7839",
")!#	c #B77433",
"!!#	c #B37035",
"~!#	c #B67A3F",
"{!#	c #AE703C",
"]!#	c #B0723B",
"^!#	c #AE7235",
"/!#	c #AE733B",
"(!#	c #B07239",
"_!#	c #B07038",
":!#	c #AF6C3B",
"<!#	c #AF6E3E",
"[!#	c #AC6F42",
"}!#	c #AD7244",
"|!#	c #AB6F41",
"1!#	c #A8704B",
"2!#	c #B0866C",
"3!#	c #B49668",
"4!#	c #A67A4D",
"5!#	c #A36B34",
"6!#	c #A46F34",
"7!#	c #AB763B",
"8!#	c #AC773C",
"9!#	c #A97541",
"0!#	c #A16D3A",
"a!#	c #A06A37",
"b!#	c #A76F3A",
"c!#	c #AF743D",
"d!#	c #B07943",
"e!#	c #AE7C46",
"f!#	c #B07B41",
"g!#	c #AF7140",
"h!#	c #AF896E",
"i!#	c #B1804D",
"j!#	c #A57844",
"k!#	c #B17F53",
"l!#	c #A07E56",
"m!#	c #9F7E5C",
"n!#	c #A78463",
"o!#	c #B08D68",
"p!#	c #BB976D",
"q!#	c #B6916E",
"r!#	c #B28D6E",
"s!#	c #9C6136",
"t!#	c #AA6232",
"u!#	c #B46B35",
"v!#	c #AE6C39",
"w!#	c #A96B45",
"x!#	c #A2623E",
"y!#	c #A0603B",
"z!#	c #9C5A34",
"A!#	c #9F5C36",
"B!#	c #9E5C35",
"C!#	c #9D5B2D",
"D!#	c #9C5530",
"E!#	c #A3582D",
"F!#	c #A76B3D",
"G!#	c #9E5D2D",
"H!#	c #AF7547",
"I!#	c #A76634",
"J!#	c #AB7646",
"K!#	c #B17648",
"L!#	c #A97952",
"M!#	c #BDB5B0",
"N!#	c #C2B8B4",
"O!#	c #C0B5B0",
"P!#	c #BEB3AE",
"Q!#	c #B7ABA3",
"R!#	c #BCB1A9",
"S!#	c #BDB4B1",
"T!#	c #BCA8A0",
"U!#	c #AA8471",
"V!#	c #AE7E67",
"W!#	c #BDA89F",
"X!#	c #C1B9B2",
"Y!#	c #C1BAB2",
"Z!#	c #C0B8B2",
"`!#	c #C1B4AF",
" ~#	c #B09D97",
".~#	c #B39B91",
"+~#	c #AB6343",
"@~#	c #B4724D",
"#~#	c #AD7249",
"$~#	c #B17A57",
"%~#	c #BEA090",
"&~#	c #B06F41",
"*~#	c #AD7A4B",
"=~#	c #90603F",
"-~#	c #8B5E39",
";~#	c #986340",
">~#	c #9F6842",
",~#	c #A36C45",
"'~#	c #A66F48",
")~#	c #A87556",
"!~#	c #A07155",
"~~#	c #9F7351",
"{~#	c #A17659",
"]~#	c #A47A5B",
"^~#	c #B67F48",
"/~#	c #B88149",
"(~#	c #B27A3F",
"_~#	c #B27745",
":~#	c #B77847",
"<~#	c #B97A47",
"[~#	c #B9804A",
"}~#	c #B67F45",
"|~#	c #B17743",
"1~#	c #B37C46",
"2~#	c #AA743E",
"3~#	c #AB7344",
"4~#	c #AA846C",
"5~#	c #A67D59",
"6~#	c #C3AC98",
"7~#	c #C4A991",
"8~#	c #B0967A",
"9~#	c #BFB19C",
"0~#	c #BDB7A2",
"a~#	c #BFAE99",
"b~#	c #B7AD99",
"c~#	c #C2B4A5",
"d~#	c #C5BEB4",
"e~#	c #C9C1B7",
"f~#	c #CEBBB0",
"g~#	c #C7B7A8",
"h~#	c #C4B6A3",
"i~#	c #C3A88E",
"j~#	c #A76A36",
"k~#	c #A49483",
"l~#	c #BE7A3C",
"m~#	c #BD783B",
"n~#	c #BC793C",
"o~#	c #BF803F",
"p~#	c #BA7B38",
"q~#	c #BB7A39",
"r~#	c #B97938",
"s~#	c #B87938",
"t~#	c #B9793D",
"u~#	c #B7773C",
"v~#	c #B8773D",
"w~#	c #B8743E",
"x~#	c #B7723A",
"y~#	c #B77336",
"z~#	c #B97A3D",
"A~#	c #BA7C40",
"B~#	c #B87B3F",
"C~#	c #BA7B41",
"D~#	c #B87740",
"E~#	c #B5733E",
"F~#	c #B47544",
"G~#	c #A96D3C",
"H~#	c #B7956D",
"I~#	c #B99972",
"J~#	c #AC8155",
"K~#	c #A1642E",
"L~#	c #A96932",
"M~#	c #AA6D33",
"N~#	c #A86E32",
"O~#	c #A96E32",
"P~#	c #AB7035",
"Q~#	c #AE7037",
"R~#	c #AF6C37",
"S~#	c #AA6734",
"T~#	c #A66534",
"U~#	c #A86836",
"V~#	c #A3652F",
"W~#	c #9D5F2A",
"X~#	c #A2632C",
"Y~#	c #A5662C",
"Z~#	c #AE6F34",
"`~#	c #B07338",
" {#	c #B0743C",
".{#	c #AE7239",
"+{#	c #B17139",
"@{#	c #B1723D",
"#{#	c #AC7641",
"${#	c #A19691",
"%{#	c #A88974",
"&{#	c #A4764E",
"*{#	c #A06F46",
"={#	c #A56E44",
"-{#	c #AF7847",
";{#	c #B17B4A",
">{#	c #B58052",
",{#	c #AC8059",
"'{#	c #B18A60",
"){#	c #BB9167",
"!{#	c #BF9567",
"~{#	c #B78E62",
"{{#	c #AB6631",
"]{#	c #AF6A32",
"^{#	c #A66134",
"/{#	c #A86038",
"({#	c #AA6338",
"_{#	c #9D592F",
":{#	c #9D5A32",
"<{#	c #A6623B",
"[{#	c #A25D33",
"}{#	c #AA663E",
"|{#	c #A45F34",
"1{#	c #AD6E42",
"2{#	c #AC7847",
"3{#	c #B27E4E",
"4{#	c #C0B7B3",
"5{#	c #C2B8B5",
"6{#	c #C1B6B1",
"7{#	c #B6ACA4",
"8{#	c #B9AFA7",
"9{#	c #C3B9B3",
"0{#	c #C2B3B2",
"a{#	c #C2ACA3",
"b{#	c #AE7C65",
"c{#	c #BAA49B",
"d{#	c #BFBAB3",
"e{#	c #BDBAB3",
"f{#	c #BDBBB2",
"g{#	c #BAB4A9",
"h{#	c #BAAD9E",
"i{#	c #A9623F",
"j{#	c #AE683F",
"k{#	c #AA6D42",
"l{#	c #AC7650",
"m{#	c #BC9680",
"n{#	c #B68D78",
"o{#	c #A97A5E",
"p{#	c #975E37",
"q{#	c #995B31",
"r{#	c #AE7047",
"s{#	c #B47A47",
"t{#	c #996542",
"u{#	c #95623E",
"v{#	c #96653E",
"w{#	c #A36C46",
"x{#	c #A87150",
"y{#	c #A5724E",
"z{#	c #AC7E57",
"A{#	c #AC7B52",
"B{#	c #A67551",
"C{#	c #B68555",
"D{#	c #B37A43",
"E{#	c #B77E45",
"F{#	c #B2773E",
"G{#	c #B1703F",
"H{#	c #B37140",
"I{#	c #B87F43",
"J{#	c #B77C41",
"K{#	c #AA7243",
"L{#	c #C3AF9C",
"M{#	c #C5A58A",
"N{#	c #C09975",
"O{#	c #AA8C73",
"P{#	c #CCC0B1",
"Q{#	c #CDC1B5",
"R{#	c #CAC0B6",
"S{#	c #C4BAAF",
"T{#	c #A36B3D",
"U{#	c #A76936",
"V{#	c #A76733",
"W{#	c #A26231",
"X{#	c #A69684",
"Y{#	c #C08955",
"Z{#	c #C07C3D",
"`{#	c #BB783A",
" ]#	c #C0803F",
".]#	c #BA7C3A",
"+]#	c #BA7A39",
"@]#	c #B87837",
"#]#	c #B97839",
"$]#	c #BB793D",
"%]#	c #B9773E",
"&]#	c #BB713F",
"*]#	c #B96E3A",
"=]#	c #B97036",
"-]#	c #BD7C3D",
";]#	c #BE8040",
">]#	c #C08242",
",]#	c #C08141",
"']#	c #BF8040",
")]#	c #BC7E3E",
"!]#	c #BB7B3C",
"~]#	c #B87739",
"{]#	c #BA7A3B",
"]]#	c #BD7D45",
"^]#	c #B97C45",
"/]#	c #B77943",
"(]#	c #B39A7D",
"_]#	c #C8BAA0",
":]#	c #B4997C",
"<]#	c #AE8A65",
"[]#	c #A6662E",
"}]#	c #AA6A33",
"|]#	c #AE6E36",
"1]#	c #AB6D33",
"2]#	c #AA6F35",
"3]#	c #AC6B34",
"4]#	c #A8632D",
"5]#	c #A55E2C",
"6]#	c #A15E2E",
"7]#	c #A46131",
"8]#	c #A76534",
"9]#	c #A56530",
"0]#	c #A1612B",
"a]#	c #A1612A",
"b]#	c #A6672C",
"c]#	c #A8682E",
"d]#	c #AC6E36",
"e]#	c #AA6C36",
"f]#	c #AC7640",
"g]#	c #AB8B6C",
"h]#	c #A98665",
"i]#	c #B5875D",
"j]#	c #B47E50",
"k]#	c #A8764C",
"l]#	c #AF7548",
"m]#	c #B17A48",
"n]#	c #B57D4B",
"o]#	c #B68051",
"p]#	c #B4875D",
"q]#	c #BA8E5A",
"r]#	c #AB8262",
"s]#	c #AE8B73",
"t]#	c #AB6337",
"u]#	c #AB6633",
"v]#	c #A76635",
"w]#	c #A36536",
"x]#	c #A05D30",
"y]#	c #AC6238",
"z]#	c #A86339",
"A]#	c #B0744F",
"B]#	c #A66339",
"C]#	c #AC7949",
"D]#	c #B48352",
"E]#	c #B1805A",
"F]#	c #A69690",
"G]#	c #C2B7B4",
"H]#	c #BEB4AD",
"I]#	c #B7ACA5",
"J]#	c #BAB0A8",
"K]#	c #BEB4AC",
"L]#	c #BFB4B2",
"M]#	c #B18060",
"N]#	c #B5836C",
"O]#	c #C3ACA2",
"P]#	c #BFB9B4",
"Q]#	c #BEBAB4",
"R]#	c #BBB8AF",
"S]#	c #BEB1A3",
"T]#	c #C5AC9C",
"U]#	c #B68369",
"V]#	c #B47556",
"W]#	c #B07149",
"X]#	c #B07753",
"Y]#	c #B17153",
"Z]#	c #B37353",
"`]#	c #A98778",
" ^#	c #A07253",
".^#	c #985E34",
"+^#	c #9A623B",
"@^#	c #AE7045",
"#^#	c #AD6D3C",
"$^#	c #B3743E",
"%^#	c #B0713E",
"&^#	c #9D653E",
"*^#	c #9D653D",
"=^#	c #A06B41",
"-^#	c #9E633B",
";^#	c #9F6640",
">^#	c #A66D4A",
",^#	c #A36C49",
"'^#	c #A46F48",
")^#	c #B28151",
"!^#	c #B27841",
"~^#	c #B67D44",
"{^#	c #B1763D",
"]^#	c #B37842",
"^^#	c #B2713F",
"/^#	c #B47842",
"(^#	c #B17641",
"_^#	c #B07A46",
":^#	c #AF7744",
"<^#	c #A97042",
"[^#	c #C0AD9A",
"}^#	c #C0A892",
"|^#	c #C4A78C",
"1^#	c #C7A686",
"2^#	c #C7A78A",
"3^#	c #CBB8A5",
"4^#	c #C1AD9D",
"5^#	c #C5B7A8",
"6^#	c #C8B9A9",
"7^#	c #CBBAAB",
"8^#	c #CDBFB0",
"9^#	c #B8A594",
"0^#	c #AE8D79",
"a^#	c #A86936",
"b^#	c #A86834",
"c^#	c #AC6C36",
"d^#	c #AD8364",
"e^#	c #A69685",
"f^#	c #BF8854",
"g^#	c #BF7C3E",
"h^#	c #C17D40",
"i^#	c #C08241",
"j^#	c #BD7F3E",
"k^#	c #B37332",
"l^#	c #B27131",
"m^#	c #B67633",
"n^#	c #BA793B",
"o^#	c #B7743F",
"p^#	c #B6703E",
"q^#	c #B7703B",
"r^#	c #BB753B",
"s^#	c #BD7D3C",
"t^#	c #BC7E3C",
"u^#	c #BE803D",
"v^#	c #BE7E3F",
"w^#	c #BA783B",
"x^#	c #BA793C",
"y^#	c #B17540",
"z^#	c #B19779",
"A^#	c #BFB7A1",
"B^#	c #CBBBA5",
"C^#	c #BEA58B",
"D^#	c #A5764B",
"E^#	c #A4662F",
"F^#	c #A4642D",
"G^#	c #AB6B34",
"H^#	c #A86A30",
"I^#	c #AB7135",
"J^#	c #A7632D",
"K^#	c #A45E2D",
"L^#	c #A56232",
"M^#	c #A56631",
"N^#	c #A86832",
"O^#	c #A4652E",
"P^#	c #A5652B",
"Q^#	c #A7682E",
"R^#	c #AC6E34",
"S^#	c #AA6C34",
"T^#	c #A86730",
"U^#	c #AE8F6D",
"V^#	c #A88560",
"W^#	c #BA8257",
"X^#	c #B47D4E",
"Y^#	c #AD7648",
"Z^#	c #AD7746",
"`^#	c #AF7746",
" /#	c #B27E52",
"./#	c #B17D52",
"+/#	c #B38150",
"@/#	c #B08866",
"#/#	c #B48F76",
"$/#	c #A9765A",
"%/#	c #AF6E3F",
"&/#	c #AC6431",
"*/#	c #A96F3E",
"=/#	c #AD7A52",
"-/#	c #AD7A4E",
";/#	c #A97B52",
">/#	c #AC7E51",
",/#	c #AD805C",
"'/#	c #AB7E5B",
")/#	c #BFB3B0",
"!/#	c #C2B4AE",
"~/#	c #C2B2A8",
"{/#	c #C0ADA3",
"]/#	c #BBB0A6",
"^/#	c #BBB1A8",
"//#	c #BDB4AD",
"(/#	c #BEB6B1",
"_/#	c #B89E8B",
":/#	c #B07F5D",
"</#	c #B38363",
"[/#	c #BCA191",
"}/#	c #BAACA6",
"|/#	c #C3BBB3",
"1/#	c #BEAA9D",
"2/#	c #C5B1AB",
"3/#	c #BC9383",
"4/#	c #BA7E5B",
"5/#	c #B27D57",
"6/#	c #BA8E6F",
"7/#	c #B58563",
"8/#	c #B57751",
"9/#	c #B47755",
"0/#	c #AF8878",
"a/#	c #A59A9E",
"b/#	c #A27C5C",
"c/#	c #AB7247",
"d/#	c #B27042",
"e/#	c #AE6E3A",
"f/#	c #A1663C",
"g/#	c #A06239",
"h/#	c #9F6038",
"i/#	c #9F643D",
"j/#	c #9F6743",
"k/#	c #9F6843",
"l/#	c #9C653F",
"m/#	c #A36B43",
"n/#	c #A66D45",
"o/#	c #AA724A",
"p/#	c #AB794E",
"q/#	c #A67952",
"r/#	c #AE9A8B",
"s/#	c #B78355",
"t/#	c #B07842",
"u/#	c #B2753D",
"v/#	c #B1733A",
"w/#	c #B5773F",
"x/#	c #AF7543",
"y/#	c #AF703F",
"z/#	c #B37643",
"A/#	c #B07743",
"B/#	c #AE7642",
"C/#	c #AF7542",
"D/#	c #AC7042",
"E/#	c #A77145",
"F/#	c #A87547",
"G/#	c #A67043",
"H/#	c #A46B41",
"I/#	c #9C7A5B",
"J/#	c #9D7F5E",
"K/#	c #B9A389",
"L/#	c #C0A78D",
"M/#	c #BCA285",
"N/#	c #B89D7F",
"O/#	c #BFA48B",
"P/#	c #CEB4A0",
"Q/#	c #C6A990",
"R/#	c #C5B6A3",
"S/#	c #C7BAA4",
"T/#	c #C2B096",
"U/#	c #C0A98C",
"V/#	c #B8A387",
"W/#	c #C5B49D",
"X/#	c #BEA891",
"Y/#	c #C7B5A0",
"Z/#	c #BCA995",
"`/#	c #BBA28B",
" (#	c #AD713F",
".(#	c #AB6E3B",
"+(#	c #AD6E3A",
"@(#	c #A7896E",
"#(#	c #AA948A",
"$(#	c #C48242",
"%(#	c #C2803F",
"&(#	c #C3823F",
"*(#	c #BF8543",
"=(#	c #BE8544",
"-(#	c #BD8442",
";(#	c #BC7E3A",
">(#	c #B87634",
",(#	c #B97B3F",
"'(#	c #BB7C40",
")(#	c #BB7D3F",
"!(#	c #BC7E40",
"~(#	c #BE823D",
"{(#	c #BE803A",
"](#	c #B97A36",
"^(#	c #BA7A3A",
"/(#	c #BA7A3C",
"((#	c #B97B3E",
"_(#	c #B57739",
":(#	c #A39592",
"<(#	c #B39E82",
"[(#	c #C7BDAA",
"}(#	c #C2AD9B",
"|(#	c #946840",
"1(#	c #9D5D31",
"2(#	c #A16532",
"3(#	c #A16630",
"4(#	c #A16832",
"5(#	c #A06834",
"6(#	c #A36837",
"7(#	c #A16132",
"8(#	c #A16032",
"9(#	c #A26033",
"0(#	c #A26435",
"a(#	c #A16535",
"b(#	c #9F6432",
"c(#	c #A26734",
"d(#	c #A36733",
"e(#	c #A1642F",
"f(#	c #A3662F",
"g(#	c #A66A2F",
"h(#	c #AA6E33",
"i(#	c #A76B34",
"j(#	c #A26632",
"k(#	c #A46E3B",
"l(#	c #A57949",
"m(#	c #A1907B",
"n(#	c #B4825A",
"o(#	c #BA835B",
"p(#	c #B4825B",
"q(#	c #AA7851",
"r(#	c #AF7B4E",
"s(#	c #AE7545",
"t(#	c #AC7646",
"u(#	c #AE7649",
"v(#	c #AC774A",
"w(#	c #B4824E",
"x(#	c #B68350",
"y(#	c #B68856",
"z(#	c #B1865D",
"A(#	c #B58A67",
"B(#	c #AF7248",
"C(#	c #B47446",
"D(#	c #B6784A",
"E(#	c #B77B48",
"F(#	c #AD6F3B",
"G(#	c #A2683D",
"H(#	c #A36D46",
"I(#	c #A9764D",
"J(#	c #A9774D",
"K(#	c #A57752",
"L(#	c #A97856",
"M(#	c #A5784F",
"N(#	c #A7754E",
"O(#	c #A66C47",
"P(#	c #BCA7A3",
"Q(#	c #C1A59D",
"R(#	c #BEA399",
"S(#	c #B4A597",
"T(#	c #B4A497",
"U(#	c #B8A699",
"V(#	c #BBAFA5",
"W(#	c #AE815F",
"X(#	c #C4A494",
"Y(#	c #BA9A90",
"Z(#	c #BCB4A3",
"`(#	c #B09585",
" _#	c #BEB1AF",
"._#	c #C09D8D",
"+_#	c #B57F5D",
"@_#	c #B47953",
"#_#	c #B9764C",
"$_#	c #B77752",
"%_#	c #B08470",
"&_#	c #A37F6E",
"*_#	c #A06238",
"=_#	c #AE6F44",
"-_#	c #AB6E3A",
";_#	c #A46439",
">_#	c #A16037",
",_#	c #9E5D34",
"'_#	c #A06035",
")_#	c #9A613B",
"!_#	c #99613D",
"~_#	c #A26840",
"{_#	c #A56A40",
"]_#	c #9B704A",
"^_#	c #AB6D3C",
"/_#	c #B27744",
"(_#	c #AA6F3E",
"__#	c #AC7142",
":_#	c #B07647",
"<_#	c #AC7344",
"[_#	c #A76B3E",
"}_#	c #AC7043",
"|_#	c #A5704A",
"1_#	c #A46F4A",
"2_#	c #9A7B5D",
"3_#	c #927755",
"4_#	c #B29572",
"5_#	c #BA9C77",
"6_#	c #A87255",
"7_#	c #B3916D",
"8_#	c #9B7752",
"9_#	c #A98B6C",
"0_#	c #B49D82",
"a_#	c #A68669",
"b_#	c #A38468",
"c_#	c #937457",
"d_#	c #B27D51",
"e_#	c #B47F53",
"f_#	c #9F8B78",
"g_#	c #C48543",
"h_#	c #C08542",
"i_#	c #BE8743",
"j_#	c #BF8746",
"k_#	c #BF8646",
"l_#	c #BF8243",
"m_#	c #B8793C",
"n_#	c #BE7D3E",
"o_#	c #B98046",
"p_#	c #BC8244",
"q_#	c #BA8142",
"r_#	c #BC7D38",
"s_#	c #B77832",
"t_#	c #B57631",
"u_#	c #B67637",
"v_#	c #B77A3B",
"w_#	c #B87D3D",
"x_#	c #BA7C3B",
"y_#	c #B97937",
"z_#	c #B4793B",
"A_#	c #B28967",
"B_#	c #AC9D89",
"C_#	c #CAB9A4",
"D_#	c #CCC0B0",
"E_#	c #C3B4A3",
"F_#	c #9B7254",
"G_#	c #976442",
"H_#	c #956740",
"I_#	c #946741",
"J_#	c #9D673C",
"K_#	c #9E683C",
"L_#	c #A0693E",
"M_#	c #A06B3B",
"N_#	c #9F6A36",
"O_#	c #A36E3F",
"P_#	c #A16D39",
"Q_#	c #A3713D",
"R_#	c #A17149",
"S_#	c #967357",
"T_#	c #9C9188",
"U_#	c #979691",
"V_#	c #9F9688",
"W_#	c #AD855F",
"X_#	c #AF886C",
"Y_#	c #AB7143",
"Z_#	c #A9733F",
"`_#	c #A87340",
" :#	c #B27946",
".:#	c #B27D50",
"+:#	c #A29894",
"@:#	c #B27242",
"#:#	c #B17147",
"$:#	c #AF703D",
"%:#	c #AD6939",
"&:#	c #AD6B3C",
"*:#	c #AE6D3E",
"=:#	c #A96D42",
"-:#	c #AA673D",
";:#	c #A48A78",
">:#	c #9D7D67",
",:#	c #A36E48",
"':#	c #A46943",
"):#	c #A37357",
"!:#	c #AFA199",
"~:#	c #B69A88",
"{:#	c #BDB0A9",
"]:#	c #B29E98",
"^:#	c #B1A59C",
"/:#	c #B2A5A8",
"(:#	c #B69D9A",
"_:#	c #AF8E82",
"::#	c #AF9A94",
"<:#	c #998069",
"[:#	c #9C765C",
"}:#	c #93634C",
"|:#	c #9E6848",
"1:#	c #9E7151",
"2:#	c #9C6642",
"3:#	c #9C623D",
"4:#	c #9A603E",
"5:#	c #965D3B",
"6:#	c #955C3A",
"7:#	c #906143",
"8:#	c #926345",
"9:#	c #946546",
"0:#	c #986B4F",
"a:#	c #93664A",
"b:#	c #9A6B52",
"c:#	c #9C6C52",
"d:#	c #AB7C57",
"e:#	c #A88A77",
"f:#	c #A57D62",
"g:#	c #A8795B",
"h:#	c #A47757",
"i:#	c #A57557",
"j:#	c #A77859",
"k:#	c #A16E4C",
"l:#	c #9E6B48",
"m:#	c #927557",
"n:#	c #A77756",
"o:#	c #A3846E",
"p:#	c #9D826E",
"q:#	c #A38D75",
"r:#	c #906F5D",
"s:#	c #957661",
"t:#	c #977763",
"u:#	c #AF9076",
"v:#	c #B28D6D",
"w:#	c #ADA7A7",
"x:#	c #B98D63",
"y:#	c #BB8A54",
"z:#	c #BA864A",
"A:#	c #B98953",
"B:#	c #B88754",
"C:#	c #B7814E",
"D:#	c #B9824B",
"E:#	c #B98552",
"F:#	c #B9864E",
"G:#	c #BA874F",
"H:#	c #BC8851",
"I:#	c #BC874F",
"J:#	c #B58144",
"K:#	c #B47D3F",
"L:#	c #B77F44",
"M:#	c #B77E47",
"N:#	c #B98546",
"O:#	c #B98445",
"P:#	c #B98344",
"Q:#	c #B78144",
"R:#	c #B39375",
"S:#	c #A7A69E",
"T:#	c #BCA58D",
"U:#	c #B7A799",
"V:#	c #9E846D",
"W:#	c #987458",
"X:#	c #947158",
"Y:#	c #9C795F",
"Z:#	c #9C795E",
"`:#	c #9C795B",
" <#	c #A17E5C",
".<#	c #A5805B",
"+<#	c #A27B54",
"@<#	c #A57F5A",
"#<#	c #9C785C",
"$<#	c #98744C",
"%<#	c #99744F",
"&<#	c #9C7551",
"*<#	c #A47B58",
"=<#	c #9B8174",
"-<#	c #999693",
";<#	c #9B9690",
"><#	c #A1755A",
",<#	c #A9876D",
"'<#	c #A78162",
")<#	c #A0704D",
"!<#	c #A1734C",
"~<#	c #A57650",
"{<#	c #A98E77",
"]<#	c #A5836D",
"^<#	c #A5836E",
"/<#	c #9F7E6B",
"(<#	c #A4836E",
"_<#	c #A68571",
":<#	c #A5826F",
"<<#	c #A6806E",
"[<#	c #A37B68",
"}<#	c #A77E68",
"|<#	c #AB836C",
"1<#	c #A88771",
"2<#	c #AD9990",
"3<#	c #A7958E",
"4<#	c #A2988D",
"5<#	c #A69686",
"6<#	c #A99F91",
"7<#	c #A5988F",
"8<#	c #9F938F",
"9<#	c #9E948F",
"0<#	c #A1978A",
"a<#	c #A09589",
"b<#	c #A2938F",
"c<#	c #AB9A84",
"d<#	c #AFA292",
"e<#	c #AF9E8E",
"f<#	c #B39B8C",
"g<#	c #AF9D8C",
"h<#	c #AF9D91",
"i<#	c #AE9B8D",
"j<#	c #AF9C8B",
"k<#	c #AE9A87",
"l<#	c #AF9788",
"m<#	c #AA9A8B",
"n<#	c #AC957C",
"o<#	c #A9967E",
"p<#	c #A7957E",
"q<#	c #A59280",
"r<#	c #A0978E",
"s<#	c #9C938A",
"t<#	c #9F968A",
"u<#	c #9A9284",
"v<#	c #9C9388",
"w<#	c #9F958B",
"x<#	c #9E8F80",
"y<#	c #A28E7D",
"z<#	c #A08E7E",
"A<#	c #9A877B",
"B<#	c #A8958E",
"C<#	c #ABA2A5",
"D<#	c #A9A1A4",
"E<#	c #AAA5A7",
"F<#	c #AAA4A9",
"G<#	c #ADA9A9",
"H<#	c #AEA9AA",
"I<#	c #ACA6A8",
"J<#	c #ADA9AC",
"K<#	c #A8A3A6",
"L<#	c #B09988",
"M<#	c #A09E9D",
"N<#	c #A09D9B",
"O<#	c #A79894",
"P<#	c #A39686",
"Q<#	c #ACA79E",
"R<#	c #B1A19F",
"S<#	c #B09E9A",
"T<#	c #A39793",
"U<#	c #A89997",
"V<#	c #9E9893",
"W<#	c #A3A29E",
"X<#	c #A3A3A0",
"Y<#	c #A7A7A4",
"Z<#	c #A9A6A8",
"`<#	c #B0A7A2",
" [#	c #AA8C74",
".[#	c #B19982",
"+[#	c #B0A49C",
"@[#	c #AC8969",
"#[#	c #AC8B68",
"$[#	c #AE8A70",
"%[#	c #B08D73",
"&[#	c #AF8E78",
"*[#	c #AB9996",
"=[#	c #AB9586",
"-[#	c #B08B7C",
";[#	c #B2907E",
">[#	c #AA9A89",
",[#	c #B09F97",
"'[#	c #B0937D",
")[#	c #AF927D",
"![#	c #AAA8A9",
"~[#	c #9A8780",
"{[#	c #997E72",
"][#	c #927A70",
"^[#	c #8B736B",
"/[#	c #927A71",
"([#	c #8C726A",
"_[#	c #8A7067",
":[#	c #8E766C",
"<[#	c #987F74",
"[[#	c #968170",
"}[#	c #8D7260",
"|[#	c #937768",
"1[#	c #957B6D",
"2[#	c #967A6D",
"3[#	c #93786A",
"4[#	c #92776A",
"5[#	c #8E7365",
"6[#	c #907464",
"7[#	c #92786A",
"8[#	c #B78754",
"9[#	c #987557",
"0[#	c #A28C77",
"a[#	c #BBB7B4",
"b[#	c #BCB6B4",
"c[#	c #BAB6B3",
"d[#	c #B9B7B5",
"e[#	c #B7B4B3",
"f[#	c #B4B1B0",
"g[#	c #B3B1AE",
"h[#	c #AFABA8",
"i[#	c #B0ACA9",
"j[#	c #B2AEA8",
"k[#	c #B0ADA6",
"l[#	c #AF835D",
"m[#	c #A87F59",
"n[#	c #A67F5C",
"o[#	c #A27957",
"p[#	c #A87243",
"q[#	c #A97343",
"r[#	c #AB7545",
"s[#	c #AF7944",
"t[#	c #AF7C40",
"u[#	c #B3A49D",
"v[#	c #AE9B95",
"w[#	c #B6A49E",
"x[#	c #C0B5AB",
"y[#	c #BBACA0",
"z[#	c #B89C90",
"A[#	c #A3735D",
"B[#	c #A07862",
"C[#	c #9F7660",
"D[#	c #AA8269",
"E[#	c #98755A",
"F[#	c #9D7864",
"G[#	c #B79785",
"H[#	c #BEA08D",
"I[#	c #BFA28E",
"J[#	c #B89B88",
"K[#	c #AC9787",
"L[#	c #AA9688",
"M[#	c #9B715B",
"N[#	c #986D58",
"O[#	c #916954",
"P[#	c #89644F",
"Q[#	c #8C6652",
"R[#	c #926C5D",
"S[#	c #997867",
"T[#	c #977A66",
"U[#	c #9B806B",
"V[#	c #A08570",
"W[#	c #9B8878",
"X[#	c #A18272",
"Y[#	c #A58577",
"Z[#	c #9D8877",
"`[#	c #B2AAA5",
" }#	c #B8B1B0",
".}#	c #B7B1B0",
"+}#	c #B3ACAA",
"@}#	c #B6AFAB",
"#}#	c #B7B0AC",
"$}#	c #B2ADA8",
"%}#	c #B5B0AB",
"&}#	c #B6A99E",
"*}#	c #B08D72",
"=}#	c #B28B6E",
"-}#	c #BC9881",
";}#	c #A39284",
">}#	c #B2A59A",
",}#	c #B77D4C",
"'}#	c #B38055",
")}#	c #BB8963",
"!}#	c #BB8B64",
"~}#	c #BC906B",
"{}#	c #BA9169",
"]}#	c #BE8E66",
"^}#	c #BE8E5B",
"/}#	c #B88855",
"(}#	c #BE8E62",
"_}#	c #BD9064",
":}#	c #BE9670",
"<}#	c #C09972",
"[}#	c #BE926C",
"}}#	c #B49584",
"|}#	c #B68C71",
"1}#	c #BB947A",
"2}#	c #B07F61",
"3}#	c #B47A53",
"4}#	c #B27B55",
"5}#	c #B48061",
"6}#	c #B2866D",
"7}#	c #B5927B",
"8}#	c #B39781",
"9}#	c #B4947E",
"0}#	c #B09079",
"a}#	c #B67F4F",
"b}#	c #B97F51",
"c}#	c #926954",
"d}#	c #955F3C",
"e}#	c #815334",
"f}#	c #805435",
"g}#	c #906444",
"h}#	c #946746",
"i}#	c #976E52",
"j}#	c #9C7961",
"k}#	c #967156",
"l}#	c #92643F",
"m}#	c #91623D",
"n}#	c #8C5E3A",
"o}#	c #8F6141",
"p}#	c #946549",
"q}#	c #926446",
"r}#	c #946848",
"s}#	c #9C6D4C",
"t}#	c #A28373",
"u}#	c #AF9E90",
"v}#	c #B99164",
"w}#	c #BF8B57",
"x}#	c #B38561",
"y}#	c #B19675",
"z}#	c #A68E70",
"A}#	c #AE8875",
"B}#	c #C6B6B0",
"C}#	c #C7BFBE",
"D}#	c #B7ADA9",
"E}#	c #C0BEBC",
"F}#	c #C3C1BF",
"G}#	c #C1BEBD",
"H}#	c #C3BEBB",
"I}#	c #C1BCB9",
"J}#	c #C0BBB7",
"K}#	c #C0BAB6",
"L}#	c #C2BCB8",
"M}#	c #C0BAB5",
"N}#	c #B0997B",
"O}#	c #BA8F5E",
"P}#	c #B68B5D",
"Q}#	c #AF835A",
"R}#	c #AE8357",
"S}#	c #B1814F",
"T}#	c #B68048",
"U}#	c #B6804A",
"V}#	c #B07A43",
"W}#	c #AE7742",
"X}#	c #AD7640",
"Y}#	c #B07A42",
"Z}#	c #B5793F",
"`}#	c #B37A3C",
" |#	c #BB8542",
".|#	c #BE8747",
"+|#	c #C18B47",
"@|#	c #B47C3C",
"#|#	c #B67F47",
"$|#	c #BA8657",
"%|#	c #B19D8C",
"&|#	c #BDA18E",
"*|#	c #D1C8C7",
"=|#	c #CDC5C3",
"-|#	c #C7BEB9",
";|#	c #B9A89C",
">|#	c #B58D74",
",|#	c #AA6A3C",
"'|#	c #AA754C",
")|#	c #A26C45",
"!|#	c #AE7345",
"~|#	c #AF774C",
"{|#	c #A87B5D",
"]|#	c #B28C73",
"^|#	c #BC977E",
"/|#	c #BE9880",
"(|#	c #C8A890",
"_|#	c #C4A894",
":|#	c #BEA793",
"<|#	c #C5AD9B",
"[|#	c #AC9995",
"}|#	c #A77249",
"||#	c #A67758",
"1|#	c #A37C66",
"2|#	c #A67851",
"3|#	c #A37149",
"4|#	c #A07754",
"5|#	c #A27A56",
"6|#	c #9D8470",
"7|#	c #B0A8A1",
"8|#	c #BAAFA8",
"9|#	c #C7C1BF",
"0|#	c #C2B9B1",
"a|#	c #C7BEBB",
"b|#	c #C3BBB8",
"c|#	c #C1BAB4",
"d|#	c #C09068",
"e|#	c #BE8A57",
"f|#	c #BF8E5F",
"g|#	c #C29266",
"h|#	c #BE9469",
"i|#	c #C8B2A8",
"j|#	c #BE9F82",
"k|#	c #CAC3B8",
"l|#	c #BD8C60",
"m|#	c #BF926D",
"n|#	c #B98B64",
"o|#	c #BD8F68",
"p|#	c #BE9069",
"q|#	c #BF946C",
"r|#	c #BF9570",
"s|#	c #C1936B",
"t|#	c #C0905D",
"u|#	c #BE8F62",
"v|#	c #C19260",
"w|#	c #C29363",
"x|#	c #C0966F",
"y|#	c #BF9773",
"z|#	c #C1946C",
"A|#	c #C19469",
"B|#	c #BD9772",
"C|#	c #AD9488",
"D|#	c #BB8D6F",
"E|#	c #BE9375",
"F|#	c #C0957C",
"G|#	c #BE927A",
"H|#	c #BB845B",
"I|#	c #BD7D52",
"J|#	c #B57B4F",
"K|#	c #B99983",
"L|#	c #B69582",
"M|#	c #B19B87",
"N|#	c #B39F8F",
"O|#	c #B59D8B",
"P|#	c #BE8962",
"Q|#	c #C18A5E",
"R|#	c #BD8655",
"S|#	c #BD8159",
"T|#	c #AE877A",
"U|#	c #A28881",
"V|#	c #8A5A3B",
"W|#	c #986A46",
"X|#	c #996B46",
"Y|#	c #986A45",
"Z|#	c #956944",
"`|#	c #96684C",
" 1#	c #97694B",
".1#	c #936647",
"+1#	c #9A6D4D",
"@1#	c #9A684C",
"#1#	c #A28275",
"$1#	c #BE8A5A",
"%1#	c #BF895B",
"&1#	c #BD9A7B",
"*1#	c #BEAD99",
"=1#	c #A69078",
"-1#	c #A07F5E",
";1#	c #B79C8E",
">1#	c #B1896F",
",1#	c #C5AA9A",
"'1#	c #B7AAA0",
")1#	c #C1BBB6",
"!1#	c #B8B1AA",
"~1#	c #BEBCBA",
"{1#	c #C2C0BE",
"]1#	c #C0BCBB",
"^1#	c #C1BBB7",
"/1#	c #BDB7B2",
"(1#	c #C2BCB7",
"_1#	c #C2BAB3",
":1#	c #BFB6AE",
"<1#	c #B39874",
"[1#	c #BF945F",
"}1#	c #BB8F60",
"|1#	c #B6895F",
"11#	c #B68A5D",
"21#	c #BA8A59",
"31#	c #BA8853",
"41#	c #B98551",
"51#	c #B78350",
"61#	c #B17D4A",
"71#	c #B37841",
"81#	c #B67C44",
"91#	c #AD7543",
"01#	c #B47E44",
"a1#	c #BD873F",
"b1#	c #BC8542",
"c1#	c #BB885B",
"d1#	c #BEA495",
"e1#	c #C6BCAF",
"f1#	c #9F623C",
"g1#	c #AB7147",
"h1#	c #A87D56",
"i1#	c #A77B58",
"j1#	c #A67656",
"k1#	c #A47556",
"l1#	c #AD7D66",
"m1#	c #C0A798",
"n1#	c #B4937B",
"o1#	c #A16C43",
"p1#	c #A67A57",
"q1#	c #A97C5E",
"r1#	c #AB7C5F",
"s1#	c #A87950",
"t1#	c #AB7A50",
"u1#	c #A97851",
"v1#	c #A77D59",
"w1#	c #A2886F",
"x1#	c #B6B0AA",
"y1#	c #C9C2BB",
"z1#	c #C1B8AF",
"A1#	c #C0B7AD",
"B1#	c #C4BCB8",
"C1#	c #C6AD95",
"D1#	c #C2996B",
"E1#	c #C6986E",
"F1#	c #C39B74",
"G1#	c #BF9B70",
"H1#	c #C0996C",
"I1#	c #C09673",
"J1#	c #BC9777",
"K1#	c #BDA993",
"L1#	c #C1A48C",
"M1#	c #B59578",
"N1#	c #C7BCB1",
"O1#	c #BE916E",
"P1#	c #B88C64",
"Q1#	c #BD9269",
"R1#	c #BC9770",
"S1#	c #BE926A",
"T1#	c #BC8D5F",
"U1#	c #B88752",
"V1#	c #B58955",
"W1#	c #BD8B5A",
"X1#	c #C08E5D",
"Y1#	c #C39466",
"Z1#	c #BF9B7A",
"`1#	c #C49B75",
" 2#	c #C2986D",
".2#	c #BB9670",
"+2#	c #BB9672",
"@2#	c #AC9883",
"#2#	c #B78F71",
"$2#	c #B9957D",
"%2#	c #B89780",
"&2#	c #B88966",
"*2#	c #B4988A",
"=2#	c #B49B87",
"-2#	c #B98967",
";2#	c #B77E55",
">2#	c #A89085",
",2#	c #9D8A80",
"'2#	c #865C3C",
")2#	c #8D603A",
"!2#	c #8E613B",
"~2#	c #905E37",
"{2#	c #926544",
"]2#	c #946747",
"^2#	c #936544",
"/2#	c #916240",
"(2#	c #8F603E",
"_2#	c #966744",
":2#	c #946748",
"<2#	c #996C55",
"[2#	c #93786F",
"}2#	c #BA8655",
"|2#	c #BE8B5B",
"12#	c #BF8D5F",
"22#	c #BD9D7E",
"32#	c #C1B6AC",
"42#	c #B6A493",
"52#	c #B5A693",
"62#	c #C0BDB5",
"72#	c #BFBDB7",
"82#	c #BFBDBB",
"92#	c #BEBCBB",
"02#	c #BDBAB7",
"a2#	c #C0B9B5",
"b2#	c #C3BCB7",
"c2#	c #C0B7B1",
"d2#	c #B39976",
"e2#	c #BB915D",
"f2#	c #BB905F",
"g2#	c #BC8C5B",
"h2#	c #BA8757",
"i2#	c #B38354",
"j2#	c #B38351",
"k2#	c #AF7E4A",
"l2#	c #B17A46",
"m2#	c #B47F4A",
"n2#	c #B07D46",
"o2#	c #B57F47",
"p2#	c #BC8744",
"q2#	c #C08945",
"r2#	c #B27F53",
"s2#	c #BBB6AA",
"t2#	c #CDC8BD",
"u2#	c #C7C3B7",
"v2#	c #C9BAAF",
"w2#	c #C7AFA0",
"x2#	c #A46C46",
"y2#	c #A8714B",
"z2#	c #A9754E",
"A2#	c #AF7C59",
"B2#	c #AD7B5A",
"C2#	c #AD7C5E",
"D2#	c #BAA28C",
"E2#	c #B89F8F",
"F2#	c #A57148",
"G2#	c #A17451",
"H2#	c #A67753",
"I2#	c #A07345",
"J2#	c #A5764D",
"K2#	c #A77A4E",
"L2#	c #A97F55",
"M2#	c #AB8761",
"N2#	c #AF845F",
"O2#	c #AB8264",
"P2#	c #A67E60",
"Q2#	c #A57D5E",
"R2#	c #9E836D",
"S2#	c #B5AFAA",
"T2#	c #BD9981",
"U2#	c #C2AA97",
"V2#	c #C4BDB2",
"W2#	c #C2BBB1",
"X2#	c #C2B9B0",
"Y2#	c #BEB6AC",
"Z2#	c #BEB5AC",
"`2#	c #C2BBB8",
" 3#	c #C3BCB9",
".3#	c #C5BEBA",
"+3#	c #C2BBB3",
"@3#	c #BCA48D",
"#3#	c #BE9363",
"$3#	c #C7A282",
"%3#	c #C3A48C",
"&3#	c #C19E75",
"*3#	c #BC9F70",
"=3#	c #C29976",
"-3#	c #BB9774",
";3#	c #A79F91",
">3#	c #C0AC91",
",3#	c #CBC8B5",
"'3#	c #C5BEAD",
")3#	c #C7BBAB",
"!3#	c #BE916A",
"~3#	c #BD8D66",
"{3#	c #BC9067",
"]3#	c #C08E68",
"^3#	c #BE8C5E",
"/3#	c #BE8D5A",
"(3#	c #BF8D5A",
"_3#	c #BF8C5A",
":3#	c #C29263",
"<3#	c #C29B76",
"[3#	c #C39E78",
"}3#	c #C49E72",
"|3#	c #C19971",
"13#	c #C09875",
"23#	c #B59875",
"33#	c #AD9D91",
"43#	c #B79E85",
"53#	c #B99886",
"63#	c #B59D8D",
"73#	c #B19E8F",
"83#	c #B19989",
"93#	c #B39786",
"03#	c #AF7951",
"a3#	c #B87746",
"b3#	c #B87546",
"c3#	c #B67144",
"d3#	c #B3886C",
"e3#	c #916649",
"f3#	c #916643",
"g3#	c #966441",
"h3#	c #976645",
"i3#	c #946648",
"j3#	c #956647",
"k3#	c #946545",
"l3#	c #946744",
"m3#	c #936646",
"n3#	c #986D50",
"o3#	c #936749",
"p3#	c #936B4F",
"q3#	c #966C56",
"r3#	c #988073",
"s3#	c #B08E72",
"t3#	c #A36F41",
"u3#	c #C18E5A",
"v3#	c #C1915E",
"w3#	c #BF9C7A",
"x3#	c #C0B9B2",
"y3#	c #BCB7B3",
"z3#	c #C1BBB3",
"A3#	c #C1BFBB",
"B3#	c #C2BEBB",
"C3#	c #C0BDBA",
"D3#	c #BFBBB8",
"E3#	c #C1BDBA",
"F3#	c #BFB4AE",
"G3#	c #C0B6B0",
"H3#	c #C1B5AC",
"I3#	c #B19778",
"J3#	c #AF8B5F",
"K3#	c #BC9061",
"L3#	c #BC915D",
"M3#	c #B48759",
"N3#	c #B38759",
"O3#	c #B0865C",
"P3#	c #B68759",
"Q3#	c #B88656",
"R3#	c #B47E4C",
"S3#	c #AE7C48",
"T3#	c #AB7B4C",
"U3#	c #A7784C",
"V3#	c #B58346",
"W3#	c #BF8B4F",
"X3#	c #C18C4E",
"Y3#	c #BD8A4E",
"Z3#	c #B37B40",
"`3#	c #A4703B",
" 4#	c #B48053",
".4#	c #AA9073",
"+4#	c #AA9B97",
"@4#	c #C4B5A7",
"#4#	c #C2B7AE",
"$4#	c #C0B6AC",
"%4#	c #AD6D41",
"&4#	c #AA8257",
"*4#	c #A8774A",
"=4#	c #B78563",
"-4#	c #B68A6B",
";4#	c #B69882",
">4#	c #9D938A",
",4#	c #A97958",
"'4#	c #A47554",
")4#	c #A47857",
"!4#	c #A37654",
"~4#	c #B2875D",
"{4#	c #AC8266",
"]4#	c #B7ABA2",
"^4#	c #C4A792",
"/4#	c #BDA083",
"(4#	c #C4B7AE",
"_4#	c #C4B9B1",
":4#	c #C1B5AA",
"<4#	c #C1B8AE",
"[4#	c #C2BBB5",
"}4#	c #C3BDB6",
"|4#	c #C3BBB2",
"14#	c #C2B8AE",
"24#	c #BEA48B",
"34#	c #BE9460",
"44#	c #C7A78F",
"54#	c #C7A277",
"64#	c #C59E70",
"74#	c #C39972",
"84#	c #C29774",
"94#	c #BFA188",
"04#	c #BAA08A",
"a4#	c #B89474",
"b4#	c #C7B49C",
"c4#	c #C6C1B2",
"d4#	c #C9B9A6",
"e4#	c #C9B8A3",
"f4#	c #C19471",
"g4#	c #BA8D6A",
"h4#	c #BA8960",
"i4#	c #BA8A5A",
"j4#	c #BB8F6F",
"k4#	c #C2936F",
"l4#	c #BF9167",
"m4#	c #BF9162",
"n4#	c #BF9261",
"o4#	c #C09261",
"p4#	c #BF9464",
"q4#	c #C09B72",
"r4#	c #C19B75",
"s4#	c #C19C71",
"t4#	c #BE9874",
"u4#	c #B8946F",
"v4#	c #B59574",
"w4#	c #AD9E98",
"x4#	c #B5A191",
"y4#	c #B69788",
"z4#	c #AF9886",
"A4#	c #B29988",
"B4#	c #B29A88",
"C4#	c #B39981",
"D4#	c #B57E5C",
"E4#	c #B97749",
"F4#	c #BD7642",
"G4#	c #B77241",
"H4#	c #B06F45",
"I4#	c #B08B75",
"J4#	c #8B6249",
"K4#	c #9D7051",
"L4#	c #946A4B",
"M4#	c #8E6342",
"N4#	c #95613E",
"O4#	c #996A4B",
"P4#	c #966745",
"Q4#	c #926748",
"R4#	c #976C4F",
"S4#	c #956B4E",
"T4#	c #976C55",
"U4#	c #A39F95",
"V4#	c #9F9991",
"W4#	c #AC9079",
"X4#	c #B48050",
"Y4#	c #BB8755",
"Z4#	c #BA8854",
"`4#	c #C18A50",
" 5#	c #BEAA9B",
".5#	c #BCAFA6",
"+5#	c #C5B9B2",
"@5#	c #BEB6B3",
"#5#	c #C2BEBD",
"$5#	c #C4C0BF",
"%5#	c #C3BFBD",
"&5#	c #C1BEBB",
"*5#	c #C3BBB7",
"=5#	c #BCB4AE",
"-5#	c #C6B8B0",
";5#	c #AF9A90",
">5#	c #B4936B",
",5#	c #BA9267",
"'5#	c #C39868",
")5#	c #BF9765",
"!5#	c #AD845C",
"~5#	c #AB845B",
"{5#	c #B3885C",
"]5#	c #B78859",
"^5#	c #B48250",
"/5#	c #B57E4A",
"(5#	c #A87745",
"_5#	c #A27448",
":5#	c #A87946",
"<5#	c #AF8047",
"[5#	c #BA8951",
"}5#	c #B5824F",
"|5#	c #B7834E",
"15#	c #B47F43",
"25#	c #C6C7C2",
"35#	c #C1B1A7",
"45#	c #CABEB6",
"55#	c #C0ADA2",
"65#	c #B7896B",
"75#	c #A46C42",
"85#	c #A5734E",
"95#	c #B28A63",
"05#	c #AE8F65",
"a5#	c #B68766",
"b5#	c #B48765",
"c5#	c #B48667",
"d5#	c #BA835F",
"e5#	c #B78C6E",
"f5#	c #A57858",
"g5#	c #A97A5A",
"h5#	c #A17146",
"i5#	c #AB8061",
"j5#	c #A57A5B",
"k5#	c #A57851",
"l5#	c #AE845C",
"m5#	c #AF835C",
"n5#	c #A98064",
"o5#	c #A37C5E",
"p5#	c #C4B6AF",
"q5#	c #C2B5B0",
"r5#	c #C6B9B4",
"s5#	c #C0B4AE",
"t5#	c #BEB2A8",
"u5#	c #C0ADA1",
"v5#	c #BFB4A7",
"w5#	c #C0BAB1",
"x5#	c #C3BDB4",
"y5#	c #C4BEB6",
"z5#	c #CAB3AB",
"A5#	c #C29C76",
"B5#	c #C29C7D",
"C5#	c #C39C74",
"D5#	c #C29A6E",
"E5#	c #BE9F84",
"F5#	c #C4B1A1",
"G5#	c #BC9D7E",
"H5#	c #CAB8A4",
"I5#	c #C8B8A5",
"J5#	c #BC9071",
"K5#	c #B98A67",
"L5#	c #B58765",
"M5#	c #BA8E6A",
"N5#	c #BC9274",
"O5#	c #BB906E",
"P5#	c #BB916A",
"Q5#	c #BF926A",
"R5#	c #BE9168",
"S5#	c #BE9167",
"T5#	c #BF9775",
"U5#	c #BA926F",
"V5#	c #B19175",
"W5#	c #B7A292",
"X5#	c #B3A496",
"Y5#	c #B2968A",
"Z5#	c #B19B8C",
"`5#	c #AC9B89",
" 6#	c #AC9E8D",
".6#	c #B6A399",
"+6#	c #AE957F",
"@6#	c #B09985",
"#6#	c #AD9685",
"$6#	c #AD9683",
"%6#	c #BE8154",
"&6#	c #AA6F3A",
"*6#	c #896042",
"=6#	c #976C50",
"-6#	c #9D725A",
";6#	c #956B51",
">6#	c #896040",
",6#	c #8D5932",
"'6#	c #94674B",
")6#	c #936545",
"!6#	c #91694E",
"~6#	c #8F7061",
"{6#	c #9F9B93",
"]6#	c #A59484",
"^6#	c #B88F6B",
"/6#	c #B68252",
"(6#	c #B78856",
"_6#	c #BB8F5F",
":6#	c #C1A082",
"<6#	c #BDAA9B",
"[6#	c #B9A99A",
"}6#	c #B9A89B",
"|6#	c #B8A89D",
"16#	c #C0B4AD",
"26#	c #C0B8B6",
"36#	c #BFBBBB",
"46#	c #C3BEBC",
"56#	c #C4BEBD",
"66#	c #C4BFBD",
"76#	c #C0BDBB",
"86#	c #BCB3AB",
"96#	c #BDB3AB",
"06#	c #BAB0A9",
"a6#	c #BBB2AC",
"b6#	c #C1B9B3",
"c6#	c #C7B9B1",
"d6#	c #B1977A",
"e6#	c #B6946D",
"f6#	c #BE986C",
"g6#	c #C79C6D",
"h6#	c #C19C6E",
"i6#	c #B68F67",
"j6#	c #B28B67",
"k6#	c #AF8767",
"l6#	c #A98262",
"m6#	c #B2855A",
"n6#	c #B17C4B",
"o6#	c #A97745",
"p6#	c #A07248",
"q6#	c #A67644",
"r6#	c #B28248",
"s6#	c #B07A54",
"t6#	c #C78B4E",
"u6#	c #9D9F9C",
"v6#	c #CCB1A2",
"w6#	c #D1C8BA",
"x6#	c #CDC3B9",
"y6#	c #B59B8A",
"z6#	c #C1AFA4",
"A6#	c #BF9D83",
"B6#	c #A76D4E",
"C6#	c #9F7055",
"D6#	c #A97E64",
"E6#	c #A87D63",
"F6#	c #AB8164",
"G6#	c #A87D5F",
"H6#	c #A47753",
"I6#	c #A17155",
"J6#	c #A16C3E",
"K6#	c #A16B3C",
"L6#	c #A37051",
"M6#	c #A77A5A",
"N6#	c #A57B5C",
"O6#	c #C7AA92",
"P6#	c #C8A891",
"Q6#	c #C4ACA0",
"R6#	c #C6B8B3",
"S6#	c #CBBEB9",
"T6#	c #C7BAB6",
"U6#	c #BEB1AC",
"V6#	c #BDB1A8",
"W6#	c #C0A99B",
"X6#	c #C7BCB7",
"Y6#	c #C8BDB8",
"Z6#	c #C6B3AE",
"`6#	c #BC9A7E",
" 7#	c #BF916A",
".7#	c #BF9875",
"+7#	c #BB9970",
"@7#	c #BD9F84",
"#7#	c #C1B7AC",
"$7#	c #BFBAB4",
"%7#	c #B4AFA8",
"&7#	c #AC907A",
"*7#	c #B38F6A",
"=7#	c #C4B69A",
"-7#	c #B0815F",
";7#	c #B18255",
">7#	c #BA8953",
",7#	c #BC8753",
"'7#	c #BA8659",
")7#	c #BA926E",
"!7#	c #BA8B66",
"~7#	c #BB926C",
"{7#	c #BE9673",
"]7#	c #B19A8C",
"^7#	c #B29C8E",
"/7#	c #B09A8C",
"(7#	c #AE9385",
"_7#	c #AF9A8B",
":7#	c #AD8E7B",
"<7#	c #AE8065",
"[7#	c #B38567",
"}7#	c #BF825C",
"|7#	c #B17A55",
"17#	c #AD958F",
"27#	c #865A3F",
"37#	c #8F6244",
"47#	c #916549",
"57#	c #91664B",
"67#	c #8F6549",
"77#	c #8C6044",
"87#	c #865D41",
"97#	c #84583A",
"07#	c #8E5B3B",
"a7#	c #906849",
"b7#	c #92694B",
"c7#	c #906649",
"d7#	c #8F6647",
"e7#	c #8E6444",
"f7#	c #916547",
"g7#	c #8D6241",
"h7#	c #926746",
"i7#	c #976A4C",
"j7#	c #976849",
"k7#	c #926D5A",
"l7#	c #947D71",
"m7#	c #9D9189",
"n7#	c #B08B6E",
"o7#	c #AF896D",
"p7#	c #C2AEA0",
"q7#	c #B99D8C",
"r7#	c #B68F70",
"s7#	c #BCA89D",
"t7#	c #BDB2AB",
"u7#	c #BFBAB9",
"v7#	c #C1BDBC",
"w7#	c #BBB2AE",
"x7#	c #BCB2AD",
"y7#	c #B7AEA4",
"z7#	c #AE9981",
"A7#	c #B99469",
"B7#	c #B68F64",
"C7#	c #B28E67",
"D7#	c #A78364",
"E7#	c #A37F60",
"F7#	c #A6835F",
"G7#	c #A7825D",
"H7#	c #A87545",
"I7#	c #A17141",
"J7#	c #9A6C40",
"K7#	c #9E6E42",
"L7#	c #9E6F40",
"M7#	c #B0824E",
"N7#	c #BE8945",
"O7#	c #A8836C",
"P7#	c #996C51",
"Q7#	c #A77D66",
"R7#	c #B18D7A",
"S7#	c #AE846E",
"T7#	c #A47257",
"U7#	c #A27157",
"V7#	c #9F684E",
"W7#	c #A6795A",
"X7#	c #AD8366",
"Y7#	c #AF8972",
"Z7#	c #9B6F50",
"`7#	c #9D7252",
" 8#	c #95694B",
".8#	c #966846",
"+8#	c #9F7045",
"@8#	c #A07153",
"#8#	c #A27856",
"$8#	c #A27656",
"%8#	c #A07454",
"&8#	c #AC825F",
"*8#	c #B4968A",
"=8#	c #C5A591",
"-8#	c #C0A08F",
";8#	c #C7ADA3",
">8#	c #C4AC9D",
",8#	c #C4B9B4",
"'8#	c #BDAD9F",
")8#	c #BCAA9C",
"!8#	c #C2B5AB",
"~8#	c #C0AF9E",
"{8#	c #C7AB97",
"]8#	c #BE9D7E",
"^8#	c #B8A289",
"/8#	c #B4AEAB",
"(8#	c #9E9C98",
"_8#	c #A69888",
":8#	c #A68662",
"<8#	c #B19172",
"[8#	c #AA8E72",
"}8#	c #BCA383",
"|8#	c #AF937F",
"18#	c #AF9781",
"28#	c #AE9988",
"38#	c #AF9F92",
"48#	c #AC9B88",
"58#	c #AF9982",
"68#	c #B4A194",
"78#	c #B09D8E",
"88#	c #AC968E",
"98#	c #AC958D",
"08#	c #A49188",
"a8#	c #AD8975",
"b8#	c #AD826F",
"c8#	c #AD7156",
"d8#	c #B07759",
"e8#	c #A4A8A0",
"f8#	c #998071",
"g8#	c #967F73",
"h8#	c #9C8579",
"i8#	c #978073",
"j8#	c #9E8271",
"k8#	c #977B6B",
"l8#	c #957C6B",
"m8#	c #A28A79",
"n8#	c #917E70",
"o8#	c #8F796C",
"p8#	c #947A6F",
"q8#	c #9C8376",
"r8#	c #A08A7A",
"s8#	c #9A8774",
"t8#	c #958C82",
"u8#	c #B0988B",
"v8#	c #ADA094",
"w8#	c #B5AAA3",
"x8#	c #AFA195",
"y8#	c #B6A9A0",
"z8#	c #A5A3A6",
"A8#	c #AD9A8B",
"B8#	c #A29486",
"C8#	c #9B8A7A",
"D8#	c #A08A76",
"E8#	c #9C816A",
"F8#	c #9A7F68",
"G8#	c #9C8068",
"H8#	c #9E8167",
"I8#	c #9F8168",
"J8#	c #A8886B",
"K8#	c #B48B65",
"L8#	c #A18D88",
"M8#	c #A3918B",
"N8#	c #9F8D81",
"O8#	c #9F8778",
"P8#	c #A98C7C",
"Q8#	c #A38B7C",
"R8#	c #A39285",
"S8#	c #A58A79",
"T8#	c #9C8171",
"U8#	c #A38877",
"V8#	c #A98E7C",
"W8#	c #A28774",
"X8#	c #A0938D",
"Y8#	c #AB9892",
"Z8#	c #B5A295",
"`8#	c #B6AAA1",
" 9#	c #B4A99F",
".9#	c #B59D93",
"+9#	c #B9A398",
"@9#	c #B6A195",
"#9#	c #B29E91",
"$9#	c #AA9278",
"%9#	c #AD977F",
"&9#	c #A48F7A",
"*9#	c #A6927E",
"=9#	c #ACA09F",
"-9#	c #A4A49C",
";9#	c #AAA9A1",
">9#	c #AEABA2",
",9#	c #AAA69D",
"'9#	c #9F9C92",
")9#	c #99988F",
"!9#	c #9D9B94",
"~9#	c #B0A7A7",
"{9#	c #9E9996",
"]9#	c #A09E9F",
"^9#	c #9C968E",
"/9#	c #A0A196",
"(9#	c #A2A09B",
"_9#	c #AC9D9A",
":9#	c #9A9690",
"<9#	c #99928C",
"[9#	c #ABA39B",
"}9#	c #A38A7B",
"|9#	c #9C867C",
"19#	c #9D867C",
"29#	c #9C8375",
"39#	c #958173",
"49#	c #9C8C82",
"59#	c #957F73",
"69#	c #997764",
"79#	c #997965",
"89#	c #A48E7D",
"99#	c #9D7E6E",
"09#	c #AE9F9B",
"a9#	c #A7887A",
"b9#	c #A5887B",
"c9#	c #9E786F",
"d9#	c #9D7C70",
"e9#	c #A38579",
"f9#	c #A5857D",
"g9#	c #A2887D",
"h9#	c #A89D91",
"i9#	c #A68C7D",
"j9#	c #AD9284",
"k9#	c #A48A7D",
"l9#	c #A78E86",
"m9#	c #AA9994",
"n9#	c #AEABA3",
"o9#	c #A99083",
"p9#	c #AE9584",
"q9#	c #A78F82",
"r9#	c #998779",
"s9#	c #98877A",
"t9#	c #968679",
"u9#	c #988A7B",
"v9#	c #A29184",
"w9#	c #A09284",
"x9#	c #A7948D",
"y9#	c #AEA4A8",
"z9#	c #9C9390",
"A9#	c #938D89",
"B9#	c #8F8984",
"C9#	c #A0948E",
"D9#	c #A19286",
"E9#	c #A08D7E",
"F9#	c #AC9180",
"G9#	c #AE927B",
"H9#	c #A59383",
"I9#	c #9F9B9A",
"J9#	c #A09F9D",
"K9#	c #997F6E",
"L9#	c #917B6A",
"M9#	c #8B766B",
"N9#	c #8A7868",
"O9#	c #877A70",
"P9#	c #7E7873",
"Q9#	c #84807E",
"R9#	c #8A8783",
"S9#	c #7A7873",
"T9#	c #8B8986",
"U9#	c #7D7A77",
"V9#	c #7A7773",
"W9#	c #7D7876",
"X9#	c #928376",
"Y9#	c #95806F",
"Z9#	c #947E71",
"`9#	c #A18670",
" 0#	c #A7886F",
".0#	c #A5876E",
"+0#	c #A6896E",
"@0#	c #9E8776",
"#0#	c #9E877C",
"$0#	c #A2887C",
"%0#	c #A18778",
"&0#	c #9E8474",
"*0#	c #B3A59E",
"=0#	c #A79088",
"-0#	c #B09B8F",
";0#	c #B4A396",
">0#	c #A1A099",
",0#	c #A5897A",
"'0#	c #A88A7B",
")0#	c #AC9282",
"!0#	c #AD9E8E",
"~0#	c #B09786",
"{0#	c #A79687",
"]0#	c #B69E8F",
"^0#	c #B09B87",
"/0#	c #AA977F",
"(0#	c #A9917D",
"_0#	c #AB9582",
":0#	c #AD9E8B",
"<0#	c #6D5B50",
"[0#	c #715B51",
"}0#	c #755D56",
"|0#	c #765E57",
"10#	c #8E786F",
"20#	c #996644",
"30#	c #905E3F",
"40#	c #8F5F40",
"50#	c #8E5F3F",
"60#	c #AD8D7F",
"70#	c #986545",
"80#	c #9A6341",
"90#	c #A1643E",
"00#	c #9E7148",
"a0#	c #9F6A45",
"b0#	c #A3673D",
"c0#	c #B2998B",
"d0#	c #B68365",
"e0#	c #AF8269",
"f0#	c #AC8670",
"g0#	c #AB8873",
"h0#	c #A26E5B",
"i0#	c #96533B",
"j0#	c #986E58",
"k0#	c #BFA393",
"l0#	c #987A6B",
"m0#	c #AD897A",
"n0#	c #AC8C7D",
"o0#	c #967266",
"p0#	c #99745E",
"q0#	c #A27663",
"r0#	c #BAA999",
"s0#	c #C09B86",
"t0#	c #C49D86",
"u0#	c #B78F79",
"v0#	c #B69480",
"w0#	c #A8826C",
"x0#	c #8E7562",
"y0#	c #97765F",
"z0#	c #956E54",
"A0#	c #9B6E49",
"B0#	c #966946",
"C0#	c #9C704F",
"D0#	c #9A765C",
"E0#	c #9D7B62",
"F0#	c #A28469",
"G0#	c #906F55",
"H0#	c #8B6B51",
"I0#	c #946E56",
"J0#	c #AA9682",
"K0#	c #BDB2A5",
"L0#	c #BEA995",
"M0#	c #A69997",
"N0#	c #AB8C76",
"O0#	c #9F8A79",
"P0#	c #94807C",
"Q0#	c #8F7F7A",
"R0#	c #8D8078",
"S0#	c #967D6D",
"T0#	c #9A816D",
"U0#	c #9D7A63",
"V0#	c #9B7B61",
"W0#	c #9D7A60",
"X0#	c #A68165",
"Y0#	c #AA8567",
"Z0#	c #B68964",
"`0#	c #AB8A6F",
" a#	c #999592",
".a#	c #9E9E9B",
"+a#	c #7A6252",
"@a#	c #643F2B",
"#a#	c #5C3C2C",
"$a#	c #583A27",
"%a#	c #563922",
"&a#	c #5E402A",
"*a#	c #533C2E",
"=a#	c #3E3029",
"-a#	c #312E2C",
";a#	c #363433",
">a#	c #2B2928",
",a#	c #313131",
"'a#	c #282828",
")a#	c #2D2B29",
"!a#	c #3D312A",
"~a#	c #71533C",
"{a#	c #745236",
"]a#	c #84552F",
"^a#	c #9E6A38",
"/a#	c #A56F3B",
"(a#	c #A8703D",
"_a#	c #A76F3B",
":a#	c #A77137",
"<a#	c #A7723C",
"[a#	c #AB7B53",
"}a#	c #A57F5E",
"|a#	c #A98565",
"1a#	c #A37E5E",
"2a#	c #966645",
"3a#	c #987054",
"4a#	c #A07F63",
"5a#	c #977358",
"6a#	c #956C4F",
"7a#	c #956F53",
"8a#	c #97633D",
"9a#	c #91633B",
"0a#	c #966240",
"aa#	c #93623F",
"ba#	c #A29483",
"ca#	c #BA9385",
"da#	c #CDAF9F",
"ea#	c #C1AA99",
"fa#	c #B9A292",
"ga#	c #BBA392",
"ha#	c #AB7D58",
"ia#	c #9F714D",
"ja#	c #A0775C",
"ka#	c #A37A60",
"la#	c #9F755A",
"ma#	c #A87A5C",
"na#	c #A17655",
"oa#	c #A8876B",
"pa#	c #9D7F68",
"qa#	c #A7734E",
"ra#	c #A16D4A",
"sa#	c #A76F49",
"ta#	c #A06A45",
"ua#	c #A29B90",
"va#	c #AD8869",
"wa#	c #B3855B",
"xa#	c #AE815C",
"ya#	c #B58A62",
"za#	c #B68A5F",
"Aa#	c #B8865F",
"Ba#	c #B68862",
"Ca#	c #B58663",
"Da#	c #B08E70",
"Ea#	c #C5B8AB",
"Fa#	c #735E4E",
"Ga#	c #766053",
"Ha#	c #745D56",
"Ia#	c #735548",
"Ja#	c #7F5E4C",
"Ka#	c #9E8C7F",
"La#	c #A07851",
"Ma#	c #A27650",
"Na#	c #986C47",
"Oa#	c #946946",
"Pa#	c #9A745B",
"Qa#	c #B29D90",
"Ra#	c #B4A094",
"Sa#	c #A26C37",
"Ta#	c #A87447",
"Ua#	c #A57146",
"Va#	c #9E866F",
"Wa#	c #9E968E",
"Xa#	c #A6928D",
"Ya#	c #975D3A",
"Za#	c #A56338",
"`a#	c #AB6840",
" b#	c #A76F50",
".b#	c #9F634B",
"+b#	c #9A735F",
"@b#	c #C0AE9D",
"#b#	c #B99A86",
"$b#	c #CBBEAB",
"%b#	c #C0B5A5",
"&b#	c #C7BDB3",
"*b#	c #C5BEAF",
"=b#	c #C5B7A4",
"-b#	c #BFA395",
";b#	c #C1A69A",
">b#	c #C1B5A7",
",b#	c #C1B4A5",
"'b#	c #C2AF9C",
")b#	c #C9B19E",
"!b#	c #C3AB98",
"~b#	c #BA9E87",
"{b#	c #B18773",
"]b#	c #96765C",
"^b#	c #9C7556",
"/b#	c #9B673B",
"(b#	c #B4987B",
"_b#	c #A98B6E",
":b#	c #AE9074",
"<b#	c #C6AA8E",
"[b#	c #C5AB8E",
"}b#	c #B59C79",
"|b#	c #A98963",
"1b#	c #A37C56",
"2b#	c #B18B65",
"3b#	c #9B704B",
"4b#	c #B49074",
"5b#	c #CAB9AC",
"6b#	c #B39273",
"7b#	c #9C9A94",
"8b#	c #B8977A",
"9b#	c #A68E7A",
"0b#	c #968479",
"ab#	c #918377",
"bb#	c #8E8276",
"cb#	c #928077",
"db#	c #A38772",
"eb#	c #A08265",
"fb#	c #B28965",
"gb#	c #A18568",
"hb#	c #AB9488",
"ib#	c #9C9896",
"jb#	c #6D5249",
"kb#	c #55362B",
"lb#	c #4F3628",
"mb#	c #4E3527",
"nb#	c #4F3627",
"ob#	c #5A3C2D",
"pb#	c #4F372F",
"qb#	c #3A2B2A",
"rb#	c #2C2928",
"sb#	c #292929",
"tb#	c #282929",
"ub#	c #2A2A2B",
"vb#	c #2C2926",
"wb#	c #342C25",
"xb#	c #4D3B20",
"yb#	c #90602F",
"zb#	c #9D6432",
"Ab#	c #A46A36",
"Bb#	c #A66C38",
"Cb#	c #AA6E39",
"Db#	c #AA6E38",
"Eb#	c #A77135",
"Fb#	c #AD7235",
"Gb#	c #AE886C",
"Hb#	c #9E6D44",
"Ib#	c #9D7658",
"Jb#	c #B5A082",
"Kb#	c #A27F5F",
"Lb#	c #9B6B4A",
"Mb#	c #A8764E",
"Nb#	c #A7784D",
"Ob#	c #A07450",
"Pb#	c #946F4C",
"Qb#	c #A27B59",
"Rb#	c #9A6E4B",
"Sb#	c #97603C",
"Tb#	c #AAA89C",
"Ub#	c #AB7960",
"Vb#	c #B79581",
"Wb#	c #B5967F",
"Xb#	c #A47F64",
"Yb#	c #A86E43",
"Zb#	c #AB7A5B",
"`b#	c #AC7957",
" c#	c #AF845C",
".c#	c #A57C5B",
"+c#	c #A77858",
"@c#	c #A6714E",
"#c#	c #AF957D",
"$c#	c #B68256",
"%c#	c #C19775",
"&c#	c #BE8E69",
"*c#	c #BF9E80",
"=c#	c #BE9C80",
"-c#	c #C8A88F",
";c#	c #CCBCA8",
">c#	c #AF764D",
",c#	c #B57549",
"'c#	c #B57547",
")c#	c #B67748",
"!c#	c #B67C4F",
"~c#	c #B37B4F",
"{c#	c #C5A88F",
"]c#	c #AF8B72",
"^c#	c #CCCCC3",
"/c#	c #6F5B4D",
"(c#	c #725C4D",
"_c#	c #70574C",
":c#	c #745647",
"<c#	c #805F4A",
"[c#	c #988676",
"}c#	c #AC907D",
"|c#	c #A2794E",
"1c#	c #A67C50",
"2c#	c #A97C51",
"3c#	c #A8784F",
"4c#	c #936E4A",
"5c#	c #B7A294",
"6c#	c #B5A9A3",
"7c#	c #AB8E71",
"8c#	c #A37344",
"9c#	c #9F6F42",
"0c#	c #996C42",
"ac#	c #9F7856",
"bc#	c #96583B",
"cc#	c #A25932",
"dc#	c #A25B2F",
"ec#	c #9B5D30",
"fc#	c #C5AA9D",
"gc#	c #C3BAAB",
"hc#	c #BEB2A2",
"ic#	c #C5BCB0",
"jc#	c #C9BFBA",
"kc#	c #C8C0B4",
"lc#	c #C3BFB1",
"mc#	c #C3B8AE",
"nc#	c #C8BBB3",
"oc#	c #C5BBAE",
"pc#	c #BBAA9F",
"qc#	c #B7947E",
"rc#	c #A88470",
"sc#	c #A7928B",
"tc#	c #9A6336",
"uc#	c #9A5F34",
"vc#	c #A87F61",
"wc#	c #BEAC97",
"xc#	c #C5AC95",
"yc#	c #965A31",
"zc#	c #995B33",
"Ac#	c #98978E",
"Bc#	c #BE9D84",
"Cc#	c #B3917B",
"Dc#	c #968273",
"Ec#	c #937F70",
"Fc#	c #957F71",
"Gc#	c #AB8667",
"Hc#	c #B38A67",
"Ic#	c #AB8E7B",
"Jc#	c #9D8E8B",
"Kc#	c #5F443B",
"Lc#	c #4E3329",
"Mc#	c #483526",
"Nc#	c #483428",
"Oc#	c #453127",
"Pc#	c #452F26",
"Qc#	c #3E2D2A",
"Rc#	c #322828",
"Sc#	c #2A2A28",
"Tc#	c #292B28",
"Uc#	c #2A2B2A",
"Vc#	c #2E292B",
"Wc#	c #2C292A",
"Xc#	c #292A2A",
"Yc#	c #292A2D",
"Zc#	c #2E2928",
"`c#	c #573E27",
" d#	c #946231",
".d#	c #92592C",
"+d#	c #985C30",
"@d#	c #9C602F",
"#d#	c #A0652F",
"$d#	c #A76C35",
"%d#	c #AA6F38",
"&d#	c #A86D36",
"*d#	c #AB6D36",
"=d#	c #9A8576",
"-d#	c #956135",
";d#	c #AC8F76",
">d#	c #C1B39B",
",d#	c #AC9677",
"'d#	c #9B7658",
")d#	c #BA8F74",
"!d#	c #A86F4F",
"~d#	c #A2693D",
"{d#	c #A27A55",
"]d#	c #9F7E60",
"^d#	c #996D48",
"/d#	c #956240",
"(d#	c #9D8B80",
"_d#	c #A49F95",
":d#	c #A97C60",
"<d#	c #A5714D",
"[d#	c #AA7253",
"}d#	c #AA7B5D",
"|d#	c #AB734D",
"1d#	c #AA7D55",
"2d#	c #A67956",
"3d#	c #9C7359",
"4d#	c #B99171",
"5d#	c #B99370",
"6d#	c #C3A88F",
"7d#	c #C8AD96",
"8d#	c #CCB19D",
"9d#	c #CDB1A2",
"0d#	c #D0BFB1",
"ad#	c #D3C4B9",
"bd#	c #C4AB9B",
"cd#	c #D2C3B7",
"dd#	c #D3C7C1",
"ed#	c #CAA087",
"fd#	c #BA7244",
"gd#	c #BB713E",
"hd#	c #BA733F",
"id#	c #BA7D45",
"jd#	c #B87D45",
"kd#	c #CCAB92",
"ld#	c #D1C1AE",
"md#	c #D1C2B7",
"nd#	c #CBB9B5",
"od#	c #6D5949",
"pd#	c #715A4B",
"qd#	c #765B4E",
"rd#	c #7C5E4F",
"sd#	c #876754",
"td#	c #AB8B71",
"ud#	c #A27850",
"vd#	c #A77C53",
"wd#	c #A57950",
"xd#	c #A0734A",
"yd#	c #9D7552",
"zd#	c #9B7550",
"Ad#	c #A58466",
"Bd#	c #B8A8A0",
"Cd#	c #B5AEA8",
"Dd#	c #B5ACA5",
"Ed#	c #B1A392",
"Fd#	c #BAA08E",
"Gd#	c #8C5C3A",
"Hd#	c #A2A298",
"Id#	c #9F623F",
"Jd#	c #A35E3B",
"Kd#	c #9C5934",
"Ld#	c #9B5735",
"Md#	c #AB816D",
"Nd#	c #B4AEA1",
"Od#	c #B9AD9F",
"Pd#	c #C8C0B6",
"Qd#	c #C4C0B5",
"Rd#	c #C4C2B8",
"Sd#	c #C6C2B9",
"Td#	c #CCBDB2",
"Ud#	c #C09B88",
"Vd#	c #C3A996",
"Wd#	c #C4C1B8",
"Xd#	c #C7C2BB",
"Yd#	c #C6C1B9",
"Zd#	c #C7BDB2",
"`d#	c #B7937D",
" e#	c #9B643B",
".e#	c #9F6438",
"+e#	c #9D5C31",
"@e#	c #A15E2F",
"#e#	c #C1A78F",
"$e#	c #AC9178",
"%e#	c #AF957B",
"&e#	c #CAB7A8",
"*e#	c #C7B7AA",
"=e#	c #CAAB98",
"-e#	c #A16C4E",
";e#	c #99592F",
">e#	c #9F5D36",
",e#	c #9D5B32",
"'e#	c #99572E",
")e#	c #9A582F",
"!e#	c #A05F33",
"~e#	c #A86F40",
"{e#	c #95928C",
"]e#	c #A48775",
"^e#	c #A38775",
"/e#	c #9F8470",
"(e#	c #AD8367",
"_e#	c #A78362",
":e#	c #B38A62",
"<e#	c #A67B54",
"[e#	c #AC8060",
"}e#	c #B09077",
"|e#	c #9A8986",
"1e#	c #63473D",
"2e#	c #50362B",
"3e#	c #4A372C",
"4e#	c #4A382C",
"5e#	c #453328",
"6e#	c #3D2E27",
"7e#	c #382B29",
"8e#	c #312929",
"9e#	c #2B2A28",
"0e#	c #2D2A29",
"ae#	c #33292A",
"be#	c #312A2A",
"ce#	c #2D2829",
"de#	c #2D282A",
"ee#	c #302829",
"fe#	c #5D3D27",
"ge#	c #965F30",
"he#	c #965A2E",
"ie#	c #9A5D2C",
"je#	c #9E632A",
"ke#	c #A3682E",
"le#	c #A76C32",
"me#	c #A56B31",
"ne#	c #A66834",
"oe#	c #A26430",
"pe#	c #AF8F6B",
"qe#	c #B19576",
"re#	c #C0B39C",
"se#	c #A58666",
"te#	c #9D7856",
"ue#	c #A57E5E",
"ve#	c #9F6538",
"we#	c #A57E57",
"xe#	c #A67E57",
"ye#	c #91603E",
"ze#	c #9D8C84",
"Ae#	c #AC7858",
"Be#	c #AA7754",
"Ce#	c #A56E49",
"De#	c #A1643B",
"Ee#	c #AF774B",
"Fe#	c #B3815C",
"Ge#	c #B59273",
"He#	c #A8724C",
"Ie#	c #9E745C",
"Je#	c #AE9A90",
"Ke#	c #BB9678",
"Le#	c #C5B5A2",
"Me#	c #C8B8A6",
"Ne#	c #D1C6BE",
"Oe#	c #B79C81",
"Pe#	c #CEB5A4",
"Qe#	c #D5C6C0",
"Re#	c #C59779",
"Se#	c #BA7140",
"Te#	c #BA6E39",
"Ue#	c #BB723B",
"Ve#	c #BF7B43",
"We#	c #BF8144",
"Xe#	c #BF8345",
"Ye#	c #C08347",
"Ze#	c #BB8355",
"`e#	c #C4AD9B",
" f#	c #D3C9C4",
".f#	c #C0A394",
"+f#	c #CDB29E",
"@f#	c #6C5546",
"#f#	c #765A4C",
"$f#	c #77584B",
"%f#	c #7C594C",
"&f#	c #8E6B59",
"*f#	c #98887B",
"=f#	c #A77C54",
"-f#	c #A57A53",
";f#	c #A37B55",
">f#	c #9D7550",
",f#	c #99714D",
"'f#	c #9C7451",
")f#	c #96704D",
"!f#	c #9F7857",
"~f#	c #9D7050",
"{f#	c #B3A9A1",
"]f#	c #B5AFAB",
"^f#	c #B2A79A",
"/f#	c #B3AAA2",
"(f#	c #B6A899",
"_f#	c #B49888",
":f#	c #AF9583",
"<f#	c #97735A",
"[f#	c #A2A199",
"}f#	c #B39F98",
"|f#	c #BEA790",
"1f#	c #C1A893",
"2f#	c #C09D89",
"3f#	c #AE8474",
"4f#	c #B89686",
"5f#	c #B9B0A6",
"6f#	c #BEB3A6",
"7f#	c #C5B9AF",
"8f#	c #C2AFAA",
"9f#	c #C6B8B1",
"0f#	c #B07D63",
"af#	c #AD7A62",
"bf#	c #C2A094",
"cf#	c #B9A198",
"df#	c #C9B6B0",
"ef#	c #C8BAB3",
"ff#	c #CABCB2",
"gf#	c #B9A091",
"hf#	c #BB9781",
"if#	c #A3886D",
"jf#	c #9B6238",
"kf#	c #9F5C35",
"lf#	c #9D5C32",
"mf#	c #C9B4A7",
"nf#	c #BAA28B",
"of#	c #9E694C",
"pf#	c #975A32",
"qf#	c #9D5D34",
"rf#	c #9D5C34",
"sf#	c #9F5D34",
"tf#	c #9E6234",
"uf#	c #A16839",
"vf#	c #A26A3B",
"wf#	c #999690",
"xf#	c #B28F74",
"yf#	c #B39074",
"zf#	c #AE8B6D",
"Af#	c #A3826D",
"Bf#	c #A8836D",
"Cf#	c #A97F64",
"Df#	c #AC8569",
"Ef#	c #A98566",
"Ff#	c #BD8D60",
"Gf#	c #998886",
"Hf#	c #62463C",
"If#	c #4C3227",
"Jf#	c #4A362D",
"Kf#	c #4C392F",
"Lf#	c #48352C",
"Mf#	c #40312A",
"Nf#	c #3A2C29",
"Of#	c #342A2A",
"Pf#	c #302929",
"Qf#	c #2F2827",
"Rf#	c #342C2A",
"Sf#	c #3C2B2B",
"Tf#	c #3D2F2D",
"Uf#	c #322B26",
"Vf#	c #2F2828",
"Wf#	c #332A29",
"Xf#	c #60402B",
"Yf#	c #976131",
"Zf#	c #9D6235",
"`f#	c #9B5F2E",
" g#	c #9D6229",
".g#	c #A1662C",
"+g#	c #A86D34",
"@g#	c #A46A31",
"#g#	c #A0622E",
"$g#	c #A46633",
"%g#	c #B39474",
"&g#	c #CABDA5",
"*g#	c #9B6A49",
"=g#	c #C6BAA2",
"-g#	c #9C6E48",
";g#	c #925932",
">g#	c #9C6238",
",g#	c #A26A3E",
"'g#	c #A47749",
")g#	c #A77E5C",
"!g#	c #A4744D",
"~g#	c #966544",
"{g#	c #A56E45",
"]g#	c #AA6E42",
"^g#	c #AC6E46",
"/g#	c #AF7757",
"(g#	c #A67251",
"_g#	c #AC7C5A",
":g#	c #AF7E5C",
"<g#	c #AF7B59",
"[g#	c #9E6235",
"}g#	c #A86E40",
"|g#	c #AC7145",
"1g#	c #B17C55",
"2g#	c #AC805B",
"3g#	c #BD9371",
"4g#	c #BF9A78",
"5g#	c #C6B099",
"6g#	c #C6BBA9",
"7g#	c #B8A688",
"8g#	c #CCB7A5",
"9g#	c #CCB4A1",
"0g#	c #BA743A",
"ag#	c #BC7238",
"bg#	c #BE773C",
"cg#	c #C17E42",
"dg#	c #C08142",
"eg#	c #BD8341",
"fg#	c #CBBEA4",
"gg#	c #D5C7C6",
"hg#	c #CCAC93",
"ig#	c #6A5044",
"jg#	c #6F5246",
"kg#	c #725747",
"lg#	c #674734",
"mg#	c #836354",
"ng#	c #A59088",
"og#	c #AA8974",
"pg#	c #A38064",
"qg#	c #957359",
"rg#	c #8F6C4F",
"sg#	c #A4714C",
"tg#	c #9C7356",
"ug#	c #B29785",
"vg#	c #AD9E8D",
"wg#	c #9F8F82",
"xg#	c #B5AFA5",
"yg#	c #B5ADA2",
"zg#	c #B3A497",
"Ag#	c #B7A08D",
"Bg#	c #A48369",
"Cg#	c #AD9D98",
"Dg#	c #BDB7AB",
"Eg#	c #B5AA9D",
"Fg#	c #BFB1A4",
"Gg#	c #C3B8AA",
"Hg#	c #A68175",
"Ig#	c #A57C70",
"Jg#	c #AB7769",
"Kg#	c #945641",
"Lg#	c #8A5C4D",
"Mg#	c #967063",
"Ng#	c #A08374",
"Og#	c #BCA291",
"Pg#	c #C5A898",
"Qg#	c #B49682",
"Rg#	c #B7937A",
"Sg#	c #AA836F",
"Tg#	c #9C9284",
"Ug#	c #905938",
"Vg#	c #925B38",
"Wg#	c #935D39",
"Xg#	c #945737",
"Yg#	c #935635",
"Zg#	c #975B35",
"`g#	c #A27B5E",
" h#	c #995935",
".h#	c #995B37",
"+h#	c #9B5A34",
"@h#	c #A67B5E",
"#h#	c #9A5D33",
"$h#	c #A0693C",
"%h#	c #C4A181",
"&h#	c #B2916F",
"*h#	c #BD8F67",
"=h#	c #A37F67",
"-h#	c #A48068",
";h#	c #A48069",
">h#	c #A98268",
",h#	c #A98164",
"'h#	c #A67F63",
")h#	c #A68264",
"!h#	c #AD8464",
"~h#	c #B48562",
"{h#	c #BE9165",
"]h#	c #BC9469",
"^h#	c #B7987D",
"/h#	c #978C84",
"(h#	c #624835",
"_h#	c #473323",
":h#	c #433228",
"<h#	c #433229",
"[h#	c #44332A",
"}h#	c #40302A",
"|h#	c #3A2B28",
"1h#	c #372A28",
"2h#	c #362927",
"3h#	c #3A2925",
"4h#	c #46322A",
"5h#	c #4F382A",
"6h#	c #48362B",
"7h#	c #3B2F2A",
"8h#	c #312928",
"9h#	c #322A29",
"0h#	c #4D372A",
"ah#	c #764E2F",
"bh#	c #8F5D39",
"ch#	c #774828",
"dh#	c #91582F",
"eh#	c #9B5C2A",
"fh#	c #9F622D",
"gh#	c #A26631",
"hh#	c #A26531",
"ih#	c #9F6230",
"jh#	c #9E602F",
"kh#	c #A46737",
"lh#	c #9B816D",
"mh#	c #C0AC93",
"nh#	c #CCC2AA",
"oh#	c #BEAD93",
"ph#	c #A18369",
"qh#	c #CCB79C",
"rh#	c #C7B69C",
"sh#	c #7E4C2D",
"th#	c #874F2C",
"uh#	c #915D35",
"vh#	c #A37248",
"wh#	c #A26E43",
"xh#	c #975B2E",
"yh#	c #A47044",
"zh#	c #935D32",
"Ah#	c #9B663A",
"Bh#	c #947053",
"Ch#	c #A86941",
"Dh#	c #AD744F",
"Eh#	c #A86E49",
"Fh#	c #A96D4A",
"Gh#	c #A87756",
"Hh#	c #9A6141",
"Ih#	c #985733",
"Jh#	c #B2794B",
"Kh#	c #A56833",
"Lh#	c #AA6F42",
"Mh#	c #AA7C58",
"Nh#	c #A17855",
"Oh#	c #BB8F6E",
"Ph#	c #C2A084",
"Qh#	c #CEBEAF",
"Rh#	c #C9B7A4",
"Sh#	c #C0AF99",
"Th#	c #C9BEB3",
"Uh#	c #CEBBAE",
"Vh#	c #CDB9A9",
"Wh#	c #B78B5F",
"Xh#	c #BF8048",
"Yh#	c #BF8146",
"Zh#	c #C18446",
"`h#	c #C18341",
" i#	c #BD803D",
".i#	c #BB7E3D",
"+i#	c #CAAF9E",
"@i#	c #BE966E",
"#i#	c #BE9567",
"$i#	c #765546",
"%i#	c #7E5849",
"&i#	c #7C5844",
"*i#	c #78533C",
"=i#	c #916E61",
"-i#	c #AB9791",
";i#	c #A78773",
">i#	c #B09A89",
",i#	c #AE9889",
"'i#	c #8E6B52",
")i#	c #946C50",
"!i#	c #9A6F52",
"~i#	c #B6A296",
"{i#	c #A59C8B",
"]i#	c #B3A5A1",
"^i#	c #ADA597",
"/i#	c #B1A9A1",
"(i#	c #B1A89D",
"_i#	c #B2A99E",
":i#	c #B7ACA2",
"<i#	c #B7A79D",
"[i#	c #AB948E",
"}i#	c #B38771",
"|i#	c #BC9B8F",
"1i#	c #B49386",
"2i#	c #98654E",
"3i#	c #A67F6C",
"4i#	c #B39F88",
"5i#	c #A2816D",
"6i#	c #AC8877",
"7i#	c #A97C6B",
"8i#	c #9B6F51",
"9i#	c #9A5745",
"0i#	c #9B5B49",
"ai#	c #966754",
"bi#	c #986D5A",
"ci#	c #8D624F",
"di#	c #93614D",
"ei#	c #966952",
"fi#	c #9B775C",
"gi#	c #AB7B5E",
"hi#	c #B28565",
"ii#	c #AA7F6C",
"ji#	c #8E5E4D",
"ki#	c #8C5943",
"li#	c #8B5E45",
"mi#	c #925F42",
"ni#	c #905D3F",
"oi#	c #926143",
"pi#	c #916247",
"qi#	c #BEAFA6",
"ri#	c #B89E8E",
"si#	c #9A6D52",
"ti#	c #996447",
"ui#	c #9B674A",
"vi#	c #C4AB96",
"wi#	c #A58970",
"xi#	c #996945",
"yi#	c #9D663F",
"zi#	c #B4A299",
"Ai#	c #BD9873",
"Bi#	c #AF906F",
"Ci#	c #AA8B6F",
"Di#	c #B88862",
"Ei#	c #B4896A",
"Fi#	c #A67D64",
"Gi#	c #A67F69",
"Hi#	c #AA8169",
"Ii#	c #B28669",
"Ji#	c #BB9875",
"Ki#	c #6C5141",
"Li#	c #513A2D",
"Mi#	c #3F2E24",
"Ni#	c #402F26",
"Oi#	c #423129",
"Pi#	c #41312B",
"Qi#	c #3C2C29",
"Ri#	c #3C2A28",
"Si#	c #442E27",
"Ti#	c #4B3025",
"Ui#	c #603F30",
"Vi#	c #64402D",
"Wi#	c #4C3324",
"Xi#	c #362D26",
"Yi#	c #312B29",
"Zi#	c #332C2B",
"`i#	c #362F2E",
" j#	c #3F3634",
".j#	c #563929",
"+j#	c #5B3B28",
"@j#	c #784827",
"#j#	c #96572A",
"$j#	c #905727",
"%j#	c #955F2E",
"&j#	c #996334",
"*j#	c #9A6435",
"=j#	c #915A2C",
"-j#	c #A38F83",
";j#	c #BCA591",
">j#	c #A68666",
",j#	c #B9A081",
"'j#	c #B8A181",
")j#	c #BDA182",
"!j#	c #9C755A",
"~j#	c #81583A",
"{j#	c #7F4D2B",
"]j#	c #99673D",
"^j#	c #965926",
"/j#	c #955829",
"(j#	c #965B32",
"_j#	c #8F542C",
":j#	c #9E6A3F",
"<j#	c #9A7E63",
"[j#	c #9F9990",
"}j#	c #AC8A7B",
"|j#	c #AC7856",
"1j#	c #A07055",
"2j#	c #A37458",
"3j#	c #AA7B5E",
"4j#	c #AD7E63",
"5j#	c #9F6C54",
"6j#	c #8F593B",
"7j#	c #A0613F",
"8j#	c #B07148",
"9j#	c #A4652D",
"0j#	c #A76630",
"aj#	c #A2673C",
"bj#	c #A4653C",
"cj#	c #A26038",
"dj#	c #B68B6C",
"ej#	c #D0BFB2",
"fj#	c #D4C2B5",
"gj#	c #CEC1B6",
"hj#	c #BDA087",
"ij#	c #D0B4A6",
"jj#	c #C4A083",
"kj#	c #C19064",
"lj#	c #C29162",
"mj#	c #C28F5C",
"nj#	c #C08D5A",
"oj#	c #BD8754",
"pj#	c #BB804C",
"qj#	c #BB834F",
"rj#	c #B98757",
"sj#	c #CDAF97",
"tj#	c #CDB09B",
"uj#	c #CFB59F",
"vj#	c #765243",
"wj#	c #7F5A48",
"xj#	c #815C4B",
"yj#	c #916F62",
"zj#	c #B5AAA2",
"Aj#	c #8C725F",
"Bj#	c #AFACA0",
"Cj#	c #AEA499",
"Dj#	c #AEABA5",
"Ej#	c #B1A69B",
"Fj#	c #B2A79C",
"Gj#	c #B09B8E",
"Hj#	c #A69693",
"Ij#	c #A2918E",
"Jj#	c #9C8883",
"Kj#	c #9B7D71",
"Lj#	c #9C7E73",
"Mj#	c #A28377",
"Nj#	c #9E796C",
"Oj#	c #9D7C71",
"Pj#	c #A07D6C",
"Qj#	c #A07566",
"Rj#	c #A07764",
"Sj#	c #9D7467",
"Tj#	c #9E796D",
"Uj#	c #9C786B",
"Vj#	c #966C62",
"Wj#	c #987267",
"Xj#	c #A08272",
"Yj#	c #9E8172",
"Zj#	c #AB8E84",
"`j#	c #9D8C82",
" k#	c #947865",
".k#	c #8C705C",
"+k#	c #907561",
"@k#	c #95786A",
"#k#	c #9B7B71",
"$k#	c #92715C",
"%k#	c #987560",
"&k#	c #A37F6A",
"*k#	c #9F836A",
"=k#	c #9B7E65",
"-k#	c #A08671",
";k#	c #B08F7B",
">k#	c #B99674",
",k#	c #AC8466",
"'k#	c #A77F62",
")k#	c #A38068",
"!k#	c #9E8069",
"~k#	c #9B7E61",
"{k#	c #A27A61",
"]k#	c #A2795D",
"^k#	c #A27B62",
"/k#	c #AA795C",
"(k#	c #ACA296",
"_k#	c #81726A",
":k#	c #68574D",
"<k#	c #5D4C44",
"[k#	c #56453F",
"}k#	c #53423D",
"|k#	c #52423C",
"1k#	c #4C3B37",
"2k#	c #493936",
"3k#	c #533F3B",
"4k#	c #533B33",
"5k#	c #654639",
"6k#	c #6B4936",
"7k#	c #5C4335",
"8k#	c #4B3E39",
"9k#	c #403735",
"0k#	c #3D3533",
"ak#	c #534A47",
"bk#	c #5B4D48",
"ck#	c #7C6559",
"dk#	c #836351",
"ek#	c #6E574A",
"fk#	c #8B654F",
"gk#	c #916750",
"hk#	c #75553F",
"ik#	c #866750",
"jk#	c #91725E",
"kk#	c #846451",
"lk#	c #9C8B7A",
"mk#	c #9C8475",
"nk#	c #907B6C",
"ok#	c #977D6C",
"pk#	c #8F6D5D",
"qk#	c #907261",
"rk#	c #96745D",
"sk#	c #956E5B",
"tk#	c #966A54",
"uk#	c #966A51",
"vk#	c #9A7259",
"wk#	c #8F654C",
"xk#	c #91674F",
"yk#	c #957059",
"zk#	c #987662",
"Ak#	c #A39081",
"Bk#	c #B0A29C",
"Ck#	c #A68F80",
"Dk#	c #A58C80",
"Ek#	c #A08571",
"Fk#	c #987B66",
"Gk#	c #9A7152",
"Hk#	c #A2765D",
"Ik#	c #996C53",
"Jk#	c #9D785A",
"Kk#	c #AE9888",
"Lk#	c #AD9581",
"Mk#	c #B09E8F",
"Nk#	c #AF8B6E",
"Ok#	c #B0947F",
"Pk#	c #BCA492",
"Qk#	c #B6997E",
"Rk#	c #B8957D",
"Sk#	c #B38F74",
"Tk#	c #B79176",
"Uk#	c #B69171",
"Vk#	c #BA9F93",
"Wk#	c #ACADA8",
"Xk#	c #B0ACA6",
"Yk#	c #A5A5A6",
"Zk#	c #A59588",
"`k#	c #A99FA3",
" l#	c #A4A5A0",
".l#	c #A2A0A0",
"+l#	c #9C9593",
"@l#	c #9D958E",
"#l#	c #AC9B8A",
"$l#	c #9E9385",
"%l#	c #A6998C",
"&l#	c #A59184",
"*l#	c #AC9B95",
"=l#	c #988F8B",
"-l#	c #968D89",
";l#	c #9A908A",
">l#	c #988E8A",
",l#	c #978E8C",
"'l#	c #9B9190",
")l#	c #998F8C",
"!l#	c #978C86",
"~l#	c #928A7E",
"{l#	c #928B7F",
"]l#	c #979087",
"^l#	c #958F8D",
"/l#	c #90898A",
"(l#	c #999292",
"_l#	c #9C9595",
":l#	c #999393",
"<l#	c #9B9392",
"[l#	c #9E9694",
"}l#	c #AEA2A0",
"|l#	c #AFA9A5",
"1l#	c #A19D90",
"2l#	c #9B978D",
"3l#	c #A8A297",
"4l#	c #A59895",
"5l#	c #A89A96",
"                                                                                                                                                                                                                                                                                                                                                                                                                                                                                                                                                                                                                                                                                                                                                                                                ",
"   .  +  @  #  $  %  &  *  =  -  ;  >  ,  '  )  !  ~  {  ]  ^  /  (  _  :  <  [  }  |  1  2  3  4  5  3  2  6  7  8  9  0  /  a  b  c  d  e  f  g  h  i  j  k  l  m  n  o  p  q  r  s  t  u  v  w  x  y  z  A  B  C  D  E  F  G  H  I  J  K  L  M  N  O  P  Q  R  S  T  U  V  W  X  Y  Z  `   . .. +. @. #. $. $. %. &. *. =. -. ;. >. ,. '. ). !. ~. {. ]. ^. /. (. _. :. <. [. }. |. 1. 2. 3. 4. 5. 6. 7. 8. 9. 0. a. b. c. d. e. f. g. h. i. j. k. l. m. n. o. p. q. r. s. t. u. v. w. x. y. z. A. A. B. C. D. E. F. G. H. I. J. K. L. M. N. O. L. P. Q. R. S. T. U. V. W. X. Y. Z. `.  + .+ ++ @+ #+ $+ %+ &+ *+ =+ -+ ;+ >+ ,+ '+ )+ !+ ~+ {+ ]+ ^+ /+ (+ _+ :+ <+ [+ }+ |+ 1+ 2+ |  3+ 4+ 5+ 6+ 7+ 8+ 9+ 0+ a+ b+ c+ d+ e+ f+ g+ h+ i+ j+ k+ l+ m+ n+ o+ p+ q+ r+ s+ t+ u+ v+ w+ x+ y+    ",
"   z+ A+ B+ C+ D+ E+ F+ G+ H+ I+ J+ K+ L+ M+ N+ O+ P+ Q+ R+ S+ T+ U+ V+ W+ X+ Y+ Z+ `+  @ .@ +@ @@ #@ $@ %@ &@ *@ =@ -@ ;@ >@ ,@ '@ )@ !@ ~@ {@ ]@ ^@ /@ (@ _@ :@ <@ [@ )@ }@ |@ 1@ 2@ 3@ 4@ 5@ 6@ 7@ 8@ 9@ 0@ a@ b@ c@ d@ e@ f@ g@ h@ i@ j@ k@ l@ m@ n@ o@ p@ q@ r@ s@ t@ u@ v@ w@ x@ z+ y@ z@ A@ B@ C@ D@ e@ E@ m@ F@ G@ H@ I@ J@ K@ L@ O+ M@ N@ J@ O@ P@ Q@ R@ S@ T@ U@ V@ H@ W@ X@ Y@ Z@ `@ W+  # R+ .# O+ +# @# z@ e@ ## $# %# &# *# =# -# =# ;# ># ,# R+ '# U@ )# !# ~# {# ]#  # ^# /# 5@ (# _# :# <# [# T+ }# |# 1# 2# 3# ^# 4# 5# 6# 7# W+ k@ 8# 9# 0# a# b# c# d# e# f# g# g# h# i# j# k# l# m# n# o# p# q# r# s# t# u# v# =@ t# %@ w# x# d# y# 6@ z# A# &@ B# B# ,@ C# D# E# F# '@ Y+ G# H# I# J# 9  K# L# M# N# O# P# Q# R# S# T# U# V# W# X# Y# Z# `# J#  $ .$ +$ 6@ @$ #$ 6# *@    ",
"   $$ %$ &$ *$ =$ -$ ;$ >$ ,$ '$ )$ !$ >+ ~$ {$ ]$ ^$ /$ ($ _$ :$ <$ [$ }$ |$ 1$ ;  2$ 3$ 4$ 5$ 6$ 7$ 8$ 9$ 0$ a$ b$ c$ d$ e$ f$ g$ h$ i$ j$ N@ k$ l$ m$ b  n$ o$ p$ q$ r$ s$ t$ u$ v$ w$ x$ y$ e  z$ 4  A$ B$ C$ D$ E$ F$ G$ H$ I$ J$ K$ ]$ L$ V# M$ N$ O$ P$ Q$ R$ S$ T$ U$ V$ W$ X$ Y$ Z$ {# `$  % .% +% @% #% $% %% &% *% =% -% ;% >% ,% '% )% !% ~% :. {% ]% ^% /% (% _% :% <% [% }% |% 1% 2% 3% 4% 5% 6% 7% 8% 9% 0% a% b% c% d% e% f%  # g% h% i% j% k% l% m% n% o% p% q% r% s% t% u% v% w% x% y% z% A% B% C% D% E% F% G% H% I% J% K% )@ ;# L% M% N% O% P% Q% R% S% T% U% V% W% X% Y% Z% `%  & .& +& @& #& $& %& && *& w$ =& -& ;& >& ,& '& )& !& ~& {& ]& ^& /& (& _& :& <& [& }& |& 1& 2& 3& 4& 5& 6& 7& 8& 9& 0& a& b& c& d& e& f& P# g& h& i& j& k& A+ l& m& n& o& p& q& z. r& s&    ",
"   t& u& v& v& w& x& y& z& A& B& C& D& E& F& G& o@ H& I& J& K& L& M& N& O& P& Q& R& S& T& U& V& W& X& Y& Z& `&  * .* +* @* #* $* %* &* ** =* -* ;* >* ,* '* )* !* ~* {* ]* ^* /* (* _* :* <* [* }* |* 1* 2* 3* 4* 5* 6* 7* 8* 9* 0* a* b* c* d* e* f* g* h* i* j* k* l* m* n* o* p* q* r* s* t* u* v* w* x* y* z* A* B* C* D* E* F* G* H* I* W+ Y@ J* K* L* M* N* O* P* Q* R* S* T* U* V* W* X* Y* Z* `*  = .= += @= #= $= %= &= *= == -= ;= >= ,= '= )= != ~= {= ]= ^= /= (= _= := <= [= }= |= 1= 2= 3= 4= 5= 6= 7= 8= 9= 0= a= b= c= d= e= f= g= h= i= j= k= l= m= n= o= p= q= r= s= t= u= v= w= x= y= z= A= B= C= D= E= F= G= H= I= J= K= L= M= N= O= P= Q= R= S= T= U= V= W= X= Y= Z= `=  - .- +- @- #- $- %- &- *- =- -- ;- >- ,- ,# '- )- !- ~- {- P* ]- ^- /- (- _- :- <- [- }- |- 1-    ",
"   2- 3- 4- 5- 6- 7- 8- 9- 0- a- b- c- d- e- f- g- h- i- j- k- l- m- n- o- p- q- r- s- t- u- v- w- x- y- z- A- B- C- D- E- F- G- H- I- J- K- L- M- N- O- P- Q- R- S- T- U- V- W- X- Y- Z- `-  ; .; +; @; #; $; %; &; *; =; -; ;; >; ,; '; ); !; J# ~; {; ]; ^; /; (; _; :; <; [; }; |; 1; 2; 3; 4; 5; 6; 7; 8; 9; 0; a; b; c; d; e; f; g; h; i; j; k; l; m; n; o; p; q; r; s; t; u; v; w; x; y; z; A; B; C; D; E; F; G; H; I; J; K; L; M; N; O; P; Q; R; S; T; U; V; W; X; Y; Z; `;  > .> +> @> #> $> %> &> *> => -> ;> >> ,> '> )> !> ~> {> )# ]> ^> /> (> _> :> <> [> }> |> 1> 2> 3> 4> 5> 6> 7> 8> 9> 0> a> b> c> d> e> f> g> h> i> j> k> l> m> n> o> p> q> r> s> t> u> v> w> x> y> z> A> B> C> D> E> F> G> H> I> J> K> L> M> N> O> P> Q> R> S> T> U> V> W> X> Y> Z> `>  , ., +, @, #, $,    ",
"   %, &, *, =, -, ;, >, ,, ', ), !, ~, {, ], ^, /, (, _, :, <, [, }, |, 1, 2, 3, 4, 5, 6, 5, 7, 8, 9, 0, a, b, c, d, e, f, g, h, i, j, k, l, m, n, o, p, q, r, s, t, u, v, w, x, y, z, A, B, C, D, E, F, G, H, I, J, K, L, M, N, O, P, Q, R, S, T, U, V, W, X, Y, Z, `,  ' .' +' @' #' $' %' &' *' =' -' ;' >' ,' '' )' !' ~' {' ]' ^' /' (' _' :' <' [' }' |' 1' 2' 3' 4' 5' 6' 7' 8' 9' 0' a' b' c' d' e' f' g' h' i' j' -; k' l' m' n' o' p' q' r' s' t' u' v' w' x' y' z' A' B' C' D' E' F' G' H' I' J' K' L' M' N' O' P' Q' R' S' T' U' V' W' X' Y' Z' `'  ) .) +) @) #) $) %) &) *) -' =) -) ;) >) ,) ') )) !) ~) {) ]) ^) /) () _) :) <) [) }) |) 1) 2) 3) 4) 5) 6) 7) 8) 9) 0) a) b) c) d) e) f) e) g) h) i) j) k) l) x> m) n) o) p) q) r) s) t) u) v) w) x) y) z) A) B) C) D) E) F)    ",
"   G) H) I) J) K) L) M) N) O) P) Q) R) S) T) U) V) W) X) Y) Z) `)  ! .! +! @! #! $! %! &! *! =! -! ;! >! ,! '! )! !! ~! {! ]! ^! /! (! _! :! <! H& [! }! |! 1! 2! I) 3! 4! 5! 6! 7! 8! 9! 0! a! b! c! d! e! f! g! h! i! j! k! l! m! n! o! p! q! r! s! t! u! v! w! x! y! z! A! B! C! D! E! F! G! H! I! J! K! L! M! N! O! P! Q! R! S! T! U! V! W! X! Y! Z! `!  ~ .~ +~ @~ #~ $~ %~ &~ *~ =~ -~ ;~ >~ ,~ '~ )~ !~ ~~ {~ ]~ ^~ /~ (~ _~ :~ <~ [~ }~ >* |~ 1~ 2~ 3~ 4~ 5~ 6~ 7~ 8~ 9~ 0~ a~ b~ c~ d~ e~ f~ Y  g~ h~ i~ j~ k~ l~ m~ n~ o~ p~ q~ r~ s~ i+ t~ u~ v~ w~ x~ y~ z~ &) A~ B~ C~ D~ E~ F~ G~ H~ I~ J~ K~ L~ M~ N~ O~ P~ Q~ R~ S~ T~ U~ V~ W~ X~ Y~ Z~ `~  { .{ +{ @{ 8) #{ ${ %{ &{ *{ ={ -{ ;{ >{ ,{ '{ ){ !{ ~{ {{ ]{ ^{ /{ ({ r* q@ _{ :{ <{ [{ }{ |{ 1{ 2{ 3{ 4{ 5{ 6{ 7{ 8{ 9{ 0{ a{    ",
"   b{ c{ d{ e{ f{ g{ h{ i{ j{ k{ l{ m{ n{ o{ p{ q{ r{ s{ t{ u{ v{ w{ x{ y{ z{ A{ B{ C{ D{ E{ F{ G{ H{ I{ J{ K{ L{ M{ N{ O{ P{ Q{ R{ S{ T{ U{ V{ e+ W{ X{ Y{ Z{ `{  ] .] +] @] #] $] %] &] *] =] -] ;] >] ,] '] )] !] ~] {] ]] ^] /] (] _] :] <] [] }] |] 1] Z, 2] 3] 4] 5] 6] 7] 8] 9] 0] a] b] c] d] e] f] g] h] i] j] k] l] m] n] o] p] q] r] 5+ s] t] u] v] w] x] y] z] A] B] C] D] E] F] G] H] I] J] K] L] M] N] O] P] Q] R] n' S] T] U] V] _~ W] X] Y] Z] `]  ^ .^ +^ @^ #^ $^ %^ &^ *^ =^ -^ ;^ >^ ,^ '^ L' )^ !^ ~^ {^ ]^ ^^ /^ (^ _^ :^ <^ [^ }^ |^ 1^ 2^ 3^ 4^ 5^ 6^ 7^ 8^ 9^ 0^ a^ b^ c^ d^ e^ f^ g^ h^ i^ j^ k^ l^ m^ n^ o^ p^ q^ r^ s^ t^ u^ v^ w^ x^ y^ z^ A^ B^ C^ D^ E^ F^ p> G^ H^ I^ I^ J^ K^ L^ M^ N^ O^ P^ Q^ R^ S^ q@ T^ U^ V^ W^ X^ Y^ Z^ `^  / ./ +/ @/ #/ $/ %/ &/ */    ",
"   =/ -/ ;/ >/ ,/ '/ )/ !/ ~/ {/ ]/ ^/ // (/ _/ ]  :/ </ [/ }/ |/ 1/ 2/ 3/ 4/ 5/ 6/ 7/ 8/ 9/ 0/ a/ b/ c/ d/ e/ f/ g/ h/ i/ j/ k/ l/ m/ n/ o/ p/ q/ r/ s/ t/ u/ v/ w/ x/ y/ z/ A/ B/ C/ D/ E/ F/ G/ H/ I/ J/ <* K/ L/ M/ N/ O/ s= j, P/ Q/ R/ S/ T/ U/ 6> V/ W/ X/ Y/ Z/ `/  ( .( +( @( #( X* $( %( &( *( =( -( ;( >( ,( '( )( !( ~( {( ]( ^( /( (( _( :( <( [( }( |( 1( 2( 3( 4( 5( 6( 7( 8( 9( 0( a( b( c( d( e( f( ~; g( h( i( j( k( l( m( n( ~/ o( p( q( r( s( t( u( v( w( x( y( z( A( B( C( D( E( F( G( H( I( J( J( K( L( M( N( O( P( b$ 9+ Q( R( S( T( U( V( v) W( X( Y( Z( `(  _ ._ +_ @_ #_ $_ %_ &_ *_ =_ -_ ;_ >_ ,_ '_ )_ !_ ~_ {_ ]_ ^_ /_ (_ (_ __ :_ <_ [_ }_ F^ |_ |_ O^ 1_ 2_ 3_ 4_ 5_ 6_ 7_ 8_ 9_ 0_ a_ N^ b_ c_ d_ e_ f_ #. g_ h_ i_ j_ k_ l_ m_ n_ o_ p_ q_ r_ s_ t_ u_ v_    ",
"   w_ x_ y_ z_ A_ B_ C_ D_ E_ F_ G_ H_ I_ J_ K_ L_ M_ N_ O_ P_ Q_ R_ ~! S_ T_ U_ V_ W_ X_ Y_ Z_ `_  : .: +: @: #: $: %: &: *: =: -: ;: A) >: ,: ': ): !: ~: {: ]: ^: /: (: _: :: <: [: }: |: 1: 2: 3: 4: 5: 6: 7: 8: 9: 0: a: b: c: d: e: _  S/ f: g: h: i: j: k: l: m: n: o: p: q: r: s: t: u: U= v: w: x: y: z: A: B: C: D: E: F: G: H: I: J: K: L: M: N: O: P: Q: R: S: T: U: V: W: X: Y: Z: `:  < .< +< @< #< $< %< &< *< =< -< ;< >< ,< K% '< )< !< ~< {< ]< ^< /< (< _< :< << [< }< |< 1< 2< 3< 4< 5< 6< 7< 8< I( 9< 0< a< b< c< d< e< B# f< g< h< i< j< k< l< m< n< &/ o< p< q< r< s< t< u< S= S= v< w< x< K) y< z< A< B< C< D< E< F< G< H< I< J< K< L< M< N< O< P< Q< R< S< T< U< V< W< ,{ X< Y< Z< `<  [ .[ +[ 0_ @[ #[ $[ %[ &[ *[ =[ -[ ;[ >[ ,[ '[ )[ ![ ~[ {[ ][ ^[ /[ ([ _[ :[    ",
"   <[ [[ }[ |[ 1[ 2[ 3[ 4[ 5[ 6[ 7[ 8[ 9[ 0[ a[ !# H# b[ c[ d[ e[ f[ g[ h[ i[ j[ k[ l[ m[ D_ n[ o[ p[ q[ r[ s[ t[ u[ v[ w[ x[ y[ z[ m[ A[ B[ 2  C[ D[ E[ F[ G[ H[ I[ J[ K[ L[ M[ N[ O[ P[ Q[ R[ S[ T[ U[ V[ W[ X[ Y[ Z[ `[  } .} +} @} #} $} Z@ %} &} *} =} -} ;} >} ,} '} )} !} ~} {} ]} ^} /} (} _} :} <} [} }} |} 1} 2} 3} 4} 5} 6} 7} S/ 8} 9} 0} a} b} c} d} e} f} g} h} i} j} k} l} m} n} o} p} q} r} s} t} u} v} w} x} y} z} A} B} C} D} E} F} G} H} I} J} K} 2< L} M} N} O} P} Q} R} S} T} U} V} W} X} Y} Z} `}  | .| +| @| #| $| %| &| *| =| -| ;| >| ,| '| )| Z( !| ~| {| ]| K~ ^| /| (| _| :| <| [| }| || Q[ 1| 2| 3| 4| 5| ;  6| 7| 8| 9| 0| a| b| c| d| e| f| g| h| i| j| k| l| m| n| o| p| q| r| s| t| u| s| v| w| x| y| E# z| A| B| C| D| E| F| G| H| I| J| K| L| M| N| O| P|    ",
"   Q| R| S| T| U| V| W| X| Y| Z| `|  1 .1 +1 @1 e# #1 $1 %1 +% &1 *1 =1 -1 ;1 >1 ,1 '1 |+ )1 !1 ~1 {1 ]1 ^1 /1 (1 _1 :1 <1 [1 }1 |1 11 21 D# 31 41 51 61 71 81 91 01 a1 b1 c1 d1 e1 f1 g1 h1 i1 j1 k1 l1 m1 n1 o1 p1 q1 r1 s1 t1 u1 v1 w1 8@ &@ @$ x1 y1 z1 A1 B1 C1 D1 E1 F1 G1 I# s@ )@ H1 I1 J1 S/ K1 W+ L1 M1 N1 O1 P1 Q1 R1 S1 T1 U1 $@ U# w# V1 0+ D. W1 j$ X1 Y1 Z1 `1  2 .2 +2 @2 #2 $2 9# %2 K# &2 *2 X# =2 -2 ;2 !@ >2 ,2 '2 )2 !2 ~2 {2 ]2 ^2 /2 (2 s1 _2 :2 <2 [2 }2 $  ~% |2 12 22 32 42 /1 52 62 72 82 92 02 a2 b2 c2 d2 e2 f2 g2 h2 i2 j2 k2 l2 m2 n2 o2 p2 q2 r2 s2 t2 u2 v2 w2 x2 y2 z2 A2 B2 C2 D2 E2 U| F2 G2 H2 I2 J2 K2 L2 M2 N2 O2 P2 Q2 R2 S2 T2 U2 V2 W2 b$ 3$ X2 Y2 Z2 r$ `2  3 .3 +3 @3 #3 B2 $3 %3 &3 *3 =3 -3 ;3 H# >3 |2 <+ q& ,3 '3 )3 !3 ~3 b  {3 ]3 ^3 2  /3    ",
"   d  (3 _3 :2 :3 <3 [3 }3 |3 13 23 33 <2 43 53 63 73 83 93 03 03 a3 b3 c3 d3 e3 J2 P# m  f3 g3 m& h3 p& i3 j3 k3 l3 m3 n3 o3 p3 q3 r3 s3 m@ t3 .+ u3 v3 w3 x3 y3 z3 A3 B3 C3 D3 E3 F3 G3 D3 H3 I3 J3 K3 L3 M3 N3 u@ O3 P3 Q3 d3 R3 q3 S3 T3 U3 V3 W3 X3 _. Y3 Z3 `3 32  4 J3 $@ .4 +4 @4 #4 $4 m. %4 U| &4 *4 =4 -4 ;4 >4 ,4 '4 )4 !4 ~4 {4 ]4 -* ^4 /4 (4 _4 j$ :4 <4 [4 }4 |4 14 24 34 p  44 54 64 74 84 /1 94 04 I# a4 s~ b4 c4 d4 e4 f4 g4 h4 i4 }2 j4 k4 l4 l4 m4 v3 n4 (# o4 U1 p4 U# q4 A3 :@ r4 s4 t4 u4 v4 C# w4 x4 F# y4 z4 A4 B4 C4 D4 E4 F4 G4 H4 I4 K1 J4 K4 L4 M4 N4 O4 P4 Q4 R4 S4 T4 U4 V4 W4 X4 Y4 Z4 `4  5 .5 o$ _1 +5 @5 #5 L2 $5 f4 %5 94 &5 *5 =5 -5 ;5 $5 >5 ,5 '5 )5 !5 ~5 v$ {5 ]5 ^5 ]5 /5 (5 I2 _5 :5 <5 [5 }5 |5 15 25 35 45 55 #. 65 75 85 95 05 05 a5 b5 c5 d5    ",
"   e5 f5 g5 h5 i5 j5 k5 l5 $) m5 n5 o5 p5 q5 r5 s5 t5 u5 v5 w5 x5 y5 z5 A5 B5 C5 H# P# !@ D5 E5 F5 G5 H5 I5 J5 K5 L5 M5 N5 O5 42 P5 Q5 R5 S5 T5 U5 V5 W5 X5 Y5 Z5 `5 H&  6 =. z4 .6 +6 J# B3 @6 #6 $6 %6 &6 *6 =6 -6 ;6 >6 ,6 '6 )6 !6 ~6 {6 ]6 ^6 /6 (6 _6 :6 <6 [6 }6 |6 16 H4 26 36 46 56 66 76 86 96 06 a6 b6 c6 d6 e6 f6 ]| g6 h6 i6 j6 k6 l6 m6 n6 o6 p6 q6 r6 s6 t6 u6 v6 j  w6 x6 2; y6 z6 A6 B6 C6 D6 E6 F6 G6 H6 I6 J6 K6 L6 M6 N6 O6 P6 W] Q6 R6 S6 9= T6 U6 V6 W6 X6 Y6 Z6 `6  7 .7 +7 @7 #7 $7 %7 &7 *7 =7 /4 -7 ;7 >7 ,7 '7 )7 !7 ~7 {7 ]7 |~ ^7 /7 (7 o+ _7 :7 <7 [7 }7 |7 17 27 27 37 47 57 67 77 87 97 07 a7 b7 c7 d7 e7 f7 g7 h7 i7 j7 k7 l7 m7 n7 o7 %& p7 q7 r7 s7 t7 u7 v7 == w7 x7 y7 z7 A7 B7 C7 D7 E7 F7 G7 H7 I7 J7 K7 L7 M7 N7 O7 P7 Q7 R7 S7 T7 U7 V7 W7 X7 Y7 Z7    ",
"   `7  8 .8 +8 @8 #8 $8 %8 &8 *8 =8 -8 ;8 >8 ,8 '8 )8 !8 ~8 {8 Z_ ]8 ^8 /8 (8 _8 D# :8 <8 [8 }8 |8 18 28 38 r+ 48 58 C~ 68 78 88 98 08 a8 b8 c8 d8 e8 f8 g8 h8 i8 j8 k8 l8 m8 n8 14 o8 p8 q8 r8 s8 t8 u8 v8 w8 x8 :} y8 z8 A8 B8 l= C8 D8 E8 F8 G8 H8 I8 J8 K8 L8 M8 N8 O8 P8 =# Q8 R8 S8 T8 U8 V8 W8 X8 Y8 Z8 `8  9 .9 +9 @9 #9 $9 %9 &9 *9 =9 -9 ;9 >9 ,9 ._ '9 )9 !9 ~9 {9 ]9 ^9 /9 (9 _9 :9 <9 [9 }9 |9 19 29 39 49 59 69 79 89 99 09 a9 b9 c9 d9 e9 f9 g9 h9 i9 j9 k9 l9 m9 n9 o9 s5 p9 q9 r9 s9 t9 u9 v9 w9 x9 y9 P( z9 A9 B9 B9 C9 q9 D9 E9 F9 G9 H9 I9 J9 K9 L9 R7 M9 N9 O9 P9 Q9 R9 S9 T9 U9 V9 W9 X9 Y9 Z9 `9  0 .0 +0 @0 #0 $0 %0 &0 *0 +0 =0 -0 ;0 >0 ,0 '0 )0 !0 ~0 {0 ]0 ^0 /0 (0 _0 :0 <0 [0 }0 |0 10 20 30 40 50 60 70 80 90 00 a0 b0 c0 d0 e0 f0 m9 ~# `# r+ g0 h0 i0 j0 k0    ",
"   `7 l0 m0 n0 o0 p0 q0 r0 s0 t0 u0 v0 w0 x0 y0 z0 A0 B0 C0 D0 E0 F0 y[ G0 H0 I0 )@ _4 J0 K0 L0 M0 N0 O0 P0 Q0 R0 S0 T0 U0 V0 W0 X0 Y0 Z0 `0  a .a +a @a #a $a $a %a &a *a =a -a ;a >a ,a 'a )a !a ~a {a ]a ^a /a (a _a :a <a [a }a |a 1a 2a 3a 4a 5a 6a 7a 8a 9a 0a aa ba ca da ea fa ga ha ia ja ka la ma na oa pa qa ra sa ta ua va wa [| xa ya za Aa Ba Ca Da Ea Fa Ga }3 Ha *) Ia Ja Ka La <9 Ma Na Oa Pa => Qa Ra Sa Ta Ua Va Wa Xa Ya Za `a  b .b f9 +b @b #b $b %b &b 3' *b =b -b ;b >b ,b 'b )b f, !b ~b {b ]b ^b /b (b _b :b <b [b }b |b 1b 2b 3b j- 4b 5b 6b 7b 8b 9b 0b ab bb cb db T9 eb fb gb hb ib jb kb lb mb nb ob pb qb rb sb tb Z9 ub vb wb xb yb zb Ab _7 Bb Cb Db Eb Fb Gb Hb Ib Jb Kb Lb Mb Nb Ob Pb Qb Rb Sb Tb Ub Vb Wb Xb Yb Zb `b  c .c +c @c `+ #c -9 $c %c &c *c    ",
"   =c -c ;c >c ,c 'c )c !c ~c {c ]c ^c /c (c _c :c Ma <c [c }c |c 1c 2c 3c 4c 5c 2  6c W+ 7c 8c M0 9c 0c |+ ac n+ bc cc dc ec fc gc hc ic X8 jc kc lc mc nc f^ oc pc qc rc sc }  tc uc vc wc J~ xc yc zc Ac Bc Cc Dc Ec Fc Gc Hc Ic Jc Kc Lc Lc Mc Nc Oc Pc Qc Rc Sc Tc Uc Vc Wc Xc Yc Zc `c  d .d +d @d #d $d %d &d *d =d -d ;d >d ,d 'd )d !d ~d {d ]d ^d /d x< (d _d &8 :d <d [d }d |d 1d 2d 3d [9 4d 5d 6d 7d 8d ;[ 9d 0d ad bd cd dd ed fd H< i9 gd hd id jd jd kd ld md nd od pd qd rd sd td ud vd wd xd yd zd Ad Bd Cd Dd Ed Fd Gd Hd Id Jd Kd Ld Md Nd Od Pd Qd Rd Sd Td Ud Vd Wd Xd Yd Zd `d  e .e +e @e #e $e %e &e *e =e -e ;e >e ,e 'e )e !e ~e {e ]e ^e /e (e 64 _e :e <e [e }e |e 1e 2e 3e 4e 5e 6e 7e 8e 9e 0e ae be ce de ee fe ge he ie je ke le me ne $@ t= oe +] pe qe re    ",
"   se te ue ve we xe ye ze ~c Ae Be Ce pc De Ee Fe Ge He Ie Je Ke Le E] Me Ne Oe Pe Qe Re f4 Se Te Ue Te Ve We Xe q^ Ye Ze `e ]}  f .f +f @f #f $f %f &f *f =f M/ -f ;f >f ,f 'f )f !f ~f {f ]f ^f /f (f _f :f <f [f }f |f 1f 2f 3f 4f 5f 6f 7f }2 8f 9f 0f af bf cf df ef ff r1 gf hf if jf kf lf mf nf  > of pf qf rf sf tf Y0 uf )/ vf wf xf yf zf Af Bf Cf Df Ef Ff Gf Hf If Jf Kf Lf Mf Nf Of Pf Qf Rf Sf Tf Uf Vf Wf Xf Yf Zf `f  g .g +g @g #g $g Ie %g &g *g =g -g M2 ;g >g ,g 'g vd )g !g ~g {g ]g ^g /g (g _g :g <g [g }g C9 |g 1g 2g 3g 4g 5g 6g 7g [b 8g 9g 0g e= ag bg cg dg eg fg gg hg ig jg kg lg mg ng og pg qg rg sg tg ug vg wg xg yg #e zg Ag Bg Cg Dg Eg Fg Gg Hg Ig Jg Kg Lg Mg Ng Og Pg Qg Rg Sg Tg Ug Vg Wg Xg Yg Zg `g  h .h +h @h #h $h %h &h D# *h =h -h ;h >h ,h    ",
"   'h )h !h ~h {h ]h ^h /h (h O- _h :h <h [h }h |h 1h He 2h 3h 4h 5h :; 6h 6^ 7h 8h 9h 0h Ve d$ ah bh N. 94 ch Xe dh eh .7 fh gh hh ih jh kh lh mh nh oh ph qh Q] rh sh th uh vh wh xh yh zh Ah Bh Ch Dh Eh Fh Gh Hh Ih R> Jh Kh Lh p_ Mh Nh Oh Ph Qh Rh Sh Th Uh Uh Vh Wh Xh Yh Zh `h  i  i .i +i @i #i $i %i &i *i th =i Af -i ;i >i ,i 'i )i !i ~i {i ]i ^i /i (i _i :i <i [i Jf }i |i 1i 2i 3i 4i 5i 6i 7i 8i 9i 0i ai bi ci di ei fi gi hi ii ji ki li mi ni oi pi qi ri si ti ui vi wi xi yi zi Ai Bi -b Ci Di Ei Fi Gi Hi Ii C9 Ji Ki Li Mi Ni Gd Oi Pi Qi Ri Si Ti Ui Vi Wi Xi Yi Zi `i  j .j Bg +j @j #j $j %j &j *j =j -j -j ;j >j ,j 'j )j !j ~j Bg {j ]j ^j /j (j _j :j <j [j }j |j 1j 2j 3j 4j 5j 6j 7j 8j 9j 0j aj +/ bj cj dj ej fj gj hj ij jj kj lj mj nj oj pj qj rj sj tj    ",
"   uj vj wj xj yj zj Aj Bj !7 Cj pc Dj Ej Fj Gj Hj _c Ij Jj Kj Lj Mj Nj Oj Pj Qj Rj Sj Tj Uj Vj Wj Xj Yj #  Zj `j  k .k +k @k #k $k %k &k *k x< =k -k j< ;k t0 =; >k ,k 'k )k 36 !k ~k {k ]k ^k /k (k _k :k <k [k }k |k 1k 2k 3k @8 4k 5k 6k 7k 8k 9k 0k ak bk ck dk ek fk gk hk ik I' jk kk z( lk mk nk ok pk qk rk sk W~ tk uk vk wk xk yk zk Ak Bk Ck Dk Ek Fk Gk Hk Ik Jk Kk Lk Mk Nk Ok Pk Qk Rk Sk Tk Uk Vk Wk Xk Yk Zk `k  l .l +l @l #l $l %l &l *l =l -l ;l >l ,l 'l #3 )l !l ~l {l ]l C9 ^l /l (l _l _l :l Dd <l [l Hi Hi }l |l 1l 2l 3l 4l 5l ,g 6l 7l 8l 9l 0l .1 al bl cl dl Vf el fl gl hl il jl kl ll .b ml nl ol pl ql rl sl tl >e ul vl wl xl yl zl Al Bl f4 Cl Dl |; El Fl Gl Hl Il Jl Kl Ll Ml Nl ll Ol Pl Ql Rl Sl Tl Ul Vl he Wl Xl Yl Zl `l  m .m M# +m @m #m $m %m &m    ",
"   *m =m -m -m ;m >m ,m 'm )m !m ~m {m {m ]m ^m /m (m _m :m <m [m }m |m 1m 2m 3m 4m 5m 6m 7m 8m 9m 0m am bm cm b$ dm em fm gm hm im jm km lm mm 'i nm om pm qm rm sm tm um 16 vm wm xm ym zm Am Bm Cm Dm Em Fm Gm Hm Im Jm Km Lm Mm Nm ,+ Om Pm Qm Rm Sm Tm Um Vm Vm Wm Xm Ym 0} v  Zm `m  n .n +n @n #n $n %n &n *n =n -n /d ._ ;n >n ,n 'n uf )n !n ~n {n ]n ^n /n (n c+ (@ v@ _n :n V- <n [n }n |n 1n 2n 3n 4n 5n 6n 7n '* 8n 9n 0n an bn cn dn en fn gn hn in jn kn ln mn +4 nn on pn qn rn sn tn un vn wn xn yn zn An Bn Cn Dn En Fn Gn -> Hn In Jn Kn Ln Mn Nn On Pn Qn Rn Sn Tn Un Vn Wn Xn Yn Zn `n fl  o .o +o @o #o $o %o &o *o j9 =o -o ;o >o ,o 'o )o !o ~o {o ]o ^o /o (o _o :o <o [o }o |o 1o Pi 2o 3o 4o 5o 6o 7o 8o 9o 0o ao bo co do eo fo go ho io jo ko lo mo no oo po qo    ",
"   ro so to uo vo wo xo yo zo Ao Bo Co Do Eo Fo Go $% Ho Io Jo Ko Lo Mo No Oo Po nj Qo ]  Ro So To *. Uo Vo Wo Xo Yo Zo %  `o k& n,  p .p +p @p #p $p %p &p M# *p =p -p ;p d+ >p ,p 'p )p !p ~p {p ]p ^p /p (p _p :p <p <p [p }p |p 1p 2p !. 3p 4p 5p 6p 7p M$ 8p 9p 0p ap bp cp L_ dp ep [3 fp $  gp -a hp ip hp jp (e kp lp w+ mp np op U2 pp qp z$ rp 1+ q{ sp tp up vp wp J2 xp yp zp Ap Bp Cp Dp Ep Fp Gp Hp Ip Jp Kp Lp Mp Np 0g Op Pp k8 Qp Rp Sp Tp Up Vp Wp Xp p  Yp Zp `p d+  q .q +q @q #q $q %q &q *q =q -q ;q #7 >q ,q 'q )q !q ~q {q ]q ^q /q (q _q :q <q +# B# Se [q }q |q 1q 2q 3q 4q 5q 6q 7q 8q 9q 9q 0q aq bq cq dq eq fq gq hq iq >* jq kq lq mq nq oq pq qq rq sq tq 42 42 uq ]q vq wq xq yq zq V7 Aq Bq q$ 8m Cq Dq Eq Ve Fq Gq 36 o  k+ Hq Q> O# W$ :  Iq Jq Kq Lq Mq    ",
"   `p Nq Oq C4 Pq $1 Qq /4 Rq 45 Sq Tq Uq j& 4m Vq 1+ Wq Xq Yq Zq `q o@  r a. .r +r @r #r +r V1 Sq $r %r Yo &r *r =r -r g@ ;r >r ,r K4 I4 14 N1 (4 'r 'r 7+ B  )r v# !r ~r  r -# {r %2 ]r !p ^r /r g% (r L# _r {3 :r W+ <r m  x# [r }r }r |r 1r 2r 3r F# 4r 5r P# $1 4r 6r k@ S+ /3 7r 8r 8r J1 r! S+ 9r 0r ar I1 S, br cr dr j$ {r er P1 fr gr Z@  $ hr ir z3 jr |@ kr L$ vm lr mr nr or _# 9@ !; u@ j& 2  pr qr !% J1 rr ^# sr 4m 4m tr ~r Rq D1 ur vr 7r wr ~r (4 xr yr zr {3 %2 %2 Ar Br Cr D} Dr Dr q# q# q# Er Fr Gr Hr K1 ## Ir `@ )0 Jr V% Kr H3 qq s@ <1 y3 Lr Mr Nr Or <r Pr =3 Qr ;2 Rr (4 @1 )@ m  Sr v@ z+ Tr #$ Ur `@ Vr Wr Wr Xr gr Yr Zr <r  r <r m  b4 `r  s S, I4 .s +s -7 Rq wm @s #s :8 $s T1 T1 L1 V# %s &s *s G1 =s -s ;s >s O+ ,% a# vm ,s 's C3 )s !s ~s {s ]s ^s 9.    ",
"   /s (s l4 _s :s nj m  L1 Zp ;a <s [s }s |. |s 1s 2s 3s 4s 5s 6s 7s =+ 4> 8s to ~9 9s 0s as bs cs ds 1; es fs gs hs is js ks ls ms ns os ps qs I4 0r g4 rs ss ts @2 us }+ n  vs ws xs ys zs As Bs tq Cs Ds k3 Ar s3 Es Fs Gs M9 Hs Is 8c Js Ks Ls b  Ms Ns Os Ps Qs Rs Ss Ss Ts Us Vs a[ Ws Xs Ys Zs `s  t .t !; Z+ K1 9r Yq +t @t #t M$ $t %t &t *t =t -t ;t >t ,t 't )t t= !t ~t {t ]t np ^t /t (t _t E$ :t <t [t }t x@ |t 1t yo 2t {+ 3t 4t 5t 6t 7t 8t 9t y. 0t at bt ct v. dt et ft F2 gt ht _{ Sq e# it jt @& kt lt M_ W$ {2 mt nt ot pt qt rt st tt ut vt lt i3 d+ wt xt yt @k zt At Bt Ct Dt Et V@ Ft Gt Ht It Jt Kt Lt Mt Nt Ot Pt Qt 1. Rt St Tt Ut Vt Wt Xt Yt Zt `t  u .u +u @u #u 2p Zq $u %u &u s$ %3 *u =u -u $$ ;u >u ,u 'u )u s6 16 !u ~u ~u {u ]u ^u /u (u r6 _u :u <u [u    ",
"   }u |u 1u 2u 3u 4u S+ 5u 6u 7u 8u 9u Ae 0u au bu cu du eu fu gu hu iu ju ku lu mu nu ou pu qu ru su od tu uu vu j3 wu ,i xu yu zu Au Bu Cu Du Eu Fu Gu Hu Iu Ju Ku k5 Lu Mu Nu Ou Pu Qu Ru Su Tu Uu Vu Wu Xu Yu #1 Zu `| `u  v .v +v @v #v $v %v #v #v &v *v =v -v ;v >v ,v 'v v0 )v !v ~v {v ]v ^v /v (v _v :v <v [v }v |v 1v 2v 3v 4v 5v 6v 7v 8v 9v 0v av bv cv cv dv dv p< ev fv gv hv iv jv kv lv mv c$ nv ov pv qv rv sv tv uv vv wv xv yv zv Av Bv Cv Dv Ev Fv Gv Hv Iv Jv Kv Lv Mv Nv Ov Pv Qv Rv A# Sv Tv Uv Vv Wv Xv Vl Yv Zv `v  w .w +w @w #w $w %w &w *w =w -w ;w >w ,w 'w )w !w ~w {w ]w <s ^w M6 /w (w _w :w <w [w }w |w 1w 2w 3w 4w 5w 6w 7w 8w 9w 0w aw )_ bw cw dw ew fw gw hw :$ iw jw kw lw mw nw ow pw qw rw sw tw uw vw ja ww xw yw zw Aw Bw Cw Dw Ew Fw %( Gw Hw Iw    ",
"   Jw Kw Lw Mw Nw 21 f: Ow Pw Qw Rw O( Sw Tw Uw Vw Ww Xw Yw }9 3d Zw `w  x .x +x @x #x /^ $x %x &x *x [g =x -x ;x >x ,x m^ 'x )x !x ~x {x ]x ^x /x (x _x :x <x &v [x }x |x 1x 2x 3x 4x 5x 6x 7x 8x 9x 0x ax bx cx dx ex fx gx hx ix jx kx lx mx nx ox px qx rx sx =v tx ux vx wx xx yx zx Ax Bx Cx Dx Ex Fx Gx Hx Ix Jx Kx l5 Lx Mx Nx Ox Px Qx Rx Sx Tx Ux Vx Wx Xx Yx Zx `x  y .y +y @y l7 #y $y %y &y *y =y G4 @t -y ;y >y ,y 'y )y !y ~y L~ {y {y ]y ^y /y (y _y :y <y [y }y |y 1y 2y 3y 4y 5y 6y 7y 8y Dr 9y 0y ay by cy dy ey fy gy hy iy jy ky ly my ny oy py qy ry sy ty uy vy wy xy yy zy Ay By q+ Cy Dy Ey Fy Gy Hy Iy Jy Ky Ly My Ny Oy Py Qy Ry Sy Ty Uy Vy Wy Xy Yy Zy `y  z .z +z @z #z `o $z %z &z *z =z -z ({ ;z >z ,z 'z )z !z ~z {z uk ]z ^z uk /z (z _z :z <z [z }z |z 1z    ",
"   2z 3z 4z 5z 6z j3 7z Pu 8z 9z 0z az bz %0 cz dz ez fz '8 gz hz iz jz kz lz mz nz oz pz qz rz sz tz uz vz wz xz yz zz Az Bz (h Cz Dz Ez Fz Gz Hz Iz Jz Kz Lz Mz Nz Oz Pz Qz Rz Sz ', Tz Uz Vz Wz Xz dk Pc Yz Zz `u `z  A .A +A @A #A $A %A &A *A =A -A ;A >A ,A 'A )A !A ~A /v {A ]A ,A ^A /A (A _A :A <A h& [A }A |A 1A 2A 3A 4A 5A 6A V> 7A ev 8A 9A 0A M) aA bA cA dA eA fA rx px gA hA iA jA kA lA mA 43 nA ;| oA pA qA rA sA :h tA uA vA wA xA yA zA AA BA CA DA EA FA GA HA IA JA Z- sm KA LA MA pk !@ Ue NA OA PA QA RA SA TA UA VA WA XA YA 0A ZA `A  B .B +B @B #B $B %B &B *B =B -B ;B >B ,B 'B *3 )B !B ~B {B ]B ^B /B (B _B :B <B [B }B |B 1B 2B 3B 4B 5B 6B 7B 8B 9B 0B aB bB cB dB eB fB gB hB iB jB !z kB lB mB nB oB pB qB rB sB tB uB vB wB xB yB zB AB BB CB DB EB FB GB    ",
"   HB IB JB KB LB MB A+ NB OB PB  : QB RB SB TB UB VB u- lz WB XB YB ZB `B  C r9 .C +C @C #C $C %C &C *C =C &A -C ;C >C ,C 'C )C !C ~C {C ]C ^C /C (C _C :C <C [C }C |C 1C )' 2C 6x 3C 4C 5C 6C 7C 8C 9C 0C aC bC cC dC eC fC gC A5 hC iC jC kC lC mC &A nC }o oC oC pC qC rC rC sC tC uC vC wC l, xC yC zC wt Q@ Q( AC BC CC DC EC FC GC HC IC 7A ds JC KC LC MC NC o< OC PC QC RC SC TC UC VC WC XC YC ZC `C  D .D +D @D #D $D %D &D *D =D -D ;D >D tf ,D 'D )D !D jm ~D 7> {D ]D ^D /D Z- (D _D :D <D [D ^4 }D |D 1D 2D 3D 4D 5D 6D 0f 7D 8D 9D 0D aD bD cD dD ![ eD =B fD gD hD iD =B jD kD ;B lD mD nD oD pD qD rD sD tD uD vD wD xD yD zD AD BD CD DD ED FD GD HD ID JD KD LD MD ND OD PD QD RD SD TD UD VD WD XD YD ZD `D  E .E +E @E #E $E %E &E *E =E -E -E ;E `D BB >E ,E 'E EB )E    ",
"   !E ~E {E Fn 8q {o ]E ^E /E (E _E :E <E [E }E |E 1E 2E 3E 4E iz 5E 6E 7E 8E 9E 0E aE bE (9 <l cE dE eE fE gE hE M# iE jE kE lE mE nE oE pE qE fj rE sE tE uE vE i] wE Y> xE yE zE AE BE CE DE EE FE GE HE IE JE KE LE ME ox j7 NE OE PE !A QE RE _l SE *b tz NE TE UE VE WE 90 Ii XE YE pC X_ ZE Dd `E  F .F +F g$ @F #F $F %F &F *F =F -F w[ ;F >F ,F 'F )F !F ~F {F ]F ^F /F (F _F :F <F [F }F |F 1F 2F :s 3F 4F 5F 6F 7F 8F 9F _h 0F aF h^ bF cF dF 'd eF fF s/ gF hF iF jF kF lF mF nF oF ^D pF qF rF 8# 9c sF tF Zv uF vF wF xF yF zF AF BF CF DF EF FF GF HF IF JF KF LF MF NF OF PF QF RF SF TF UF VF WF XF YF ZF `F  G .G +G @G #G $G (> %G &G *G =G -G ;G >G ,G 'G )G !G ~G {G ]G ^G /G (G _G ;% :G <G [G }G |G 1G -E 2G 3G 3G 3G 4G 5G 6G 7G 8G 9G 0G aG bG cG dG eG fG gG hG iG    ",
"   jG kG lG mG nG ov (( oG pG qG rG sG tG uG vG wG 1E xG ;_ yG UB zG AG BG CG DG EG FG GG HG IG JG KG LG MG NG OG PG =6 QG RG SG TG u& UG VG WG XG YG ZG `G Hi  H .H +H U= @H #H $H %H &H *H &w =H -H ;H >H ,H 'H )H !H ~H {H ]H ^H /H (H _H :H :H <H ~A [H }H |H 1H 2H 3H 4H 5H 6H (^ 7H 8H 9H 0H aH bH cH dH {# eH fH gH hH iH jH kH lH mH nH oH pH qH rH sH tH uH vH wH xH yH zH AH BH CH DH EH FH GH HH IH JH KH LH MH NH OH PH QH RH W, SH TH UH VH WH XH YH ZH )y `H  I .I +I @I _} Fv #I $I %I &I *I Sq =I -I ;I >I ,I 'I )I !I ~I {I ]I ^I /I (I _I :I <I [I .< }I |I 1I 2I 3I 4I 5I 6I 7I 8I 9I _2 :$ 0I aI bI cI i) E^ dI eI fI gI hI iI Z~ jI kI lI mI nI oI pI qI rI sI tI uI vI wI xI yI zI AI BI CI aG DI EI FI eG GI HI II JI KI 4G gG LI MI NI OI PI QI RI SI TI UI VI WI XI    ",
"   YI ZI `I  J .J J# 8} +J hC @J #J $J %J &J *J =J -J ;J >J tD C- ,J 'J )J !J ~J {J ]J ^J Xx /J (J _J :J <J [J Vs }J |J B_ 1J 2J 3J 4J 5J 6J 7J 8J 9J 0J aJ bJ cJ dJ eJ fJ gJ hJ iJ jJ kJ lJ mJ nJ oJ pJ qJ rJ sJ tJ uJ vJ wJ xJ yJ zJ AJ 6v BJ BJ CJ DJ EJ FJ iC GJ HJ PE }o 6H IJ JJ KJ Wn LJ MJ NJ OJ PJ QJ ^s M# RJ SJ TJ UJ {A VJ WJ ^8 XJ YJ -} ZJ `J  K .K +K @K #K $K u= %K &K *K =K -K ;K >K ,K 'K )K !K ~K {K ]K X  ^K /K (K _K :K P[ <K [K }K |K 1K 2K 3K BA 4K 5K 6K 7K 8K 9K 0K aK bK cK dK eK N3 IH fK gK hK iK jK kK lK mK nK oK pK qK rK sK tK uK vK wK xK yK zK AK BK CK DK EK FK GK HK IK JK KK LK MK NK OK PK QK RK $[ P^ SK TK =] UK VK WK XK YK ZK `K  L .L +L @L #L $L %L &L *L @r /  =L -L ;L >L ,L 'L )L !L ~L {L aJ ]L ^L /L (L OI _L :L <L [L }L |L 1L 2L 3L 4L 5L    ",
"   6L 7L 8L 9L 0L G3 8} aL bL cL dL t- eL fL gL hL iL jL kL lL mL nL oL pL qL rL sL 0k tL uL vL wL xL yL zL AL /j BL D@ on CL DL EL _y FL GL HL IL x8 JL KL ,F LL ML NL OL PL QL RL SL TL UL VL WL XL YL ZL `L  M .M +M @M #M $M %M &M *M =M aA h< i[ -M ;M 64 ^2 >M ,M 'M )M !M ~M {M ]M ^M /M (M _M Ip s+ &1 [] :M <M [M }M |M 1M 2M 3M 4M 5M 6M 7M 8M 9M 0M aM bM cM dM v. eM fM gM hM iM jM DE kM lM mM nM oM pM qM rM sM tM uM vM wM xM yM zM AM BM CM DM EM FM GM [a HM IM JM KM LM MM NM OM PM QM $2 <4 M1 44 RM SM TM UM VM WM XM YM ZM `M  N .N +N @N #N $N %N &N *N =N -N ;N >N r~ ,N 'N )N _q Hf !N ~N {N ]N ^N /N (N _N :N <N [N }N |N 1N 2N 0% 3N 4N 5N 6N -6 7N 8N 5k 9N 0N aN bN ap cN Pq =7 dN eN fN gN fN hN iN jN kN lN mN nN oN pN qN rN sN tN uN vN wN xN yN }h zN AN BN    ",
"   CN DN EN )1 X% FN L$ c# Xu GN HN IN JN KN LN 2p MN NN ON PN QN RN }2 SN TN ^  4  .F UN [5 VN WN XN YN ZN r3 {9 `N dr $2 i;  O .O +O _s Ms @O D@ #O Is N0 Y$ $O %O &O *O 3  =O vr 5r -O V' T/ ;O S/ S/ S+ '@ W# >O ,O {5 R3 T^ aL 'O 9c )O N0 !O n, Yp ~O {O ]O ^O z4 t3 Qr /O o3 o3 (O 25 _O :O <O [O Qo }O !% k  |O :q Dq 1O 2O 3O 4O X2 5O 91 6O 7O Zo 8O q3 %} K1 /r P> m  y1 u@ 9O 0O Y% 25 aO bO %# kr M@ v# cO /3 S+ E# dO eO *2 i2 fO gO l@ hO iO u6 jO l@ z# $O t3 p3 M# kO nj =# Ir X% X% lO Ft o4 w# <r '- mO Tq nO Z+ o3 oO Qr =3 pO I# v4 .2 qO rO 6@ sO 7@ C  tO uO z# vO wO xO yO  $ z3 K2 dr zO *3 AO BO CO DO EO Xq >= FO V3 GO 1  {r HO ;a I4 IO D@ JO P# KO LO L# ]3 y4 l  .t MO <r uO 7$ #t NO vh J= OO PO QO RO SO TO UO *} VO 6a WO XO S2 qp .p *} %6 YO ZO U2 bx `O    ",
"    P .P +P @P #P $P :s  D tr %P &P ;  TD *P =P gO @1 2  -P i@ A1 $u ;P 3r 3r H1 >P }t ,P ,P 'P x1 )P !P ~P {P  r Yp b# d# E# {r ]P J0 )# ^P :^ /P =& `4 (P _P :P <P 0g [P D5 H# >s }P |P 1P {# 2P Nq K# 8# m  VN IH 3P Sr KO <v Is 4P $5 5P /4 P# r@ 6P V1 7P ;r _4 <r 6@ U1 |@  $ -# k@ ,% L@ f: 8P cx 9P 0P aP aP 2r bP %. cP _4 D3 dP eP H# -# 0+ fP 2# gP ;P ,& %s hP iP jP Z@ kP lP `p 05  O mP nP '5 +2 oP pP qP rP sP tP uP g2 e# vP wP xP yP v6 ,P zP V# W# AP BP CP 9O ;* $@ DP EP f1 A$ ea FP GP HP IP B2 4O =u m. JP KP R3 LP e# MP NP P1 ++ OP PP QP Jk RP SP TP UP VP 28 WP XP YP ZP p! `P p!  Q .Q +Q @Q #Q V4 $Q %Q &Q *Q =Q O+ k  $& `C f% -Q FO ;Q G4 >Q ,Q 'Q )Q 8. U@ ,p ,% X! a4 )@ !Q Z@ -s G3 R+ y4 :8 `N _4 kr 2  Qq ]# ~Q _O EO W$ If JO Yq {Q ]Q ^% &1 ^Q z+ W$ G4    ",
"   /Q (Q _Q :Q <Q <Q T& [Q }Q |Q 1Q *w 2Q 3Q 71 JO k  f: f: 8. 4Q 5Q 6Q -s $5 Tt n. 7Q n. Oe _% 8Q 9Q 0Q aQ bQ aQ cQ dQ eQ fQ gQ hQ iQ jQ t. c5 Re kQ lQ mQ nQ 2H oQ pQ qQ rQ sQ tQ uQ vQ wQ xQ yQ yQ zQ AQ BQ CQ DQ EQ FQ GQ HQ IQ JQ KQ LQ `p ov MQ D% NQ OQ PQ QQ n& t6 RQ SQ TQ UQ VQ WQ XQ YQ ZQ `Q  R ~q .R +R 4q SQ @R #R $R %R &R Q> 6+ j; *R =R K  Q  -R ;R >R ,R t  'R )R !R ~R {R ]R ^R /R (R _R :R <R [R *t }R |R 1R Dp 2R 3R 4R 5R 6R h+ 7R /& 8R 9R 0R aR bR cR dR eR fR -u gR hR iR jR kR lR mR nR oR Mv pR qR rR sR tR '@ }@ +$ uR vR wR xR yR zR AR BR CR DR ER FR GR HR IR JR KR LR MR NR OR PR QR RR SR TR UR VR WR ;x pO X! 0h XR YR ZR `R  S .S +S @S #S $S #i %S &S *S =S -S ;S >S ,S 'S )S !S ~S {S ]S ^S /S _2 (S {s mj _S :S <S [S [S }S |S 1S 2S 3S 4S 5S 6S 7S 8S    ",
"   9S 0S &x aS bS cS dS eS fS gS <J IG hS iS jS x@ kS lS mS nS oS pS qS rS sS tS uS vS wS xS yS zS AS BS CS DS ES FS GS HS IS JS KS LS MS NS OS 0} PS QS RS SS TS US VS WS XC XS YS ZS `S  T .T +T @T #T $T %T &T *T =T -T ;T >T ,T 'T )T !T ~T {5 {T ]T ^T (~ /T (T _T K] :T <T [T }T |T 1T 2T 3T 4T 5T 6T 7T 8T 9T 0T aT bT cT dT eT fT hv *3 gT hT iT jT kT lT mT nT oT pT qT rT sT tT uT vT wT xT yT zT AT BT 6T CT DT ET FT GT HT IT JT p4 bx KT LT MT NT OT PT QT RT ST TT UT VT WT XT YT ZT `T `T  U .U +U @U #U $U %U &U *U =U -U y# ;U >U ,U 'U )U )U !U ~U {U ]U ^U /U [7 (U _U 37 :U <U [U }U |U 1U 2U 3U 4U 5U 6U 7U 8U Z_ 9U 5r =O 0U aU bU cU dU eU k* fU gU hU iU jU kU lU mU nU oU pU qU rU sU tU uU vU wU xU yU zU AU BU %p CU DU EU FU GU HU IU JU KU LU MU NU OU PU QU RU    ",
"   SU TU UU VU WU XU YU ZU `U  V .V +V @V #V $V -U (+ %V &V *V =V -V ;V Aa >V ,V 'V )V !V ~V {V ]V ^V /V (V _V :V <V [V }V |V 1V 2V 3V 4V 5V 6V 7V 8V 9V 0V aV bV cV dV eV 1F fV gV hV iV jV kV lV mV nV oV pV qV rV sV tV uV ;T vV wV xV yV |  B$ zV AV BV CV DV EV FV GV HV IV JV KV LV MV NV OV PV QV RV SV TV UV VV WV Ml XV YV ZV `V  W Rt .W +W @W #W $W %W &W *W =W -W 0F d! ;W >W ,W 'W )W !W ~W {W ]W ^W /W (W _W :W <W [W }W |W @4 $# 1W 2W 3W 4W 5W 6W 7W 8W 9W 0W aW bW cW dW eW fW gW hW iW jW kW lW mW nW oW pW qW rW sW {p m@ tW uW vW wW xW yW zW AW BW CW DW }, EW FW o~ GW HW IW JW KW LW MW NW 3U OW k~ PW QW RW SW dq z4 3R TW UW VW WW XW YW ZW `W  X .X +X @X #X $X %X &X *X =X -X ;X >X ,X 'X )X !X ~X {X ]X ^X Zo /X (X M( _X :X <X [X }X |X 1X 2X 3X 4X hD 5X 6X 7X    ",
"   8X 9X 0X aX bX cX dX eX fX gX hX iX jX kX lX mX m. nX oX pX qX rX sX tX uX }W vX wX ;k xX yX zX AX BX CX !a DX EX FX GX HX IX JX JX KX LX MX NX OX PX QX RX SX cV TX UX kA VX WX XX YX ZX `X  Y .Y +Y @Y #Y $Y %Y &Y &Y uV *Y vV =Y xV -Y ;Y >Y ,Y 'Y )Y !Y ~Y 8H {Y ]Y ^Y /Y (Y _Y :Y <Y [Y }Y |Y 1Y sT 2Y 3Y 4Y 5Y 6Y 7Y 8Y 9Y 0Y aY bY cY dY eY fY gY hY iY jY kY lY mY nY oY pY qY rY sY tY uY vY wY xY yY zY AY BY CY DY EY FY [D *. GY 4} HY IY JY KY LY MY MY (D NY OY PY QY RY SY TY UY VY S8 WY XY YY ZY `Y  Z .Z +Z @Z #Z $Z )5 %Z &Z *Z =Z -Z ;Z >Z ,Z 'Z )Z !Z |c ~Z {Z ]Z ^Z /Z (Z _Z :Z <Z [Z }Z |Z 1Z 2Z 3Z 4Z p~ 5Z 6Z f2 +3 7Z 8Z 9Z 0Z aZ bZ cZ dZ eZ fZ gZ hZ iZ ~a jZ kZ lZ mZ nZ oZ pZ qZ rZ sZ tZ uZ vZ wZ xZ yZ 1  zZ AZ BZ CZ CZ CZ DZ EZ (o FZ GZ HZ IZ JZ KZ LZ    ",
"   MZ NZ OZ PZ QZ RZ SZ TZ UZ VZ WZ XZ YZ ZZ `Z  ` .` +` @` #` $` %` &` :: *` =` -` ;` >` ,` '` )` !` ~` {` ]` ^` /` (` _` :` <` [` }` |` 1` 2` ,Q 3` 4` 5` 6` 7` 8` 9` 0` a` b` c` d` e` f` g` h` i` j` k` l` m` n` o` p` q` r` s` t` u` v` l& w` x` y` z` A` B` [l C` FV D` E` F` G` H` I` J` K` L` M` ,k N` O` P` Q` R` S` T` U` V` W` X` Y` WQ Z` ``   .. .+ .@ .# .$ .% .& .* .= .- .; .> ., .' .) .! .~ .{ .] .^ ./ .( ._ .: .< .[ .} .B3 | .1 .2 .3 .Pk 4 .5 .6 .7 .8 .9 .0 .=] a .b .c .d .e .f .g .h .i .j .k .l .m .n .o .p .q .`N r .s .t .u .v .w .x .y .z .A .B .C .D .E .F .G .H .I .J .K .L .M .@0 N .O .P .Q .}X R .S .kJ I4 <& T .U .V .W .X .Y .Z .` . .....+..@..#..$..%..&..*..g{ =..-..;..>..,..'..)..,G !..~..{..]..^../..(.._..DZ :..<..[..}..|..1..2..3..4..5..6..7..   ",
"   8..9..0..a..b..c..d..e..f..g..h..i..j..k..l..X2 m..n..o..p..q..r..s..t..u..v..w..x..y..z..A..B..C..C..D..E..F..G..H..I..J..K..L..M..N..O..[p P..Q..R..S..T..U..V..W..X..Y..Z..`.. +..+.++.@+.#+.$+.%+.&+.*+.=+.-+.;+.>+.,+.'+.)+.!+.~+.{+.]+.^+./+.(+._+.n' :+.<+.[+.}+.|+.1+.2+.3+.4+.5+.6+.7+.8+.9+.0+.a+.b+.c+.d+.e+.T` f+.g+.h+.i+.op w# j+.k+.l+.m+.!v n+.o+.@C p+.q+.0u r+.s+.t+.u+.v+.w+.x+.y+.z+.A+.B+.C+.2j D+.E+.F+.G+.H+.I+.J+.a# K+.L+.M+.N+.O+.P+.Q+.R+.S+.T+.U+.V+.W+.X+.Y+.Z+.C< `+. @..@.$U +@.Z8 @@.#@.$@.%@.&@.*@.=@.-@.;@.>@.,@.'@.)@.!@.~@.{@.z .]@.QB ^@./@.(@._@.:@.<@.[@.}@.|@.1@.2@.}@.3@.4@.5@.6@.R' u- 9l s; ^% 7@.8@.9@.0@.a@.b@.c@.d@.e@.f@.g@.h@.i@.j@.k@.l@.G! m@.n@.o@.p@.q@.zA r@.2J s@.t@.u@.4= v@.w@.x@.y@.z@.A@.B@.J{ C@.D@.E@.XE F@.G@.H@.I@.J@.K@.L@.   ",
"   M@.N@.O@.P@.Q@.R@.S@.T@.U@.V@.Wl W@.X@.Y@.Z@.`@.o@  #..#.+#.@#.##.$#.s..%#.&#.*#.=#.-#.;#.>#.,#.'#.)#.!#.)#.~#.{#.D..]#.^#./#.(#._#.:#.<#.[#.-P }#.|#.1#.2#.3#.4#.5#.6#.7#.8#.9#.0#.a#.b#.c#.d#.e#.f#.g#.h#.i#.i#.j#.k#.l#.m#.5x n#.o#.p#.q#.>x r#.s#.t#.u#.v#.w#.]T x#.y#.z#.z#.A#.B#.C#.$E D#.E#.rB F#.G#.H#.I#.;~ J#.K#.L#.M#.N#.O#.K_ j2 P#.Q#.R#.W] S#.T#.U#.V#.W#.X#.X#.Y#.Z#.`#. $..$.+$.@$.#$.$$.%$.&$.*$.=$.4U -$.;$.>$.,$.'$.)$.!$.~$.{$.]$.^$./$.($._$.:$.<$.[$.}$.:G |$.1$.2$.3$.4$.5$.6$.7$.8$.9$.0$.a$.b$.c$.d$.e$.f$.g$.h$.i$.j$.QB k$.l$.m$.SB n$.o$.p$.rG 0S 4@.q$.Ki r$.s$.t$.)g u$.v$.w$.x$.y$.Ae z$.A$.B$.C$.D$.E$.^r 'Q F$.D< G$.H$.I$.lN J$.K$.L$.M$.N$.O$.P$.Q$.R$.S$.T$.U$.V$.W$.') X$.Y$.Z$.`$. %..%.F( +%.@%.#%.$%.%%.&%.*%.=%.-%.;%.:c &l >%.,%.'%.)%.!%.~%.{%.   ",
"   ]%.^%./%.(%._%.:%.<%.[%.}%.|%.1%.2%.3%.4%.5%.K+ 6%.7%.8%.9%.0%.a%.b%.c%.d%.e%.f%.b .g%.h%.i%.j%.k%.l%.m%.n%.o%.p%.q%.r%.s%.t%.u%.v%.w%.x%.y%..6 z%.A%.B%.C%.D%.E%.F%.G%.H%.I%.J%.K%.L%.M%.N%.O%.P%.Q%.R%.S%.T%.U%.V%.W%.X%.Y%.Z%.`%.r7  &..&.+&.Z5 @&.w_ #&.$&.%&.&&.*&.=&.-&.;&.>&.~: ,&.Uf '&.)&.!&.~&.{&.]&.^&.{&./&.(&._&.:&.<&.[&.}&.|&.1&.2&.3&.)c 4&.5&.6&.7&.XJ 9H 8&.od 9&.0&.a&.b&.c&.d&.e&.f&.g&.h&.i&.j&.4Z k&.Pd l&.m&.n&.!k ]$ {P o&.p&.q&.r&.s&.t&.u&.v&.w&.x&.y&.z&.A&.B&.C&.D&.E&.F&.G&.H&.I&.J&.K&.L&.M&.N&.O&.P&.Q&.R&.S&.T&.U&.V&.W&.X&.Y&.Z&.Y&.`&. *.6E .*.+*.A$.@*.#*.$*.%*.&*.**.,J =*.-*.;*.>*.,*.'*.)*.!*.~*._4 {*.]*.^*./*.(*.<) _*.:*.<*.[*.}*.|*.1*.2*.3*.4*.5*.6*.7*.8*.9*.0*.a*.b*.c*.d*.e*.f*.g*.h*.j& i*.j*.k*.l*.m*.n*.;*.XJ o*.p*.q*.P6 r*.s*..' t*.t*.   ",
"   u*.v*.w*.x*..W y*.z*.A*.B*.C*.D*.E*.F*.G*.DM J0 6  H*.I*.!. J*.K*.L*.M*.N*.O*.P*.Q*.R*.S*.T*.U*.V*.W*.X*.Y*.Z*.`*. =..=.+=.@=.#=.$=.%=.&=.*=.==.3r -=.g4 ;=.>=.}q ,=.'=.)=.%Z !=.~=.{=.]=.^=./=.(=._=.:=.<=.[=.`C 62 z. }=.|=.=y 1=.CO LO /3 2=.3=.4=.5=.54 6=.7=.8=.9=.0=.a=.b=.c=.d=.e=.f=.g=.h=.)m i=.j=.k=.l=.m=.n=.o=.p=.q=.r=.s=.)r t=.j2 u=.v=.w=.x=.y=.z=.A=.B=.C=.D=.E=.F=.$' G=.H=.I=.J=.K=.L=.M=.N=.O=.P=.Q=.R=.S=.T=.U=.V=.># =Q J+ W=.f: sp X=.-Q Y=.Z=.`=. -.`| .-.+-.@-.#-.$3 $-.%-.&-.*-.=-.--.;-.Oq >-.,-.'-.)-.!-.Re J0 ~-.{-.]-.^-.X> /-.(-._-.:-.<-.[-.}-.|-.1-.2-.3-.4-.5-.6-.^] 7-.8-.9-.9-.0-.a-.K. B[ b-.)O c-.d-.e-.f-. P g-.h-.i-.j-.e> k-.l-.m-.n-.o-.p-.q-.r-.s-.t-.u-.v-.w-.x-.y-.z-.A-.gY B-.C-.D-.)-.V@ E-.F-.G-.H-.I-.J-.op K-.L-.M-.N-.Bq O-.P-.Q-.R-.S-.   ",
"   T-.U-.V-.%s W-.X-.^3 Y-.g= g= Z-.`-.4+  ;..;.Cr +;.@;.,p ,& #;.P1 $;.%;.&;.*;.=;.U@ S7 F3 dr J2 -;.{r }@  @ x# y4 ## pO 5@  $ f: 8P LP [r T1 ;;.>;.,;.!4 jr MP 5@ T1 9@ 7+  s ';.);.i*.H# !;.`N ~;.(5 Rr 7  {;.y# 7@ c-.];.y# f& 2r I1 S+ )@ 2=.`@ u# u# x# ^;.{9 /;.I4 Qr (;._;.J0 hr o4 :;.Y% Sq 9@ eP <;.[;.Cy };.|;.1;.F. r  2;.p@ 3;.4;._# m@ `p 2  E# K# {4 5;.6;.7;.8;.9;.d+ VN 0;.55 a;.b;.Pq 3  X@ {3 ]P c;.d;.*2 e;.bO f;.g;.h;.## =@ i;.3r j;.Zr ,p vm D1 2  k  %O pO 'r k;.X6 D4 l;.<d u@ `@ m;.n;.)@ o;.kr (@ p;.<8 p;.(@ q;.jt 8# r;.s;.t;.u;.v;.l$ w;._7 f2 er Y@ J2 )@ x;.jr y;.jr z;.G3 dr ov {r @1 @$ f& o;.A;.B;.C;.;3 d-.D;.E;.F;.M1 K# G;.H;.x@ M# IO I;.D@ |3 ]r K+ k@ (( Z-.J;.K;.,;.L;.M;.(4 c$ m& #6 I2 gO ]P yO S+ N;.#. $1 ,p V@ A3 E# d# d# {r $1 !@ 6@ Yp j&    ",
"   O;.P;.k;..& t1 Q;.SN |  R;.r! 's .t ## ;O PG a;.S;.T;.Qr @6 U;.V;.W;.X;.Y;.$1 cP Z;.S7 '- Rq Yp 7. `;.}3 G1 *=.P1 Ir  >.=@ [r D3 T1 <r J1 2P D4 .>.nM #O a;.+>.)-.@>.#>.$>.5+ %>.l& &>.m$ =y $  &>.*>.=>.9m T2 ->.;>.>>.,>.#  '>.w*.)>.4u =p !>.~>.{>.]>.xt ^>.GO %} ^3 +# />.-p hm >  (>._>.:>.<>.[>.}>.Y;.|>.81 1>.2>.3>.4>.5>.6>.7>.8>.9>.0>.a>.b>.c>.d>.e>.(u f>.g>.c;.(4 h>.i>.9;.j>.k>.g. l>.&  m>.`2 n>.g$ g$ k4 o>.p>.=-.q>.r>.32 } .s>.t>.u>.v>.$  @r w>.x>.z4 y>.z>.A>.B>.C>.D>.0n E>.F>.G>.H>.I>.J>.K>.L>.M>.N>.O>.24 P>.Q>.R>.S>.T>.U>.V>.W>.X>.Y>.Z>.`>.`N Op M@  P  ,.%3 .,.+,.@,.#,.W5 $,.%,.Tj &,.*,.=,.-,.Ix ;,.+,.>,.,,.',.),.!,.|8 ~,.{,.],.72 ^,./,.z# (,.=[ _,.:,.<,..W [,.},.V;.|,.==.1,.2,.3,.G$ D@ 0;.d1 4,.*} 5,.6,.7,.8,.9,.0,.a,.o+ I* 9@ }t b,.c,.d,.e,.f,.g,.   ",
"   h,.3$ a,.i,.j,.h: k,.l,.h< m,.n,.G% _8 o,.G& c= f! _h dv p,.q,.r,.v! ^-.s,.h& t,.4u u,.v,.w,.x,.y,.z,.A,.B,.C,.D,.E,.F,.G,.~% ~t $3 H,.I,.J,.KK {} K,.L,.M,.N,.O,.P,.Q,.R,.S,.A+ T,.U,.V,.W,.U> X,.Y,.Z,.`,. '..'.+'.+  @'.#'.$'.%'.&'.*'.#L ='.-'.;'.>'.L6 ,'.''.u= )'.$  !'.~'.{'.]'.^'.,%./'.('._'.:'.(q <'.['.(- nT }'.|'.1'.2'.3'.4'.5'.6'.7'.8'.9'.0'.1-.a'.b'.c'.d'.Re e'.Xh f'.g'.h'.i'.j'.k'.l'.m'.n'.o'.p'.q'.r'.s'.t'.u'.v'.w'.x'.y'.,>.z'.A'.y  B'.C'.D'.E'.#%.Qq F'.G'.H'.I'.J'.K'.L'.M'.N'.O'.-] F#.P'.Q'.R'.S'.T'.U'.V'.W'.X'.Y'.Z'.`'. )..).+).@).~*.X$ br If #).$).%).&).*)./k =).-).;).>).,).').)).!).w7 ~).{).]).^)./).()._).:).<).[)..  }).|).1)./,.2).3).4).5).6).7).Hn 8).Yk 9).ZQ ZQ 0).a).b).c).d).e).f).g).h).i).j).k).W@.5C l).#H m).n).~1 o).+5 m5 p).;( q).Au    ",
"   r).s).t).u).v).w).x).y).z).KJ I` A).B).C).D).E).F).G).H).I).J).Qd K).L).M).N).O+ O).P).Q).pH R).S).T).U).Z( V).W).X).>F Y).Z).-M `).m{  !..!.+!.@!.#!.$!.%!.GG &!.*!.=!.-!.;!.IK >!.,!.'!.)!.!!.~!.{!.]!.^!./!.(!._!.:!.<!.[!.}!.|!.1!.2!.3!.4!.5!.e- 6!.7!.8!.9!.0!.a!.b!.c!.d!.e!.f!.L, g!.h!.i!.j!.k!.l!.m!.n!.o!.p!.q!.r!.]) s!.t!.u!.v!.yN w!.x!.y!.z!.}{ A!.B!.C!.D!.E!.F!.G!.H!.I!.J!.K!.L!.M!.N!.O!.P!.Q!.R!.S!.xa T!.U!.V!.W!.X!.Y!.Z!.`!. ~..~.(C +~.@~.#~.$~.S,.%~.&~. E *~.=~.-~.;~.>~.,~.'~.)~.!~.~~.{~.]~.^~./~.(~._~.:~.<~.[~.}~.|~.1~.2~.3~.4~.5~.6~.7~.br W5 8~.9~.0~.a~.b~.c~.d~.e~.f~.g~.h~.i~.j~.k~.l~.m~.n~.o~.p~.q~.4k r~.s~.t~.u~.v~.w~.x~.xt u6 (1 y~.z~.A~.B~.C~.D~.ye E~.F~.G~.H~.I~.J~.K~.2H N, @M }).F_ ]- F_ L~.M~.N~.O~.P~.Q~.R~.S~.V0 T~.U~.V~.W~.X~.Y~.Z~.   ",
"   `~. {..{.+{.@{.#{.${.%{.&{.*{.(9 ={.-{.;{.>{.,{. , R6 O- '{.){.!{.1A ~{.{{.]{.]# ^. ^{./{.^7 y_ ({._{.:{.<{.ve [{.}{.|{.p^ 1{.2{.3{.4{.5{.6{.7{.Yk Lz 8{.{{.9{.0{.a{.b{.c{.d{.e{.f{.g{.h{.i{.j{.k{.l{.m{.n{.o{.p{.q{.r{.s{.t{.u{.v{.w{.x{.y{.z{.A{.R~.IZ B{.C{.D{.E{.F{.G{.H{.I{.J{.K{.L{.M{.N{.O{.ck P{.Q{.R{.$~ S{.T{.U{.V{.W{.X{.Y{.Z{.rT `{. ]..].+].@].#].$].%].&].'r F4 [,.*].=].G8 -].;].>].,].'].)].!].~].{].]].^].oe /].(]._].:].<].[].}].|].1].2].3].4].5].6].-a 7].Jf 8].9].0].a].b].c].d].!~.e].f].g].h].i].j].k].l].m].n].o].p].q].r].s].t].u].v].w].x].t$ .$ }S y].z].A].B].C].D].E].F].G].H].I].J].K].L].M].N].O].P].Q].0x do R].S].T].U].V].W].X].;q f& `2 Y].Z].`]. ^..^.+^.@^.#^.y) $^.%^.&^.*^.=^.-^.;^.>^.,^.'^.PU )^.!^.~^.{^.O~.]^.:e ^^./^.(^.H4 _^.:^.<^.[^.}^.|^.   ",
"   1^.2^.3^.4^.5^.6^.6^.7^.8^.9^.0^.a^.b^.c^.d^.e^.f^.g^.h^.i^.j^.k^.l^.m^.n^.o^.W1 p^.q^.nY r^.l^ s^.t^.u^.v^.w^.P6 x^.y^.)F 0k z^.A^.)x B^.C^.D^.E^.o*.M) F^.G^.H^.m^.I^.C] ,- 54 J^.K^.L^.M^.N^.O^.P^.Q^.R^.S^.T^.U^.r{.r{.V^.W^.X^.Y^.Z^.`^. /../.+/.@/.`^.`^.#/.$/.%/.&/.*/.=/.-/.;/.>/.,/.'/.)/.!/.~/.{/.]/.^/.//.(/._/.:/.</.[/.}/.|/.1/.2/.*; 3/.w& 4/.5/.6/.7/.8/.I# 9/.0/.a/.b/.*,.c/.d/.AC e/.f/.g/.h/.i/.j/.k/.|y _d l/.m/.n/.o/.p/.q/.P) P) r/.s/.t/.u/.U~ v/.'>.w/.x/.y/.z/.A/.B/.C/.D/.E/.F/.G/.H/.I/.J/.K/.L/.M/.N/.O/.P/.Q/.R/.2u S/.T/.U/.V/.W/.X/.Y/.Z/.`/. (..(.+(.@(.#(.$(.%(.&(.*(.=(.-(.;(.>(.,(.m{.'(.)(.!(.~(.{(.](.^(./(.((._(.:(.<(.[(.}(.|(.8P 1(.2(.3(.4(.5(.6(.7(.8(.9(.0(.a(.b(.c(.d(.+E e(.f(.4(.g(.h(.:e i(.j(.k(.l(.7..m(.n(.o(.p(.q(.3  r(.s(.t(.u(.v(.w(.   ",
"   x(.y(.z(.A(.B(.C(.Nn D(.E(.P%.F(.G(.H(.I(.J(.K(.L(.M(.N(.O(.P(.l].Q(.R(.S(.%3 {*.p^.T(.U(.V(.W(.X(.Y(.0= Z(.`(. _.._.+_.@_.#_.| .$_.%_.&_.*_. * =_.w0 -_.;_.>_.,_.'_.)_.!_.~_.{_.]_.Dn &D +Y ^_./_.(_.__.:_.<_.U^.U^.U^.r{.U^.[_.}_.|_.V^. /../.1_. /.@/. /. /.#/.2_.3_.4_.5_.6_.7_.8_.9_.0_.a_.b_.c_.d_.e_.f_.:).g_.h_.i_.j_.p!.k_.l_.m_.n_.o_.p_.!V q_.r_.s_.t_.u_.vu kP ;* Ip v_.w_.x_.y_.z_.A_.B_.C_.D_.E_.F_.G_.H_.I_.J_.;9 hB K_.L_.M_.N_.P) O_.P_.Q_.R_.S_.T_.U_.V_.W_.X_.Y_.Z_.`_. :..:.+:.@:.#:.$:.%:.&:.*:.=:.-:.;:.>:.,:.':.':.):.!:.~:.{:.]:.^:./:.(:._:.Sp 7@ ::.<:.[:.}:.j&.|:.1:.2:.Jl 3:.4:.5:../ 6:.7:.I@.8:.9:.0:.a:.b:.c:.d:.e:.rC f:.g:.h:.i:.j:.^Q V$ k:.l:.m:.n:.f~.o:.p:.q:.r:.s:.t:.u:.Gd v:.w:.x:.y:.S..z:.&B A:.B:.C:.D:.3!.E:.F:.G:.7{ H:.i>.lp I:.b{.J:.K:.L:.   ",
"   M:.N:.O:.29 P:.Q:.R:.S:.T:.U:.V:.W:.X:.-C Y:.Z:.`:. <..<.+<.@<.#<.$<.%<.&<.a;.J2 KN lE *<.=<.-<.;<.HG ><.On ,<.'<.)<.7{.!<.~<.{<.]<.^<./<.(<._<.:<.:[ H! <<.[<.}<.#<.)v |<./s da 1<.vC 2<.3<.4<.5<.6<.__.7<.8<.9<.W^.r{.0<.a<.b<.JZ c<.d<.e<.f<.g<.h<.d<.i<.j<.k<.l<.m<.n<.o<.p<.q<.r<.t0 s<.t<.u<.v<.w<.x<.y<.z<.A<.B<.C<.D<.E<.F<.G<.O! H<.I<.J<.K<.L<..< M<.N<.O<.P<.Q<.c;.R<.S<.T<.U<.V<.W<.X<.Bk Y<.Z<.`<.XT  [..[.+[.@[.#[.$[.xv %[.&[.*[.=[.-[.;[.>[.,[.'[.)[.![.~[.{[.][.^[./[.([._[.:[.<[.[[.}[.|[.Hl 1[.2[.3[.4[.5[.6[.7[.8[.9[.0[.a[.b[.c[.d[.e[.>W f[.g[.64 $O h[.gH i[.j[.k[.l[.m[.n[.o[.p[.q[.r[.Cd s[.t[.u[.v[.w[.x[.y[.z[.A[.B[.C[.D[.E[.F[.G[.H[.I[.P> -# )| J[.K[.L[.M[.N[.O[.P[.Q[.R[.S[.T[.U[.V[.W[.X[.Y[.Z[.`[. }..}..}.+}.@}.#}.$}.%}.&}.*}.=}.'Q _8 #v -}.;}.j7 >}.   ",
"   ,}.'}.)}.!}.~}.{}.]}.b^.^}./}.O! (}._}.:}.<}.[}.}}.T: |}.Yj 1}.2}.c).3}.4}.{;.{r 5}.6}.7}.8}.Px 9}.0}.`` a}.b}.c}.d}.e}.f}.H).6/.V& g}.h}.i}.j}.q^.v0 k}.q^.l}.m}.n}.o}.p}.G@ n@ q}.r}.i7 s}.t}.u}.X,.v}.w}.x}.y}.8!.8!.z}.A}.B}.(!.(!.C}.D}.E}.F}.G}.H}.I}.J}.K}.Y& L}.M}.K3 N}.O}.$f P}.>] Q}.R}.S}.T}.U}.V}.W}.+d X}.Y}.Z}.`}. |..|.}I +|.@|.#|.$|.%|.&|.*|.=|.-|.;|.Dr 6@ >|.,|.'|.)|.!|.~|.{|.]|.^|./|.(|._|.:|.<|.[|.}|.||.1|.[~ 2|.3|.4|.Tz 5|.6|.7|.8|.p= 9|.(  0|.a|.b|.c|.d|.e|.f|.g|.h|.i|.j|.k|.l|.m|.6v n|.o|.p|.q|.r|.s|.t|.u|.v|.w|.x|.y|.z|.A|.B|.C|.m;.D|.E|.F|.G|.H|.I|.J|.K|.L|.M|.N|.O|.r5 X) P|.Q|.R|.S|.T|.$T U|.BH V|.W|.X|.Y|.Z|.`|. 1..1.+1.%# '@ @1.[g #1.$1.$g %1.&1.*1.%1.%1.=1.-1.6/ a9 V_ &, ;1.>1.,1.'1.)1.!1.~1.{1.]1.^1.m)./1.(1._1..O :1.<1.[1.{H kx IN    ",
"   }1.|1.11.|] 21.31.41.51.61.71.81.91.@1.01.a1.V~ b1.c1.d1.e1.>^.f1.g1.h1.X$ i1.>s j1.k1.l1.m1.n1.o1.p1.lY q1.A(.r1.s1.t1.u1.v1.Dz w1.x1.]N y1.z1.A1.B1.C1.D1.E1.F1.G1.H1.n3 ^;.-;.I1.J1.K1.L1.M1.N1.O1.P1.Q1.R1.S1.T1.U1.V1.W1.X1.j, Y1.Z1.`1.`1. 2..2.+2.@2.!K #2.$2.%2.&2.*2.=2.-2.;2.>2.,2.'2.)2.!2.~2.{2.]2.^2./2.~K (2._2.:2.<2.[2.~= }2.|2.12.22.32.42.52.62.72.82.Qr 92.02.a2.b2.c2.5 .d2.e2.f2.g2.2v h2.i2.j2.k2.l2.m2.n2.[~ o2.p2.q2.A# r2.8S s2.t2.T^ u2.f2 v2.w2.x2.y2.z2.A2.B2._{.C2.D2.E2.F2.G2.H2.I2.J2.K2.L2.M2.N2.h( O2.P2.Q2.R2.S2.T2.U2.!q V2.W2.8b Z@ 3r 15 X2.Y2.Z2.`2. 3..3.+3.@3.#3.$3.3[ %3.&3.*3.=3.-3.;3.>3.,3.'3.9U W{.)3.!3.~3.{3.]3.^3./3.(3. s $2.E=._3.:3.<3.[3.}3.z; V#.|3.13.23.33.43.53.63.73.83.93._,.03.a3.=[ b3.c3.d3.e3.=q f3.>Q GY g3.h3.i3.j3.k3.l3.   ",
"   m3.#& g3.n3.o3.p3.q3.M$ r3.o<.s3.:3 t3.u3.4  }+ v3.k;.w3.m3.*p i+ x3.a. {3 x;.T, ,p y3.g$ w1 Y;.I4 j; z3.A3.B3.{S E*.C3.D3.E3.F3.G3.oD H3.mp I3.J3.&>.K3.+J n& 2  h@ y1 L3.|P M3.N3.O3.P3.G,.Q3.R3.S3.T3.U3.*u J-.V3.W3.>=.X3.Y3. & Z3.`3._v  4.Rq .4.V@ +4.'p Y# W+ f& @4.|,.#4.$4.%4.%;.&@ e4 &4.31 *4.=4.p4 ~;.-4.;P `+ `5 =7 y3.04 P> cO `p /5 -* H# &# T^ k;.Qr 8# `@ ;4.>4.E*.,4.'4.8R )4.3& !4.QL ~4.{4.]4.r{ $z ^4./4.(4.tp _4.gs f: JO Z@ )@ x;.j$ 4;.:4.];.X1 FN <4.!; ar [4.0r 7# 2  $2 `;.H@ kP *2 }4.|4.$# W+ ~r Hf !@ `@ l;.uO }4.]P X+ $O 14.A3 24.$# &4.@@  # ^6 1# 34.44.),.54.64.D5 74.84.94.;,.!1 @O A# 04.a4.b4.0h $P Sq kP <;.c4.d4.e4.@P P> (# f4.,@ F3 -* ur g4.us L- 6$ ^>.K= h4.i4.g4 j4.k4.j; l4.j; '4 c-.m4.n4.o4.p4.-3 q;.qr +&.q4.|&.r4.$@ Z@ +1 s4.nA .>.t4.   ",
"   BU {Q tc Qe u4.v4._G }  w4.x4.y4.X2 n( z4.$1 A4.B4.C4.D4.mX <O s1 E4.F4.45 -# =Q k  Sq -O J# |@ 5r k@ D# !Q U+ V+ _# G4.K1 H4./, A+ Nq Sq =3 )5 E# }@ 9@ I4.z;.e# #1 #1 pO Z@ Z@ a4 ]# 2P !p ]r J4.nj K4.~r L4.7+ W+ M4.N4.U3 |3 '- ,% V+ f;.O4._O $  bO P4.Q4.p3 m;.zO R4.'5 9c +2 q4.!r Zr l@ l@ S4.l@ z3 d# D3 3r T4.U4.V4.s& W4.X4.Y4.o& ,3 Z4.Wm ^6 `4.z3.IH  5.oO 2P P# lP .5.+5.@5.#5.@O R3 8r 8r qr Q<.$5.aO %5.&5.C3 )5 )5  $ 8# *5.9h a;.=5.-5.`p &# P# ~r JO ;5.%2 pO >5.lr X6 ,5.'5.j$ )5.)@ Vr h2 =3 !5.~5.3  F$ {5.F4 +2.]5.e4 ^5./5.VN (5._5.s@ %O y3.l& n  Tq nA 9P Z$ M4 5  :5.p3 <5.[5.U@ /3 K# !@ c-.*2 }5.|5.h2 6@ &4.6@ @1 15.25.Y$ .2 35.61 u4 -5.45.+s Sr D@ +P 55.55.65.6# Nr @1 !# -s zO kP $@ 75.K;.85.95.05.i2 }5.31 a5.6@ @1 P# {9 =O i*.P# g4.ss -2 ,O 3=.b5.   ",
"   c5.d5.e5.f5.]E {s g5.h5.i5.[^.j5.k5.}S l5.m5.n5.o5.p5.q5.r5.s5.t5.u5.Ct RO v5.w5.Eq x5.y5.z5.A5.8b B5.C5.g4.%} D5.U5 E5.F5.G5.H5.I5.J5.5* K5.L5.M5.N5.O5.V. 9y Dr <  `s P5._>.Q5.(q R5.S5.&+ T5.U5.V5.5a ]5 Y# #1 {1 W5.X5.Y5.Z5.`5. 6..6.+6.@6.#6.$6.%6.&6.*6.i-.=6.-6.;6.>6.,6.'6.)6.!6.0>.~6.{6.]6.Gq ^3  # N# ^6.>4./6.(6._6.:6.<6.[6.}6.|6.16.8 .Bf 26.36.X5.46.56.66.6].76.86.2v 96.06.a6.b6.c6.d6.~r e6.f6.g6.h6.i6.j6.k6.aR -y l6.m6.n6.o6.p6.q6.0M r6.s6.+8 t6.u6.v6.w6.x6.y6.z6.dh No -& A6.B6.18 C6.D6.>'.E6.F6.G6.H6.I6.J6.K6.L6.Q* M6.N6.N_ O6.P6.Q6.R6.S6.T6.%* U6.V6.W6.X6.Y6.C7 Z6.`6.dr Sr  7..7.+7.@7.#7.$7.%Z %7.os &7.k> *7.=7.-7.;7.>7.,7.'7.)7.!7.~7.{7.]7.&q ^7./7.(7._7.:7.C4 N4.<7.($ nd ls [7.}7.|7.17.27.37.47.57.67.77.87.97.07.a7.b7.V  c7.d7.Ku e7.f7.g7.h7.   ",
"   i7.j7.k7.l7.FO /r m7.n7.o7.g(.p7.q7.r7.8J s7.t7.u7.v7.w7.(_ x7.y7.z7.A7.B7.C7.D7.E7.t5.F7.G7.H7.I7.J7.K7.L7.D@ !-.'A M7.N7.O7.P7.Q7.R7.S7.1b T7.N|.U7.V7.W7.X7.Y7.Z7.`7. 8..8.+8.@8.#8.$8.}l %8.&8.*8.=8.-8.;8.;C >8.,8.'8.)8.!8.~8.{8.]8.^8./8.(8._8.:8.<8.[8.}8.|8.18.28.38.48.i' 58.68.p; 78.88.M(.S. j3 98.7m T,.08.a8.b8.c8.d8.e8.f8.g8.h8.i8.j8.k8.l8.m8.n8.o8.p8.m8.q8.r8.s8.t8.u8.v8.0^.q~ sC w8.95 x8.$[.y8.z8.A8.B8.C8.D8.E8... F8.G8.H8.I8.J8.K8.L8.M8.Y* N8.O8.P8.Q8.R8.S8.T8.U8.V8.W8.X8.Y8.Z8.`8. 9..9.+9.@9.#9.$9.%9.&9.*9.=9.-9.;9.>9.,9.'9.5<.)9.!9.~9.{9.]9.`,.^9.{, /9.(9._9.:9.e8 pO '4 &% <9.[9.}9.|9.19.29.39.49.59.69.79.89.99.09.a9.b9.c9.d9.e9.f9.g9.h9.i9.j9.k9.l9.m9.n9.k  }+ o9.zx p9.q9.r9.s9.t9.u9.v9.w9.x9.y9.tA z9.A9.B9.C9.D9.E9.F9.G9.TK H9.I9.J9.K9.L9.   ",
"   M9.N9.O9.P9.S2 ^r ]} Q9.R9.l9.Bh S9.T9.U9.V9.W9.X9.Y9.UI Z9.`9. 0.'G .0.+0.@0.#0.$0.%0.&0.*0.=0.-0.;0.>0.@5 T^ ,0.'0.)0.!0.5@.P' ~0.{0.]0.W7.kC ^0./0.(0._0._0.:0.<0.[0.}0.|0.LG 10.20.)Y 30.Gd (b 40.@y 50.c$ @& k=.60.70.9T 80.RV 90.00.a0.b0.c0.d0.e0.f0.!z g0.h0.i0.j0.k0.l0.m0.z#.n0.o0.p0.%M q0.ZQ r0.s0.t0.u0.v0.|l w0.x0.y0.z0.A0.B0.C0.D0.E0.F0.G0.%l H0.I0.J0.K0.L0.=g pi pi M0.7^./v N0.O0.P0.L# Q0.R0.S0.{k T0.U0.V0.W0.X0.jc Y0.QT Z0.;c `0. a..a.|8.BI TH TH +a.@a.Xj P6.#a.$a.%a.&a.*a.,: Se =a.-a.;a.>a.,a.'a.)a.!a.~a.{a.]a.^a.3D /a.(a._a.:a.<a.[a.}a.|a.1a.2a.&[.3a.4a.5a.[j 6a.Dt 7a.`q 8a.9a.9&.0a.aa.ba.%J ca.da.ea.fa.ga.ha.hd ia.ja.jz @x ka.la.ma.na.oa.pa.qa.ra.sa.y! ta.ua.4  va.wa.xa.ya.za.Aa.Ba.Ca.Da.Ea.Fa.Ga.Ha.Ia.Ja.Ka.La.Ma.Na.Oa.Pa.Qa.a^ Ra.Sa.Ta.Ua.   ",
"   Va.Wa.Xa.Ya.g_ 9# /N i* Za.`a. b..b.+b.@b.#b.$b.%b.&b.*b.=b.-b.;b.>b.,b.'b.)b.!b.~b.{b.]b.^b./b.(b._b._b.:b.-5.!-.<b.y(.[b.NJ }b.|b.1b.2b.3b.4b.2{ 2{ Gd (b 5b.6b.7b.8b.=x 9b.0b.ab.bb.cb.db.Gd eb.fb.10.gb.hb.@& ib.jb.70.kb.lb.Vk mb.nb.ob.pb.qb.rb.sb.tb.ub.vb.wb.xb.yb.wb.zb.Ab.Bb.Cb.Db.Eb.Fb.Gb.P6.Hb.Ib.ZQ Jb.Kb.Lb.Mb.x0.Nb.j9 Ob.Pb.Qb.Rb.Sb.Tb.Ub.Vb.Wb.Xb.Yb.Zb.X#.z- `b.+8. c..c./v +c.yi @c.X$ #c.$c.%c.&c.^h *c.=c.-c.W0.;c.f^ >c.,c.'c.)c.!c.~c.6n {c.wf ]c.wG 1] x~.^c./c.(c./c._c.:c.<c. 5.[c.}c.|c.1c.2c.3c.4c.5c.U^.6c.7c.'=.8c.5D 9c.0c.ac.bc.cc.dc.ec.fc.gc.hc.ic.jc.kc.lc.mc.b>.u@ Hs nc.oc.-F pc.qc.rc.sc.y0 tc.uc.vc.wc.xc.yc.zc.Ac.vD Bc.Cc.h8.Dc.Ec.Fc.Gc.4/ c, Hc.Ic.Jc.Kc.Lc.Mc.Nc.Oc.Pc.Qc.Rc.Sc.Tc.<{.Uc.Vc.Wc.X} F] /E Xc.Yc.Zc.`c. d..d.+d.@d.#d.$d.%d.S .   ",
"   &d.Fe *d.=d.n+ $>.-d.;d.m@.U( >d.,d.'d.)d.!d.~d.{d.]d.^d./d.(d._d.:d.<d.[d.}d.|d.^7.1d.2d.3d.4d.5d.6d.7d.8d.R, 9d.0d.=A ad.)Y Dc.bd.cd.dd.6b.[H ed.fd.ae Fd <H gd.N|.zi hd.id.jd.kd.ld.md.nd.od.pd.qd.rd.sd.4  td.ud.vd.wd.xd.yd.zd.Ad.Wk Bd.Cd.Dd.Ed.Fd.Gd.Hd.Id.Jd.Kd.Kd.Ld.K` Md.Nd.Od.Pd.Qd.Rd.Sd.Td.Ud.,% Vd.Wd.Xd.Yd.Zd.`d. e..e.+e.@e.#e.31.$e.%e.&e.*e.=e.-e.;e.>e.3^.,e.={.,v 'e.)e.!e.~e.L` {e.lP ]e.^e./e.(e._e.e^ :e.<e.[e..I /|.}e.|e.1e.2e.3e.4e.5e.6e.7e.8e.yN 9e.7d.0e.ae.be.ce.de.ee.G  `5 8D fe.ge.he.b` ie.pJ Q) V^.r{.je.]( ke.le.me.ne.oe.pe.QA 0C qe.re.se.te.ue.ve.we.qx xe.`P cp i$ ye.ze.Ae.Be.Ce.De.Ee.Fe.Ge.He.Ie.Je.Ke.Le.Me.Ne.+E Oe.Pe.Qe.da.&1.Jj 5/ Re.Se.Te.Ue.Ve.d6.U;.We.Xe.yU Ye.Ze.`e. f..f.+f.@f.@f.l^ #f.$f.%f.&f.;k *f.=f.-f.;f.>f.,f.'f.)f.!f.w,    ",
"   ~f.Qb.{f.]f.^f.4m K5.D/ /f.(f._f.:f.<f.[f.}f.|f.1f.2f.3f.4f.5f.6f.7f.8f.;b.9f.0f.Yx af.bf.cf.df.ef.V1.ff.gf.hf.if.jf.kf.lf.mf.nf.of.pf.qf.7g rf.sf.tf.uf.vf.wf.5o xf.yf.MG zf.zf.}g Af.Bf.g7 Cf.~H Df.Ef.Ff.$2 }R Gf.Hf.mG 6T If.Jf.Kf.Lf.Mf.Nf.I] Of.Pf.Qf.I0.Rf.@8.Sf.Tf.S- Uf.Vf.5+.Wf.Xf.Yf.E9 Zf.`f.)& ;#  g..g.+g.@g.#g.$g.%g.&g.*g.=g.-g.`- ;g.>g.,g.+*.'g.)g.!g.~g.s,.{g.]g.-F ^g./g.(g._g.:g.R> /4 ^u <g.[g.}g.|g.1g.5].2g.3g.,/ 4g.5g.6g.7g.8g.9g.xu 6 .0g.ag.bg.cg.dg.eg.fg.gg._/ J8.hg. a.ig.>Y jg.kg.@H lg.mg.ng.og.pg.qg.rg.gk sg.tg.ug.vg.wg.xg.yg.zg.Ag.Bg.Cg.Dg.Eg.Fg.Gg.Hg.cf.Ig.Jg.Kg.;=.Lg.Mg.Ng.Og.M=.Pg.Qg.Rg.Sg.Tg.Ug.Vg.Wg.Xg.Yg.Zg.`g. h..h.+h.@h.#h.$h.%h.ox &h.*h.=h.7}.#>.-h.;h.>h.,h.'h.)h.!h.~h.{h.R:.{h.]h.^h.^c ]}.fi /h.S!.(h.`$._h.:h.<h.[h.}h.|h.1h.Zb.   ",
"   2h.3h.4h.=' 5h.[O 6h.7h.8h.9h.0h.ah.bh.ch.dh.eh.eh.fh.gh.hh.ih.jh.kh.lh.mh.nh.oh.E- ph.[{.qh.rh.sh.th.uh.vh.wh.xh.yh.zh.Ah.Bh.Ch.Dh.Eh.Fh.Gh.Hh.%b Ih.Jh.vf.vf.Kh.xf.xf.Lh.CJ jH Mh.Nh.Oh.nQ Ph.Qh.Rh.08.Sh.Th.Uh.Vh.Wh.Xh.Yh.Zh.`h. i..i.Mf.+i.@i.%f.5Z d(.#i.$i.%i.&i..g.*i.=i.-i.;i.>i.Xf ,i.'i.)i.DK IP Zu !i.~i.{i.]i.^i./i.(i._i.:i.<i.-g.[i.}i.|i.1i.2i.B6 q^.3i.4i.5i.6i.j}.7i.8i.9i.0i.ai.bi.{=.b4 ci.di.ei.fi.gi.hi.ii.f} ji.5g.|K ]; ki.li.mi.ni.oi.Gb.pi.qi.ri.si.ti.ui.vi.wi.xi.c3 WO yi.X4.zi.Ai.Bi.Ci.Di.Ei.EJ Fi.Gi.}}.Hi.=|.Ii.Ji.Ki.Li.Mi.wH Ni.Oi.Pi.Qi.Ri.Si.Ti.JV Ui.Vi.Wi.Xi.Yi.L$ wh.Zi.`i. j..j.)H r~.+j.@j.#j.09 $j.%j.&j.*j.=j.-j.;j.>j.,j.'j.)j.$G !j.~j.{j.]j.^j./j.Yx (j.A$ _j.2M :j.z8 <j.[j.}j.|j.1j.vb.c' 2j.3j.[g.-n 4j.5j.6j.7j.@Z 8j.9j.0j.aj.bj.cj.dj.   ",
"   Zk M:.ej.fj.gj.[] hj.ij.$d.jj.kj.lj.mj.nj.oj.pj.qj.rj.sj.D/ tj.E/ uj.vj.hc wj.xj.yj.zj.Aj.2J Bj.Cj.)F Dj.Ej.Fj.cY [&.Gj.Hj.P(.Ij.W> Jj.)g.Kj.Lj.Mj.Nj.Oj.Pj.}o zh.Qj.zh.sC Rj.Sj.Tj.Uj.Vj.Lh.Wj.Xj.Yj.~$ Zj./s `j.,k SV  k..k.+k.@k.#k.$k.%k.&k.*k.H0.1i.=k.>k Cd.-k.1+.;k.>k.,k.'k.)k.!k.~k.{k.]k.51.^k./k.(k._k.J2.:k.<k.[k.}k.|k.1k.2k.3k.4k.5k.6k.7k.8k.`k U8.9k.0k.ak.bk.ck.dk.Tx ek.21.+c.fk.gk.hk.ik.eH jk.kk.+% lk.f8 mk.nk.ok.pk.qk.rk.2* sk.tk.J= Oe uk.vk.R).wk.zs +5 xk..5.yk.zk.l$ >4.Ak.z+ 1,.Bk.Ck.Dk.Ek.Fk.1A W,.Gk.Hk.Ik.Lk Jk.Kk.Lk.Mk.Nk.Ok.Pk.Qk.Rk.Sk.Tk.Uk.Vk.M, Wk.Xk.Yk.Zk.`k.ov  l..l.+l.@l.#l.$l.ZA %l.&l.*l.=l.-l.;l.F:.>l.ln ,l.'l.)l.0k.n^.!l.~l.{l.]l.^l./l.(l._l.:l.L# Q> <l.|g N0.[l.}l.|l.1l.2l.3l.4l.Ff 5l.6l.7l.8l.9l.0l.al.bl.cl.dl.el.fl.gl.hl.il.58    ",
"   u,.jl.-u kl./r ll.@O {u ml.nl.t. 5m ol.pl.ql.rl.sl.tl.ul.tl.vl.wl.xl.S^ yl.zl.n6 Al.Bl.Cl.Dl.Q).Eu El.{- Fl.Gl.j$ Hl.Il.Jl.Kl.Ll.Ml.Nl.Ol.Pl.Ql.Rl.Sl.Tl.Ul.Vl.^, Wl.Xl.Yl.Zl.`l. m..m.+m.Cx @m.#m.c1 35 F1 }3 A| $m.z  )'.Co Do Do %m.&m.*m.F< Q2 n,.&+ =m.EM ]e.g+ -m.;m.>m.,m.-& ]o 'm.d6.v3.d1 #r 45 I3 h@ =@ )m.!m.~m.{m.Hu ]m.^m./m.u* (m._m.:m.<m.[m.Q$ }m.+K |m.1m.2m.3m.}m.4m.5m._1.6m.6m.7m.8m.9m.cp >p v>.0m.am.da bm.cm.dm.em.fm.gm.hm.im.$5 kP o;.j2 FO jm.f% )O %O i; km.lm.mm.--.6. nm.F# om.pm.qm.rm.kp !t ,  _^ hm sm.tm.tm.p1  u um.P4 j*.vm.wm.xm.V4.ym.#3 l4 V4.zm.Am.Bm.g$ 9h 5r ,% F1 Q4 Cm.Dm.Em.Fm.Zz  l.Gm.Hm.Im.Jm.Km.Lm.*m.P. Mm.Nm.5% s  Om.Pm.Qm.-p Rm.Sm.Tm.Um.Vm.Wm. ;.Z$ Xm.Ym.Zm.`m. n..n.+n.@n.#n.$n.%n.&n.*n.=n.-n.;n.>n.,n.'n.)n.!n.~n.{n.]n.^n./n.7R    ",
"   Rq (n._n.IO jP :n.Br :8  $ W+ MO pO <8 @1 <n.[n.;2 t3 a4.a4.;2 ik.u@ ^5.yk.}n.|n.1n.zO H4 3  d1 8h *Q [  G4 5@ 2n.3n.4n.1r 5n.{o -* $>.JO )5 o4 6n.6n.S4.&@ e-.7n.<8 {*.s@ gr 8n.Dr Vr Vr N3 ^w $u Y-.'5.9n.'@ [;.y# H3 9@ 0n.]$ ]$ an.bn.cn.K$ MO h;.W1 >p wm F1 y# dr LP o).dn.en.(@ *@ fn.j;.,P gn.Br en.en.L1 Rr hn.n& in.jn.kn.ln.mn.nn.Q> R3 Q> on.r3 ;5.Pe %2 *2 v# Fr qr $1 8h @1 8  S, J+ $u 0n.)5 !% pn.qn.cp D# `N u# o;.75.rn.3@ sn.E-.f2 tn.un.E4 vn.vn.wn.xn.yn.zn.An./,.C# Q<.y3 [;.vO Bn.Cn.l# S# 4;.o;.|@ /,.hr Dn.En.Fn.Gn.Gn.Hn.vO p;.5@ y# Dn.Hn.iO D# o;.(# T1 L1 $s o;.:v 8;.,p m@ ,p H4 y3.D. j@ F1 ## In.^Q KO &# U@ %5.%5.X! dr z3 o4 F;.y# z;.eP 9@ +6 DP 4r Jn.+6 Kn.b,.0P {*.k  d1 *Q 'Q Ln.B3 ^w k@ b;.'O lr 5P Mn.lP d1 f;.Nn._{ On.=. #3 Pn.]s Qn.l4 i>.n@    ",
"   Rn.Sn.Tn.Un.gf Vn.': Wn.uq Ui J$  r VN .s 6@ Xn.4;.9  Yn.Zn.`n.Vm. o..o.2R +o.W) 5P T1 &# Rr f& wp >Q ]1 DM G1 @o.#o.$o.%o.&o.B| *o.=o.-o.c>.y3 e4 +2.;o.9h JO pO ;5.9# 4m >o.,o.;Y 'o.%3 )o.}=.!o.j  g4 G3.i4.<v 25 t@ G4 G4 ^5.a# p@ 6%.~o.S+ A+ n>.{$ {o.8t y+ ,  ]o.+o.^o.Ap /o.(o._o.:o.<o.[o.}o.|o.^k.Kl.1o.vh 2o.3o.4o.5o..u 6o.-4 gP 5r 7o.8o.m..9o.*p 0o.ao.bo.Y;.co.do.q& eo.Zj.j  fo._3 go.ho.s2.io.%P 'o.jo.ko.lo.mo.{_ 1n.no.oo.po.:$ qo.ro.so.to.uo.vo.;].wo.xo.4u 1. yo.;|.|J */.$P qO JO ^4 Sr U@ zo.c# #1 z;.eP I4.Ao.Bo.Co.:1 Do.Eo.<. x8.Fo.Go.Ho.Io.[3 Jo.Ko.Lo.Mo.No.4. Oo.pM Po.L% *3 g% D@ xr Qo.Ro.Ro.nO  # kr So.To.Uo.Vo.-* Wo.y# k2 Xo.gr 7@ ov d& &u !O 82.Yo.g3.V;.<  *3 s1 F2 M_ Zo.!O a  e  Ve z5.HO >@ -3 `o.c-.]E  p.x'..p.+p.YO @p.2o.%m.#p.$p.%p.&p.&R    ",
"   *p.=p.-p.;p.>p.,p.'p.)p.2K !p.~p.{p.]p.$) Mm.N;.^O ^p./p.(p._p.:p.<p.[p.}p.|p.1p.s0 2p.3p.4p.D[ w1.5p.6p.7p.8p.9p.0p.ap.bp.41.n0.cp.dp.ep.fp.gp.X# hp.ip.jp.kp.lp.mp.np.op.pp.qp.rp.sp.tp.up.f^ vp.wp.xp.yp.zp.Ap.Bp.Cp.Dp.#< Ep.Fp.Gp.Hp.Ip.'- Jp.Kp.Lp.Mp.Np.Np.Op.Pp.Qp.Rp.Sp.Tp.Up.Vp.Wp.Xp.Yp.Zp.`p. q..q.+q.@q.#q.$q.%q.&q.*q.=q.-q.Am.;q.>q.,q.'q.)q.!q.~q.{q.$H pp ]q.^q./q.(q._q.:q.<q.[q.}q.|q.1q.2q.Px 3q.C& 4q.5q.6q.7q.8q.^w h2 9q.0q.aq.nc.bq.;h.cq.dq.eq.fq.gq.hq.iq.jq.kq.lq.mq.nq.oq.pq.qq.rq.sq.tq.uq.82 ^  T^ N;.b4 }5.vq.wq.xq.yq.zq.Aq.Bq.Cq.Dq.Eq.Fq.Gq.,- Hq.Iq.Jq.Kq.Lq.9).Mq.Nq.Oq.Pq.n..Qq.Rq.1m.Sq.Tq.<3 BL Uq.JH Vq.Wq.Xq.Vc Yq.X{.Zq.`q. r.'c.R,..r.+r.@r.#r.$r.J{.%r.&r.*r.=r.-r.s0 {k.:6.;r.>r.,r.'r.z;.)r.a4.C6.!r.~r.{r.]r.^r./r.(r._r.:r.<r.{~ [r.U& }r.   ",
"   |r.1r.2r.3r.4r.5r.6r.gR 7r.8r.9r.0r.ar.4} br.cr.Vq dr.er.2D 3C fr.7X gr.E6 hr.ir.I:.{v jr.kr.lr.mr.nr.or.pr.qr.rr.sr.'~ tr.P| ur.vr.wr.xr.yr./;.zr.Ar.Br.Cr.Dr.Er.Fr.Gr.Hr.p~.d0 Ir.Jr.Kr.Lr.Mr.Nr.Or.Pr.Qr.Rr.8_ Sr.Tr.Ur.Vr.Nf.Wr.Xr.Yr.Zr.`r.^R  s..s.+s.@s.#s.$s.%s.&s.*s.=s.-s.;s.>s.,s.'s.)s.LI !s.~s.{s.Pf ]s.^s./s.(s._s.:s.<s.[s.^4.}s.|s.1s.;l.PU 2s.3s.4s.5s.6s.7s./x 8s.9s.0s.as.bs.cs.ds.es.fs.gs.hs.is.js.ks.ls.ms.ns.d=.os.S4.ps.qs.T3.rs.ad ss.ts.us.vs.ws.xs.A{.ys.zs.As.u) U:.d= Bs.Cs.Ds.Es.Fs.Gs.Hs.Is.Js.C).Ks.Ls.Ms.Ns.Os.Ps.Qs.Rs.Ss.Jc Ts.Us.Vs.Ws.Xs.Ys.Zs.3X `s. t..t.+t.@t._K >] #t.$t.%t./d &t.I~ *t.43.Hs {9 =t.-t.;t.>t.,t.'t.)t.!t.~t.{t.!v hv ]t.^t./t.(t.~&._t.:t.<t.[t.}t.B#.|t.1t.2t.3t.4t.5t.6t.7t.kP 8t.9t.0t.at.bt.ct.dt.et.ft.IJ gt.ht.it.jt.x) x)    ",
"   Gv kt.lt.mt.nt.ot.pt.qt.rt.st.tt.ut.vt.!4.3t  3 {u wt.xt.yt.zt.At.Bt.Ct.Dt.<<.Et.y).Ft.1j.+f.Gt.Ht.It.Jt.Kt./r.Lt.Mt.Nt.Ot.Pt.9U O9.Qt.G) Rt.St.Tt.Ut.Vt.03.Wt.Xt.Yt.Zt.`t. u..u.+u.@u.#u.$u.%u.w!.;g.&u.*u.=u.-u.;u.>u.,u.'u.te SG )u.!u.~u.{u.]u.^u./u.(u._u.:u.<u.[u.}u.}u.|u.Qf 1u.2u.3u.4u.5u.5u.6u.7u.8u.9u.0u.*! au.bu.cu.du.eu.fu.gu.hu.iu.ju.ku.lu.mu.nu.ou.pu.qu.ru.su.tu.uu.vu.wu.xu.yu.zu.Au.Bu.Cu.Du. [ Eu.Fu.Gu.Hu.Iu.uo lO m  5d.>B Ju.Ku.Lu.Mu.Nu.Ou.Pu.Qu.Ru.Su.FQ OX Tu.Uu.Vu.Wu.Xu.s{.Yu.Zu.`u. v..v.+v.@v.#v.$v.%v.&v.SO *v.=v.-v.;v.>v.,v.'v.)v.!v.~v.Ws.{v.]v.^v./v.(v.N~ _v.:v.-d >d <v.[v.}v.|v.1v.+a.2v.3v.4v.!% 5v.6v.7v.8v.9v.0v.av.bv.cv.dv.ev.fv.vH @H gv.hv.*V iv.2V yf jv.kv.lv.mv.nv.ov.pv.B0.qv.Xj.a  M4 rv.sv.w5 tv.uv.YE vv.wv.%A <H xv.yv.zv.Av.Bv.Cv.   ",
"   tS Dv.Ev.Fv.Gv.Hv.Iv.Jv.Kv.Lv.Mv.Nv.Ov.Pv.Qv.Vm.<o.Rv.Sv.Tv.Uv.Vv.Wv.Xv.Yv.Zv.`v.,*.)<. w..w.+w.@w.#w.Ta.^F $w.%w.&w.*w.%L =w.-w.1e.;w.>w.J* T^ ,w.'w.)w.!w.~w.{w.Xu.]w.^w./w.(w._w.:w.)~ <w.[w.}w.|w.u^.1w.2w.3w.4w.a| qD i: 5w.V/ G, 6w.QJ Zz 7w.=s.8w.9w.0w.aw.bw.cw.dw.e8.ew.fw.gw.hw.iw.jw.kw.lw.mw.nw.ow.pw.qw.rw.sw.tw.uw.vw.ww.xw.yw.f,.zw.Aw.Bw.Cw.Dw.UC Ew.Fw./w Gw.Hw.Iw.Jw.Kw.Lw.Mw.Nw.!d.9B Ow.Pw.Qw.Rw.Sw.Tw.Uw.Vw.X> Ww.p@ u@ Xw.Yw.Zw.`w. x..x.q5 +x.@x.#x./9.$x.1D %x.&x.*x.=x.-x.;x.>x.,x.,x.'x.)x.!x.+v.~x.{x.]x.^x.:2 /x.(x._x.:x.zt <x.[x.}x.|x.1x.2x.3x.3x.4x.5x.6x.7x.8x.9x.0x.ax.bx.+. cx.dx.,~ wG ex.fx.gx.f3.hx.ix.jx.kx.lx.mx.nx.ox.px.qx.rx.sx.tx.ux.P@.vx.wx.xx.yx.zx.1V Ax.Bx.Cx.Dx.Ex.Fx.Gx.Bx.Hx.z` Ix.Jx.A` Kx.|Y Lx.Mx.SS Nx.Ox.Px.sa.Qx.Rx.Sx.Tx.Ux.Vx.   ",
"   Wx.Xx.Yx.Zx.`x. y..y.+y.@y.#y.$y.%y.&y.*y.=y.-y.;y.qV >y.,y.'y.)y.!y.~y.{y.]y.^y./y.(y._y.:y.<y.[y.}y.|y.jf.1y.2y.E, ]h.3^ :-.3y.`v 4y.x_ 5y.c$ ,w.6y.7y.8y.9y.0y.ay.by.cy.dy.ey.fy.gy.hy.iy.jy.ky.ly.my.ny.4_.oy.py.qy.ry.sy.ty.uy.vy.wy.xy.s3.yy.zy.8w.)o jd vw.vw.Ay.By.Cy.Cy.Dy.Ey.Fy.Gy.4u.Hy.Iy.Jy.Ky.Ly.My.Ny.Oy.Py.Qy.tw.%! Ry.}:.<7.3> Sy.Ty.Uy.Vy.Wy.Xy.Yy.iX Zy.`y.xC  z..z.+z.@z.#z.$z.%z.%z.&z.*z.=z.-z.;z.>z.,z.'z.)z.!z.Oq |3 ~z.{z.]z.^z./z.(z.QE _z.:z.<z.[z.}z.|z.1z.2z.3z.4z.5z.D}.6z.7z.8z.9z.0z.az.bz.+v.H}.#H cz.`2 dz.ez.fz.gz.hz.iz.jz.kz.lz.mz.nz.3x.3x.3x.j_.oz.4!.pz.qz.-8.rz.sz._K d2.tz.uz.=*.vz.wz.xz.1. LP yz.zz.Az.Bz.Cz.Dz.Ez.Fz.Gz.Hz.Ts.Iz.Jz.Kz.Lz.h[ Mz.Nz.Oz.Pz.Qz.Rz.Sz.Tz.Uz.Vz.Wz.Xz.Yz.Zz.`r.`z. A..A.|Y +A.GJ @A.#A.$A.%A.&A.`b.z- *A.Wf.=A.]A    ",
"   -A.;A.s'.>A.,A.'A.'A.)A.!A.~A.{A.]A.^A./A.(A._A.]{.'< :A.^c.<A.[A.*:.}A.|A.1A.2A.3A.4A.5A.6A.7A.8A.9A.0A.aA.bA.cA.dA.eA.fA.gA.Qi hA.iA.jA.E*.^5 m8 kA.lA.mA.nA.oA.:- pA.|%.qA.5S rA.sA.tA.uA.vA.wA.xA.yA.zA.AA.BA.QH 8u CA.Z$.DA.EA.FA.GA.Xu '1 HA.l8.IA.JA.)o KA.LA.MA.NA.OA.PA.QA.RA.SA.TA.UA.VA.WA.VA.XA.YA.ZA.`A.sw. B.a/ 2, .B.+B.@B.#B.$B.%B.3{.&B.*B.=B.-B.;B.>B.,B.'B.)B.!B.~B.{B.]B.^B./B.(B._B.:B.<B.[B.}B.Lz rE |B.1B.j{ 2B.T/ L# B& 3B.4B.5B.6B.7B.8B.)b 9B.0B.aB.bB.fx cB.dB.eB.fB. v.gB.hB.iB.jB.T^.kB.lB.y{.mB.nB.oB.pB.qB.rB.sB.tB.uB.vB.P8.wB.xB.yB.zB.AB.BB.CB.DB.EB.FB.GB.HB.IB.JB.)p.KB.)} LB.MB.{k NB.OB.PB.Dz 4u Nr QB.RB.<{ C:.SB.TB.UB.VB.WB.XB.YB.(p.ZB.<Y `B. C..C.6b.+C.@C.#C.$C.%C.Rx.&C.*C.=C.-C.;C.>C./5.a$ pK ,C.,C.oC 3v.'C.)C.!C.gd.zi eb.|g 1b ~C.gd.{C.   ",
"   Bp.]C.Y* ^C./C.(C._C.xa.:C.<C.[C.}C.|C.1C.2C.@4 +-.3C.4C.5C.G_ ^F 6C.7C.8C.9C.0C.aC.bC.cC.dC.eC.fC.gC.hC.iC.jC.kC.lC.mC.nC.oC.pC.qC.rC.sC.h1 #%.tC.uC.vC.wC.(q.-w.xC.yC.zC.Q~ AC.BC.CC.DC.EC.FC.GC.HC.IC.JC.KC.;<.LC.MC.NC.OC.(i 5n PC.BI QC.X>.RC.SC.TC.UC.VC.WC.XC.YC.ZC.`C. D.Oy.RA. B..D.+D.0/ @D.3t.#D.$D.%D.&D.*D.WV =D.-D.;D.>D.yi ,D..` 'D.)D.!D.~D.{D.]D.^D./D.(D._D.:D.<D.[D.}D.|D.1D.2D.3D.4D.5D.fs.5D.6D.4; 7D.8D.9D.HE 0D.aD.zO bD.cD.dD.Dz.eD.fD.gD.hD.iD.jD.kD.lD.mD.nD.oD.pD.qD.qD.rD.rD.rD.sD.tD.uD.sD.vD.wD.xD.yD.}}.zD.AD.BD.7= CD.DD.'d ED.ax.W: FD.GD.HD.8a ID.JD.KD.LD.MD.ND.OD.s-.PD.QD.RD.%7.SD.TD.Q6 UD.VD.R3 WD.XD.YD.ZD.Vl `D. E..E.YB.+E.@E.#E.$E.%E.&E.*E.=E.Ng.-E.lz ;E.>E.,E.O' 'E.)E.!E.~E.{E.]E.^E.&1 /E.(E.uC eC _E.:E.jf.<E.[E.5^.}E.[T |E.O, 1E.^v XE    ",
"   z-.2E.3E.4E.s! xl.5E.6E.7E.8E.9E.0E.aE.b* bE.>p K4.cE.dE.eE.G-.fE.}I gE.hE.iE.jE.p^.kE.lE.}- mE.nE.n0./h.oE.pE.qE.rE.&` sE.tE.uE.vE.wE.ks Yq {P k;.xE.yE.zE.AE.BE.CE.DE.yj.xA EE.FE.GE.HE.IE.JE.KE.LE.ME.NE.OE.PE.QE.RE.SE.TE.i< UE.VE.KL WE.^w XE.YE.3, ZE.V&.`E. F.Gc..F.+F.z0 @F.#F.$F.4b 4b C[.%F.&F.*F.=F.p[.-F.;F.* .>F.,F.'F.x9 )F.i; ]5 !F.~F.{F.]F.^F./F.Xe.(F._F.:F.<F.6w [F.}F.|F.1F.2F.3F.4F.5F.6F.7F.8F.9F.l!.0F.aF.bF.g4.aD.w$ cF.dF.n+ eF.fF.gF.hF.Ck.iF.jF.qe.kF.lF.mF.nF.oF.pF.qF.rF.sF.tF.uF.vF.wF.JD.xF.>N ~S yF.b4 W$ (^.zF.AF.BF.CF.DF.EF.FF.#~.GF.HF.IF.6d.Rp JF.(} KF.Q).LF.&7.MF.P; NF.OF.PF.QF.RF.SF.TF.UF.9+ 7# 3k VF.WF.XF.YF.ZF.A7.`F.|.. G..G.+G.@G.#G.$G.%G.&G.8| *G.Q,.=G.-G. y ;G.>G.,G.'G.)G.!G.<~ M4.pm.~G.V<.{G.]G.^G./G.(G._G.:G.<G.[G.}G.|G.0  +% 1G.   ",
"   o@ )-.g4.2G.8. X-.Pe o) @1 $s J+ 45 Oq 98.3G.-# kr s@ 6| 4G.E!._k.Ir N# sr I;..F {5 e+ Hs 5G.6G.:5.#P )1 (5.7G.8G.tO X# u4 9G.0G.X1 Q#  % aG.## bG.cG.dG.&  d3 a1 eG.fG.gG.>m.|+ hG.kP ;;.C4 D5 .s iG.T3 jG.kG.Hs lG.mG.nG.oG.pG.qG.rG.hM ^4 Pr sG.&/ @M tG.uG.vG.wG.xG.yG.zG.AG.AG.`Q BG.S-.CG.DG.EG.d= FG.GG.so.HG.IG.JG.KG.LG.MG._8 Y2 zO hx.NG.OG.PG.QG.RG.SG.TG.UG.VG.WG.XG.YG.ZG.`G. H.h$.gt .H.+H.Xo @H.H*.55.#H.$H.%H.&H.*H.rr =H.@4.]o b;._7 gr Rr -H.p;.8@ ;H.b-.>H.O@ ,H.;* j4 44 *p 'H.^+.)H.,1 !H.~H.9h V) {H.T-.]H.^H./H.f= IK ,$ (H.s. _H.:H.<H.[H.$4 /& z*.<+ }H.#& Zj.Ls |H.1H.~Q f;.PG 2H.K1 {P 0+ ]3 kr MO 3H.DP 4H.Wo.m;.5H.6H.7H.Bm.8H.b>.|$ 9H.0H.aH.bH.cH.c3.dH.eH.fH.XO T| gH.hH.4Q iH.(1 %p.Gt jH.d6.kH.lH.I# sO `o.w# D# -s P1 $# R# I# 3  a;.b;.qO M1 mH.zP C4    ",
"   nH.oH.kH.%5 pH.ZP Q4.qH.)H.d1 `p 0;.zI d+ %# %2 rH.Pq -s pr )@ f& D1 M4.pr B4 A;.,;.T1 If i*.a4 ]P kr -O _4  >.92.A# c;.*4.*4.!@ (@ X+ ## :8 sH.:r D. 7  B  tH.wi.!;.uH.)r jr d# $1 I# S4.z4 7a.q@ ,p a# =3 m  X! ov &;.vH.VN r@ '- 8h 'r u# cp 6c ;# 6%.=Q ]3 Zq wH.xH.:8 )@ J2 -O ]# _G ]s 45 I4 Qq [3 Q8 bE.p3 ;5.{3 vm kr ;a ]5 FO us dH yH. O V3 %  EO M# ;# V1 ]# cP ^4 zH.x1 H3 I1 I1 U+ ';.U+ U+ [4.#1 cp j$ J@ (5 IO ^Q &# b4 rO If If kP yk.NP x# }@ 9@ 2r [r AH.BH.;4.CH.o) 8. ik.(5.DH.+2.5;.&4.uH.=O gs Yq Wc EH.%} 45 Nq Zo.FH.FH.j; bO {3 GH.A1 HH.j; -7 |@ &@ Q<.w# U@ M1 ^w _7 14 l@ -7 1  I;.ik.I4 t@ +>.9# K# z@ K# -7 I4 l;.U@ .4.)5 -P -P f3 /# J+ u2.Pq J1 [4.pr E# D# <r =# :8 dn./4 IH.!p ]Q g& .F R3 JH.IH.$>.1  <v #. KH.)>.e+ LH..s _7 kP MH.S# M@ }@ U1 NH.}@    ",
"   OH.PH.QH.RH.SH.TH.UH.VH.WH.XH.YH.ZH.`H. I..I.+I.@I.#I.:) $I.(^.%I.&I.O5 A. 3  9@ S@ }+ :7.Z| *I.TD V;.g& =I.-I.;I.vh I-.a$ U5.>I.I3.,I.r+ 'I.;M <& ci.E2 )I.!I.~I.d$ ,1 :M D3 Y% {I.]I.OG.^I.ys /I.(I._I.:I.<I.[I.}I.P| |I.p^ 1I.2I.3I.4I.5I.6I.7I.8I.9I.Io.0I.aI.bI.9r S+ $s LP ^P cI.dI.*a eI.fI.gI.hI.ee.iI.jI.kI.xh lI.d{.mI.nI.ni.oI.pI.HE.qI.rI.sI.tI.ql.uI.Io vI./5.&# ,% z4 %2 $2 05 wI.Pt :2 xI.jm.d5 R&.(1 yI.zI.AI.BI.CI.DI.Q; EI.FI.0M GI.HI.tI._N II.JI.KI.LI.Q4.P. MI.NI.OI.PI.~<.QI.RI.SI.~& TI.UI.VI.u' xl.WI.XI.YI.ZI.`I. J..J.+J.@J.#J.$J.%J.&J.4O +6 o;.h3 ]6.*J. 7 =J.-J.;J.>J.,J.'J.g2.)J.)l.!J.~J.{J.]J.^J./J.PJ (J._J.:J.<J.+w.}{ [J.}J.|J.1J.2J.i;.wi.(4 L_ U3 3J.h& 4J.5J.54 ]+.6J.7J.8J.9J.0J.aJ.bJ.cJ.dJ.1).eJ.fJ.Z).gJ.hJ.iJ.jJ.kJ.3& U5 '@ &@ .s |=.Do.S| c>.   ",
"   lJ.mJ.nJ.V9 oJ.pJ.qJ.rJ.sJ.tJ.uJ.vJ.wJ.xJ.yJ.zJ.AJ.BJ.CJ.DJ.EJ.|I.FJ.Ww.GJ.`n.Pe 6Q HJ.IJ.JJ.KJ.LJ.Lp.MJ.NJ.OJ.PJ.$r.QJ.RJ.SJ.TJ.UJ.VJ.mo WJ.=h XJ.YJ.ZJ.`J. K..K.+K.@K.#K.F2 $K.T%.zy %K.&K.*K.=K.-K.;K.>K.,K.'K.)K.1F.!K.~K.]F {K.`l.]K.^K.-,.Lm /K.(K._K.Y!.:K.<K.[K.#&  $ ^5.}K.|K.1K.2K.3K.4K.5K.6K.7K.8K.9K.0K.yu aK.bK.cK.dK.eK.fK.cZ <C gK.hK.iK.N9.+, jK.*] hB aH. r FO kK.lK.mK.nK.oK.pK.qK.rK.sK.tK.uK.$x.vK.wK.xK.:x et.gt.yK.zK.AK.BK.CK.@B DK.EK.FK.GK.^1.y5.xB.HK.[E.IK.7w.JK.KK.LK.6~.^1.Q* MK.NK.#q ^+ OK.PK.QK.RK.SK.TK.UK.VK.WK.XK.YK.ZK.W<.`K. L.L@ 6| .L.+L.@L.#L.$L.%L.R:.-i.&m &L.*L.=L.-L.;L.>L.,L.'L.)L.!L.~L.{L.]L.^L./L.Il (L.- ._L.:L.s|.<L.[L.}L.|L.1L.2L.JN YQ 3L.4L.5L.6L.7L.8L.9L.0L.aL.bL.cL.S_.dL.eL.AE fL.gL.hL.79 *) iL.jL.kL.ci.$u  k W<.lL.mL.nL.oL.   ",
"   pL.qL.rL.sL.tL.uL.vL.wL.xL.yL.zL.AL.Mz.BL.CL.DL.EL.Ve.FL.GL.Pu HL.IL.JL.+I.KL.X6 LL.ML.NL.OL.PL.QL.RL.SL.TL.UL.VL.WL.XL.YL.ZL.`L. M..M.Pp.+M.@M.#M.$M.%M.&M.*M.=M.-M.;M.>M.,M.QC.Fr.'M.nD.)M.!M.~M.{M.]M.^M.6q /M.S0.(M._M.:M.<M.[M.}M.|M.1M.2M.3M.@) CB.4M.vD.5M.6M.7M.8M.Yp a  9M.H5.0M.aM.0M.bM.cM.V#.dM.1J eM.fM.gM.hM.iM.jM.kM.lM.mM.nM.d) oM.pM.qM.rM.0k.sM.tM. H lG.{# uM.vM.wM.5D xM.yM.zM.rD.AM.2..BM.CM.DM.EM.EM.FM.GM.HM.IM.JM.Gj KM.LM.{, 6x MM.NM.OM.E8 PM.QM.RM.SM.TM.UM.VM.WM.XM.YM.ZM.`M. N.dv..N.+N.@N.#N.$N.%N.&N.*N.=N.-N.;N.*K ^9.>N.,N.'N.)N.Jp !N.@2.~N.{N.fT ]N.^N./N.(N._N.:N.fu.<N.[N.MJ Jl }N.|N.1N.&F.2N.3N.4N.4N.5N.6N.7N.8N.9N.0N.aN.bN.cN.o8 // Pu dN.eN.fN.gN.<- hN.iN.jN.kN.lN.mN.fL.nN.oN.pN.qN.rN.sN.`D.tN.uN.vN.wN.l!.#M j5.xN.yN.:2 zN.AN.BN.CN.DN.ie    ",
"   EN.FN.GN.HN.IN.JN.KN.IN.LN.MN.NN.ON.PN.ek.uz QN.*C RN.SN.TN.UN.VN.WN.XN.YN.ZN.8. `N. O..O.+O.@O.#O.$O.%O.&O.*O.=O.-O.;O.>O.,O.@].,_.$L.'O.)O.!O.YD ~O.{O.H/.]O.^O./O.(O._O.:O.<O.[O.}O.|O.1O.2O.MF m(.3O.4O._) 5O.6O.7O.8O.9O.0O.aO.bO.cO.dO.`).eO.fO.BM.2..gO.hO.iO.jO.wk.,r kO.lO.mO./c nO.@l oO.M:.+c.0u (m (m pO.pO.qO.tE rO.`{.sO.*f tO.uO.mM.vO.Bh i^ bw wO.xO.yO.zO.)-.AO.BO.CO.DO.EO.Gs.FO.H}.GO.GO.HO.SB.SB.rD.m{.%B IO.JO.yn KO.LO.MO.NO.jD.OO.PO.QO.RO.SO.TO.V;.UO.VO.WO.XO.YO.ZO.`O. P..P.+P.@P.#P.$P.o_ %P.#N.&P.Yv zl.*P.=P.-P.;P.9t.>P.,P.'P.l5.)P.Wh ,Q R3 Pk.!P.k/ ~P.{P.]P.0N.^P./P./P.(P._P.:P.<P.[P.}P.|P.tY 1P.2P.3P.3P.4P.5P.6P.7P.8P.9P.8P.0P.aP.dm bP.cP.dP.6x eP.fP.gP.hN.hP.iP.jP.kP.lP.mP.>[.M@.nP.=[.oP.pP.mN.qP.rP.sP.tP.uP.vP.wP.VF.xP.g3.yP.zP.6(.AP.BP.CP.   ",
"   DP.V9 EP.FP.HN.GP.HP.IP.JP.KP.LP.HG MP..* _z.NP.NP.OP.z) PP.QP.QP.QP.RP.SP.V0 TP.UP.VP.WP.XP.YP.ZP.`P. Q.W` .Q.+Q.qX @Q.bp.#Q.$Q.%Q.dx.&Q.*Q.=Q.-Q.j%.;Q.>Q.,Q.'Q.)Q.!Q.Kp.~Q.{Q.]Q.^Q./Q.(Q._Q.m{.:Q.<Q.&/ [Q.}Q.|Q.1Q.2Q.X%.3Q.4Q.5Q.6Q.7Q./k 8Q.]B HE 9Q.0Q.aQ.bQ.cQ.dQ.eQ.f,.fQ.gQ.0M.hQ.iQ.jQ.kQ.2^.ru lQ.tb.=J mQ.nQ.oQ.oQ.pQ.qQ.rQ.)}.sQ.tQ.uQ.vQ.wQ.|v.xQ.yQ.zQ.AQ.;Q BQ.TN.CQ.2%.DQ.EQ.{x.tD.GO.GO.FQ.GQ.HQ.$/.rD.IQ.JQ.KQ.z; LQ.r@.MQ.BD.NQ.OQ.PQ.QQ. _ RQ.SQ.^+.a$ OC TQ.UQ.VQ.WQ.)k XQ.YQ.ZQ.,M `Q.mq.A2. R..R.+R.@R.#R.~=.$R.%R.&R.*R.=R.-R.;R.>R.Fi.,R.d+ T^ 'R.J9 W&.)R.yY !R.~R.{R.]R.^R./R.(R._R.:R.<R.[R.}R.|R.1R.,o 2R.3R.4R.]j 3e 5R.Wd =$.6R.7R.8R.}=.oF.9R.At.0R.}_.aR.bR.{h 0y.7p.cR.dR.eR.fR.gR.hR.*[.P) iR.6f 2a jR.kR.lR.mR.ck nR.lE.oR.pR.t1 qR.rR.sR.tR.uR.vR.   ",
"   wR.xR.yR.EN.zR.AR.BR.CR.-e DR.ER.FR.GR..* HR.HR.IR.h7.JR.KR.LR.MR.QP.NR.SP.OR.PR.}% QR.RR.SR.TR.UR.VR.ZP.WR.XR.YR.ZR.`R. S..S.+S.@S.#S.$S.%S.&S.*S.=S.-S.;S.>S.AB ,S.'S.)S.!S.~S.{S.]S.^S./S.(S.(_._S.:S.Gj lL.<S.[S.}S.|S.1S.2S.3S.4S.5S.6S.@8.69.7S.8S.9S.0S.aS.bS.cS.dS.kr eS.8= 1] FC.h^.fS.gS.F(.v).)..qN hS.iS.jS.kS.Ce lS.e! JK.mS.Ra.nS.oS.rO.pS.qS.rS.+i.uO.sS.U2 *>.tS.uS.!m.vS.wS.xS.yS.zS.GO.AS.BS.{x.CS.2x.DS.EM.ES.)N FS.z8.GS.HS.IS.+}.qD.9x JS.KS.LS.MS.A+ N).NS.OS.PS.QS.&G.1 .RS.-c.SS.TS.ib.W}.US.VS.h_ WS.XS.YS.ZS.o..`S. T..T.+T.@T.Ua Op.#T.$T.Qq _k.'R.%T.ll &T.:P.*T.=T.]R.-T.;T.>T..0 ,T.'T.)T.!T.~T.{T.]T.^T./T.(T._T.:T.<T.[T.}T.|T.1T.2T.3T.Z2 4T.5T.6T.7T.8T.9T.0T.4i.l1.aT.bT.cT.dT.w& eT.fT.2|.gT.hT.om.I6 iT.jT.EM.kT.lT.mT.nT.Cx OR.IP e< oT.pT.qT.rT.sT.   ",
"   tT.uT.vT.wT.xT.yT.zT.cz AT.BT.CT.DT.8}. M.ET.FT.JJ GT./t.L:.1; HT.IT.JT.SP.KT.BU LT.MT.NT.]J.OT.PT.QT.RT.ST.TT.UT.VT.WT.Cu NS XT.YT.ZT.IS `T. U..U.+U.@U.#U.$U.%U.&U.*U.=U.~;.em -U.;U.>U.,U.'U.'U.)U.!U.~U.{U.H9.]U.(r.bn zB.q(.^U./U.(U._U.:U.<U.[U.}U.&H :(.|U.1U.G~.2U.7a.0s 3U.:[ 4U.5U.6U.7U.e! BC 8U.F).9U.0U.aU.bU.cU.dU.=c.yN eU.uy.rO.;f fU.gU.h* hU.iU.jU.;D kU._5.lU..y rx mU.nU.oU.pU.<!.H}.az.qU.rU.sU.P) tU.DS.uU.vU.5O.wU.xU.'F yU.zU.AU.BU.aO..0.CU.DU.nP |k OC YH.EU.FU.GU.HU.IU.JU.KU.LU.MU.NU.OU.PU.QU.RU.SU.TU.UU.VU.s_ WU.Js.XU.>9.YU.ZU.`U. V.`;.Is .V.+V.^@.@V.#V./@.=T.=T.$V.%V.&V.*V.=V.-V.;V.>V.,V.'V.)V.|c !V.Ng ~@.~V.{V.]V.^V./V. +.(V.Et _V.:V.<V.[V.T].}V.|V.1V.2V.3V.V!.4V.5V.6V.7V.8V.!y 9V.0V.aV.bV.cV.dV.eV.fV.gV.gV.P_.hV.iV.jV.&u kV.lV.mV.qT.rT.pe.   ",
"   nV.oV._9 pV.qV.rV.sV.tV.uV.=l Sn 9}.=G.vV.wV.)t.xV.H! yV.7| zV.XA AV.BV.CV.n+ f: Fl.-8.5,.DV.EV.%z FV.GV.HV.IV.JV.P[ KV.LV.MV.NV.OV.PV.QV.RV.SV.TV.UV.+M.VV.WV.XV.YV.ZV.`V.P1 nP  W..W.+W.@W.#W.dF.$W.%W.&W.*W.=W.aA -W.;W.Ta >W.,W.ff.'W.)W.!W.~W.{W.]W.^W./W.(W._W.:W.43 3+ <W.[W.}W.|W.cK.1W.2W.=L 3W.4W.5W.6W.uy.[h 7W.8W.0p.Y: 8_.T<.9W.)O.V+.0W.aW.bW.cW.dW.eW./C.Ix rn.fW.gW.hW.iW.jW.kW.lW.vR.tD.IQ.P_.mW.nW.oW.pW.qW.^9.>K.rW.sW.tW.uW.vW.wW.xW.+1.yW.zW.AW.BW.-7 Zn.CW.DW.EW.FW.GW.HW.IW.JW.KW.LW.6K MW.NW.OW.PW.QW.}n RW.SW.TW.UW.VW.*a WW.XW.YW.ZW.`W. X.35 #. .X.+X.y .@X.#X.$X.%X.&X.*X.=X.%V.-X.;X.>X.,X.'X.)X.!X.:U ~X.{X.K .]X.^X./X.(X._X.:X.<X.[X.Fs wm zO.}X.|X.1X.2X.3X.q!.4X. X.x,.5X.6X.7X.>8.Z0.8X.9X.0X.aX.7L.bX.cX.dX.eX.fX.gX.qF.hX.Yw.iX.S/ P<.jX.kX.Dz.lX.eD.   ",
"   mX.nX.-M oX.<R pX.qX.F[ [J.rX.sX.tX.uX.$J.vX.vX.wX.xX.yX.zX.Eu AX.BX.CX.#c.:  m  K3.DX.EX.9$ FX.GX.HX.IX.JX.KX.LX.MX.NX.OX.PX.QX.RX.SX.TX.UX.VX.rS WX.XX.YX.ZX.`X. Y..Y.X1 D# T~.+Y.aM @Y.#Y.x1.$Y.%Y.&Y.*Y.=Y.-Y.;Y.w6.>Y.XL 'r.^1 ,Y.%p.'Y.g3.z3.4,.cN lP J2 D1 Z@ kr LP 4r &u <& lK.)Y.!Y.~Y.{Y.]Y.^Y./Y.(Y._Y.:Y.:  L$ T@  t <Y.[Y.}Y.|Y.1Y.A-.cJ.2Y.3Y.4Y.5Y.v=.4J.J# 1@ g2 =@ ~r on.6Y.--.7Y.,# 8Y.vP 9Y.0Y.aY.bY.x'.cY.dY.2m '+ eY.fY.gY.hY.iY.jY.kY.lY.mY.nY.%1 o;.MH.$Z :1.~3 %1 N0 oY.dt pY.qY.]Y.rY.sY.tY.uY.uY.vY.wY.xY.yY.:u :u zY.AY.BY.;m.CY.DY.A. [3 Y# z4 EY.FY.GY.HY.IY.JY.KY.LY.MY.NY.OY.Pj.PY.QY.RY.SY.-K TY.UY.UY.VY.WY.XY.Ql %E.YY.XY.ZY.2F `Y.`#  Z.M# %  .Z.+Z.@Z.#Z.$Z.8t %Z.&Z.*Z.=Z.o^.<K.-Z.6X.J*.;Z.>Z.,Z.'Z.)Z.3. !Z.~Z.{Z.]Z.^Z./Z.Wn.(Z._Z.:Z.<Z.[Z.^9.}Z.   ",
"   &1 H4.(;.@$ Dr |Z.1Z.2Z.3P !5.&5.Pe GY f2 P1 GY Qq ;a I4 b;.us ]5 {_. D ;a &4.=@ Ur 3Z.m@ Es p4 G@ &# &} 6# `@ q;.B# sH.pO 8h QJ |3 4Z.5Z.E!.g- ~T 6Z.7Z.8Z.+Y.9Z.0Z.aZ.!; '@ 5r K# eH T% bZ.DO yz _3 cZ.v3..s uO _5.X# _5.t3 zO $1 N+ ^5.k@ -# C# Bn. @ M@ dZ.T1 :8 T1 dr 0r {*.(( O+ D3 !; -O Y-.Y-.y4 Q<.y3 MO eZ.I1 '@ U# ;P fZ.7O 7O =# d* V@ E# hr !Q MO +# Qo.cp 8+ gZ. @ `N Y+ kr `+ R+ ]$ 6c =Q E# +2.nM a;.H4.T3 %O '5 I@ hZ.iZ.jZ.&[ ch H& :s %+ /s Lc.5;.Es mH.oM p4 h2 kZ.lZ.mZ.E;.dZ.nZ.en.L;.oZ.]3 pZ.T/ qZ.qZ. r z@ Yp  r ,# D1 7# rZ.);.sZ.K1 :r !% w# tZ.uZ.Uj Qn vZ.wZ.N3.xZ.4,.n  j  &>.gp j; !H.Hs ;8.yZ.i4.;8.'1 18 zZ.Gs AZ.Gs 3J.55.:5.-@.s~ S+ BZ.D5.M# [] CZ.26 9# p3 ur ^s ]# 0r W+  r D5.DZ.f_ m;.Wo.EZ.EZ.FZ.S4.y3 jt <8 =@ (4 I2 GZ.HZ. @ *@ IZ.)Q /X EP MB    ",
"   6p JZ.KZ.5  /,.9@ LZ.L# Hb.U| MZ.(  Ms zD.#2.+s Rr =O Z@ U+ NZ.OZ./H.Rq SN V] H4 j3 PZ.QZ.RZ.SZ.TZ.$P  4.I3 UZ.nZ.*4.nM T^ !O KH.VZ.>Y WZ.XZ.YZ.ZZ.`Z.Z4.}2  `..`.+`.@`.)>.s$ #`.6I.Rm.$`.V| %`.N0 &`.-a Lc.x# /,.61 *`.rt =`.X;.;Q VZ.St.MZ.qB.nm.Zj.V;.1,.=5.c$ cG.w1 6Z.12 -`.;`.>`._3 ,`.'o.2H.T+  # v# 92.a4 L# _G w@ Q> u@ {3 T3 r$ 3F -* w;.'`.LI.dm (e B2 T| i; j; qO 9c |+ :5.v3.}+ /$ fB }~ F4.zP )`.%4.J# /3 !`.~`.r. e  ap dM {`.]`.^`.NN 7M E5 r3./`.(`._`.:`.<`.SN n, da Pn.[`.}`.1H.Z$ |`.|`.S7 1`.2`.3`.4`.5`.No x'.Ow 6`.eM 7`.8`.9`.^>.0`.TI.a`.b`.94.$3 c`.=y 81 {_.P> /5.St.JH on.LZ.-r d`.z@ d+ e`.E!.]o U+ wr ^5 45.f`.g`.u;.}4.C4 %2 /5 z@ D5.DZ.H4 H4 4G.]5 vm h`.Nq :M G;.g;.t,.i`.j`.k`.l`.m`.n`.o`.p`.~# Fs b;.3  3  |3 R3 =I ,3 s$ 7a.8b us IH.9h Re 5P *Q q`.   ",
"   r`.s`.t`.u`.)p F@ .u FW.ph v`.q_.w`.x`.y`.z`.A`.B`.C`.D`.E`.F`.>>.G`.H`.I`.J`.K`.L`.sc M`.N`.kP.O`.P`.Q`.R`.j@ /4 S`.T`.U`.V`.W`.X`.Y`.Z`.``.  +. ++ +@ +A<.# +$ +% +$ +& +O!./| (| * += +- +; +> +, +' +) +IO T4.! +~ +^E { +] +=}.C: ^ +/ +( +5-._ +5| gJ.: +i> < +[ +} +|1.| +nt Vh 1 +p6.P| 2 +3 +)  k@ ^5.4 +5 +6 +7 +8 +9 +0 +a +J] 1}.b +c +d +e +f +g +YE h +i +j +k +N1.Qj.l +m +n +L).v5 o +p +S+ q +r +s +t +u +v +%c.w +6F `c ({ x +y +z +A +B +,) C +D +E +F +G +H +I +J +K +L +M +N +O +Zo.w# a# LO P +Q +R +Ea S +T +U +V +W +X +Y +Z +` + .+..++.+@.+#.+oh x, $.+%.+&.+TM *.+V}.=.+WI.9o.kS w+ -.+;.+>.+,.+'.+24 ).+!.+~.+{.+P] ].+@x.^.+/.+(.+_.+:.+<.+[.+}.+|.+1.+RQ.2.+V,.3.+4.+54 5.+6.+7.+)4.*+ 8.+R&.Am.9.+0.++J a.+b.+c.+c.+d.+e.+f.+g.+Dq h.+i.+j.+k.+l.+m.+n.+-W    ",
"   o.+p.+q.+r.+o<.QJ s.+MZ t.+u.+F9 +].v.+%&.w.+X} x.+y.+z.+A.+B.+C.+D.+E.+F.+G.+H.+%d.I.+*).J.+u) K.+L.+}g M.+N.+To O.+P.+Q.+R.+S.+T.+U.+V.+W.+X.+Y.+Z.+`.+ ++.+++++@++#++$++ - %++&++*++=++-++;++>++,++'++)++B2 Rq `l.M) !++~++{++]++^++/++h^ (++_++:++<++[++}++|++1++2++3++4++5++6++7[ -N.7++8++9++0++iE Z+ k4.a++b++c++d++e++., f++4H g++h++i++j++k++l++m++n++[X o++p++q++az r++s++t++u++v++v++w++x++y++v@ z++A++B++C++D++E++F++G++2k.H++I++%( w> J++K++L++j@.M++N++O++mZ P++Q++R++S++A( T++U++V++W++X++Y++Z++`++ @+RR..@++@+@@+G, #@+Cu xu y, mE.,V $@+V- %@+&@+*@+=@+,S.-@+;@+>@+,@+:y zK '@+)@+!@+~@+{@+]@+^@+/@+(@+_@+:@+<@+[@+}@+|@+1@+2@+3@+4@+5@+6@+7@+8@+9@+Y) %j 0@+a@+b@+c@+d@+e@+f@+g@+h@+Y4.i@+Bh Ha.j@+k@+l@+ey uU.m@+n@+o@+p@+q@+r@+Xs.s@+MU ]v.t@+u@+v@+#H !- w@+JT.x@+y@+   ",
"   f[ cQ.z@++. $K U;.A@+B@+A$.C@+nV.&:.D@+D$.E@+F@+G@+H@+I@+J@+K@+L@+M@+N@+O@+P@+Q@+R@+V,.S@+:A T@+U@+V@+W@+X@+Y@+Z@+`@+ #+.#++#+R= @#+##+$#+%#+&#+&#+*#+=#+-#+;#+>#+,#+'#+,#+)#+!#+!#+~#+{#+]#+^#+Sr./#+dh.(#+_#+t@ |<.:#+<#+!i [#+}#+|#+T< 1#+MD 2#+&G 3#+4#+5#+6#+7#+9Z 8#+9#+2h.0#+a#+b#+c#+)j.d#+e#+f#+-h.Et g#+h#+i#+j#+k#+l#+m#+n#+FK o#+nQ p#+2T.q#+r#+s#+t#+u#+v#+w#+x#+y#+z#+A#+B#+C#+C#+D#+E#+F#+G#+H#+/ +I#+J#+K#+C++L#+M#+N#+O#+P#+Q#+R#+S#+T#+U#+V#+W#+X#+Y#+Z#+`#+ $+.$++$+S++@$+#$+$$+%$+in.&$+Do [[ *$+=$+-$+;$+>$+l^ ,$+aK.'$+`$.)$+;f !$+~$+%z {$+m=.RS.]$+^$+V0./$+($+_$+:$+<$+[$+}$+|$+1$+2$+3$+4N.C+.4$+5$+6$+7$+8$+9$+0$+a$+b$+c$+d$+`S e$+`#.f$+g$+/@.h$+i$+j$+E#+E#+0e k$+l$+m$+n$+7g.o$+p$+q$+r$+s$+t$+u$+lR.P_.CB.v$+w$+`! x$+y$+z$+!/.A$+$x.B$+C$+D$+E$+F$+G$+H$+   ",
"   I$+J$+K$+L$+M$+ & ]- N$+H.+O$+P$+Q$+R$+S$+T$+U$+V$+W$+X$+Y$+5/.Wa @8.vz.Z$+`$+uD  %+.%+#g Tj.ng.+%+'l.J2.8=.@%+-U a*.#%+$%+%%+7_ &%+*%+=%+y^ -%+;%+X< >%+,%+'%+)%+!%+~%+E^ {%+]%+^%+/%+m: (%+_%+:%+<%+[%+}%+62 l3 |%+1%+2%+i= 3%+Pw.4%+5%+6%+bU 7%+8%+9%+0%+a%+b%+c%+d%+e%+f%+g%+h%+i%+j%+/v k%+q:.l%+m%+n%+4,.o%+p%+q%+d++r%+,a.s%+,a.t%+FK u%+v%+w%+x%+y%+@T z%+A%+ld B%+r#+C%+D%+E%+F%+5#.5#.%(.G%+H%+I%+J%+K%+L%+M%+N%+O%+P%+Q%+R%+S%+T%+U%+V%+W%+X%+f{ ` .jZ Y%+Z%+`%+ &+.&++&+@&+3< #&+$&+%&+&&+{_..$ *&+O/ =&+dT.Wc.FC.-&+&D ;&+>&+WH Nf.,&+'&+)&+!&+~&+{&+]&+ZR.^&+/&+(&+_&+'}.!V :&+<&+[&+_D }&+|&+1&+2&+]b 3&+4&+5&+6&+7&+8&+9&++y |X 0&+a&+b&+OE c&+d&+e&+f&+g&+h&+i&+j&+k&+l&+m&+n&+o&+IK V2 @* p&+q&+r&+s&+t&+u&+v&+w&+x&+y&+z&+l@+A&+[].B&+C&+D&+1..E&+F&+Y,.G&+fe.AI.,%.6(.   ",
"   H&+I&+J&+K&+L&+Z=.M&+N&+O&+P&+Q&+R&+S&+av T&+U&+V&+W&+X&+Y&+|u fv Z&+`&+ *+.*+uD  %++*+@*+#*+$*+%*+N(.&*+**+r0.kO =*+-*+;*+&u.>*+{#+,*+'*+-%+)*+!*+~*+p> ,%+{*+]*+^*+/*+E^ (*+_*+:*+/%+<*+[*+}*+:%+|*+1*+2*+td.3*+4*+5*+6*+3f.7*+8*+yD %1.%1.bU 9*+0*+Q[.a*+xB b*+c*+d*+e*+f*+g*+h*+i*+j*+k*+l*+m*+K~.n*+ZG.^+.p%+o*+7(.p*+q*+r*+s*+t*+s%+u*+pd.v*+qn w*+x*+y*+z*+A*+B*+C*+D*+4N.E*+F*+G*+H*+I*+J*+D` K*+pr Q( pA L*+M*+N*+O*+:B WW P*+Q*+R*+S*+T*+U*+V*+W*+X*+G~ Y*+Z*+Z*+`*+ =+.=++=+@=+#=+$=+%=+&=+#. w# Rq.;/.*=+:$+29.8= ==+P6 -=+w& ;=+>=+,=+'=+)=+!=+~=+{=+QT.]=+y, Cu VT.^=+/=+(=+_=+:=+<=+[=+}=+:K.|=+1=+2=+s%+3=+4=+Dc.6@+5=+6=+7=+j%+5g 8=+9=+0=+a=+b=+c=+d=+e=+f=+g=+h=+i=+j=+k=+l=+m=+8c 92 n=+k( o=+p=+b<.t&+q=+r=+w&+v&+s=+A&+t=+u=+v=+t$+w=+x=+y=+r&+z=+A=+nL F!.B=+C=+D=+   ",
"   E=+rR.F=+G=+H=+I=+J=+J, K=++* L=+E.+M=+N=+O=+P=+Q=+R=+S=+T=+U=+V=+W=+q9 }T X=+Q@+,l Y=+Z=+`=+%=  -+N(.]J..-+KH.+-+@-+#-+$-+%-+&-+*-+=-+--+;-+>-+,-+;%+Rr.|) C^ '-+D^ )-+=#+!-+~-+]%+{-+]-+^-+/-+(-+_-+:-+uy.%1 vm <-+[-+}-+g*+3%+|-+1-+7*+/_ 2-+3-+4-+5-+6-+7-+8-+9-+0-+a-+b-+c-+d-+e-+f-+g-+h-+i-+j-+k-+l-+_' m-+]1.n-+o-+p-+q-+r-++A.eC 3v.ng.GC -(.s-+t-+u-+v-+*D.w-+x-+y-+z-+A-+B-+D%+C-+D-+E-+w) F-+|&.Fj.w1.G-+H-+I-+cs.J-+K-+L-+M-+N-+O-+P-+Q-+R-+S-+}K T-+;..U-+U-+ S V-+W-+X-+Y-+Z-+`-+ ;+.;+;Q -s +;+@;+kM.#;+$;+%;+&;+Fj *;+8u =;+-;+;;+>;+,;+';+;i.);+=j.!;+~;+XH US.{;+~c.];+^;+$Q./;+(;+_;+c3 X%.,!.:;+<;+[;+};+=8.<H |;+M/.C9 1;+2;+3;+4;+5;+6;+7;+8;+9;+1, 0;+a;+b;+c;+d;+e;+w- %R f;+{>.g;+h;+i;+j;+Dz.k;+zE y&+l;+3C m;+n;+o;+)N p;+q;+r;+s;+t;+u;+nq.7^ O- v;+w;+x;+y;+   ",
"   z;+A;+S. B;+iH.H% C;+D;+E;+F;+G;++= tX H;+I;+J;+K;+L;+M;+N;+O;+P;+Q;+Yf U6 V$+U$+R;+-v S;+T;+U;+V;+W;+N`.;p nP X;+Y;+Z;+`;+ >+ >+.>++>+@>+#>+#>+=-+$>+%>+&>+*>+=>+->+o> ;>+!#+>>+,>+'>+)>+!>+~>+{{ {>+]>++_.^>+|P 2O />+(>+(>+1Q._>+sy.:>+I#+6< <>+[>+}>+|>+1>+2>+3>+4>+5>+6>+7>+8>+x0 9>+0>+a>+b>+c>+d>+e>+7z f>+g>+*w.h>+i>+Ch.Kh.fd.j>+D` k>+sC l>+m>+n>+9u.o>+p>+q>+r>+s>+t>+u>+v>+w>+x>+y>+=> z>+Ps H1 -7 Ys A>+B>+C>+D>+E>+F>+G>+H>+I>+J>+K>+L>+M>+N>+O>+P>+O8 Q>+R>+S>+T>+U>+V>+W>+X>+Y>+eU.H8.h3 !@ Z>+jM.`>+ ,+*m .,++,+@,+#,+$,+%,+&,+[t.*,+_i =,+=,+,h.-,+g' ;,+>,+,,+',+),+!,+~,+{,+as.],+s% ^,+/,+`,.(,+_,+:,+JV qf.<,+[,+},+|,+1,+2,+3,+4,+5,+6,+7,+8i 8,+9,+0,+a,+b,+c,+d,+e,+f,+g,+<5 [i h,+2x QG i,+j,+k,+l,+m,+u$+n,+o,+p,+q,+,y r,+s,+t,+~M.u,+v,+w,+x,+Xh &~.y,+z,+6t.   ",
"   C3.cE.8M A,+55 B,+C,+m} D,+E,+F,+G,+H,+I,+J,+K,+Un L,+M,+F^.N,+K- Q,.O,+P,+Q,+{k.R,+S,+T,+U,+V,+W,+u. X,+t,.o).C4 l} Y,+Z,+`,+ '+.'++'+@'+#'+$'+%'+&'+*'+='+-'+;'+>'+,'+''+)'+!'+~'+{'+]'+^'+<) /'+('+Hd.)q @4.q# _'+:'+<'+['+}'+|'+1'+2'+]q.`-+3'+4'+5'+6'+|C h< 8; 7'+8'+9'+$8 E- 0'+a'+b'+[F.c'+Oz d'+e'+h4.f'+g'+*Y.$%.h'+i'+gd.j'+k'+l'+m'+M:.n'+SE 5#.o'+p'+q'+r'+s'+t'+N$+u'+v'+w'+x'+y'+z'+_}.IH x# !Q A'+8K.B'+C'+D'+E'+F'+G'+H'+I'+J'+K'+L'+M'+N'+O'+P'+Q'+R'+S'+T'+U'+V'+W'+X'+t'.Y'+Z'+`'+p3 u# /j  )+.)+0* +)+@)+#)+$)+%)+&)+uv )p.*)+=)+-)+j1 eS.;)+#~.>)+,)+')+))+!)+~)+i .{)+])+^)+/)+E!.()+_)+:)+<)+[)+!.+})+|)+1)+2)+3)+4)+5)+K` 6)+7)+8)+9)+[u.0)+a)+b)+If.c)+d)+e)+f)+g)+h)+i)+hZ.j)+k)+.6 wt /+ l)+m)+15 n)+o)+p)+q)+r)+s)+t)+rW.u)+v)+}s.w)+x)+y)+z)+A)+B)+C)+D)+E)+   ",
"   F)+yZ G)+!p !Q xr /O $P `r.=. H)+I)+V] zD.YO {% x+ QQ Tt Mq J)+cr.K)+L)+0$ E*.M)+U;./O ch td.H3.N)+O)+P)+Q)+#1 G1 hm.R)+S)+T)+%K U)+V)+W)+X)+Y)+Z)+`)+ !+.!++!+WO @!+#!+$!+C% %!+&!+KL.*!+Ti c3 =!+M-.%P $5 -!+;!+>!+,!+QQ '!+<  9h I$ 91 w4.`2 BO SD )!+!!+SN ^  U3 #5.c4 jH.g8 Vm.EP ~!+{!+]!+<& ^!+D1 {*.V@ b# <r Y@ ]Q =4 ~t /!+z'.(!+_!+:!+Ui f4 ]t vh <!+[!+C3.g+ kH.eJ.}!+|!+1!+/+.M2 2!+3!+&# MO &@ 4!+:' 5!+6!+7!+8!+9!+0!+$Z.a!+b!+c!+G  d!+e!+f!+g!+{p J)+h!+i!+j!+E4.@2.So kO k!+l!+_#+dH m!+n!+o!+p!+'H.DO q!+!@ -# Qq Qr Qr zI r!+s!+45 Rq qZ.#r {5 ^% t!+u!+v!+w!+l)+k1 x!+y!+z!+A!+B!+gP Y` VZ.VZ.+-+cr.U5 ;1 C!+D!+E!+]o.!t 54 F!+G!+H!+/+.I!+J!+K!+fp.L!+M!+#&.N!+O!+P!+Q!+R!+S!+MO T!+dr D3 6# U!+,-.V!+W!+X!+Y!+g3 Z!+kl.`!+ ~+.~+;. +~+@~++t t1 #!+#~+$~+%~+5}.&~+*~+   ",
"   U@ {3 Cy tO a4.3R G4 u@ ik.nj Rq L@ 9r _4 `N -# Qr =~+nn %P -~+)K 81 !1 xi.|+ -* .>.s@ 8h 55 ;~+am.>~+,~+V% 7G.Q# &2 ^% VN v$ y3.y3.Ir '~+T1 =@ =@ }@ )~+!~+~~+%+ 5Z.{~+5;.M- ]~+^~+-s /~+rP (~+9/.D4 _~+&# :~+<~+Z$ Q> VN 14 !# Y@ {9 'r U+ %;.[~+Vr `>.i*.M3._4 hr }~+O1 hP w# Fn.jO x# 8# $1 0;.Y;./;.wr Y+ 9r =@ `N &# F4 Zo.|~+81 o) dn.m  1~+2~+!Q ;C -~+!r t@ !~+G1 H@ 3~+!-.4G.'5 aL 4~+!H._;.<n.@$ pr  $ G1 /5.d3 gp 5~+6~+}3 ;5.g@ 7~+g4.8~+hn.9~+}O 9n.~5.Y` W1 z+ M# /r 0~+>r 4r {;.a4 kr 3G.5u R# w# J2 pO (4 2=.0r =# 3G.3G.o@ a~+Nq [3 To DZ.1  b~+!Q P# I4 K4.Z$ 6R [L.=@ !; `+ `+ i@ cp |@ f& X+ {*.{;.=H.Y+ d`.hs c~+d~+e~+^;.T, |@ hr ,@ oo.U1 (# x;.AH.`r ]o rO !@ ]P ov R# 9+ 9@ f~+U% U% ^# g~+h~+h~+i~+j~+A1 @r 4r k~+^O In.zr 9r [] i*.H# N# l~+[L.m~+n~+B;.!% k3    ",
"   o~+p~+q~+r~+s.+h}.s~+t~+u~+v~+^G.w~+I6.x~+y~+z~+]>.A~+B~+C~+DC.^F.D~+E~+F~+G~+H~+I~+J~+Oj )c K~+L~+M~+N~+O~+P~+6^ Q~+R~+S~+R,.T~+( +U~+21 Pq (@ V~+W~+X~+Y~+Uk.Z~+`~+ {+.{++{+ u  6 @{+#{+${+%{+&{+*{+={+-{+;{+>{+,{+'{+Qp Q..PQ N| ){+:1.N;.w# _5.n$+!{+Lm.~{+Zz {{+9!+]{+^{+/{+({+37._{+:{+<{+[{+.8 }{+|{+t-.1{+2{+s. 3{+4{+5{+6{+'= gp i@ `q /H.n;.7{+8{+9{+>6 <'.0{+a{+b{+c{+M'+d{+e{+f{+g{+h{+i{+j{+k{+l{+m{+n{+o{+p{+q{+ a.4v S5.g4.r{+s{+t{+u{+v{+w{+x{+y{+z{+A{+B{+:%.C{+3Q.eE.D{+E{+F{+;g G{+HI.m8 H{+*,.[P <O.Fm.P4 Q-.5J.I{+V!+mO $m.J{+ X.|% zI.7I.%5 K{+.#.L{+0-.hi.K-.Cq M{+N{+r(.s= O{+O{+Wp QB.^,+Ow NG.P{+b>.Q{+,Q O@ Br R{+S{+T{+4=.U{+,o.V{+^>.W{+X{+Y{+1X.Z{+Ol.`{+ ]+4=.Ow .]+e2 R2 T2 j1.+]+{Y.@]+|J 6`.(. W3 #]+S+ g% $]+h% %]+u1 &]+*]+~Y.7m.=]+-]+q+ ;]+v+ >]+,N    ",
"   ,]+']+)]+!]+~]+{]+Nf ]]+^]+Zf./]+Zf.(]+F@+gb.y| a3._]+<*+:]+<]+[%+.z.[]+}]+|]+1]+2]+3]+4]+N*+5]+ ( {>+ ( 6]+7]+8]+9]+0]+a]+b]+c]+iu d]+TG Hp.e]+f]+g]+h]+W,.)C.sB.i]+j]+k]+l]+,_ m]+n]+L+.`P.Kn e2.o]+p]+q]+r]+s]+t]+#&.u]+v]+w]+x]+y]+4L.*u d`.55 z]+A]+.E.B]+C]+D]+E]+F]+G]+H]+I]+J]+gz.K]+R!.L]+M]+N]+O]+P]+Q]+R]+S]+T]+U]+V]+W]+X]+ap m`.Y]+6$ Z]+`]+ ^+mh.6]+.^++^+@^+#^+$^+%^+%^+&^+*^+=^+-^++- ;^+>^+,^+'^+)^+!^+~^+{^+]^+^^+/^+r$ (^+Wt _^+:^+<^+[^+}^+|^+1^+2^+3^+4^+5^+6^+7^+ed.=^.8^+VJ vi 9^+DL.Fx  , 0^+H(.a^+Ql b^+si c^+%  d^+e^+f^+g^+h^+i^+j^+k^+l^+m^+Nk.A9 yh.n^+XL.o^+p^+1t.q^+r^+4).s^+t^+u^+l=+Ae v^+t- A$.w^+x^++s y^+z^+A^+j! Vc.B^+C^+D^+E^+F^+G^+;k.H^+I^+cd J^+K^+L^+M^+N^+O^+,Q.P^+nb.Q^+R^+S^+T^+U^+V^+S3 ,% ~& W^+#t.X^+Y^+E; Z^+`^+iy. /+./++/+@/+#/+r_.$/+   ",
"   %/+&/+*/+=/+-/+;/+;/+>/+,/+'/+)/+!/+~/+{/+av L{+]/+^/+//+VD c_ (/+_/+:/+</+[/+}/+|/+1/+2/+3/+4/+5/+6/+7/+8/+9/+0/+a/+b/+c/+d/+e/+f/+g/+h/+vs.`@ r= i/+j/+k/+F~.l/+m/+n/+o/+p/+q/+-~ r/+s/+t/+|V u/+*;+v/+w/+x/+y/+v`.z/+PJ.A/+B/+O! $~ Y:.H  C/+LH.)W.J}.D/+GQ E/+F/+G/+H/+I/+J/+K/+Hy L/+M/+N/+O/+P/+Q/+R/+S/+T/+U/+V/+W/+X/+Y/+Z/+`/+ (+<c..(++(+@(+8J #(+ku $(+%(+&(+*(+=(+-(+;(+>(+,(+'(+@[.'(+=z EX )(+!(+~(+{(+Pk (i 6> r,+](+w0 B,+@P ^(+/(+((+_(+Fy &}.:(+S) <(+[(+}(+|(+w0.f9 1(+kd 2(+3(+4(+5(+6(+7(+8(+xx.9(+0(+Kx.a(+b(+.` c(+d(+e(+f(+g(+h(+i(+j(+k(+dd.l(+9] m(+yi n(+2t.o(+p(+q(+r(+s(+t(+u(+v(+w(+x(+y(+z(+A(+B(+C(+D(+^6 E(+F(+G(+H(+I(+o].J(+K(+L(+M(+N(+O(+P(+Q(+R(+#r.S(+T(+U(+V(+F#.W(+X(+Y(+Z(+`(+ _+._++_+@_+#>.f3 |q #_+$_+%_+&_+*_+&< p;+Pt.=_+-_+;_+7q >_+,_+'_+   ",
"   )_+!_+~_+{_+'T.]_+I .aN.^_+/_+(_+__+:_+zd OJ <_+[_+}_+$++|_+9_ <]+1_+2_+3_+4_+5_+|/+6_+7_+8_+9_+0_+{z a_+b_+c_+d_+e_+}z f_+e/+g_+;b.h_+i_+b3.pO j_+Jk.k_+l_+m_+Z& n_+o_+p_+q_+r_+s_+t_+u_+v_+w_+x_+y_+z_+A_+B_+C_+D_+E_+F_+G_+H_+I_+9..J_+K_+I3 k>.L_+M_+N_+O_+P_+Q_+R_+S_+T_+U_+V_+W_+X_+Y_+Z_+`_+ :+.:+qj.+:+@:+#:+$:+%:+&:+*:+=:+-:+;:+>:+,:+U!.':+):+!:+~:+O%+{:+]:+^:+^:+/:+(:+Z= _:+::+<:+[:+}:+|:+1:+2:+Bf 3:+c' 2J 4:+5:+6:+w0 #3 =I 7:+c0 8:+9:+0:+a:+b:+c:+d:+e:+f:+g:+u+.h:+i:+j:+k:+l:+m:+n:+o:+p:+q:+r:+s:+1a.t:+u:+v:+w:+i& 1-.x:+OV y:+z:+A:+B:+C:+pf.D:+E:+yx L@+y(.>> F:+G:+H:+GV I:+J:+K:+L:+M:+zi Ri N:+O:+P:+Q:+.p.;>.R:+S:+T:+U:+V:+W:+X:+Y:+y) Dn p, Z:+Zf.`:+P` iQ.w[  <+I0..<++<+@<+#<+$<+%<+&<+&<+*<+=<+-<+>p ;<+^q ><+,<+'<+)<+7k.!<+~<+{<+]<+gX.^<+/<+(<+_<+yg.   ",
"   :<+<<+[<+}<+1T.|<+1<+2<+3<+4<+=$.L' L' 5<+6<+7<+8<+9<+//+0<+&u. [ a<+b<+c<+4_+d<+d<+e<+f<+g<+h<+i<+j<+k<+l<+/*+m<+n<+o<+p<+q<+r<+s<+o<+t<+u<+D1 kV.N2.v<+w<+x<+y<+Tn +*.z<+A<+B<+nx.C<+LC D<+E<+/w.F<+`j.G<+sK H<+I<+J<+K<+L<+M<+%/.Ag.N<+r$ I3 .& O<+h..P<+Q<+R<+S<+T<+U<+A;+V<+ B W<+X<+Y<+Z<+`<+ [+.[+.[++[+DA.;).@[+#[+$[+%[+>' &[+*[+ho.a`.=[+'].-[+;[+>[+,[+'[+)[+![+~[+{[+][+^[+/[+([+bF >D _[+:[+:[+/e.<[+[[+}[+59.|[+1[+,..*D in.Wm 2[+3[+4[+5[+6[+KU 7[+8[+9[+0[+a[+b[+|P.c[+d[+e[+f[+g[+h[+i[+j[+k[+l[+m[+n[+o[+p[+q[+r[+X;.s[+t[+u[+l! v[+Tx.i(+w[+x[+]Y y[+*x z[+A[+B[+Xb.C[+D[+oO.:W E[+Vb.F[+G[+`B.H[+I[+J[+aY K[++w.(5.`3.{'.L[+-< M[+N[+O[+P[+Q[+R[+;k.S[+l^+T[+U[+V[+31.W[+X[+Y[+Y[+Z[+`[+ }+.}++}+@}+#i.#}+$}+%}+&}+6%.C3.I| *}+=}+-}+;}+P2.>}+,}+p/.'}+rN.)}+7x PQ.!}+   ",
"   ~}+{}+]}+^}+/}+.0 .0 (}+_}+:}+<}+[}+}}+|}+1}+2}+3}+4}+5}+6}+7}+8}+9}+0}+a}+jh.b}+c}+d}+e}+f}+g}+h}+i}+j}+k}+8) l}+m}+n}+o}+yu._%+o: p}+q}+$J.8;.<7.r}+s}+t}+u}+v}+w}+x}+y}+z}+A}+B}+C}+D}+E}+F}+G}+H}+I}+J}+K}+L}+M}+N}+O}+A;+Jz P}+Q}+R}+DO S}+T}+U}+@W.V}+W}+X}+<%.Y}+Z}+`}+ |+.|++|+@|+#|+$|+%|+%|+&|+*|+*|+=|+-|+U]+l~.;|+>|+,|+'|+)|+@% t!+!|+~|+{|+,u.sy.]|+^|+/|+(|+_|+:|+j/.<|+[|+}|+]d ||+1|+2|+3|+4|+5|+6|+q< 7|+8|+9|+yU 0|+H)+a|+b|+c|+d|+e|+f|+g|+h|+i|+j|+Tb Ke k|+k|+ql |, l|+m|+n|+o|+p|+q|+r|+Mg.s|+t|+u|+v|+w|+x|+y|+z|+f3.A|+B|+PS C|+5/.E(+D|+E|+Eb.y#.F|+G|+N@+H|+;E.=k.I|+J|+K|+L|+D0.#l M|+N|+O|+P|+Q|+nQ.R|+$1 :!+S|+T|+U|+q~+V|+:t.W|+.M.X|+o=.Y|+Z|+`|+]h.p8. 1+.1++1+@1+#1+$1+%1+&1+*1+=1+-1+;1+>1+NJ.QO e@ ,# p+ ,1+'1+)1+bv.!1+P6 ~1+{1+]1+^1+M@.m;+z&+8x /1+   ",
"   (1+x+._1+>0 ~j :1+<1+[1+}1+|1+11+21+/Z 31+MJ Sl.41+51+61+71+81+91+#- 01+a1+x> b1+c1+d1+e1+y> f1+g1+h1+i1+j1+k1+l1+/*+F^ m1+n1+o1+p1+7) `{ rB.D3 z. q1+r1+KC.s1+<@+t1+Ed.u1+=$+v1+w1+x1+y1+z1+A1+B1+C1+D1+E1+F1+G1+H1+I1+Xv J1+K1+L1+R~.M1+X8.y1 N1+w(.O1+P1+Q1+R1+S1+9- T1+Wt.U1+V1+W1+X1+Y0.S$.@_ Y1+Z1+`1+ 2+=[+.2++2+@2+Vu 0F.l_.#2+$2+%2+H4 ni.Ak wN &2+*2+):+=2+L%+-2+;2+>2+,2+'2+)2+}:+PK !2+~2+:6 {2+]2+]n ^2+/2+V(.(2+`(._2+mc m3.:2+<2+[2+}2+je.|2+dX.,y./w.12+22+32+42+52+62+72+82+92+02+a2+b2+c2+d2+e2+f2+g2+h2+i2+j2+k2+.5.l2+m2+n2+o2+pJ I@+p2+q2++r.'*.H, r2+({.s2+t2+~f.u2+ci v2+w2+x2+y2+z2+A2+B2+C2+D2+E2+F2+Da I: y3 =7 G2+w_ H2+I2+tM.J2+;O.K2+L2+M2+ud.N2+O2+-;+P2+Q2+R2+S2+T2+U2+V2+W2+X2+Y2+Z2+`2+ 3+.3++@++3+K4 2H.(>.@3+#3+$3+%3+&3+9^.*3+=3+FF.-3+;3+HQ.>3+Z!.wF    ",
"   ,3+'3+)3+!3+~3+{3+]3+^3+/3+o:+(3+_3+:3+<3+[3+}3+'R |3+13+23+33+33+43+53+63+73+83+93+03+a3+b3+c3+d3+e3+f3+g3+h3+i3+j3+k3+l3+m3+n3+o3+p3+q3+r3+j$ P<.s3+VN.t3+av.u3+nE.:e.v3+w3+x3+y3+%6.z3+rb.d] A3+B3+C3+D3+E3+F3+8W.I6.G3+H3+I3+J3+K3+L3+wh #1 fs M3+N3+O3+P3+Q3+R3+S3+.L T3+U3+V3+W3+X3+Y3+Z3+`3+ 4+.4++4+@4+Y* ] +#4+$4+%4+&4+*4+=4+-4+;4+>Q >4+,4+'4+)4+up.!4+~4+{4+]4+^4+/4+(4+_4+:4+<4+[4+}4+|4+14+24+34+44+$$+54+64+74+zh 84+P~+r3 K% 5m.94+04+a4+b4+c4+6<.d4+KU e4+f4+g4+h4+i4+j4+k4+l4+m4+n4+o4+p4+q4+r4+s4+t4+u4+v4+w4+x4+y4+!Q 3!+o_.fv.z4+K=+A4+4U.6^.B4+rh C4+41.D4+E4+F4+G4+H4+I4+J4+$e.K4+L4+WM.:T M4+2t.N4+O4+P4+c3.@$ 9c Q4+R4+>].J[ S4+`P.T4+U4+V4+W4+UD X4+Y4+Z4+`4+ 5+.5++5+KS lh @5+#5+$5+%5+&5+*5+=5+-5+;5+02.Hr X8.>5+,5+'5+)5+!5+~5+H0 }B.9= {5+]5+2- px.^5+Fg /5+   ",
"   (5+_5+UX :5+<5+[5+*^.}5+|5+|5+|5+15+|5+25+35+45+rt 55+65+75+85+95+05+a5+b5+c5+d5+e5+j6 f5+g5+h5+KH i5+j5+12.qt.k5+l5+m5+n5+o5+h8 p5+q5+r5+s5+]o b;.^  #`.RF.1. t5+8|.dI.u5+v5+w5+D% E% x5+y5+z5+A5+B5+C5+D5+E5+F5+G5+H5+v*.e{.vh I5+J5++>.Z+ $@ K5+L5+M5+N5+O5+P5+Q5+^t P3.R5+S5+T5+U5+V5+W5+X5+Y5+u,.Z5+`5+ 6+.6++6+@6+J5+#6+No.$6+%6+&6+`5 Xc *6+8e.=6+x< OK -6+;6+>6+,6+'6+)6+!6+lk ~6+{6+]6+^6+/6+(6+_6+:6+]!+#p kO.T5.2o.<6+[6+U$ }6+|6+16+I% h$.e{.MZ.;q.9.+QC.V4 26+J]+:).3C.36+46+&Q 56+66+76+86+96+06+a6+b6+c6+V_+d6+e6+f6+35.<n.<v N0 d3 g6+h6+i6+b1.j6+k6+'6.l6+UW.B`.~m m6+h).n6+o6+p6+O/ q6+]y r6+s6+t6+u6+*, v6+w6+1n.-5 <8 x6+g8 y6+z6+A6+B6+C6+D6+E6+VM &{+F6+G6+H6+I6+YH J6+K6+L6+M6+N6+O6+P6+q_.Q6+R6+S6+T6+[P S/ ,r ;# dJ.U6+Ww.V6+W6+X6+aO.Y6+Z6+`6+ 7+.7++7+@7+#7+$7+   ",
"   %7+0c @P &7+p! `P *7+h3 h3 d$ L2 p$ Te 8S <  yk.<r FN =7+Es P# 7# H# -7+s@ Y` =3 &2 ;7+`/.14 $1 Oq ^5.35 >7+,7+'7+B$ ea )7+#6 p' !7+~7+{7+Rq 2  3+ |@ X! _4 f& {9 2=.D|.'@ :8 f& `@ FZ.l~+];.]7+^7+F3 /7+Xn.(7+(7+N@ _7+2@ :7+|r Zp h@ e;.<7+;;.[7+4r }7+|7+Rq &# gO gO w# D# D3 8+ pO k;.;C a;.ik.hx.=s c;.z# i2 pr 7O /3 ';.V+ a4 !% )@ kr >p X++iH.17+`s 27+5J.]6 W4.bO 37+6O Ur U+ *@ `N |@ _4 u@ L_ #r K# gO j2 Pq l;.@1 i1.{*.u# y4 Y-.0r eZ.:r D. x1 I3 47+J3 <7+57+oM 67+-;.'@ {;.I1 X! 77+4m (^+ s F# L3 %5.o@ 8. gH.|  D1 D# (# 87+jr dr y4 !% 'r f~+97+q;.w3 c;.}4.hx.9# 07+^5 %O IH n, (s ^>.hm.;M a7+b7+c7+d7+jP.e7+M@ (@ |r kZ./@ f7+`N $s Es p4 o;.Xn.g7+/,.G1 M- u;.P> 4G.$P #& s>.6G.=`.52 h7+_;+=m.i7+j7+k7+`q MO I1 =Q d+ l7+dp m7+5# W6 Rr '- ^4 #,.LO ## QJ Zo.i; PZ.   ",
"   Se 9c 4~+o3 lH.l9 5h.7Z.n  St. P d$ Q4.E$ :~+VZ.Y;.X-.]r #r E!.t@ #r da p@ J# sH.|&.c-.Sr <v !-.1H._{ 6~+p/ Hb.ht $p.Hp..o.&]+Pm.n7+`s f+ ]1 o7+W4 l9 nn _#+p7+Xp RO VF u$ er 5r Rq q7+r7+(# eP 9@ e# u# s7+t7+4;.5@ 41 w3 [;.u7+z@ v7+#%.Qr C4 k@ H3 cp {r M4.{3 9# ^5.m@ w7+d# 5r <P x7+y7+z7+2% s6 A7+x2 xI.B7+A*. 3 Zj.W;.,3 Wm d6.v3.C7+<c.A$ l& &u +O D7+hn.>o.cO ,@ %4.F3 o;.V@ {5 <7.E7+<s F7+<Y.G7+H7+I7+J7+RQ Q3.K7+w*.L7+;M TG.$Z #>.6Q Hs 6~+Ow EM EM M7+$>.FN D4 N7+#c Y)+O7+P7+27.55+BY.JO .6 =@ +2.8h PG Nq 0# Q7+U;. P t$ %3 J3. `.nn R7+S7+ZO z*./5 g7+T7+$P VO +!+U7+V7+W7+Ui M_ v3.X7+Y2 4Q J3.!i.{>.n$ WE._s rq Y7+P{+_{ IH.Z7+nH.`7+q+ D!+%p.<8 Ao.x3 [P m$+ 8+.8++8+@8+#8+$8+eg.rm.%8+}s.fs &8+03.*8+k;.*Q Rq />.}O ;Q =8+-8+;8+$s 8Y.B6.8Y.f7+.$ m  K4.r! :r {*.'@    ",
"   24 >8+@Q ii.,8+'8+)8+!8+:e.][ f1.Yk <G.>1.~8+@w l3.GG.{8+]8+^8+!=./8+)W.(8+*/.^4 _8+Mu :8+<8+[8+}8+qQ.nE.|8+18+28+38+K;+pO.48+58+68+|y.78+88+98+Ce 08+a8+b8+c8+d8+e8+f8+g8+aL {5 h8+s)+i8+j8+k8+l8+'7 m8+n8+o8+).+p8+q8+r8+s8+t8+A/+RQ.u8+Hj.v8+DV.:1.w8+=t Uk.xX.x8+y8+H4 lr [4.{5.z8+A8+B8+C8+eM.D8+E8+F8+G8+H8+I8+'D J8+K8+L8+M8+bg.N8+O8+P8+Q8+S8.v;+R8+S8+M3+T8+U8+V8+W8+!5 t@ X8+Y8+_f.Z8+`8+ 9+r8..9+Tb.+9+@9+#9+hS.$9+%9+-f &9+/i *9+C$.`k u& =9+o$+p*.-9+;9+>9+_G ,9+'9+;1.G8.)9+!9+~9+V%+{9+]9+g8 ^9+/9+(9+_9+:9+h6 <9+*{+i-.[9+d .}9+|9+[Q.HL.19+29+B7 39+49+Jr 59+c{.69+79+89+LG.99+09+a9+b9+c9+|M.d9+ ^.e9+AV.f9+g9+h9+i9+xG.OG j9+k9+l9+m9+n9+o9+DE /t p9+q9+qs.r9+s9+t9+u9+v9+w9+x9+Q{.y9+z9+A9+2U.B9+C9+D9+E9+6C F9+G9+9x zg.H9+'m.>Y !I.I9+q!+Bn.J9+E-.04.K9+L9+M9+N9+O9+   ",
"   ,Y.,Y.P9+Q9+R9+sQ S9+T9+U9+V9+/]+J& W9+Bv.X9+Y9+Z9+`9+HL.jO. 0+.0+8B.+0+@0+#0+Zo.$0+%0+th th &0+*0+lu =0+2f.-0+;0+v:.>0+,0+'0+gi )0+!0+~0+{0+]0+5L ^0+/0+(0+_0+:0+<0+[0+}0+44 @p |0+10+w(+/L.20+30+40+50+60+70+80+90+00+a0+b0+q[.]L.J& B[+yn Et.c0+d0+e0+f0+zh.g0+h0+i0+j0+l2+6# ;7 k0+l0+m0+xO.H9.n0+o0+p0+=) q0+r0+s0+A>+t0+u0+G( v0+w0+x0+y0+z0+A0+B0+8S.b7 C0+D0+E0+g$ )`.9O F0+G0+H0+-F.I0+J0+K0+#b Xw L0+M0+N0+O0+P0+Q0+Qb.Qb.ca.ca.u(+R0+LJ S0+T0+U0+3^ i^.V0+W0+!i.X0+Y0+Z0+`0+ a+.a++a+@a+#a+D)+$a+%a+&a+*a+=a+-a+;a+>a+I5.YW.,a+'a+)a+.d.!a+~a+^M {a+]a+^a+]6 W+ O. YJ xH v/./a+AL x7+(a+_a+:a+JL.<a+2.+n^.Qx [a+}a+|a+1a+2a+}3+4v.F`.j0+DG.7g.3a+R,+lS.4a+LQ 5a+6a+7a+[(+8a+9a+0a+aa+Bs.ba+ca+qD.da+WK.ea+fa+ga+ha+ia+ja+ka+;T la+ma+6B.na+oa+pa+qa+^, .2 J0 05.K9+ra+sa+ta+ua+   ",
"   va+wa+V1+FK.uL xa+9e.ya+za+Aa+Ba+m*.%A 9] Ca+}{.79+SP.5(.Da+Ea+Fa+Ga+Ha+Ia+Ja+[  Ka+,4+La+oV.Ma+u^+Na+Oa+Pa+Qa+Ra+Sa+Ta+gd Ua+Va+Wa+Xa+Ya+Za+`a+ b+.b++b+@b+#b+$b+%b+&b+*b+=b+>I.-b+;b+>b+,b+'b+)b+$b !b+~b+{b+]b+^b+n(+;b /b+f8.(b+_b+:b+<b+[b+A:+}b+|b+1b+{0.2b+3b+4b+AO.M3.z%.5b+6b+7b+8b+9b+0b+ab+v| bb+cb+db+eb+fb+gb+7).hb+ib+jb+aa c'+kb+kb+lb+mb+nb+ob+pb+Ce.qb+Fj.]9 ]2 1{ rb+sb+tb+f&.Yd ub+vb+wb+xb+yb+7+.zb+aY Ab+Bb+Cb+Db+4).Eb++(.Fb+Gb+Hb+Ib+Jb+}B.Kb+H=.+3 Lb+3j.xA B< Mb+Nb+Ob+Pb+bf.Qb+Rb+Sb+:V.C< Tb+Ub+j7.Vb+Wb+Xb+C_.=d Yb+Zb+`b+O[  c+.c++c+@c+#c+$c+{% Q3.KN /N %c+PK.&c+*c+-C |C =c+-c+;c+>c+,c+'c+)c+!c+~c+{c+^I.]c+-=.^c+/c+#7 (c+_c+:c+<c+em [c+}c+|c+1c+2c+3c+4c+5c+6c+7c+8c+0F.)^.9c+G0+0c+ac+bc+g2+cc+dc+ec+fc+gc+hc+#/.ic+jc+kc+lc+mc+8h nc+oc+pc+qc+rc+sc+   ",
"   tc+uc+Wu o9.F1.vc+T- A_.En wc+xc+yc+zc+rC Ac+Ac+Bc+6H Cc+ox Dc+Ec+Fc+Gc+g^.Hc+Hb.)1+Ic+Jc+Kc+Lc+ZE.Mc+Nc+Oc+[, z .@X.Pc+Qc+Rc+Sc+Tc+Uc+Vc+Wc+Xc+li Yc+Zc+D+.`c+K{ Gc.B0  d+ti.D@ .d++d+@d+#d+9Y $d+%d+&d+0, *d+=d+-d+;d+>d+y:+,d+'d+~i.)d+W/.!d+~d+{d+]d+}g of.^d+/d+(d+_d+:d+C5 f1.<d+[d+x$.M{ }d+&E.|d+1d+2d+3d+4d+5d+6d+7d+8d+9d+4l @f.s@.0d+ad+,c w(.bd+cd+dd+ed+fd+=y 2r z6+gd+hL uN hd+id+QB Nl s- jd+kd+.e.B$.Db+ld+md+`$+nd+od+'> pd+qd+rd+$C sd+Xa 90 A9 td+ud+Lc.vd+!^+'$+wd+xd+yd+zd+;[ iM Ad+Bd+Cd+Dd+Ed+Fd+!8+Gd+{y Hd+R +Id+Jd+T!.Id+iM.Kd+Ld+Md+1g.Nd+.(+Sr Eg ^q Od+Pd+Lh BG.Qd+Rd+Sd+=6+Td+iN !c j}.Ud+Vd+Wd+Xd+Yd+Zd+cE.`d+ e+.e++e+@e+#e+p5.$e+#!.64 A5.+3.ke.%e+&e+G}.*e+=e+-e+;e+th.J- ^0 >e+,e+_U 'e+)e+!e+~e+{e+]e+^e+/e+(e+_e+:e+<e+r` [e+-0.Sq Pp }e+|e+1e+2e+3e+   ",
"   4e+5e+wQ 6e+9g H|+ C ;:.7e+8e+9e+B%+F.+0e+ae+be+ce+de+dd.CJ ee+fe+ge+X7.he+ie+TN je+ke+le+Le me+Nc+ne+oe+!V.pe+z .z .o$.cz qe+re+se+te+ue+ve+we+xe+ye+ze+3/ Ae+Be+Ce+[, De+Ee+k  Fe+Ge+Zn He+f,+Ie+Je+Ke+Le+Me+Ne+Oe+Pe+Qe+Re+Se+Te+*{.Ue+t1+*/ k>+)d+Ve+We+Xe+Ye+Ze+`e+ f+.f++-+69++f+@f+#f+xR.$f+%f+]0+&f+8).*f+ b.=f+-f+;f+>f+,f+F9 'f+)f+!f+xx ~f+69.{f+4g v0 ]f+EL.yI.47+@c )g.^f+/f+(f+_f+:f+o(+z6 [3.x~ <f+dU.[f+$*.}f+|f+1f+2f+3f+3f+4f+x).5f+6f+7f+8f+P( 9f+aq A$ 0f+af+bf+cf+df+^F.ef+ff+gf+hf+if+I[.jf+kf+@#+lf+mf+U'.G, nf+qM.of+0g.pf+qf+rf+sf+],+GS.tf+!$ ,Q 21 r6.eR.uf+vf+Pl.wf+_5 xf+yf+K< zf+}h Af+~(+Bf+Cf+G-+~F Df+v5.Ef+Ff+Gf+Hf+If+Jf+g.+Kf+Lf+72 Mf+Nf+Of+Pf+Qf+Rf+Sf+Tf+Uf+Vf+Wf+Xf+Yf+Zf+`f+ g+WJ .g+').+g+Ds.@g+#g+$g+%g+ /.1_.&g+*g+=g+F-+0;.}e+}e+-g+;g+>g+,g+   ",
"   'g+,'.)g+!g+~g+{g+;> ]g+^g+`h./g+(g+_g+:g+<g+[g+}g+|g+1g+2g+g++3g+4g+5g+g0+6g+,0.pi.7g+8g+9g+l- Mc+0g+Nc+ag+bg+Be+cg+z .31+dg+eg+7d fg+gg+hg+xe+ig+jg+kg+lg+k[+mg+ng+:1+lH qm.7n.Yo.og+pg+qg+rg+sg+tg+70.ug+*s.%s.vg+wg+xg+yg+zg+NB.Ag+Bg+Cg+Dg+Mn Eg+Fg+Gg+Hg+Ig+EQ ts.Jg+%>./X Kg+;f+aY Lg+Mg+Ng+ne+Og+c]+Pg+,0+Qg+Rg+ii Sg+Tg+/> Ug+Vg+Wg+Xg+r+.r+.qd Yg+Zg+K,+`g+ h+.h+S@ 4$ PC -/++h+@h+#h+<0 $h+%h+E4+=g.,u.UW &h+*h+=h+-h+;h+:j.>h+,h+f1.'h+S& )h+!h+~h+{h+pQ ]h+m& ^h+/h+I~ @f.>$+(h+_h+:v.:h+<h+!7.[h+}h+|h+f .1h+2h+3h+)=+4h+qM.VT.T!.5h+rQ.6h+7h+8h+9h+,/ 0h+E!.Z2 ah+bh+ch+V2 64 qO 6n.dh+dY eh+1_ fh+gh+Wd+Y<.#8 7^ $0+~[.Te hh+uZ.u3 d;.4P ih+jh+kh+lh+;7 mh+nh+oh+ph+qh+rh+sh+th+uh+wd vh+wh+xh+t{ yh+zh+Ah+Bh+Ch+r&+Dh+Eh+Fh+d<.hc+ /../.&g+Gh+Hh+Ih+Qr p4.Jh+Kh+Lh+Mh+Nh+   ",
"   Oh+Ph+Qh+Rh+C|+Sh+Th+Uh+dw.Vh+-E.'> [T od+Wh+xT Xh+Yh+Zh+`h+ i+.i++i+@i+#i+o9+Tq 7C.$i+Qa+Qa+Qa+%i+&i+*i+=i+-i+;i+>i+,i+'i+)i+!i+~i+{i+]i+^i+Re.>i+/i+(i+_i+:i+<i+[i+[i+}i+|i+D# 1i+a{ 2i+tw.w-+3i+C2+`:+4i+{5+5i+6i+7i+8i+9i+ x 0i+vc+L,+Bb.y}+ai+F@+[v.a8.bi+ci+di+ei+fi+gi+/;.hi+ii+ji+ki+li+mi+ni+E@.oi+(L hu pi+^_ qi+ri+si+ti+ui+ui+IM.vi+o'+WB wi+cJ Un N, xi+=b H:.nv dm yi+#X.zi+u:.Ta.gS.&: Ai+Bi+5:+Ci+Di+Ei+Fi+Gi+Hi+_-.Ii+Ji+Ki+rL Li+Mi+Ni+Oi+Pi+Qi+Ri+r).^  *. Si+Ti+'i Ui+Vi+Wi+Xi+Yi+Zi+`i+ j+.j++j+@j+#j+$j+%j+&j+S& r7.*j+=j+-j+X1+;j+>j+,j+A(.'j+)j+!j+C[ 8Z.k1 92 LI.~j+:@ /,.{j+]j+^j+/j+&_ 0h.(j+_j+:j+<j+[j+V5.}j+|j+p9+1j+2j+b~+sO 25.3j+4j+=7 5j+6j+7j+20 8j+9j+0j+aj+bj+cj+dj+ej+fj+gj+hj+ij+qn jj+A1+u~.kj+lj+9z.mj+nj+oj+xV pj+F: qj+rj+m@ sj+tj+uj+vj+wj+xj+   ",
"   t0.yj+}}.9V.zj+Aj+Bj+Cj+Dj+If.S6.Ej+Fj+w).Gj+Hj+Xf Ij+^N.!f.Jj+m^+Kj+Lj+Mj+Nj+j$ Oj+Pj+Qj+Rj+Sj+Tj+Uj+Vj+Wj+Xj+Yj+Zj+`j+ k+.k+.k++k+@k+#k+~8 $k+$x $x *b+%k+&k+*k+=k+-k+;k+{o G3 F7+>k+,k+'k+)k+!k+Oz._m ~k+{k+]k+ZD ^k+/k+Ae (k+_k+:k+<k+B_+[k+A4+}k+U,+|k+1k+2k+O{+3k+t;.T1 .6 5@ >8+4k+5k+6k+7k+8k+Ma 9k+pi+wg+0k+7#+ak+<d+bk+ck+UK dk+ek+fk+^f qy.Ud+gk+hk+ik+jk+kk+lk+24.c;.66+mk+nk+ok+(t.W/ pk+h{ |^ C&.e^ qk+sQ.rk+gM.6[ sk+tk+uk+vk+wk+)F uf+Pu {F xk+x@+yk+eE.P# zk+Ak+jI.Bk+Ck+Dk+Ek+Fk+Gk+Hk+Ik+Jk+|| HA Kk+Lk+Mk+Nk+Ok+Pk+2N Qk+Rk+Sk+Tk+Uk+@|.Vk+%$+Wk+0;.%@ dH 6~+6| Xk+@+ AH.yn.B6.Yk+Zk+`k+ l+.l++l+@l+#l+$l+ZJ uX.(>.AO @,.H# .2 %l+If If p# Op p4 Ft W5 &l+*l+=l+-l+;l+>l+,l+'l+x@+IG )l+Ph.B:+Bc+!l+~l+{l+]l+^l+/l+(l+_l+:l+<l+[l+}l+QO Cp |l+aL e3 `N 1l+2l+3l+4l+5l+   ",
"   {% :!+n  Ix.Jl.S5.6l+7l+8l+9l+0l+&+ yq 1o.al+RQ F5+bl+EN cl+hi.dl+4.+el+fl+gl+hl+wZ.il+jl+kl+ll+ml+nl+O<+Ff.'q.ol+pl+ql+Xt rl+!=.sl+!- At Sl.DG.tl+3d.(=.P4 ul+R> vl+wl+ 5 )r [r 4r xl+yl+qX zl+Al+Bl+Cl+Dl+El+Fl+Gl+Hl+|G.Il+W) UN *& Jl+Kl+Ll+Ml+Nl+Nl+&>.Qr s@ Ol+Pl+t# pr z;.)@ v# 81 Z)+Ql+=+ Rl+Sl+Tl+ee.Ul+Vl+Wl+&o.Xl+Yl+1m.Zl+`l+ m+{_ 17+.m+Ls Q..8Q +m+$Q i4.@m+x1 #1 ]~+#m+$m+e( |!+%m+;2.{Y.&m+*m+=m+-m+;m+{u x+ ;M >m+0`.,m+|H._  q$ q$ IK G3.}#.42 'm+c$ )% 5+ )m+a# TP.J4.N+ {Q Xq !m+E$ 5~+S% ~m+55.o>.cH.{m+]m+^m+$>.d1 p3 ;a b;.=5./m+q7 cG.gH.0r (m+oo.b4 -7 !@ !r *@ Wo.2r I1 xr _m+:m+M. (,.@-.<m+(s 81 [m+8~+}m+DZ.sH.I1 -7 iP jP z+ vr 9r zo.7G.`5 X7+|m+cZ.4Q }2 1m+2m+3m+!3 4m+5m+L. ZO 6m+7m+'>.S| 8m+)H.V$ DO [] 07+=-.9m+m3.0m+am+I3 '# L$ a4 bm+cm+#P !H.Hs    ",
"   FO Ud.$3 cN em Gl.f2 ]3 {# {5 9P /# s3 dn.dr 9@ 9@ @1 kP kP kP ,2 5P dm+em+sH.fm+]3 5u c@ T~.U3 C4 k@ 5r #1 '@ E# (3.)p gm+,3 }2 _V.!m+T% `p q!+C4.hm+Is {2 t3 5P Sr #O m;.(4 }@ 2  Fs 9O im+)I.jm+(5 7@ km+lm+~j+5  8~+U@ mm+)# W+ `N (# l@ nm+BH.om+pm+kP pO #1 qm+rm+P1 i*.m  )5 m  v# {2 c$ _s {5 Zp ik.`;.;5.K# ]P <r J2 Z@  # Qq 3~+M4.nM lP i2 Dr G1 ]P sm+l;.tm+um+vm+wm+xm+04 T;.9O =4 ym+zm+U-.d* &s Th.gP Am+3+ O@ jP (4 pO f2 Pq Y@ !Q a4 V+ H3 [r C3 ^w B4 &;.N1 m@ ^O ]3 5r -# pr F;.D# L1 X! k@ cr Cr u# ~# VN f& A;.N@ D3 Bm+f& 'r  $ P1 x# (# 31 }@ <8 Dn.y3 6@ 5@ Z@ 8# <r 2r J+ dr a5.Cm+iO %l+HO gO i2 +$ hr Es d# y3 _@ 92.2=.Vr 6@ /3 JO Rq  % w@ Dm+ D r0.gs ,Q BO Em+{_.0# Fm+Xc kO Gm+Hm+nj '# 2Z.Y% >Q .>.sH.>5.o).Im+Kr Jm+p3 Km+Lm+Mm+dr V% ]P ]H.4r -O cp 4r    ",
"   Nm+*j+Om+Pm+J= pr +$ pm.Us Qm+3$ 4Z.Rm+z~+62 Rm.42 94.42 gm Sm+*4 X++w1 Tm+g,.5% Um+.% Vm+np Wm+Xm+}v Ym+%p.S+ P# g4 Z>+Zm+`m+yI m&. n+<-+.n+4,.+n+[6+@n+bh+#n+$n+%n+&n++p ;  C6.tq *n+=n+45.I# yk.i2 -n+;n+>n+Dn.,n+'n+)n+!n+~n+{n+]n+O4 xB.hi+Oh+^n+/n+(n+g< _n+EY.:n+<n+[n+}n+36+kQ |n+1n+j9+_t 2n+I4 )5 -;.~5.3n+4n+{% s% 5n+6n+7n+cc Ho 8n+9n+0n+an+bn+cn+dn+en+fn+gn+gn+hn+;- in+~A.jn+kn+qS e6.Nq y1 ,# ln+mn+nn+on+:. pn+L7+->.qn+J*.rn+sn+o3.Q0.tn+un+B% vn+wn+t  xn+dn+yn+zn+;. Lo An+Bn+l9 c;.lP ym.Lq Cn+Ts UP.Dn+sX.En+(o.J7+Fn+ot {& [7.Gn+Hn+In+PF.]Z.Jn+Kn+Ln+ps *+ Mn+Nn+On+Pn+$6+]5 p;.AH.~1 Qn+Rn+Sn+Tn+Un+Vn+*} 6`.Wn+Xn+Yn+Zn+`n+ o+.o++o+@o+#o+$o+%o+&o+*o+=o+-o+;o+>o+,o+ri ]r N+ 'o+)o+!o+~o+{o+]o+^o+O3./o+(o+_o+:o+Xn+;y.QQ <o+[o+}o+|o+1o+2o+3o+4o+5o+6o+7o+YN    ",
"   Ak <) lL 8o+9o+nv s@ 0o+ao+bo+co+`%.do+eo+fo+l!.go+ho+ho+io+jo+s~.ko+lo+i..mo+no+oo+po+qo+ro+;G so+to+:e. !.ov ,H.C: uo+vo+wo+xo+yo+zo+Ao+Bo+wF *x.Co+Do+Eo+Fo+{-.;h.Go+Ho+f(.Io+Jo+Ko+Lo+E0+7g.Mo+No+&8+Oo+jt :@ HQ Po+Qo+Ro+s7 So+To+Uo+Vo+#*+Wo+VJ Xo+Yo+Zo+JR `o+ p+.p++p+@p+#p+$p+%p+&p+*p+7; =p+e{.o@ cn.-p+;p+>p+,p+'p+)p+!p+~p+{p+]p+56 ^p+/p+(p+C/ _p+:p+<p+[p+}p+|p+1p+2p+3p+4p+5p+6p+7p+8p+9p+0p+8I.ap+bp+cp+dp+zq.3W ep+fp+54+gp+hp+ip+oR.jp+qy.kp+-o+lp+mp+.;+np+op+pp+qp+rp+sp+tp+Co+$~ nj :K.x^.@(+LO.v8.]c up+8| 2+.uE vp+wp+68. (+xp+yp+zp+Ap+Bp+Cp+Dp+Ep+Fp+Gp+Hp+Ip+Jp+m&.Kp+Lp+VO `/.l@ Mp+Np+Op+Pp+Qp+Rp+Sp+Tp+Up+Vp+Vp+Wp+Xp+Yp+Zp+`p+'/  q+[9+.q++q+:i.@q+#q+$q+qu RB %q+&q+To *q+~N =q+-q+;q+>q+,q+'q+)q+!q+`( %~ ~q+{q+]q+^q+/q+nc.(q+_q+:q+Aq <q+[q+}q+|q+1q+2q+   ",
"   3q+4q+e^ 5q+6q+Oq A$ 7A 7q+;r.=3.L; 8q+9q+P}+0q+aq+bq+cq+dq+eq+fq+aq+ke gq+Oj+RG Ac+B9+hq+iq+jq+kq+lq+mq+U&+Y% &5.nq+mo+QP.<Q.oq+pq+qq+rq+sq+tq+uq+oI RC vq+;$.wq+xq+yq+zq+8O.Aq+Bq+Cq+Dq+RW Eq+Fq+Gq+Hq+Iq+n8 Jq+qy Kq+Lq+Mq+Nq+Oq+Pq+Qq+GW Q .Rq+Sq+(g Tq+Uq+O_ Vq+Wq+Xq+Yq+Zq+`q+ r+.r++r+@r+#r+/(+$r+V3 %r+&r+*r+=r+-r+;r+>r+,r+'r+_V )r+jf+tm !r+~r+Gw {r+]r+^r+/r+(r+_r+:r+<r+[r+}r+|r+1r+2r+3r+4r+DO xG.5r+e#+6r+7r+8r+Wa.9r+0r+ar+ar+br+cr+dr+Bu er+gk+QG fr+ ;+gr+hr+ir+jr+kr+lr+mr+nr+or+pr+qr+;M #<.rr+ue sr+tr+X~.ur+vr+wr+|9+<I.xr+yr+zr+Ar+Br+Cr+Dr+Er+R$ Fr+Ne 2W Gr+Hr+Ir+Jr+Kr+Lr+]Y.y3 d4.7q Mr+O(.Nr+Or+Pr+Qr+Rr+'8+Sr+Tr+zU Ur+Vr+59.Wr+Xr+Yr+Zr+`r+;)  s+~j..s++s+eL @s+#s+$s+%s+&s+*s+=s+-s+@a+;s+>s+,s+'s+BD.)s+03+!s+V%+~s+{s+]s+yV ^s+^N /s+n_.(s+_s+:s+<s+[s+}s+   ",
"   &_+|s+1s+2s+3s+4s+-h.43.=J 1i.5s+6s+4z.7s+J@.gO.dy 8s+l,+9s+0s+Yl NU p%+as+4H J;+bs+Bc.cs+ds+es+fs++g gs+G@+&>.&# hs+is+.' js+f(.ks+ls+iC ms+Wa 3h.ns+os+ps+Jb.,<.qs+UW rs+ss+ts+us+vs+ws+xs+ys+zs+As+Bs+Cs+b>.Ds+Es+Fs+Gs+Hs+Is+Js+Ks+Ls+]R._R.D .Ms+Ns+Os+Ps+Qs+Rs+Ss+Ts+Us+Vs+Ws+Xs+Ys+Zs+`s+ t+.t++t+/5./k.@t+#t+$t+%t+&t+1 .*,+*t+=t+hB -t+.l+R+.;t+>t+h) ,t+'t+!s+)t+!t+~t+{t+]t+.- ^t+/t+(t+_t+R7+^+.tk.:t+<t+[t+}t+|t+1t+Aq+2t+3t+4t+5t+6t+7t+8t+9t+0t+at+bt+ct+dt+et+ft+gt+ht+l@+it+jt+kt+lt+mt+D  nt+K,.ot+pt+qt+rt+6^ X0+st+tt+ut+ut+B,.vt+wt+95+0R xt+yt+zt+Cl.At+Pm+Bt+Ct+!g.Dt+Et+Ft+Gt+l;.x6+Ht+It+vJ.Jt+Kt+Lt+Mt+Nt+AW.&j+Ot+3i.)v Pt+Fi+Qt+Rt+St+Tt+p@.7K.Ut+Vt+Wt+Xt+A).vx KO.Yt+Zt+`t+ u+.u++u+@u+#u+$u+%u+&u+*u+=u+-u+;u+>u+&z ,u+'u+)u+!u+~u+{u+T%.]u+^u+/u+(u+_u+:u+   ",
"   'k Mf.}++^D <u+[u+@O }u+|u+7+.g^.D* 1u+2u+3u+4u+RA 5u+6u+7X n(.7u+8u+X:+9u+0u+au+bu+cu+du+He+eu+fu+gu+hu+iu+ju+ku+lu+mu+nu+ou+pu+qu+ru+>e.Qd su+tu+uu+vu+-&+|h wu+xu+yu+ku ss+Ia zu+Au+Bu+Cu+Du+Eu+TE.Fu+Gu+Hu+Iu+Ju+Ku+Lu+Mu+Nu+Ou+Pu+Qu+Ru+Su+Tu+Uu+Nb.Vu+Wu+Xu+Yu+Zu+`u+ v+.v++v+@v+#v+$v+%v+Ag.&v+*v+Lc.@r =v+-v+;v+Wc.Tf.>v+,v+)$+39.'v+)v+!=+!v+~v+ ] {v+uf ua ]v+^v+/v+(v+_v+:v+<v+/{ =N.[v+}v+|v+7z 1v+2U.2v+[$.3v+4v+2&.5v+U%.:,.6v+7v+8v+9v+gh.ti+0v+av+bv+cv+dv+_u+yo+0x ev+J].fv+O{.T) gv+hv+t1 iv+jv+Ql+kv+P~+lv+IL mv+'m nv+5Y.#l+#l+ov+j-.P8+pv+qv+rv+sv+1m tv+uv+vv+:; &D c).wv+`` xv+cm+yv+zv+Av+Bv+uJ.Cv+Dv+qh.)<.Ev+Fv+Gv+Hv+Iv+Jv+ru Kv+-J *g.2++Lv+1v.av+Mv+Nv+Ov+2,+Pv+Qv+Rv+7h Sv+Tv+Uv+Vv+Wv+Xv+Yv+Zv+`v+ w+.w++w+@w+_K ^r.#w+$w+T1+%w+U6.lE.&w+*w+=w+-w+;w+>w+,w+   ",
"   V[+'w+)w+!w+t* <O [3 ~w+{w+O(+]w+^w+/w+(w+_w+:w+;I <w+[w+}w+|w+-e+1w+2w+3w+4w+5w+6w+7w+8w+9w+0w+aw+bw+=o `E cw+dw+ew+fw+gw+hw+OR iw+/t.jw+kw+lw+mw+nw+ow+pw+qw+rw+B++sw+tw+uw+vw+N9..x ww+xw+s2+yw+T|+zw+Aw++-.Bw+Cw+Dw+Ew+Fw+Gw+Hw+UR Iw+yR.Jw+@j Kw+!R.Lw+Mw+Z9 Nw+Ow+Pw+Qw+Rw+Sw+Tw+Uw+Vw+Ww+Xw+:j Yw+z@ I3 Zw+`w+ x+.x+;O.z_++x+@x+#x+*] +f $x+%x+&x+uu.Ca *x+6k.=x+Aw -x+;x+>x+,x+'x+)x+!x+!x+~x+{x+f5.pJ ]x+tA ZQ ^x+/x+(x+_x+.T.:x+<x+-_ [x+3$.}x+|x+1x+2x+5] o{+3x+@q on 4x+5x+6x+7x+8x+9x+0x+s3.]m+eh 6s 3c ax+bx+cx+dx+ex+fx+gx+hx+jY.ix+xz./M jx+{h kx+kx+lx+mx+Ii+vr.nx+ox+px+qx+rx+sx+L-.f& p!+tx+ux+Uw.vx+ud @C wx+wx+xx+yx+zx+qD zN Ax+5d+Bx+Cx+a| Gj -J 0v+Dx+Ex+Fx+Gx+.k+Hx+o| )..Ix+Jx+Kx+Lx+wl+Mx+Nx+Ox+7_ Px+Qx+Rx+$-+Sx+Tx+Ux+Vx+Wx+/] Xx+Yx+pt+Zx+`x+ y+.y++y+@y+#y+   ",
"   $y+%y+&y+*y+=y+g- f;.@1.od+I.+-y+by ;y+>y+8q+,y+'y+)y+!y+~y+gx.{y+ C ]y+^y+/y+F2+(y+&g ;/+_y+!o :y+<y+O' xV.Ct /3 :_.[y+wJ }y+|y+1y+[M.2y+3y+`m+lO.K~+4y+5y+6y+lS.tN 7y+8y+9y+P1+SH 0y+ay+pE by+cy+dy+Nk.iO.4`.ey+fy+gy+hy+iy+jy+ky+ly+my+ny+oy+@0 py+qy+ry+sy+ty+uy+vy+wy+xy+yy+zy+9..Ay+~!.By+Cy+Dy+Ey+^3 Fy+Gy+Hy+Iy+Jy+Ky+Ly+~=+My+/d Ny+'&+Oy+Py+Qy+Ry++^+Sy+#, Ty+Uy+%U mb.Vy+wB Ax.Wy+Xy+Yy+Zy+#Q.&I.`~+`y+ z+.z+Xz qW.|O.+z+@z+B[ #z+$z+6/+%z+&z+gh+*z+;j.kZ *q Wg.=z+s= -z+;z+>z+,z+'z+)z+!z+~z+{z+]z+O,.ax+<q.|C ^z+,c+/z+(z+_z+:z+qp.<z+)c [z+}z+nt+|z+|z+1z+2z+3z+4z+5z+6z+*j+7z+7z+8z+a1.D1 <  9z+0z+az+bz+#{.cz+dz+dz+ez+|h Aq+fz+gz+hz+iz+6b jz+kz+lz+mz+nz+ou oz+pz+`_ Ov+qz+rz+yV.`% nn+sz+IT.@S.tz+#j+I++#^+uz+vz+wz+xz+yz+zz+Az+Bz+Cz+_9.Dz+Ez+r9+Fz+Gz+P].Hz+*v+Iz+Jz+   ",
"   Kz+Lz+Mz+Nz+Oz+i4.-7 Pz+Qz+Rz+Sz+Tz+Uz+D~ Vz+Wz+Xz+Yz+Zz+`z+ A+r- .A++A+@A+#A+UB $A+%A+&A+*A+>b Ji =A+-A+;F ;A+k;.[y+>A+,A+$p+'A+)A+v{+S(._k+m1.!A+p^ ~A+n}.CC {A+]A+{s+^A+/A+(A+uc JG TN._A+:A+<A+[A+0m }A+#`.Wm |A+1A+ze.2A+3A+4A+5A+6A+e..7A+uh+8A+9A+0A+aA+bA+cA+dA+eA+fA+gA+OF dy Q) A&+hA+iA+jA+kA+^3 Y=.lA+mA+nA+k0.oA+Aa US.pA+qA+rA+sA+$f [: tA+uA+/f.vA+wA+^[+xA+yA+zA+AA+BA+CA+DA+Z1+EA+FA+GA+HA+IA+ &.JA+KA+LA+MA+NA+x] OA+PA+RB.|'.@;+QA+QA+RA+1W.T~ 2e.SA+N<+TA+UA+VA+WA+XA+YA+ZA+`A+ B+.B++B+n9.!| gP.@B+#B+$B+,c+%B+&B+*B+:z+=B+-B+]J ;B+^J >B+,B+'B+]m.M,.)B+!B+~B+{B+]B+^B+/B+(B+-q eZ._B+dt.:B+V(.p5.3U.c}.<B+[B+<B+Hx+=_ }B+|B+1B+2B+3B+c{ 9#+4B+4B+5B+6B+7B+8B+9B+4B+ms+V3+0B+}~+aB+bB+cB+dB+5y eB+fB+gB+hB+iB+jB+kB+lB+mB+nB+oB+pB+qB+rB+D^.sB+tB+A^.uB+|C vB+wB+xB+   ",
"   Qq.yB+zB+AB+'& +2.Q<.BB+CB+DB+v~.EB+Nl.FB+GB+nY.HB+YL IB+F$+VN.Mi+JB+cf.B).w6 KB+NS.o9.L-.LB+X2.MB+7A NB+G2 OB+~!+xB.PB+gi.eI.QB+RB+SB+TB+UB+*o+]h VB+WB+S8.q0 XB+_) fI.YB+#) ZB+`B+ C+1o+ #.uX.0D.It BO D@ .C+m$ +C+@C+2S #C+$C+%C+&C+F7.*C+=C+-C+|x ;C+>C+,C+]n+I1.'C+)C+!C+~C+{C+]C+$~ !3 ^C+,=.r6.)& /C+(C+_C+:C+4p <C+[C+}C+|C+1C+2C+3C+4C+H6+5C+6C+7C+Sq.Z)+8C+zO.$z 9C+BY.;% L% bp 0C+o<.nn aC+ & {# kG.%;.4;.Pr /3 bC+cC+C5 lP :5 o8 t5+dC+eC+*B+fC+gC+hC+iC+P| |!+,5 jC+kC+lC+mC+nC+oC+pC+qC+DZ.o;.rC+W& sC+h< $M tC+uC+vC+wC+xC+P).xh yC+zC+AC+BC+x=.CC+DC+EC+RM FC+GC+HC+k3.IC+JC+KC+LC+;7 nv *[ q^ XH.MC+NC+OC+Pm+PC+ME.Ej K,.Ej QC+RC+SC+TC+2:+UC+7e.VC+WC+XC+YC+Pj ZC+`C+ D+3I.fr A3 qm+,% (e .D++D+@D+Z>+#D+ o+$D+%D+&D+*D+=D+-D+;D+>D+:z+,D+Pk+'D+)D+!D+~D+{D+]D+^D+/D+(D+   ",
"   x;.|,._D+*s :D+N3 l@ <D+b  [D+^..qr .$ 6@ 5P F4 2Z.mP ;H.d+ z4 Zr yk.v4 |n.N9+`o.z++}D+D5./3 X8.QJ Qr I4 2  pO m  j3 i>.]  L_ u@ Qn.EO w3.m3.gH.-& &u Fs #r I4 14 7@ l@ =@ $s d# $s F# {*.G@ GY lr (S [4.S+ cp G3 Q<.<r ;# wm ,% 3+  $ k  m;.rO `N F# en.uH.|D+1D+2D+gO Dr o# %& !# nj [O 3D+4D+i~+5D+=# X! LP 4r >r 6c Ir =# u4.E@ 6D+)Q e`.Ln.ov 3+ L$ 7D+0n.f& Vr <r ^~+8D+9D+mH.2n.0D+<4 mH.c# aD+(C+G3 L1 L1 jr 9+ bD+cD+gs 6O zI ;8.7t.T^ #& dD+^h+tc a;.X6 aO /s Q3 Vq 6G.5m+9t (& [. st ^+.V{+dr S# Dr eD+fD+mj gD+d  <2 %1 44 p7+St.)1 #6 Q> {Q Fs M4.{r E# yk.}5.)0 fr fr M4.14 H# m;.Rr ir D3 {r {2 hD+(3 .F 3F ~T  4.+r da {5 V] Vq <v 45.t1 o<.*u !i.c  l4 8Z.iD+mO R3 jD+Z$ ==.kD+lD+mD+o).MO ^s v7+>!+<n.nD+DH.k  oD+&. !@ =O ~r n;.u2.@,.8@ D4 fW.MQ m..aI.'Q S3 pD+qD+rD+   ",
"   @1 /4 l;.lP sD+tD+u/.uD+vD+;0.wD+xD+aP.yD+v$ nm+Q<.D# V@ j@ Ir `@ !@ Cy aO E!.[] D5.yZ ~z+KH.zD+{Q ,H.3F zD+a5 AD+Y3.%4 Jo.0m.BD+CD+DD+-& ]# ## m  =# wm 98.j& Fs oO d+ d& 2P ED+;5.KO D@ FD+R% ;Q n( /r &# :v GD+K;.J2 gO Pq X@ P# ]P y3 C# (# i@ HD+Xq {z+*[ =s B3 vm Zr )5 V1 6D+<3 cC+ID+JD+KD+LD+MD+ND+OD+PD+l9 ]{.QD+9Z.k>.;O g~+RD+SD+k;.To fp O3 TD+da d1 -7 ;a u@  r Sq }3 /5 k3 UD+c1 VD+WD+Jo./4.XD+e!+YD+ZD+`D+ E+`J .E+-& X! G3 X!  r nj qZ.T+ 6# X@ j& p@ 45 9# 1  #O -* }3 D4 qq !r ]o F;.{r $1 `p <8 31 6@ `p &# <n.pr 5@ %@ +E+@E+6%.z@ T~.8# HZ.A# DH.DH.D} C# #E+$E+%E+&E+Ks _#+;% *E+=E+-E+;E+>E+,E+'E+)E+!E+55 {# |# ~E+{E+]E+^E+/E+(E+_E+HI.:E+<E+r6.[E+-  }E+cE.|E+-)+1E+2E+}&.u<+6% 94.3E+93 P{+p7+V5 b-.<r %@ hr 8~+5O 4E+1m+,1 H# Q4.'Y.5E+{. fB cY 6E+7E+6I.st    ",
"   8E+9E+7 +0E+aE+bE+cE+dE+eE+fE+gE+hE+hA+Is.iE+6@ D5 jE+kE+lE+mE+nE+oE+pE+qE+rE+c6 sE+U}.tE+uE+vE+wE+xE+yE+zE+AE+BE+CE+DE+EE+FE+GE+HE+p5+IE+JE+lO /5 32 KE+LE+ME+NE+OE+PE+QE+RE+SE+TE+UE+VE+WE+XE+YE+ZE+`E+ F+.F++F+@F+#F+$F+%F+&F+*F+=F+G,./5.T@ Vm.7`.Wn+-F+;F+>F+,F+'F+)F+!F+~F+{F+]F+^6+ 6+u' ^F+1v /F+(F+v +_F+ D+:F+:K <F+US.[F+Y4.oD+qZ.}F+k{+VD.|F+1F+2F+3F+4F+5F+6F+7F+8F+9F+0F+aF+bF+cF+dF+eF+fF+gF+hF+>2+iF+jF+Q!.(d kF+lF+1$ gs -;.HH.mF+nF+oF+pF+qF+rF+sF+tF+uF+vF+tl.wF+9M.xF+%@+yF+zF+AF+BF+CF+DF+EF+FF+GF+HF+IF+JF+KF+%1 (S C3 q+ LF+fI.'N MF+NF+OF+PF+QF+RF+a=.u<.SF+TF+UF+VF+WF+L,+dv XF+YF+ZF+`F+ G+.G++G+@G+[~.6L.;5.J4.#G+$G+%G+[-+&G+>'+*G+=G+-G+;G+>G+N#+o0+4B ,G+'G+)G+Ut+!G+!:+s0+~G+{G+]G+}t+^G+/G+(G+Z, Ff. >.H# Hq.rL _G+_> :G+<G+^{.5| ~C [G+}G+mO.|G+1G+]m z0+   ",
"   A9 Kj+2G+3G+cE 4G+5G+f[ 6G+7G+8G+rT.hD 4M.9G+g& MN 0G+aG+bG+cG+dG+eG+fG+gG+hG+iG+jG+Y_+kG+lG+mG+nG+oG+&U pG+qG+S8 I> rG+sG+tG+t< uG+vG+wG+xG+Y-.}3 yG+zG+Jz Go AG+BG+}E+vd+78 Xm.CG+DG+EG+FG+GG+HG+IG+JG+KG+LG+MG+NG+kn+OG+PG+xA+QG+3W T0.RG+SG+TG+UG+P7+VG+7=.WG+'R XG+YG+ZG+`G+ H+.H++H+}{+@H+}m Et+#H+*P.*> $H+8* mI.8W.%H+nQ.zu+&H+X7+{P JP *H+2g.=H+-H+;H+>H+,H+'H+)H+!H+~H+{H+]H+^H+/H+(H+_H+:H+<H+[H+}H+|H+![+1H+2H+3H+4H+;t+88 j3 -& V~ eF.5H+6H+7H+8H+9H+0H+aH+.< bH+cH+dH+eH+fH+gH+hH+iH+jH+kH+lH+WX.mH+nH+oH+pH+2.+qH+rH+n. =# sH+tH+uH+vH+W].wH+<c+xH+yH+zH+AH+BH+hM.Ah #*.Le+CH+DH+w~ EH+FH+GH+HH+lr.IH+JH+Z&+KH+!<.A~ w` Zj.LH+MH+N^ .[ NH+OH+OH+PH+QH+RH+SH+TH+__ (_ $(+UH+kN 0]+VH+WH+NH+XH+YH+ZH+`H+ I+.I+P[.+I+$M f& !r e_ @I+#I+'' PB.$I+&_ %I+9@.ih &I+*I+=I+-I+=] ,i    ",
"   ,A ;I+>I+,I+NR dd+^Y 'I+)I+!I+~I+{I+]I+7!.^I+NG./I+(I+_I+:I+<I+[I+}I+|I+1I+2I+$%+$%+3I+4I+5I+6I+7I+A +x> x> 8I+9}+9I+0I+l1++[+bW.=(+aI+bI+cI+k@ {5 c.+dI+eI+fI+gI+hI+iI+jI+kI+uN.]C+lI+mI+uD+nI+B}+oI+pI+qI+rI+sI+tI+uI+vI+>@+.d wI+n+.%< xI+}`.yI+P7+zI+AI+N}.WG+|Y.so YG+BI+hx+CI+DI+EI+FI+GI+HI+II+JI+KI+2N LI+Iu MI+q6.NI+{N 1p.OI+q$ {# c& PI+_y _h.J~ QI+Dh RI+SI+TI+UI+VI+WI+XI+YI+-[+ZI+`I+ J+.J++J+@J+#J+$J+%J+&J+*J+=J+*z 2m.t@ }3 -J+FQ ;J+>J+Fk ,J+'J+-O.;,+)J+!J+~J+Ld+{J+]J+^J+/J+(J+_J+:J+<J+[J+VL }J+|J+]9.1J+2J+K6 3J+o@ 4J+o' 5J+6J+8H 7J+ai [g+<g+S6.8J+O=+9J+0J+<W aJ+bJ+cJ+dJ+eJ+fJ+tg.*_.gJ+!c =8 V(.HG hJ+iJ+{_.ju+jJ+kJ+lJ+mJ+'>+PH+nJ+NH+oJ+oJ+pJ+qJ+rJ+d@.Z/ ~>+sJ+f| ^#+tJ+uJ+_%+vJ+wJ+xJ+yJ+zJ+AJ+BJ+lb+X@ CJ+DJ+EJ+yp.+_ Z1+FJ+2$.GJ+D++HJ+5]+IJ+c*+){ JJ+KJ+   ",
"   LJ+MJ+a^+NJ+OJ+j +.z PJ+QJ+RJ+SJ+TJ+UJ+VJ+WJ+ ,.XJ+YJ+rG+ZJ+`J+ K+//+.K++K+vu.@K+#K+n1+Ed+$K+%K+&K+*K+=K+-K+//+;K+Px+>K+,K+|) 'K+)K+!K+~K+{K+lP 7t.]K+^K+/K+(K+_K+:K+<K+[K+jI+}K+|K+1K+2K+3K+zs.4K+pS 5K+6K+7K+er.8K+9K+S}.0K+c .aK+46 %< bK+cK+dK+eK+fK+gK+#K hK+iK+vd+jK+kK+@D+lK+mK+LL nK+oK+pK+,/ qK+rK+sK+N,.1z+tK+uK+vK+wK+kc xK+b1 ;# Vn.yK+zK+7>  $+AK+jJ+BK+CK+-H+DK+DK+EK+FK+GK+8h.HK+IK+JK+KK+LK+MK+NK+OK+PK+QK+#[.RK+SK+TK+]Q !p AE.UK+~u+VK+WK+XK+>v+YK+ZK+#t.`K+ L+.L+N^++L+@L+#L+$L+g> %L+7x &L+*L+=L+Bz.~w.-L+;L+WF.>L+A1 yH.,L+'L+)L+!L+~L+|0+{L+]L+^L+/L+P$+(L+_L+8^.3i+:L+ed+)C R(.k]+6{.<L+8s.[L+}L+|L+1L+2L+J* 3L+ p '` '#+4L+5L+>b.6L+7L+8L+3%+9L+|-+0L+aL+X< bL+cL+%%+1*+dL+eL+fL+gL+hL+=z.|-+|-+iL+iL+jL+kL+p3 9m DL.5t.lL+mL+nL+c*+oL+pL+Ow.(_ qL+qL+rL+,E sL+tL+   ",
"   Rx.uL+vL+wL+xL+yL+zL+AL+BL+x)+CL+ph+DL+EL+FL+GL+!u.HL+IL+ d 7]+JL+KL+LL+ML+ML+/-+iI NL+OL+PL+QL+YT RL+SL+-K+k3+TL+Px+E^ C^ UL+F) VL+WL+XL+(E+>!+!O IF.YL+yg.E<+vF ZL+`L+ M+.M++M+@M+#M+@M+$M+%M+&M+]- *M+=M+~0 -M+;M+>M+,M+'M+)M+!M+~M+{M+]M+^M+/M+(M+_M+:M+<M+R5 [M+}M+v=.|M+1M+}{+2M+At+3M+4M+(C.5M+6M+Am ov+7M+|%+!r.93.8M+9M+0M+Ea.o`.T-.aM+V-+'} bM+cM+dM+A..eM+eM+fM+gM+hM+iM+xa jM+kM+lM+mM+nM+oM+pM+qM+rM+ML+sM+tM+uM+vM+wM+xM+a~+a# fl+9Q.yM+zM+AM+av BM+CM+|+.DM+C4+P}.EM+FM+W4+GM+HM+IM+JM+{v.KM+LM+MM+NM+OM+ij SO.PM+QM+RM+SM+TM+pK %%.ji+UM+VM+WM+T0+9i.XM+YM+Z&+'{.ZM+r(+`M+o+. N+>: .N++N+@N+Mb+#N+<- $N+MC %N+~<.&N+*N+*$ A..=N+-N+)'+;N+>N+,N+y2+'N+)N+!N+W< c*+~N+{N+]N+LL+3_+>%+>%+^N+/N+(N+6_ _N+:N+<N+'*+[N+av.L_ _8 }N+|N+wJ+1N+2N+3N+4N+5N+$b.6N+7N+8N+9N+)> hS.0N+   ",
"   Wg+aN+bN+cN+dN+{j.eN+fN+^[ gN+k~.hN+iN+CE.jN+kN+lN+f%.mN+nN+oN+pN+qN+%%+%%+rN+c_ b_ @K+7' sN+C> Zi+tN+Fw m3+uN+vN+wN+xN+yN+zN+$s.Yy+AN+BN+CN+7r <  Kx+_e qK.P_+7a (l+DN+EN+FN+[c+GN+|K+HN+FN+IN+Jz JN+KN+LN+(6 MN+NN+ON+PN+w3+QN+RN+SN+TN+UN+Pt VN+WN+XN+YN+ZN+Mn+`N+}M+ O+.O+!F+EI++O+~A.Ga.vk+@O+Mv.@$+#O+$O+.;+3c U~ %O+&O+*O+=O+-O+>7+u4.;O+T~ M8.>O+,O+p@.Ba 'O+jf+)O+!O+~O+{O+]O+^O+/O+(O+_O+:O+:O+<O+[O+}O+b<+${ |O+/:+T= 1O+2O+3O+u@ 4O+5O+6O+7O+HA.8O+9O+od+0O+aO+bO+cO+dO+eO+&x+fO+gO+hO+iO+mN.jO+jO+kO+lO+mO+nO+9y.oO+pO+qO+R% rO+tC sO+tO+uO+vO+wO+ji+xO+yO+Wg+ru /t.zO+AO+BO+sC+Zl.CO+>: tK+DO+*w EO+WN.HL.&7 HL.^/ FO+vU.GO+HO+IO+JO+KO+=d b1+3I+LO+MO+tM+NO+NO+tM+OO+PO+QO+RO+SO+)-+tM+7) TO+UO+7B VO+WO+XO+YO+ZO+=' ^% `O+ P+bb+.P+2N+,d.)*+X[.+P+X9.@P+#P+$P+%P+&P+=A.U<    ",
"   *P+jL+HH+L.+:F =P+-P+;P+>P+,P+0V 'P+)P+!P+~P+m+ W0 {P+]P+^P+kJ+/P+(P+_P+.w+:P+<P+;>+[P+|_ }P+@K+|P+uM+1P+2P+3P+4P+5P+iS.c]+6P+7P+PK+8P+9P+V0 f@ #2.0P+aP+bP+cP+*L+4a dP+eP+zE.fP+gP+hP+iP+>C+jP+kP+lP+mP+nP+oP+pP+qP+rP+sP+tP+uP+vP+wP+U +2V.w:+xP+yP+%v zP+AP+BP+CP+DP+EP+FP+GP+HP+IP+JP+pp.0r.KP+LP+MP+NP+OP+>} EI.MX PP+QP+RP+SP+v'.TP+(r UP+tQ.0^ VP+WP+XP+YP+UY ZP+`P+ Q+.Q++Q+@Q+#Q+$Q+%Q+&Q+.#+*Q+=Q+-Q+;Q+>Q+k@.{v+,Q+4k.oA 'Q+sp :  D6.vg.)Q+!Q+~Q+{Q+]Q+^Q+/Q+(Q+L'._Q+:Q+8| <Q+;&+[Q+}Q+|Q+1Q+2Q+3Q+4Q+5Q+6Q+7Q+8Q+9Q+0Q+aQ+FD+B$ i'+bQ+&g cQ+-/+dQ+R7.eQ+fQ+{c @^.zv+vV.%A+Ln gQ+x8+hQ+iQ+jQ+KT X).~| kQ+`9+NB+S(.lQ+mQ+nQ+5C+oQ+g/.pQ+qQ+rQ+*( sQ+XY tQ+Wi+uQ+vQ+wQ+xQ+]P+]P+yQ+zQ+Fw AQ+BQ+CQ+DQ+a<+_]+[P+LL+EQ+FQ+)b.j& GQ+HQ+IQ+JQ+KQ+xu+4B+T9.LQ+MQ+NQ+OQ+PQ+QQ+RQ+0E SQ+   ",
"   TQ+E(.D=.UQ+VQ+B1+Pn B>.WQ+XQ+YQ+ZQ+XQ+)W.`Q+@`. R+8h+Fw .R++R+@R+#R+$R+is.%R+&R+*R+=R+~(+[++[x+Hu.cF -R+uO./:+hc <n ;R+c| >R+,R+ly.Hd.'R+V;.)R+p3 !R+~R+{R+}$ 7m jo+]R+^R+/R+(R+_R+:R+<R+[R+}R+|R+1R+2R+3R+4R+5R+6R+7R+8R+9R+0R+)r+S0.aR+Z)+bR+AI+n9.!9 X' cR+dR+eR+h.+fR+gR+jK+2{+hR+OL iR+OL jR+kR+lR+mR+nR+oR++H+pR+aE.qR+p^.rR+sR+tR+uR+vR+wR+xR+FL yR+zR+AR+BR+AR+CR+DR+ER+FR+GR+HR+IR+JR+KR+LR+MR+}I+NR+OR+PR+QR+RR+SR+`5+JZ.R3 O3 _O TR+7u <q+UR+At YA+VR+WR+XR+YR+ZR+`R+-c GA.l,.a/.NT zz  S+.S+T: Co++S+@S+j{.+^.dE+#S+![.$S+q@ `+ %S+R* eJ+&S+gA.*S+=S+-S+;S+E- >S+,S+'S+)S+lG.!S+~S+~S+{S+<E+]S+WG.WO _8+^S+7h &+ /S+4=. p.)o.(S+_S+:S+<S+[S+}S+|S+1S+2S+3S+gM+4S+5S+6S+~9+7S+8S+9S+0S+aS+bS+$J+cS+dS+eS+`k+fS+gS+hS+iS+jS+%P kS+lS+%B.iL.mS+<h+nS+r*.}L+oS+pS+qS+rS+A) sS+tS+   ",
"   44.!i.mn uS+vS+wS+xS+,2 :8 7# yS+zS+!% -* 2   # w1 AS+~D+BS+_) gi.U)+&) L| CS+DS+ES+FS+uk.GS+HS+IS+JS+Qm+RQ KS++]+LS+DX.MS+,- X5+NS+TO n$++$ OS+PS+<] QS+SG+)7+RS+j>.t1 SS+TS+US+VS+WS+3`.XS+YS+TG+ZS+`S+m.  T+.T++T+0t @T+IP+mI+#T+$T+Ko.1Z.8@ s1 cC+W| --.:  :s ,: i>.NX qD+2+ %T+Pn.&T+*T+in.TG.=T+i3 h!+`Z.s>.-T+;T+>T+,T+'T+!N.)T+m`./>.Ln.K_+Y5 UI.!T+~T+Rv {T+]T+^T+/T+(T+-R _T+:T+<T+[T+}T+|T+1T+2T+3T+~T+4T+5p 5T+[H.05 L_ L_ T3 @r d3 6T+Ko. & p& 91 7T+8T+9T+0T+aT+bT+I  cT+]u i7+Dp SI.dT+eT+z$ Lm.fT+gT+M2 hT+|q iT+Xu T^ #1 !; )5 `6.r$ 34.,= jT+@r E2 6G.kT+lT+Ix o& 1  &# u@ 8# 8# ]P 04.Vr B;.92.mT+nT+Fn.E# T1 dr 0r U+ xr oT+pT+qT+rT+{!+RO Ow {$ #4 sT+Ls 36 H3.*} tT+r  uT+g+ {o.vT+wT+vn+xT+_{+Q3.yT+zT+r+ I;.AT+Rq BT+CT+DT+U$ +-.ci.Vm.r$ MZ.!`.^4._  %P ET+FT+<D+   ",
"   bG.GT+sn.HT+IT+%4.JT+lm+KT+92.2D+2~+LT+j2 gr .2 =P -* b~+MT+15.t7+NT+14.If OT+;* zP 3~+~5 V1 .6 Er PT+F# 2r eP u6 V@ 3+ K3 T1 j$ :8 '4 m~+QT+~,.[n.dr !; {r )5 GY 7. RT+X@ U% cO C$  r H3 Yp m;.Z@ ~r lP D|.v# a4 Ir D|.@$ |3 8# :8 xr aP sH.Ur ST+yr TT+,% Q<.UT+VT+WT+Dn.j$ sH.d# !; `N 6@ Q1 XT+EZ.YT+ZT+(7+jt F#  $ qr `T+s@ Y@ u@ ;C -@.3G.~P 0. `;.`;.L_ #r -;.S@ 0r ;r  U+.U+Wm.oO r! ';.J1 ov 45 D+ +r 5r D# FZ.B;.4H.+U+)5 t;.%# )5 8# i*.!Q jG.6@ j2 Qr ^# O# Z$ }6+U@ @U+);.7r i*.!@ k@  $ LP |P T4.EZ.#U+(4 @1 Zr #1 L;. @ $U+L1 L1 a4 L$ d~+)5.%U+-r &U+*U+=U+O+ JH.QJ 'H.xi.-U+;U+dm+>U+[@ X! m  &@ ,U+'U+T7+Kn.G3 d# kr ## ]# <] )U+!U+~U+6  47+D|.T1 e# T1 Rr 8b )O Hf G4 nA 7t.04 '1 {U+IZ.]U+^U+>o.T^ /U+(U+k3 wS+{5 R3 Q> A+ 9~+4m 2G.D@ N4.V% D|.)@ {9 _U+Es z3 -O S4.   ",
"   Io.@%+x+ :q ;>.J3.WE.xt <u ^f.w8+K. ]S+z  :U+J-.J-.<U+.m+wh.[U+}U+8$ .]+|U+#O `@ F# J3.1U+d% ^+.2U+3U+4U+5U+6U+7U+68 8U+.E+v. v. 9U+0U+Ff.OO 0T.aU+rn+bU+cU+dU+N$ eU+fU+B@ X$ (S {5 gU+hU+iU+jU+kU+m. ]4.lU+(. 4. mU+nU+l. k1 {u mp xm 6C+J*.Z| oU+pU+Xm+}.  t $2 t@ 3J.no.>r J1 qU+rU+fB >  sU+q+ 34 Kp L= |K.B,.*+ (6 OQ u<+tU+uU+vU+wU+xU+yU+ZG+zU+AU+BU+CU+DU+EU+FU+n  );.GU+6.+|J xv+HU+z  UO x. E*.IU+:7.42 .Q m= =P or kr Ui JU+KU+;y.L. a[ LU+Ws %8+QQ e% MU+NU+r{+z4 6$ o  {o.F. YO c>.qB.7p OU+{% wt PU+QU+RU+Rs if.SU+d{.2o.TU+UU+SO 88 `)+;|.S7+o<.5h.1# J1 ,r VU+MX WU+XU+YU+ZU+`U+ V+.V+Un+dY.ql.+V+xh EI+>|.^1 72 @V+ P Y@ nO Y=.i~+#V+/r A+ Ir LP t# Pl+Sd Lt+$V+7v %V+%V+&V+aE CG .v *V+=V+-V+D_ D_ ;V+>V+,V+'V+ix CG )V+P6 (<.o+.!V+~V+{V+]V+^V+/V+(V+@,.6n+_V+:V+<V+[V+   ",
"   yb.}V+|V+z!.1V+2V+3V+4V+5V+O&+a= 6V+7V+8V+9V+0V+aV+bV+cV+je+dV+eV+fV+gV+hV+iV+ar /;.q(.jV+A;+kV+lV+mV+nV+oV+pV+qV+rV+sV+DO+tV+uV+vV+wV+xV+yV+(&+zV+AV+BV+CV+DV+EV+FV+GV+HV+Qn.}D+IV+JV+KV+LV+~} MV+NV+[- cg.OV+$V PV+QV+RV+SV+TV+2P+UV+c1+wz+VV+WV+XV+YV+ZV+`V+ W+.W++W+oO ;8+@W+<c.#W++(+8E $W+%W+&W+*W+=W+-W+cx.sA cx.!++;W+>W+uA ,W+;;+*z+1%+[h+^$.'W+)W+)8+]; !W+[: ~W+{W+vs.]W+68+^W+/W+(W+1V _W+$r.#f.-e.u5 :W+ii+wP.@7 P2.<W+[W+}W+|W+1W+2W+3W+4W+A[+H@+5W+6W+N<..&.4$ 7W+8W+9W+0W+aW+NT.9).bW+cW+dW+0o `H./^+eW+fW+*O.gW+hW+iW+jW+kW+lW+mW+nW+oW+&g./m *e.pW+aO 'H.qW+Nc.rW+sW+tW+`2.uW+vW+wW+xW+S,+1] `p+yW+zW+AW+BW+CW+DW+EW+FW+GW+HW+IW+_#+2. JW+;1 {3 /,.KW+LW+MW+NW+OW+PW+QW+RW+JA.SW+TW+UW+VW+WW+XW+!Z YW+ZW+ZW+ZW+`W+ X+.X++X+@X+`) )i+~i+#X+$X+%X+&X+*X+nX.=X+-X+;X+>X+,X+   ",
"   )k+'X+)X+*t !X+~X+{X+]X+^X+/X+(X+_X+:X+<X+[X+}X+ot +#.|X+/n+1X+2X+3X+4X+5X+6X+{*.s3.7X+8X+9X+0X+aX+bX+-Y.cX+dX+eX+|(.fX+gX+hX+iX+jX+kX+lX+mX+nX+|(.oX+pX+qX+rX+[O.sX+tX+vk+HH.uX+vX+,|+wX+v8+#;+xX+Xk.yX+zX+AX+BX+CX+DX+EX+FX+GX+UG F^ HX+R^ IX+JX+KX+LX+MX+ Q. L+NX+OX+PX+Yp *P QX+ZC+8: :h RX+O- SX+J,+T- HH+T- <y.TX+bw UX+h: 1K.VX+WX+XX+f) EA+tz.YX+nE.ZX+Ha.9F xX `X+|~+E:+ Y+[N..Y++Y+@Y+Id t5 #Y+eb.zi <b Gd $Y+%Y+7b.&Y+*Y+aH )g ;b =Y+-Y+*b ;Y+lQ >Y+wf.,Y+@v 1E+'t 'Y+)Y )Y+!Y+~Y+{Y+]Y+^Y+/Y+(Y+_Y+=3.:Y+<Y+3i+[Y+}Y+|Y+au+1Y+2Y+3Y++E <9 4Y+&A.y(.t[..r.p/ F$ 5Y+6Y+7Y+8Y+9Y+0Y+aY+bY+cY+dY+4:+eY+iS.Xd.fY+X1+{K.gY+hY+$x.%B %B iY+AB.jY+kY+[L+DG lY+O<..+ <7.Pb.1N+bU bU [B mY+nY+oY+pY+qY+rY+sY+V&.tY+tY+uY+vY+wY+xY+yY+zY+hl AY+n$.BY+ql Pc+DZ Kl ^ +fg.CY+DY+EY+FY+GY+HY+   ",
"   IY+JY+tC H}+KY+LY+#B MY+NY+OY+PY+i!.QY+RY+SY+TY+UY+VY+WY+XY+YY+ZY+`Y+ Z+.Z++Z+K4.@Z+#Z+gv.$Z+%Z+)I &Z+*Z+6Q+=Z+-Z+;Z+>Z+]s+,Z+'Z+Mu+/] )Z+!Z+Ni+~Z+{Z+]Z+dA+^Z+/Z+Gz (Z+_Z+p' :Z+{8+<Z+[Z+}Z+~t.oA.|Z+1Z+2Z+3Z+4Z+5Z+rk 6Z+7Z+8Z+9Z+u: 0Z+aZ+bZ+cZ+#^+dZ+&,+eZ+fZ+ON+rz.gZ+-s r+ %< $ .Ca.p,.hZ+K,+K,+iZ+-&+qD ~U.jZ+P=+6}. w.}W p]+B; )$+kZ+lZ+mZ+nZ+oZ+pZ+T(.q5.qZ+rZ+i7+X++q*.te+4Y+sZ+tZ+uZ+vZ+NB.qd+eb.j%+U7.j%+(b wZ+=(.G[.xZ+yZ+zZ+AZ+BZ+s[.CZ+DZ+EZ+tz FZ+sC ,r.S7+VQ GZ+Si HZ+qh.IZ+JZ+KZ+LZ+bi zx /..MZ+NZ+OZ+d+.PZ+QZ+RZ+uD SZ+TZ+UZ+VZ+WZ+b&+XZ+AJ YZ+p< ZZ+{_.+I.`Z+ `+Xe..`++`+@`+#`+$`+%`+9v+&`+*`+=`+]c.YC+-`+;`+>`+AE Dz.Dz.,`+'`+)`+!`+t1._F.~`+O].5  cT+{`+XH+]`+^`+/`+Qe.(`+.F._`+:`+<`+[`+Sf f8.}`+$l fs+|`+@h.1`+2`+3`+4`+5`+:..6`+6`+7`+8`+8V @P !c 9`+0`+a`+b`+c`+   ",
"    g d`+e`+f`+g`+h`+i`+j`+k`+GQ.l`+n] m`+n`+OF o`+p`+iB.q`+r`+s`+lX.NF t`+u`+v`+`o w`+;@.KU x`+x{+sK.R^.5m+y`+z`+A`+B`+C`+D`+E`+F`+:p.G`+wW.H`+I`+nI J`+K`+L`+M`+N`+O`+P`+,h+km.;Z.:_.Q`+N<+2%.8X+R`+S`+T`+U`+1n+wZ V`+dN cM.(: PL+W`+X`+Y`+Z`+S~.A=+``+~B   @L8+Mt+X1+m]+S^ /4 d{.. @+ @Rv+rh.@ @aX a#+${.# @$ @% @& @{`+dU.u3+-u.* @u/+= @uz.- @; @U8.Bh 9r+xj =i {f.> @8$ )1 , @rn H[./g. *.' @y[+`E `E ) @! @~ @N|.#Y+|g Hd G[.{ @] @^ @(f+]l / @ac+( @_ @Y|.: @< @[ @5~+Aq } @| @1 @|A.2 @3 @]I e!.4 @5 @6 @7 @8 @uv.-A+9 @0 @=k.a @b @c @pK d @gA &8.(H e @f @g @c3 _{ h @i @j @k @l @m @n @Z2.64+!X o @p @q @r @49.5w.s @'c+t @N{.Dz.uU.)o.u @P* D~.v @w @x @y @&>.QU+wQ.z @A @B @/`+mY+C @D @_`+sY+E @F @G @H @]s.I @J @kW+K @L @M @N @O @P @Q @Mc+R @S @T @U @1=.z[ V @W @X @Y @Z @   ",
"   ` @ .@L6 ..@+.@@.@#.@$.@%.@&.@*.@kX.kD =.@3..-.@rD.;.@>.@,.@Yl qD.Uz '.@).@!.@~.@e% *d.`8.{.@].@YY+8o ^.@/.@z`+(.@4u+_.@:.@<.@[.@}.@#/ bq+|.@1.@2.@3.@!7..u+4.@5.@6.@7.@8.@9.@M$ n5.0.@a.@YB.b.@c.@go+d.@e.@f.@g.@h.@i.@j.@k.@29 D^ l.@:n+m.@r_ n.@o.@p.@Iq+q.@r.@s.@t.@@y.d1 $K 9k.1] :; s^.==+u.@xV._-.v.@w.@gz+x.@y.@9b+z.@/i.A.@O:.B.@mS.M/ C.@bO+_; kS.,b.D.@dk+E.@x!+p/ F.@[b G.@H.@8&.ai.I.@|b J.@sb+#C K.@L.@JV JV iu+M.@N.@O.@7b.P.@%Y+Q.@R.@_l S.@#Y+T.@U.@V.@*[ W.@K7 X.@Y.@Z.@F}+`.@ +@.+@(K.BE ++@@+@C_ #+@$+@%+@&+@*+@=+@-+@;+@>+@ea+,+@(H h] P(.S:+'+@)+@6Z.2d.!+@Sr+~+@>z+{+@]+@^+@/+@(+@_+@:+@<+@[+@}+@6] ^^+X, |+@/).hm+R~.1+@2+@3+@4+@5+@6+@7+@8+@,3 5!+1B+9+@0+@a+@b+@c+@d+@VC.La e+@%C.@F.f+@g+@h+@i+@@G+kW+j+@k+@l+@m+@n+@o+@p+@q+@r+@Ka Nf s+@!O Hi+t+@u+@v+@w+@x+@   ",
"   rC y+@'{+z+@OA A+@V<+u{.B+@C+@Yl D+@E+@F+@G+@H+@]+@y&+XY+I+@J+@K+@L+@M+@N+@O+@j!+mp P+@Q+@sZ R+@S+@T+@+P.U+@V+@W+@X+@Y+@Cy+Z+@`+@ @@.@@+@@@@@ N.#@@!1._q.$@@%@@&@@*@@=@@-@@;@@(e QX+>@@%@@re.,@@'@@)@@*Z+!@@CN B| ~@@i3.{@@sS+]@@V#.xC.^@@/@@(@@i8+fp+_@@:@@<@@[@@}@@|@@1@@1  2@@;z.@{.4U.3@@4@@5@@6@@z' Gd./>+7@@2>+8@@9@@0@@E(.;$.a@@6}.b@@c@@d@@e@@);+f@@g@@h@@@s.i@@#B.r$ j@@T7.Jh.PE k@@l@@m@@_Y n@@o@@Ad yv.p@@_g+q@@]l Dc.A].r@@s@@t@@u@@v@@NE gE L9 ~g+' @&_.w@@f@ C!+x@@G- o(.y@@z@@A@@A@@3!.cP.B@@C@@bj t}.D@@E@@F@@G@@H@@I@@m] J@@K@@L@@M@@N@@O@@P@@bi x}+v)+s3.0C.]b.Q@@R@@S@@gj T@@M6 U@@V@@W@@X@@Y@@Z@@`@@7q+O/ ,c.Tr+ #@.#@Gq.+#@@#@##@A%. ! $#@%#@&#@*#@=#@FV.-#@@f+;#@>#@%k ,#@'#@)#@!#@&b.`9.>d.=}+~#@{#@]#@^#@/#@(#@[d+_#@:#@K @.F.JA.<#@[#@}#@vH /m+#+@|#@1#@2#@3#@7/    ",
"    0+Rg.9q+4#@5#@6#@7#@8#@M* 9#@0#@lV+a#@#R.b#@A7.c#@Zs.@h d#@.h jV+e#@jX Lt.f#@6O q+ g#@>l+h#@e.@i#@j#@k#@Y}+T%.oq+l#@2.@m#@Uv+n#@o#@-I p#@~} ex q#@p] Sh r#@rR.s#@t#@u#@=} f: W' v#@.#.w#@x#@y#@z#@k#@OK.A#@*t.Cu Yd+B#@C#@D#@E#@6h+m+.vo.F#@G#@H#@I#@J#@K#@]^+N~ L#@M#@PE.v7+7} N#@l].O#@P#@Q#@Z$.R#@S#@T#@u: U#@Bh V#@pX.^> Cj W#@T9+qZ+X#@BI Y#@Z#@U%++[+`#@ $@.$@+$@*p &3 >e.@$@#$@$$@Hi 6^.kE %$@&$@*$@=$@Z$+-$@4o ;$@d:.>$@,$@T.@_l '$@9:.)$@!$@~$@{$@]$@W& ^$@/$@[4.6~+($@_$@:$@fq+4..<$@sx.[$@}$@7}.|$@1$@2$@i{ 3$@q:.4$@5$@6$@qs.7$@8$@9$@0$@a$@Ue+Si OV b$@c$@IH.9x+fa+d$@+P.e$@]W.f$@g$@h$@i$@j$@k$@l$@m$@n$@g}.o$@F0+p$@q$@r$@s$@t$@u$@v$@w$@x$@y$@z$@A$@p`.B$@C$@GU.D$@@f sA+E$@F$@G$@H$@I$@4H+J$@K$@L$@M$@N$@O$@P$@Q$@R$@S$@T$@U$@0k+V$@W$@g/+X$@XI Y$@uO Z6.wT.%b+Z$@`$@ %@   ",
"   .%@gk +%@@%@Y6.3U.#%@$%@%%@&%@4.+*%@r} =%@hI.yG.iM =z+ g.-%@;%@Mh+q] >%@,%@3T.m;.V5 %J.'%@)%@h> !%@~%@{%@]%@^%@Wt o= ZN./%@(%@_%@^2 Xp :%@<%@[%@}%@}A |%@L. 1%@2%@3%@4%@5%@6%@k@ W' .D+7%@8%@9%@0%@a%@b%@l6.c%@+H+.!+VF :/ d%@at /x.e%@gR+ec f%@g%@h%@[9+i%@@t.j%@k%@l%@m%@n%@o%@L5.p<.|K.p%@q%@^9+lG._E+-O+R5 r%@.!+s%@V8+-* G`.t%@xm u%@ps v%@0R w%@ut+2Y.x%@y%@z%@i  nM '5 A%@~v B%@C%@aA D%@E%@As+F%@<l s^.G%@H%@I%@J%@K%@D~ -d.L%@!v 0).V<.s9+M%@~A+N%@Yj.H  ^3 3+ P# S/ O%@P%@Q%@R%@TA+ u.S%@T%@>h.U%@aQ ;M 6% =  V%@NE.;g W%@}o.P<.+K X%@31.^h.a8+A).Y%@Z%@`%@@c $O -   &@.O+.&@+&@@&@#&@$&@%&@&&@*&@=&@-&@;&@l6.Yj.>&@vs.,&@'&@)&@!&@~&@<H.{&@O%@|=.(s ;C =H.T# I4 ]&@^&@n../&@(&@~; _&@:&@!* <&@Nu 0|+O,.T).b=.[&@}&@|&@1&@3s 2&@3&@WA q<.4&@5&@6&@7&@/{.92 gO 8&@n^.z! 9&@0&@nE    ",
"   a;.q3 r@ %2 !-.M}.X;+R3 C$ B$ (5.nA g`.G4 JO nM &u T3 R3 ;Q V$ {_.IH.*2 -H.]9 a&@8  K1 vm tm+Pr ,2 61 -7+c;.Q<.]P B3 vm G@ nO vm Yp ;5.K4.f: ik.`;.Ln.2H.b&@n;.{*.I1 bn.c&@d&@L3  >.e&@f&@b5.q7+yZ mO So da $2 {o Q<.V@  r ov ov k  /r #$ g&@h&@[m+i&@H#+j&@k&@Um+l&@Hb.qr 85.A;.]P Qr cO &# kP ;7+r# Hn.m&@$U+%@ q4 rn.n&@o&@p&@no.no./# h@ 3+ m@ =Q !; !; m@ -P .U+-P '@ o;.<r $P FO Lc.3J.5Z..F v3.4}.{. _V.4u %1 Q{+zi.}3 <c.q&@r&@s&@gp #r 7O Z$ /3 S/ t&@oZ.z4 m3 9# 0r (S 55.x6+k4.am.Rj /X )H.Dt h3 lP kr LP LP D3 u&@v&@{~+L3 w&@l@ LH.Do.J3.x&@a>.oD y&@z&@y4 0@ A&@q;.B&@}5.!r :8 7# ,H.X# XT+85. $ ~#  5.!-.-5.b;.O@ (4 )@ 8+ b# D# z4 45 Yp e;.FN y3 <8 2=.X+ K3 C&@SZ.{5 D4 }3 N+ U7 U7 Qq 8# $1 X@ K# gO _7 9# er ]~+u;.$2 2Z.D4 ]  a~+Tq Fs |~+D@ v@ cm+D&@E&@A$ )1 n, (5.   ",
"   _#+w1 k& ,% |@ `@ }5 J3.9Z.F&@&$ *m.&m.VO  3 #3 5J.d5 G&@H&@03 D  $} x'._+ 42 X;+{9 S, Zp d* eP S# 4H.f# I&@ZT+4;.}t J&@K&@GH.L&@GH./# X! ov ;O M&@b1 )H.55.$Z )K #2.j  D$ l7+N&@rm.+2 n%@UN ]Q O&@{3 Yp G@ G@ HZ.()+P&@bK+2& R5 Q&@R&@S&@T&@U&@wI.ln+V&@C$ W&@X&@pO M@ Y&@nn.c$ f: W+ ]P ov V@ iO Z&@KW+`&@ *@.*@M9 m$ VZ.|~+1Z.3P V8+IH (5.^r $1 9# M4.$1 Nq L_ Xc &u ,O R4.'5 F4 QJ Xc d+ W@ ^5.(( 0r (( {*.MO `+ 6r +*@@*@@% Q;.#*@$*@%*@!&@&*@**@YD+=*@-*@;*@>*@,*@Y3.'*@F*.j4. & st B'.)*@&  6G.!*@l;.!r {9 O+ ## TN ~*@{*@@6 ]*@&$ ^*@/*@(*@J  _*@<o.kp |U+:*@V4.<*@[*@}*@|*@1*@l4 2*@WG.}2 A# 3*@4*@3+ ;% u=.y|+5*@A5.X4.sR+[D++P fo.6*@!i.21 `4.z3.kH.7*@Fj.qm.W) gp '7+8*@n  zD.TG._2 WN MO D3 6r -P &u &u 55 W+ K4.^5 a1 Sp 7m 9*@0*@3N 4,.~u.l!+Ct Jl.V>.Ol.a*@y5.L2 b*@ZP DM    ",
"   c*@d*@e*@C6.c;.G1 f*@O8+g*@h*@i*@z9.Z6 j*@uP.k*@=z+l*@m*@n*@o*@%a.p*@MT.CW.q*@'Y.r*@M9+E4 jp @Z+`n.~T ~r Kn.Xn.q!+1,.6p s*@|J `N+t*@u*@.& :Z+v*@+~+w*@x*@y*@2E.M +9M z*@A*@B*@C*@|M+*n+]*.:1.D*@Ko E*@GI.]{.}3 F*@{T G*@H*@I*@KS J*@K*@L*@M*@N*@O*@P*@Q*@R*@S*@T*@U*@V*@W*@X*@Y*@Z*@`*@ =@.=@+=@@=@#=@$=@%@ +@ %=@&=@*=@==@-=@[l+}n+;=@78 >=@ir+,=@5S '=@)=@{u.!=@~=@{=@GI+]=@^=@/=@R)+(=@_=@dz.Io _H.i>.0n.-r nD+P> 8Z.:=@<=@R0 [=@}=@|=@1=@2=@3=@4=@5=@6=@7=@8=@9=@0=@a=@b=@c=@d=@e=@f=@g=@h=@i=@ME.A$@Z@ <n.lr ]> j=@k=@l=@m=@n=@o=@p=@q=@-9 D_.r=@h .s=@6S+% +t=@u=@v=@Cp.w=@mw x=@>O+y=@(c+qx+z=@A=@kr '>.+3.%:+B=@C=@D=@E=@<w Tp+F=@G=@H=@I=@JS.J=@K=@i9+L=@M=@w[ N=@O=@P=@Q=@R=@S=@T=@U=@BO eZ.04 V=@)7 NT.4-.W=@4.+X=@Y=@R;+'R.H%@Z=@`=@ -@Vu.;{.{[ TY.P& .-@ng.+-@@-@Y[ '1+#-@c^.   ",
"   $-@%-@!L+&-@ Q *-@hk.{J =-@sE --@;-@Uz+>-@,-@)I *8+|}.-w '-@)-@!-@~-@{-@]-@^-@/-@', '(.FM.zg.(-@jq._-@:-@CJ+(^+xi.AU+1|.<-@jW.k3.[-@wX.yz.}-@|-@1-@2-@3-@4-@5-@6-@E8 7-@8-@9-@0-@a-@b-@7x...@c-@-'.d-@e-@72 /O W;.f-@`v+g-@h-@^u.i-@j-@k-@l-@m-@n-@o-@p-@q-@r-@s-@t-@u-@v-@w-@x-@y-@z-@A-@B-@C-@D-@E-@F-@o4 oM G-@H-@I-@J-@K-@L-@E9+wW+M-@OU N-@|%.O-@P-@Q-@*L+R-@S-@T-@U-@r6+V-@cZ+{y K~ /|.W-@xR+X-@iQ+Lc.KO {&@AU+!a+Y-@$..Z-@`-@({  ;@.;@+;@@;@#;@$;@%;@&;@*;@qM+=;@-;@;;@>;@|*.,;@';@);@!;@~;@QG+{;@m@ 3  )o..I.];@^;@+k./;@&G yu.(;@_;@:;@<;@<;@[;@vj.:h+};@|;@vQ+eW.[++1;@2;@G-+3;@EA 4;@5S.hQ.5;@cp 6;@7;@8;@p@@M1.DL.9;@0;@a;@b;@c;@d;@e;@f;@g;@Xk.h;@i;@j;@k;@OI._3.l;@m;@n;@o;@p;@qL 88 !k s$ q;@r;@s;@t;@u;@k@@1.+v;@o^+ e.w;@x;@l_+y;@z;@A;@GK B;@3H GC C;@D;@E;@F;@G;@H;@I;@   ",
"   C*+J;@s>+K;@^, K+ 2I L;@*V+M;@)H }z+N;@bR.io O;@B3.P;@Q;@jE {`+R;@FD S;@T;@U;@7u+RA y&+>[.V;@W;@X;@Y;@le.M(.~{+Y2 jx+Z;@`;@ >@/%@.>@+>@@>@#>@$>@%>@&>@*>@lK.=>@->@;>@>>@`1.,>@49 '>@)>@-[.!>@~>@{>@UB+]>@y5.qO *`.^>@/>@(>@7_+_>@:>@<>@[>@!)+}>@|>@1>@2>@3>@3>@4>@5>@6>@7>@8>@9>@0>@a>@b>@c>@d>@e>@f>@g>@Sq ^3 h>@i>@j>@Sn uG.k>@l>@&P.m>@n>@@B o>@p>@#.@R~.0_.q>@fj r>@C)+s>@t>@u>@Wd+v>@eh+~4+Z%+IQ+w>@x>@()+MP+y>@z>@A>@B>@xN+t: C>@D>@E>@}^ F>@SK+G>@H>@I>@J>@K>@qQ+L>@ic M>@N>@O>@FL P>@Q>@4K 1W.]{.'# U;.A~ R>@S>@T>@6b ,[+eN U>@V>@W>@X>@+K+Y>@/f.Z>@`>@ua  ,@+_ >=+tB..,@+,@@(+O2+.a.>W+@,@s,.Ud.#,@$,@%,@;F.&,@*,@=,@-,@;,@eO+>,@,,@',@),@oO+~@@!,@^x.~,@%Z+(x {,@oX+],@.s+^,@4>+/,@(,@_,@:,@WE.<,@[,@},@|,@1,@Jh.l_+2,@Kd 3,@4,@,A 5,@*+@6,@7,@8,@9,@0,@a,@b,@c,@d,@e,@9a.f,@g,@   ",
"   h,@i,@j,@q#+Iu+k,@l,@m,@7'+n,@19.o,@u! i] p,@q,@:I.Ip+b;@T- r,@&q._f.z< s,@t,@Gs.c<.u,@l;+.v.v,@w,@x,@y,@z,@A,@94.B,@C,@D,@E,@F,@G,@V{.H,@I,@gT.|-@J,@Qu.K,@L,@M,@N,@O,@P,@Q,@R,@S,@T,@U,@V,@W,@X,@Y,@kQ+E,.%# ym+Z,@0_+`,@ '@8_+.'@+'@@'@#'@$'@%'@&'@*'@='@-'@;'@>'@,'@''@)'@!'@~'@{'@]'@^'@/'@('@_'@<< V] V1 :'@<'@}c+B)+['@{, }'@=R.|'@1'@n(.0q+AF AE 2'@ZP.3'@4'@#l.4W+5'@4i+<&.6'@7'@8'@9'@0'@I9.A* &p.U3 a'@b'@c'@)a+d'@t7.e'@f'@g'@h'@i'@j'@k'@l'@m'@n'@o'@o'@[4+js.p'@wa q'@r'@EC.Zb+s'@t'@_++hM )# n7+~y u'@RV.v'@,[+w'@x'@y'@z'@A'@B'@CA+C'@Aw %] [: 7e.D'@E'@1 .+@+*f *f XK+Ta.F'@Yp+at+D^.()+9c G'@$*.H'@I'@J'@K'@L'@9}.@@+M'@l5.kD.N'@O'@P'@Q'@R'@4u+S'@ZH.T'@U'@V'@W'@X'@2W+pQ )t.Y'@]1 Z'@`'@QC  )@.)@+)@@)@#)@$)@[,@%)@&)@*)@=)@-)@;)@@)@>)@,)@')@))@p#+!)@~)@{)@])@,P+^)@   ",
"   /)@()@_)@:)@Zk.1  <)@[)@GH+})@ze |)@Wa.wq+1)@o,@c' 2)@3)@J) 4)@zf (V cb+5)@6)@7)@8)@9)@9)@u&+9)@0)@a)@b)@c)@_'+X3.d)@s`.e)@md tK.vF f)@*K.g)@h)@i)@j)@d.+k)@X5+l)@l8 m)@n)@o)@p)@q)@As r)@1].s)@t)@u)@v)@%) C4 yt w)@/z x)@y)@c}+z)@A)@B)@C)@um D)@E)@F)@G)@H)@I)@J)@K)@L)@M)@N)@O)@xv P)@Q)@R)@S)@T)@U)@eo.$u y`+V)@W)@X)@Y)@gy #N.Z)@`)@ !@.!@+!@@!@/(.#!@$!@%!@&!@pf.*!@=!@-!@;!@)d.>!@ui+E++,!@W/ '!@)!@Yq !!@~!@{!@V%+]!@^!@r @/!@(!@_!@:!@<!@[!@}!@|!@[9+bM+1!@2!@3!@4!@'} 5!@-..6!@7!@8!@D#@9!@*Z.+# 36 U!.0!@a!@b!@c!@d!@Ak X`+e!@f!@g!@h!@`-@i!@j!@k!@l!@m!@A< n!@o!@^V p!@q!@;e.2>+r!@s!@t!@u!@nq  v #F v!@w!@x!@(_.y!@z!@A!@B!@C!@D!@E!@n(.3C vK.Uu F!@G!@3a+H!@'%.I!@J!@K!@;P+#+@aA J[.S| L!@M!@N!@O!@P!@Q!@R!@S!@T!@U!@ %+ge+V!@W!@X!@Lh.Y!@ab.r5 Z!@Z!@TE ie.1#.`!@ ~@.~@+~@   ",
"   }@.@~@#~@$~@yi.Rq V1.J!@%~@J' &~@*~@x- =~@-~@;~@>~@,~@Bk b' '~@)~@!~@~~@{~@]~@^~@/~@9)@fV.(~@_~@s&+:~@<~@[~@g3.}~@*<.{F.`9+|~@>3+1~@}z+2~@C~ 3~@4~@5~@6~@7~@8~@9~@0~@a~@b~@c~@d~@e~@f~@g~@gT.h~@i=@)F i~@j~@Rq k~@l~@m~@n~@wN o~@vN `D p~@q~@r~@1s+s~@t~@u~@v~@w~@x~@y~@z~@A~@bF+~d B~@C~@D~@E~@F~@G~@H~@I~@J~@^,+3v+K~@t] L~@M~@fy N{.N~@R'@+P.O~@P~@Q~@R~@P` S~@T~@U~@V~@6-+W~@&b.X~@MD +9+Y~@&k Z~@`~@ {@.{@+{@@{@#{@C_.${@X*+%{@&{@*{@={@-{@;{@>{@,{@'{@[4+){@!{@~{@~{@{{@N'+]{@^{@/{@({@<++_{@:{@+t +# ^% <{@'a+wN &k [{@J) 'i 2*.}{@|{@g%.1{@OK+,=+e/.2{@!;+A8.:D 3{@4{@5{@6{@7{@gA.s5 8{@9{@0{@WE.V;.a{@W#.fk.b{@]a.tx.c{@@R.d{@e{@f{@g{@h{@i{@l;+P_.j{@k{@H8 l{@m{@9x+n{@o{@p{@/K+1&.q{@r{@#6 `L s{@t{@! @u{@.8.v{@>I+W@+w{@x{@y{@c,@0,@z{@#g A{@yf.kd.B{@C{@D{@E{@F{@G{@k#+H{@I{@   ",
"    ~@J{@K{@&-@^+.$u L{@M{@N{@-' O{@P{@Q{@4@@0@@A_.R{@uy.vy.S{@B, T{@U{@V{@!/.W{@P_.X{@Dz.sU.:~@uK.Y{@Z{@`{@ ]@e  $& .]@+]@@]@$J.#]@;%@$]@%]@&]@*]@=]@-]@`1.;]@>]@,]@]{.']@)]@!]@~]@ t {]@CW+ko+]]@^]@/]@(]@_]@:]@<]@dA.bZ rN []@}]@|]@1]@2]@>N+3]@`#@4]@5]@6]@7]@8]@9]@0]@ya.a]@b]@c]@KU.d]@e]@f]@g]@h]@i]@j]@>p k]@u8+l]@m]@]>@n]@o]@Vt p]@D= q]@qI r]@s]@t]@u]@n0+v]@w]@`H+nN x]@y]@z]@A]@Jb.yq+B]@C]@D]@E]@To F]@~G+|f.X+.G]@H]@V$.I]@J]@K]@L]@M]@N]@O]@P]@Q]@R]@S]@T]@U]@V]@W]@X]@Y]@Z]@`]@]f p!@ ^@bB+6r V1 h; 4B+.^@&..~^+g{ X+.+^@@^@#^@$^@6S+%^@&^@e{ 5 .LB.*^@=^@-^@;^@>^@,^@)B+8}.'^@x).}W.)^@p& h4.!^@ik+~^@Y=+{^@]^@|O.5x Tz+P{.^^@/^@(^@8x F9+oz._^@N'@:^@<^@[^@!A+}^@uF Y1.@N.|^@>K.1^@05 L+ 2^@3^@D#+ 8.4^@5^@6l +i+D:+Ui.6^@7^@I{@8^@9^@0^@a^@Pi b^@p#+c^@zc+d^@e^@f^@pf.g^@   ",
"   h^@_j.i^@j^@tr q7+m$+k^@l^@8l+m^@n^@o^@p^@rr+uA gy.Y, Nt+q^@rQ.!F r^@s^@t^@:l+u^@v^@w^@vD+x^@8|.y^@z^@A^@_& 71 M@ `r B^@q3.C^@X| Ak+qH AX.D^@9m E^@F^@G^@H^@>U+Sj I^@l5+9>.J^@K^@L^@M^@h> N^@O^@P^@Q^@R^@Zs S^@T^@U^@V^@W^@ x+X^@Y^@Z^@`^@ /@#@+~y ./@+/@@/@#/@7r.!y  7+:=@$/@%/@&/@>. (= */@=/@-/@;/@>/@6c O+ B5.X_+,/@'/@)/@!/@~/@{/@]/@^/@//@(/@i9+_/@:/@</@T(.3).CF.D] 6U.V#.[/@}/@|/@X~.1/@2/@3/@8o.Mm+;8+4/@9W.5/@6/@7/@8/@9/@(!@0/@a/@b/@c/@d/@e/@f/@g/@h/@i/@j/@k/@l/@m/@n/@o/@p/@q/@r/@Ba.s/@Vm.-;.Z+ t/@u/@v/@w/@LV. q+x/@y/@z/@A/@B/@C/@Zc.D/@%9 E/@F/@G/@H/@I/@L +J/@K/@L/@&8 M/@N/@O/@nY.-& k  dX+1d.NC+P/@Q/@R/@<Z.`)@S/@^a.`)@T/@U/@V/@,5 W/@4C.X/@JL.Y/@Z/@`/@YL+ (@}a .(@`d+p8 5~+.4.!# +(@@(@Qx.:g #(@$(@%(@&(@*(@=(@<x -(@!.++* ;(@>(@,(@3v '(@)(@!(@1A ~(@}A.{(@{(@qH+   ",
"   ](@^(@Wl.g$ J+ 'r /(@((@Yh M$ @% _#+`4._(@HU+vI.B'.:(@P% tT+PD+<(@>1 [(@uX+[  xy.,1 ;8.@O FH.Fs j$ {9 8. &. I1 R1 NT+nD+kr or F# {*.z+ ik.]Q {Q o`.}(@|(@1(@2(@3(@v*@4(@5(@Do Oo.6(@PP+7(@8(@9(@0(@a(@b(@c(@d(@(3.e(@n%@&2 I# 7@ kP a4 _7 <5 f(@d4 /3 &# pO *2 '5 Se g(@u;.v$ h(@i(@++ -s +r k@ m  mO `q U# mH.;2 KI.j(@k(@55.(j.l(@m(@n(@gM o(@8|.7p 11 p(@q(@G% Kp Kp r(@b3.nR.HU+]t s(@t(@Q,@u(@RN V@ ;s LP  r v(@w(@x(@y(@z(@A(@B(@C(@D(@E(@F(@G(@H(@YD+I(@(p YD+J(@K(@w2 ,T+.` L(@M(@N(@yF.Y@+NX 7a.d* !;  5.jQ j}.O(@&B+P(@Q(@R(@S(@bn+T(@U(@MN |J V(@'f `| W(@X(@Y(@TN 6~+@Z+vs 6O Z(@q& `(@2H.+# H3  _@d% z*.._@[m+/X dD+=T+nm.eo.V| +_@4~+|+ cN X2 H1.+6+@_@S,.Rj bE.w:+'f #_@{. #2.b;.Ir dn.MH.SP $_@I-.hj.5y.Ap 5% {u %_@=p qH.Q4.hf.Hb.m  5@ I1 z@ z~+hm.W;.qH.Zj.~H.R3 _' 6O    ",
"   9n.&_@kr sH.$s J0 =@ {;.cO j2 31 C# f& H# .6 D# `# S@ rO xr IO z@ i@ *_@fZ./;.=_@)@ '@ }@ S4.P1 8h k  Pq b# Es D# _4 I1 ^4 .s Qq -_@nO -# /4 <r B# !4 I4.:8 M@ >@ ;_@>_@:@ ;7+31 [;.wi.1P 7r a;.~o.D5.cp 26 *_@,p p3 M4.`/.o) Rq Qq =3 A# ,_@0D+~j+}@ M@ x;.*2 35.Mn./7+'_@)_@T!+D|.+&.&4.g2 DP o).cP 0r T!+jt |&.cr B3 mH.T, cP M3.kG.u# B6.g# 35.;P G1 Pe q@ B3 !_@F1 [] zr W1 fn.~_@b@ L1 D5.7o.># w2.)@ 'H. 4.95  4 5~+{_@]_@#6 m3  s f@ BL aP >s e#  $ Zp Ar `N kr T@ kr S+ V+ /5 4  K4.H@ 8;. r r3 ,Q 6Z.~& ^_@3I./_@#t 6. tc bn.*s -7 Rr 4*@ar @1  $ nT+iO NH.NP A&@(_@j$ k  K1 f@ __@^3 3r @@ P1 9# z+ %H.~T To H4.X6 {5 y4 :_@<_@[_@J0 K# gO Dr 5@ +$ 'O ^6.MO }P -O Cy 'H.}_@=O /3 sr XN D&@lr LO FO b1 TM+R3 D5 Ab eH 5;.p;.w# 6r 3+ P# <n.nD+E# z@  4.X-.BZ.Q)+.f+C# I4 +s G#+   ",
"   ;5.|_@z&@[E+1_@2I.2_@xq X3.3_@K_ #R KT.4_@e$ {*.H3 K4.2I.P. 5_@6_@M- 7_@8_@9_@0_@a_@b_@1q c_@2q d_@e_@f_@g_@h_@Z>.i_@j_@N* VU.E,@TO.k_@/q Z2 !Q _4 ;O l_@~# H)+n>.fB q& |k m_@n_@R/ Kt D4.o_@{2.p_@q_@r_@s_@t_@u_@v_@w_@x_@y_@z_@A_@m+ t3 B_@W# C_@GC+D_@E_@Gu vr+R,+03.Z)@F_@G_@H_@FE.;&@1M+I_@1,.D5 A=@(j.J_@l!+Q7+oO M4.<r <r Op K_@L_@M_@b-.R6.N_@X<.O_@P_@Uc.Q_@71.:+ Zj.R_@,Y./6 _s S_@Eg =~+21 ^f..{+<Q z~ 3u+T_@U_@V_@W_@+7 X_@E# DP ,% 05 -4 Y_@Ix.Z_@`_@Rs e+ o>.R5.H% 82.R`.e_@#k  :@.:@+:@:{@s'.@:@#:@$:@!> kf+K4+%:@&:@*:@[L.s%@96.=:@-:@EJ.;:@9}.|{.}A++% WN w1 >:@,:@':@=`.cN 0|.):@Ct 8-..0.!:@~:@bX+-_+{:@]:@~- '>.j2 a5.^:@/:@(:@B:+_:@::@<(.<:@]y.[:@[:@_S }:@WY.UX |:@UX 1:@2:@FY.O!@^Y UE 3:@4:@5:@6:@Al 7:@8:@vn.9  gm.9:@0:@a:@^o+b:@c:@d:@e:@f:@g:@h:@i:@j:@k:@l:@   ",
"   DE m:@V;+: @n:@o:@p:@JR.q:@vJ.p@@r:@ox s:@}(.)o.D$ t:@u:@v:@w:@Y{@x:@y:@z:@A:@^]+Qd.B:@C:@D:@E:@F:@G:@L6 5++H:@WK.F&+I:@J:@v9+K:@L:@3X.M:@:}.pO #. N:@`O O:@E)+P:@Q:@R:@S:@T:@U:@V:@W:@X:@5A.Y:@Z:@`:@ <@O= +U .<@+<@@<@#<@$<@%<@&<@}'.{2 *<@=<@Ox m&.-<@R8+;<@><@,<@'<@)<@Bg.!<@cR+~<@ix.{]@{<@gT.]<@^<@/<@(<@_<@&t p< :<@Gp Ho S5.=7 !# [L.EG.I[+<<@[<@}<@3^.|<@p:@1<@TQ+2<@ms+3<@4<@5<@Q~@6<@7<@M(.8<@9<@P=.0<@CK.a<@OF eq+b<@c<@_t im.+# d<@fe.e<@f<@g<@h<@d] >*.i<@j<@+x+N2+k<@~s+l<@pi+m<@n<@2B wq+WH o<@p<@q<@U9+el r<@h+.Y8+5*@s<@(^.%J t<@u<@(<.,c+v<@w<@/j.~B s9+LR.nH x<@y<@z<@ta.Z@..<.o< cp+D_ A<@B<@rR.C<@D<@E<@F<@G<@H<@BH.I<@J<@Zu+K<@L<@M<@N<@xY O<@Ls+P<@Q<@R<@~@.S<@T<@U<@V<@Bg W<@X<@Y<@Z<@`<@`<@ [@.[@+[@@[@.T yD+w` #[@$[@%[@&[@0=.*[@=[@*M+-[@;[@>[@,[@T}.'[@a% )[@   ",
"   ![@[H ~[@![@{[@][@^[@kC hx /[@([@.%+!H LY.,g+_[@:[@<[@[[@&h.2[.}[@|[@rD.1[@+}.E| 2[@~, 3[@:~@_<+4[@5[@6[@m>@x=+{a.7[@8[@Vg._)+9[@0[@U1+a[@b[@4r On.;!.c[@~<.d[@c%.v..e[@f[@&z g[@h[@kj.i[@(` j[@k[@l[@m[@l[@n[@o[@p[@q[@V8 r[@s[@t[@u[@Ud.v[@w[@x[@y[@z[@A[@B[@Q, {j.C[@D[@E[@}G.K- F[@G[@H[@I[@J[@K[@L[@6K./B M[@N[@N[@# @O[@P[@Q[@R[@9_@$1 _n ]y+S[@T[@U[@V[@)V+e0+S:.W[@sO+X[@Y[@ld Z[@kA F1.t;@`[@ }@.}@+}@@}.cy nB.@}@#}@$}@%}@<9.vu X! &}@*}@=}@-}@P@@;}@i^+^: =O.#/+tE 5U.0M.>}@,}@'}@)}@!}@BN+~}@{}@{5+]}@^}@s, 9,+/}@(}@P+.xh.d# ,t {h._}@aA >C.:}@<}@[}@}}@|}@1}@2}@!l.Wy.3}@4}@j[ Fi.5}@6}@7}@8}@9}@0}@ci+a}@b}@-}@Yw+c}@&Q s@ d}@e}@f}@f}@g}@h}@i}@}T.j}@k}@l}@Jb m}@n}@o}@p}@|T.q}@r}@s}@t}@u}@%e v}@w}@x}@y}@z}@A}@B}@;=.QJ C}@D}@E}@F}@G}@H}@I}@J}@MW.K}@L}@M}@N}@O}@3O.x=+   ",
"   Uj.Ex !$@|o P}@Q}@R}@>g S}@T}@U}@K~.i- V}@sE >:@^Q hk.W}@X}@Y}@F:+f{.l(.$.@Yl iR.Z}@zS.`}@ |@.|@+|@@|@#|@y,@$|@%|@&|@*|@=|@se.&/.RO.-|@;|@jW.W=.>|@,|@'|@ep+)|@!|@'r+~|@{|@]|@^|@{)+/|@(|@_|@:|@<|@[|@}|@||@1|@2|@3|@4|@5|@>K+6|@7|@8|@9|@0|@LQ a|@b|@c|@d|@e|@f|@Se.g|@,G+h|@G-+xk+6U.6i.i|@j|@W1.k|@Z$.l|@m|@|h n|@o|@p|@q|@r|@s|@t|@u|@}3 v|@=~@jk+ti k@@h7.w|@zn 5)+x|@T0+g(+y|@z|@A|@B|@78.fv C|@D|@E|@F|@(a.0c.ja+G|@%9.H|@I|@J|@Ti ## ^8+^9 K|@L|@cA.g! M|@N|@O|@P|@Q|@[<@R|@S|@JY+T|@=, @s.d!@U|@V|@W|@X|@Y|@Z|@`|@cu  1@36..1@y3 &!+N#@V`+sC+DE +1@@1@$L+#1@i|@m>@$1@p@@%1@gA.6a.,B.]v &1@*1@=1@-1@;1@OE VY.>1@,1@}A.7}@|}@59+1,.Oh.'1@)1@)1@!1@~1@{1@]1@^1@/1@(1@_1@:1@<1@[1@}1@|1@11@21@31@31@21@41@51@61@h$+71@Nb.81@91@44 a. 01@a1@b1@c1@H..d1@e1@f1@g1@h1@i1@j1@k1@l1@R{.m1@   ",
"   n1@V} /l o1@7b.p1@zf.yJ q1@k7 r1@Yo+s1@8W+t1@21 j& u1@de+v1@w1@x1@y1@z1@rN.A1@B1@cy +v.GO.C1@D1@Q1.E1@F1@7)@0s+G1@H1@I1@J1@-[ K1@L1@M1@N1@O1@A1 P1@( +pt+7_.Q1@R1@S1@T1@/h.U1@V1@(=+W1@X1@Y1@Z1@`1@ 2@.2@+2@@2@#2@$2@%2@&2@*2@=2@-2@;2@>2@J0 h- ,2@'2@)2@!2@~2@r+.{2@]2@^2@/2@-D C).(2@^x _2@h< .f.:2@](+(M.<2@[2@}2@|2@12@22@.C !c 32@EE 9# `5.42@52@gE l@@62@72@q9 F` 'g.@Y+82@92@02@6u.N:+a2@b2@c2@d2@FZ 1[@1[@e2@f2@g2@AR h2@;Z+i2@KI.wm j2@!G.k2@+-@l2@m2@n2@o2@p2@l].Yf.q2@|t.4<@x- r2@N@+s2@t2@-;+u2@v2@w2@x2@y2@z2@Zw -!@F).A2@.4.yN.Jn B2@C2@D2@E2@F2@G2@,%.H2@I2@J2@K2@L2@(#@vi 2&.uv.M2@N2@O2@8;@0[+P2@Q2@R2@ )@'R._j.1$@)[.g& S2@T2@Ru+]1@U2@V2@W2@X2@Y2@Z2@(1@[1@`2@ 3@.3@+3@@3@#3@$3@%3@lg &3@{e *3@=3@>j h$+71@2, |;+f$ 2P }R+-3@;3@>3@,3@'3@)3@!3@~3@{3@]3@^3@ar./3@(3@_3@   ",
"   TE :3@<3@|X ac+[3@}3@NE |3@k7 13@23@33@43@&= =I j& 53@63@73@83@93@`%.03@I!.a3@oU.3!.b3@c3@d3@e3@f3@g3@q%+h3@H}+5C i3@j3@k3@l3@m3@n3@ax o3@p3@f3 q3@r3@J=+C4+s3@4/.t3@:&+w& u3@zp.v3@w3@x3@y3@V1@z3@A3@B3@C3@J..D3@E3@F3@G3@v; H3@-@+I3@J3@05 3E+K3@0++L3@M3@jD./[@N3@O3@P3@2t+{f N2 Q3@p$+wG R3@+{.S3@oS+vV+]F.Y~.T3@U3@V3@&C id.Dv+W3@X3@L@ >I.$G.2^.Y3@Z3@`3@W#.,/+ 4@a[.Ld .4@+4@@4@#4@-!@mi $4@%4@&4@*4@=4@-4@;4@>4@,4@'4@)4@!4@~4@2I.Oq KE w<+ v {4@Nw ]4@;< W@+P@+^4@/4@T:.(4@_4@:4@iZ+<4@[4@}4@R#@rN |4@cJ+14@`b.24@Nz.LJ tT.34@,0.8|.}a+l< 44@54@~`+64@74@Re+84@v5 wZ+2W+S#.94@04@r^+Vx.a4@b4@c4@d4@cQ.e4@f4@Ue.B:+g4@h[ h4@+p y3.i:.i4@j4@k4@j}@l4@m4@n4@o4@Y<@p4@q4@r4@s4@t4@u4@v4@71@w4@x4@y4@z4@A4@B4@C4@D4@E4@F4@G4@H4@>8+,p I4@J4@K4@L4@M4@N4@O4@P4@Q4@R4@S4@T4@U4@]^@V4@W4@   ",
"   X4@X4@Mx.GJ nQ Y4@Z4@NJ+`4@-(.NE oC  5@+-@81.C4 K# .5@+5@@5@#5@$5@6:.%5@u=+&[.3D &5@$~ *5@/5+=5@-5@;5@>5@,5@my.h;@'5@)5@Hz+!5@~5@{5@]5@^5@/5@X-.Mo.(5@_5@>k O#.`F+:5@<5@'}.[5@}5@V-@>;+(f.|5@[w.15@25@35@45@55@65@75@85@95@%q.05@pj a5@b5@c5@St.d5@e5@f5@g5@2s.$N+h5@i5@j5@k5@l5@m5@n5@o5@p5@eM.q5@Bz lY r5@s5@m&.Pm+t5@B2.Yo+GY.u5@v5@R> G@ Q> w5@4T x5@Nz.y5@z5@+h.A5@B5@C5@D5@E5@F5@*/+0w.G5@.^+H5@I5@J5@K5@L5@LU M5@Rg.HJ N5@O5@P5@Q5@]_@R5@S5@rd.T5@U5@V5@W5@F.+O, X5@Y5@Sh+.*.-F.Z5@*e.OE `5@ 6@,!@I< .6@+6@@6@#6@$6@^:.6<+%6@Fg+sT+,= pt+_}@-A &6@5b.*6@=6@8%+-6@;6@y0 >6@-$.,6@'6@y2+)6@AG.++@!6@~6@{6@]6@c2@^6@/6@(6@_6@:6@<6@&O [6@}6@|6@16@26@36@46@56@66@76@86@z0.96@06@a6@b6@c6@n>+d6@e6@f6@g6@h6@i6@j6@`V k6@]]+l6@U$+{> :' =o.m6@n6@o6@;3@p6@q6@r6@s6@t6@u6@v6@w6@x6@y6@#l+   ",
"   T5@Y4@a(.yC g9.6H z6@W@+)A =A 8;@A6@S(.=)+]  45 L_ B6@C6@~,@D6@E6@F6@G6@H6@I6@C@@J6@K6@L6@M6@N6@O6@P6@Yf Q6@XR+X<.R6@S6@T6@U6@@0+V6@W6@iF.X. Yp SN 1M+X6@Y6@8u Z6@`6@ 7@G}@.7@XR.+7@~V @7@#7@$7@%7@&7@*7@=7@-7@;7@>7@,7@#_ E/ '7@)7@!7@=t+mk.mj ~7@{7@]7@^7@Jx < +/7@n;@(7@t1._7@:7@b- <7@79 [7@pR..N+}7@|7@/)+BS+ri.17@HL.`].27@37@47@^2 ,# bE.57@Se+yb+|u+67@77@87@97@07@ZC.a7@b7@c7@d7@e7@f7@g7@h7@i7@j7@k7@eE.l7@#3.m7@n7@o7@$'.p7@i; +r q7@r7@>$@Bc+U;+s7@t7@=9+u7@k^.v7@ G+w7@x7@T|@y7@==+z7@b$@A7@B7@C7@D7@E7@F7@XL.G7@H7@I7@[v.@&@[u+S3.J7@K7@L7@M7@3-+N7@O7@P7@Q7@R7@S7@T7@t- U7@V7@g7@W7@Q@@X7@Y7@Z7@]J.m^.`7@/j.sE 4+@P~@03  8@.8@+8@@8@#8@$8@f6@%8@%8@&8@*8@1(+=8@-8@;8@>8@,8@'8@)8@=8@!8@~8@{8@Sc+]8@^8@/8@F7@(8@]: Qk._8@dm :8@<8@[8@}8@|8@18@28@38@48@58@68@78@88@98@AE+08@   ",
"   a8@V6 sd.ur.$N+^x b8@6++#7 iJ c8@d8@L% Hr A1 ]$ e8@!m+(>.j'.F]@f8@g8@h8@i8@j8@/I.:E+5L.k8@l8@m8@n8@**+o8@p8@q8@r8@s8@Cn+t8@3P g`.}=.Xp %p.j; '@ -#  t u8@v8@w8@x8@y8@z8@A8@B8@C8@8% D8@E8@Gp nQ+CX.~W+(Y.[j+Q5@F8@G8@H8@I8@F. 55+J8@K8@,  MO N0 L8@@K dC+U~ 0M !z.M8@N8@O8@P8@Q8@R8@S8@u @T8@U8@V8@W8@V)+6C+X8@Y8@Z8@`8@ 9@N3..9@#>.+9@@9@#9@X@ b>.$9@>(@%9@&9@UP.*9@=9@-9@7g.;9@2[ >9@p* ,9@'9@9U+)9@!9@6% Q2 F< ;M pp Wp ~9@(>._8+/;.## &. {P {9@]9@l3.^9@/9@/+ 0l+(9@_9@:9@<9@[9@WB+fp.}9@|9@19@XQ+'N -|.<6@29@39@`s Ak+49@0P+d{.)j+59@Y!+6=.cs 69@79@N% XN+89@@B+99@@N+Y( oH 09@`'@Lq.@R $J.~S+a9@X)+JU+NG.Ih+pp y`+],.3_@3m+X;+,% ,: b9@c9@d9@%; e9@f9@1+.1+.g9@h9@M, Eh.]J.i9@j9@HT k9@l9@m9@^-.n9@N_@<J.o9@p9@q9@r9@s9@t9@g'.Hf b4 vr u9@v9@w9@aM+#W+x9@y9@z9@A9@B9@C9@D9@E9@F9@G9@   ",
"   Rr /3 &2 un.7t.=2 Pr J# LP y4 cp +# %. H9@I9@_C+J9@,% S+ ^5.z+ cO gO $# 0;.WN 2  (4 nD+H# `r 4R -n+T1 jr $s 8+ K9@tZ.tZ.f4.L9@l# M9@t# %@ F;.F;.Es w2.J3 N9@O9@P9@,s &}  #  $ dr X! LP 7+ Mm+0P Q9@R9@gi+Zp #1 DP @9@nZ.S9@S9@8+ $@ +U+T9@U9@A&@Y# <r [;.pr nc+V9@~j+W9@X9@Y9@~2 p4 <4.J# dr MO =@ Z9@nD+U1 w2.%u j$ cp [r z3 (# D3 `9@DP #1 V@ mD+ 0@.0@+0@KT+Er 8  @0@#0@A&@%4.(7+e# D3 J# $@ ;P U# D3 dr $s Op oo./,.g2 g2 T1 T1 e# o;.L$ @r ]$ 0+ $0@3# %0@&0@*0@=0@bE.tc -0@;0@>0@!k ]s 8r T!+8  !; *s *s |4.6n.GD+Yp ,%  r L@ F4.4D+98.ED+^5.<r m  kP Pr !_@o) z4 z@ K# {Q >Q @,.l~+jr /,.[r $s `N [@ ]9 g7+,0@ZT+ZT+'0@8  ar 6  )0@XN cr. 5.$2 0;.z$ !0@b  (  u!@~0@g$ 2G.{Q RS+YZ.4  :1 L2 g4 +O {0@]0@^0@/0@(0@|Z.rH.!; :8 _4 cP J+ ,r _0@A1 0n.^w !r :0@~r A# S4._@ B6.c@ 'P +#    ",
"   +P &[ ;8.y|+ch 1Z.D4 {r 4r dr .;.*_@r3 <0@/, [0@9P :s }0@8|.|0@n3.e% z. 7>.82.NP <8 Vr @1 b4 `T+=_@10@|&.H# NT+Y@ 20@N4./5 q!+*2 Y$ q!+t4 35.;2 _7 1n.o) M4.M4.`p `q E@ 3+ }@ C# e# T, 7+ DP a4 cG.Io.05 X-.^% IH.aL {_.EP nA N4.]> 9# M4.M4.^Q D@ }m+30@zZ.40@Ef+50@wn.60@70@80@90@_B+Yh ^6 L- yZ.}5 00@H&@a0@^  y3.UD+p) k]@eJ.|=.VZ.3  $1 UN E$ St.4  3J.f1 !H.H$ ^>+-5 @4.Er e1 b0@=O jP D5.`p Cy p`.c0@u;.Jr d4 ]~+]~+I@ <D+9/.20@d0@:' TP.H& -& e0@Yp 16+i~+B1 fZ.m`.0p+f0@.r g0@a. 9P M3.7  jG./4 M4.v$ t;./5 /5 IO *5.!*@J$ r3 <3 $>.$>.E!.I4 ^4 -7 .>.rH.m3 /4 !% r! U;.xh.j0+fG.{u.AQ.z3.KH.$  ]> !-.UN h0@MB !5.25 c* ,: c1 r&@Qo Hr =O i0@&[ 07+A+ z%.!% H# ~r p' j0@^>.=I e  y$ k0@l0@)o.:s v4 KT+U# 0n.d# [;.*2 /5 o3 %# ;~+Um.m0@,!+n0@Do.o0@_#+0h 25.%& .*@=s s@ ;2 ;* 5P    ",
"   B=@p0@Ey+;:@}Z+1g.Fp.*E+F% 7m.q0@r0@29+`( s0@t0@u0@iI.]y v0@%X FA T<.w0@ua x0@t6 :q $9@}o.OQ R5.y0@z0@A0@B0@gQ C0@D0@E0@}z+F0@R6.:9@G0@H0@I0@J0@9l+yr.K0@=U.L0@rI.M0@N0@am.)@ '@ I4 6. O0@%Q P0@Q0@kv+R0@g_ n9.%q IG.}3+;@.{l+S0@T0@9).AI.U0@V0@W0@X0@Y0@3d.dY <^@Z0@^S+H&@Dr 85.|q m^@`0@ a@9t..a@+a@@a@#a@$a@>#.%a@&a@lc ~h l.@.I *a@=a@51.p^@n+.(h L, Z& -a@>E+~=.k> RO t$ =[ ^+ ;a@>a@,a@[Y.2Y.'a@)a@!a@~a@{a@]a@^a@/a@(a@_a@HE.Q$ :a@<a@[a@}a@|a@2} 1a@y%@~+ 2a@16+U-.3a@|2 4a@5a@6a@7a@[#.N5 zT+8a@9a@XI.0a@aa@ba@ca@da@ea@fa@@. ga@ha@ia@ja@ka@la@ma@na@oa@pa@/9@>3 qa@ra@sa@S#.aQ.ta@TD.ta@ua@va@wa@xa@^S.+8+ya@za@Aa@Ba@#q Ca@Da@Ea@Fa@Ga@;{.Ha@Ia@~1+Ja@21 wh ;Y Ka@La@Ma@Na@Oa@Pa@Qa@Vb+63.Ra@Sa@I. Ta@Aq B5+Ua@Va@mX.o. 01.Wa@rZ+Xa@^&+oc Ya@Za@`a@ b@62 s@ q  .b@+b@@b@#b@$b@   ",
"   %b@^E &b@Dt+3U.*b@bp.s_.'C zK (].=b@-b@B#.;b@>b@,b@'b@)b@!b@~b@>h+jL.#d.{b@]b@]u -w p2@^b@/b@>/.(b@_b@:b@<b@[b@}b@|b@1b@2b@3b@Gg+4b@5b@6b@7b@|k+n9@8b@9b@/T -S+0b@ab@o_.@O _4 y3 bb@cb@l*.db@eb@P9.fb@gb@Mt+yI hb@ib@0m X( jb@kb@T[@lb@S3.mb@nb@ob@pb@qb@@-@rb@%E.sb@tb@ub@{j+vb@k8+wb@KJ v;@J[.K^.+ @Fj xb@yb@zb@Ab@Bb@X>@vz.@z Z^+Cb@+a.vy.(h+ P.Db@Fb.'~@Eb@Fb@@2+F6.Gb@=m.Hb@Ib@Jb@Kb@Lb@Mb@.c+Nb@Ob@Pb@oS L<.Qb@Rb@{J+D, Sb@@f.|d.>s+gT Tb@Ub@Vb@Wb@Xb@Yb@H* Zb@b1 J~@9o.`b@ c@`J.)J+;c..c@+c@@c@X7 #c@$c@%c@&c@*c@=c@R= -c@;c@R= >c@,c@'c@)c@!c@~c@{c@]c@^c@/c@(c@Q| Z4.>3.Z.._c@:c@<c@$*+B:+[c@}c@W& |c@1c@2c@z9 3c@4c@5c@Tk.6c@IS.7c@8c@9c@0c@ac@bc@cc@dc@ra@ec@(`.~z.fc@gc@hc@P, ic@jc@@a@_b@kc@lc@*:.h}.mc@w!.uE nc@oc@Gj.pc@DW.s7@qc@rT ej.o$+)c+:6.jM.Cn+_v rc@sc@ax+tc@uc@vc@   ",
"   wc@xc@mO.cx.}: QK+xN ,$+yc@zc@Ac@Fd.Bc@Cc@Dc@Ec@Fc@5H+Gc@b6.KV+Hc@Ic@*;+{8.o!@^S Jc@-b+Kc@Lc@Mc@Nc@Oc@Pc@Qc@Rc@wX.Sc@Tc@Uc@Vc@Wc@Xc@Yc@Zc@`c@ d@.d@Gg++d@@d@#d@$d@%d@&d@[5 K;.hr c*@.-@J.@n~ *d@=d@]A Lz.-d@;d@>d@Aq.xQ.,d@'d@)d@D^.!d@~d@wr+{d@]d@D)+0++r{@^d@/d@(d@YK.F* $O _d@CW.]{ /L :d@<d@[d@|) }d@|d@1d@2d@3d@On 4d@5d@6d@7d@lM.8d@9d@0d@ad@);+rO.V/ bd@cd@dd@PS ^8+ed@cM.F] fd@E@+gd@hd@~k.id@jd@kd@ld@}p+md@nd@SJ.#U.WM.od@ag.pd@qd@rd@sd@HW+td@ud@vd@`! wd@]% [A OU+xd@yd@zd@Ad@Ob@Bd@Cd@&Q.Dd@#%@Ed@Fd@Gd@tP+Hd@8h.Id@Jd@Kd@Ld@Md@Nd@Od@Pd@Qd@Rd@}w.tP+tP+Sd@Td@Ud@Vd@Wd@Xd@Yd@Zd@`d@yC  e@3; {{.E(..*.w9 Ci .e@c^@ %++e@@e@9(+#e@_A $e@TS %e@jd.&e@*e@=e@^m+-e@;e@>e@,e@tH+F0+'e@)e@!e@~e@{e@wa.<b.]e@b^.G^.Et.&~@d! 't.^e@/e@bA.s(.s(.:g.=!.G%@(e@Y: _e@:e@<e@[e@z4+}e@|e@1e@   ",
"   2e@.f.{|.Xc.E! _W+|] c@@!$+xb@3e@4e@5e@6e@7e@N-@8e@9e@0e@ae@be@ce@de@r5.3'@ee@MN fe@ge@he@ie@je@By+a<@ke@le@]0 me@R<+ne@oe@pe@qe@re@[).u~.se@te@ue@ve@:b+we@xe@ye@m' ze@Ae@Be@Zr Ce@De@hk+Ee@Fe@BJ Ge@He@Ie@Je@qZ Ke@Le@~7.'|+Me@i;+Ne@Oe@}1.rW.H! k}.,V+0^+xC uu Pe@)I+*M+Qe@cr %a 6P+Re@Se@L$@Te@Ue@*q.d}+Ve@O$@eW+We@fq.Xe@ye.te Ye@Ze@`e@w]+Hj.3e@TG  f@.f@+f@X.@aW+^8+4m.@f@#f@&O.2x+nh $f@%f@&f@*f@=f@OJ.@@+-f@gn ;f@WF+#f.>f@8W.,f@C8 'f@)f@!f@~f@Pf+{f@gX.]f@]% ^f@j0@/f@(f@_f@:f@<f@[f@}f@-c.PT.ZR.|f@1f@2f@3f@4f@+l+GA Y7 5f@6f@7f@G..8f@9f@0f@af@[>@!t+bf@cf@UD+df@E0+Sx ef@YY.XS ff@gf@ui ~{.hf@pw+(g.E].if@M.@jf@DJ Vo+L.@L1.k7 {h+_c@kf@lf@$Y+@A 'l+mf@BU nf@v:@of@cH pf@!w.qf@Ha.T'.rf@=< T&+sf@tf@I; I(+uf@vf@wf@xf@Fj+yf@7l r:@B` Sn s(.zf@:6.qM.Af@9$ Bf@f<@CI.Cf@G* ^(.   ",
"   @@+Df@od@-W+($+W#@u! aF a= Ef@Ff@Gf@Hf@zf 3.+If@Jf@W=@Kf@Lf@ir.Mf@Nf@bM.B4+s,+Of@Pf@Qf@Rf@Sf@v}.re@eD.l`+Tf@qU.Uf@3!.Vf@Wf@Xf@p{.Yf@$.@e2@AE Zf@`f@ g@3.+.g@+g@@g@#g@$g@=7 x1 8# %g@NZ &g@*g@=g@-g@;g@>g@,g@)}.Q+@t0+'g@)g@!g@KH+~g@{g@]g@Nz EE .v Hi+^g@h3@/g@(g@<Q _g@:g@<g@[g@kQ+u8.Ie+}g@|g@7).1g@2g@R{@]f VQ.3g@4g@5g@c{@6g@i%+7g@uK.Uh 8g@q{@9g@Ej+O, w[+0g@ag@bg@_>.cg@dg@&x+eg@fg@-@+}h+(v+gg@~}@hg@ig@jg@{(+)/ |x+kg@7q+;{.x!@lg@mg@ng@EG.og@c4+y9+)@@Of+pg@qg@*_@I)+rg@FW.sg@tg@ug@vg@wg@xg@yg@zg@Ag@86 Bg@Cg@Dg@Eg@Fg@Gg@Hg@Ig@Jg@Kg@Lg@Mg@(r+Ng@Og@Pg@Qg@Rg@Sg@:=.q0.Tg@l< 'E.Ug@Vg@Wg@y%+k9.E].Xg@Yg@] @Zg@`g@ h@od..h@ai.+h@l7 @h@')@#h@$h@%h@&h@Wd@*h@@O [j+;e@1$+=h@-h@;h@>h@p,@,h@'h@tA.sM.)h@!h@~h@,~ {h@'+@]h@sT oZ+^h@/h@(h@F.+_h@:h@/~ L;+O/ <h@[h@51.}h@I_ |h@1h@2h@   ",
"   3h@zb.uz.8_.4h@Ou O#@o$+5h@6h@7h@8h@9@@=J 9h@0h@#g@39.ah@bh@ch@dh@Y^ D] Cb@eh@fh@gh@hh@ih@jh@kh@7u+lh@mh@qT.nh@B$+oh@ph@qh@QA rh@zM.sh@3C D!@th@uh@vh@wh@xh@yh@zh@Ah@Bh@~0@nv C4 .`+Ch@Dh@3l Eh@f9 Fh@5U Gh@Hh@Ih@Jh@I< Kh@H9.pC.1V+pV kq.Lh@Mh@Nh@e^.Oh@Ph@5z.Qh@Rh@Sh@Th@#,.C# V.@+*.Ob.Uh@.*.A|@Vh@Wh@T#@6g.Xh@Yh@`:.Zh@`h@ i@.i@/D +i@@i@#i@^F ~{.Ue+y).Ki.Q& $i@%i@_E+P>.k,.SJ.&i@WD ,x+*i@=i@(#.-i@;i@>i@,i@'i@)i@!i@&x+~i@MT.{i@]i@^i@/i@(i@_i@:i@<i@[i@#3+}i@{_@|i@1i@=%@2i@-B+3i@4i@5i@c%.6i@7i@8i@9i@0i@ai@NW.bi@ci@di@ei@fi@gi@hi@ii@ji@ki@li@mi@ni@oi@pi@qi@ri@/I.si@H[ ti@#g ui@vi@wi@)^ xi@4@.yi@zi@Ai@Bi@Bi@Ci@:g (g.Xg@Di@Ei@Fi@Gi@Hi@Ii@Eq+Ji@h%+Ki@Li@:-@wj+io *v.V_+]w.Mi@Ni@Oi@OS.Pi@Qi@Ri@[w.-5+Si@(Q+Ti@PZ+NZ+Eb.D[@,~@Ui@Zf.Vi@Wi@Xi@Yi@Zi@Um.-. `i@ j@_T .j@+j@@j@   ",
"   th TR.% .sA )c+Ia.#j@$j@%j@&j@*j@Jh@ri+=j@-j@;j@CX >j@,j@(/+'j@XL.Ed.Ce )j@!j@~3 ~j@{j@]j@^j@Ez./j@6D (j@{a.Bt._j@6x+:j@5g@<j@7X [j@}j@|j@1j@2j@3j@4j@5j@6j@7j@8j@9j@0j@aj@ @ 7# bj@cj@dj@m*+p|@] @ej@fj@gj@9v Q& hj@Jb.2}.L` ij@jj@`Y+kj@lj@mj@_K.nj@[a.V^ oj@pj@CJ.qj@rj@t;.NP [e@sj@<Y }W+tj@.V.uj@vj@wj@_J.l( xj@k^+yj@zj@Aj@NX+Bj@Cj@Dj@Ej@Fj@*G.nd@Gj@S(+Hj@Ij@Jj@R<.Jp.$j@Kj@Lj@Mj@Nj@8J+E, Oj@ka Pj@5V Qj@Rj@Sj@Tj@|w.Uj@vO.+@+Vj@Wj@Xj@Yj@Zj@`j@ k@.k@+k@@k@!m+G)+YN #k@Q<+$k@%k@&k@*k@=k@-k@;k@>k@>k@J4@,k@f%.'k@)k@!k@~k@{k@]k@^k@/k@(k@_k@:k@<k@[k@}k@|k@t  &s+1k@2k@YU.#e@3k@4k@5k@6k@7k@8k@(..BY 9k@0k@ak@^W bk@ck@<Y 5@.dk@!0.ek@p++VJ fk@gk@hk@ik@jk@WE.A6+[7@kk@CE lk@ox.X6+Lk mk@nk@ok@pk@qk@rk@sk@:T tk@9N+uk@vk@E! n]+wk@xk@yk@zk@Ak@a= tE.Bk@<c.}=+>c r~+(I Ck@Dk@Ek@   ",
"   Fk@HY Gk@Hk@Ik@Ej@Jk@1q.Kk@Lk@^|@G! P+.Mk@_;@8' Nk@Ok@Pk@Pk@Qk@Rk@D'@3: [ +Sk@j7+Tk@i7@Uk@Vk@Wk@Xk@Qz hL.Yk@Zk@0W+qi.Tk.#k R4+`k@ l@.l@+l@@l@g! gr.#l@$l@%l@&l@*l@=l@A/+-l@60@!;.S, *[ uq U1.LF+;l@#).JV+f( _w.6I #i@>l@,l@'l@4c )l@!l@~l@{l@]l@gL.^l@/l@(l@_l@j3.:l@3M+<l@[l@U1 }l@:-@|l@1l@KE.3* c= V^@2~@#w 5p.Mb@2&@ic@fU.(|.tz.2l@aH+3l@4l@5l@6l@7l@.c+8l@9l@U,+0l@|1 cl+O!+F;+}u+ii+a{@al@bl@cl@dl@el@fl@gl@hl@il@jl@(=+KU.kl@ll@ml@Ld+f;@nl@+R ol@/+.A1+W_@pl@;-.1P $H.dz.KQ.ql@rl@sl@tl@ul@vl@wl@8$.xl@yl@zl@Al@Bl@Cl@Dl@El@Fl@Gl@Hl@Fl@Il@Jl@Kl@Ll@Ml@Nl@Ol@E  f: A+ I;.92 GG.Fx ma.Pl@o1@Ql@Rl@Sl@fg+E-+Tl@Ul@|l Rb.>> Vl@ji+Wl@Xl@M7.N0.w5 Yl@Z[ Zl@`l@ m@&1 _O ZL PQ .m@+m@@m@#m@iv+x%@$m@%m@&m@ (+*m@`6@W4+=m@-m@;m@>m@xN ,m@~,+Bb@;m@'m@!++)m@!m@~m@{m@LH.]m@^m@/m@(m@_m@f1.   ",
"   w` #5.%O n, /5.:m@j0@<m@%]+[m@M_ }m@=n+%P {$ Bm._s R| T| 5~+|m@|~+kO V$ :M __@U-.1m@(!+2m@3m@tp+Y7+fs |% Fl.uq 7m+u=.@t 4m@Z| Mm.VO 5m@6m@7m@8m@b#@9m@{5.JO To 0m@am@0B+bm@cm@y;.[7+U# j$ Z@ dm@J4 B!+d* FN pr !!+em@=)+LT.u%@w'.O. 9t fm@gm@hm@hm.c3.DW.im@S8./Q.jm@km@<$ a4.lm@mm@Zr c$ EP nm@):@}*@V&@y3.H4 (5.-* VN JT H)+JH fB =~+J%+om@AD+pm@B2 Zj.G3.5G.:  fB g$ qm@@5.'  bT+OQ ~N !z.u<+[Y.(=@S`.=$ >a@rm@sm@|v+[s tm@um@vm@wm@BM xm@a$ N3.B@ t1 H  pn+7R }=.6@ &4.35.ym@da ]U+65.0m@zm@Am@Bm@Cm@|H.Dm@Em@Fm@Gm@Hm@Im@Jm@Km@Lm@Mm@Nm@Om@Pm@Qm@Rm@Sm@Tm@Um@Vm@BD+45 55 /r ur -Q Wm@{ +Xm@S9+Ym@-q.UQ.Gb.{e@Zm@L{.`m@y0@Jp.lG.lG.!S+ n@>5+Sh.]1 Qs Wt }o..n@5G.d& j@ d`.'r v7+6# +n@)-.@n@r;.04 |+ :2 1# ip #n@Hu+Ow  p x!+:!+0L t6 ~0@$n@%n@&n@*n@)O =n@I@ o;.nD+=I .% A. -n@3o.Hq.   ",
"   ll.;n@u6 %@ :@ `&@>n@`&@dP o&@,n@Jn.[r I4.%@ o;.x;.%;.jG.I%+F;.Be@'n@DP >s E# W+ )n@!n@0n.^w P1 @# ,% !r W1 $u ~n@Q| #-.Z3.{n@{n@#-.B@ SN SN RS+%p ]n@2H.p3 f;.(S m@ pO |@ A4 %5.'5.47+%@ L3 bn.^n@zm+e3 +6 S# (# ~r IH.;* -# (^+U1 pr jt a5./n@(n@z# ,H.Q4.h4.If qr _n@4;.!Q Z1 :n@gr I# rH.!5.Cy ^w ==.<n@!0 ,@ [n@}n@2=.M- =3 5n.xn.Cm+AH.M@ @1 (4 3r 6+ `r =O j$ y4 k@ `r 3P |n@(5.aL am.7a.u@ 1n@J$ )m+2n@i~+7o.3n@4n@<] %O PZ.MO ,% 6c m@ H3 >s ]H.a# {r L1 t# ,_@^~+g2 B_@5n@vO :@ p;.)r.8Y.6n@e4 7n@8n@>P dZ.9n@5P 0n@}4.+2 -7 O@ I%+q;.PT+=@ ]o m  E# |@ j$ j$ [4.[] h;.Zq /U+$>.n( To hH.cG.l3 HP {u.I* e$ _#+4Q St.t@ Fs WN V3 ,H.8h Pq &# D1 JT i>._C+|# [3 qZ.}O /H.0P 9n.J9@m  x# V# %@ pr rO an@|,.T, F# bn@cr '_@YT+YT+(@ U1 x# hO N3 [;.%;.3r LP `p Cy Nq 8h L3 2n.9+ U@    ",
"   QQ IU+bp L_ u6 cn@Q1 s@ ()+C!+^2 A@ )& o>.); *N+dn@;!.en@fn@u=.`_@gn@hn@3}.($ 1o.83 4O+4O+np [q <P *3 8. rr in@1;.Om+jn@kn@:; &W+1] to+@N oH ln@n2.yN.x_+mn@nn@MF+`M ,S+on@+j@pn@qn@e'.$~+=a rn@D[ .K 5m+Xr &| !@ Q8 sn@gM ,`.d& j; Wn.UU+tn@un@vn@3O wn@67.`n+j1 _u xn@yn@=>.zn@An@Bn@M| Cn@Dn@7m.^2 En@w/.'2 Fn@Jg+Gn@I/+Hn@~[.In@tN.Ds+ua.yD+@c q^ Jn@sz+Kn@:) |L.^f.Ln@HC+2!+Mn@Nn@Xk+On@Pn@Qm.Qn@dD+Rn@l_@Sn@>T+Tn@Un@K_+_& ~Y.fT+kU+#_@n>.Vn@Vm.O3.Wn@Xn@ 3 :2 gp g& y3.|3 D4 .>.AP wn.2j+|5.If _@ Yn@q4 JO #. z3.ym.B5.#5.N4.-h.zm@Zn@~0@`n@'I. o@Vs .o@Y6 hk.p;+D{+q) MG.Wm@M% +o@@o@6% #o@F4.$o@%o@iw+&o@*o@=o@8'+-o@;o@$u+>o@,o@'o@)o@3L.`H.l_ m< X,@!o@vG.FJ.pb@.N+ip.~o@&c+m7.2d.{o@hm+5@ S4.*#@P. *]+]o@~`.K8@^o@/o@(o@F<._o@J{+:o@}R &].<o@[o@}o@|o@1o@#a Wq.2o@3o@4o@K!+5o@   ",
"   6o@n=@7o@8o@9o@-5 0o@&C+ao@bo@co@do@eo@fo@Zm@3y.pK go@ky ho@_i io@jo@ko@lo@mo@no@oo@$l po@l8.qo@/E 8{@ro@JV+P..so@to@uo@vo@uo@ { wo@3]+xo@q<+6L+yo@zo@Ao@-s.^B._L x'@Bo@Co@`~ Do@Eo@Fo@Go@!0+Ho@Io@Jo@2f+*,.,;.F*@Ko@I-.]R+Lo@Mo@No@Oo@~F Po@Qo@4}+MC.Ro@So@To@Uo@Xx./M.Vo@Wo@Xo@Yo@<a+IC OF+CB+Zo@`o@ p@ot .p@(8++p@@p@-t.lc+#p@cz.$p@%p@&p@;-@*p@N_@[C Yk =p@<6.yx fv )~.Ge+-p@]+@;p@m;+>p@,p@{I d- 'p@-U )p@!p@eS.~p@:m.{p@]p@^p@/p@NP+(p@8M+_p@:p@<p@[p@ a mP+}p@8r.|p@1p@h{+2p@3p@4p@5p@6p@7p@C`.hm 8p@9p@Xw.Pw }:@0p@XH.ap@^]@bp@YQ 6~.{l+cp@p,@dp@yO+Fh@ep@fp@gp@hp@sZ+ip@jp@kp@lp@mp@np@op@.q @6 >K.pp@qp@rp@sp@tp@up@vp@&1.wp@xp@yp@zp@Ap@Bp@Cp@Dp@&*.M7@Bp@8g+3L Ep@Fp@Gp@Hp@Ip@Jp@Kp@Lp@s4.8b Mp@Np@Op@Pp@W +X[ Qp@Rp@Sp@Tp@Up@Vp@Wp@Xp@po Yp@Yp@Zp@`p@Bd. q@.q@+q@@q@WD t<+3/+   ",
"   [x+#q@$q@%q@&q@:8 $Q *}@*q@Yv.Ch.u].=q@-q@=A ;q@>q@cd.Ib+>=+,q@'q@)q@!q@~q@{q@]q@^q@x-+/q@(q@_q@!d+ i+Ve+:q@/  <q@}d@[q@}q@|q@1q@2q@3q@4q@5q@6q@7q@8q@9q@$l BD &q.0q@aq@bq@cq@'L dq@eq@|`+|L hu :c+fq@r8.gq@jO R4.c3 hq@lO+iq@'}+jq@kq@lq@r6+ya rk mq@nq@&7 oq@b{@%;+pq@qq@/z+{F rq@4c sq@~_ tq@uq@vq@MR.2}+]s r= wq@.@@xq@yq@zq@Aq@Bq@Cq@Dq@Eq@go@Fq@Gq@#h+Hq@vC Iq@bE+Jq@Qk.Kq@F+@[].Lq@x{.C}.r$+Mq@Nq@.{@~P Oq@(K.Pq@Qq@^k.Rq@bk %1 Sq@b6+z5.Tq@Uq@Vq@Wq@<~ Xq@Yq@Zq@`q@ r@.r@+r@@r@ib.H,+#r@$r@#w %J.d1 mj d.@%r@&r@i- *r@=r@c|+-r@;r@Nq+>r@bZ+2++,r@m>+|M 'r@)r@+b+p^+!r@Uc+~r@/^ {r@]r@^r@/r@(r@eo.Mo+&b._r@:r@<r@[r@[r@}r@|r@1r@2r@3r@4r@5r@jl %C.6r@7r@8r@9r@0r@6/ [..ye+ar@br@cr@ni+dr@er@6d.t5+fr@gr@-#@hr@ir@jr@Wd+kr@lr@y)@mr@nr@or@pr@qr@rr@sr@tr@ur@vr@A2+wr@xr@M|+_#@.h.yr@   ",
"   dJ+zr@Ar@Br@Cr@o;. k S] Dr@r:@+A.Er@Fr@Gr@Hr@Q}@Ir@Jr@Kr@q8.Lr@Mr@Nr@Or@Pr@Qr@Rr@Sr@Tr@Ur@5;+Vr@Wr@Xr@Yr@ -+c% Zr@`r@ s@g_+.s@+s@@s@#s@$s@.E %s@fG EB &s@*s@=s@b%+b%+-s@;s@>s@,s@1G 's@)s@!s@!s@~s@#E {s@C| X+ g& j1 ]s@^s@/s@(C (s@_k+Fk _s@:s@;E+w~+<s@[s@}s@|s@1s@Pb+p6+89@2s@3s@-|.N% 4s@5s@Ze+<R T6+6s@V$ 7s@8s@[x.9s@Q^.0s@as@bs@~/ cs@8( o2@ds@es@-6@fs@gs@-h+==+hs@is@js@ks@ls@LM+1O.qU.ms@ns@c3 Yo os@ps@qs@wS.7[@P0 b-@/v.rs@ss@g)@ts@us@]o.vs@](.dl+ws@xs@ys@zs@As@Bs@'] |W.*[+Cs@#r@Ds@Es@Fs@;-.Gs@Hs@Is@3<.Js@Ks@Ls@=T d3@nB.sT.Ms@D7 >j.Ns@Os@R0+Ps@Qs@Rs@Ss@Ts@Us@Vs@E+.Ws@5,@Ph.Xs@Ys@7.+0m Zs@3_ `s@ t@<9 .t@+t@@t@@t@#t@$t@4r@%t@2l 3d BJ+&t@3d *t@=t@-t@;t@>t@Wc+,t@ZE.Mc+li 't@cX+qp )t@!t@~t@p8.{t@{#@@}+Lf.]t@^t@/t@(t@Lf._t@:t@<t@#4@[t@/u.}t@|t@1t@2t@Rc+3t@4t@+g    ",
"   `G 5t@6t@7t@8t@o;.U5.9t@0t@D;@yf.{r@at@bt@ct@dt@et@ft@C*+gt@<b ht@it@ 4@jt@kt@OU lt@Cf.mt@nt@ui :x ot@pt@qt@Wq@rt@st@tt@ut@vt@wt@xt@yt@ed ed zt@At@'E #<+Bt@Ct@Dt@Et@Ft@Gt@>s@Ht@0%+It@Jt@1t@Kt@Lt@Mt@e7@Nt@o;._{ p  Zh@cq+Ot@`Y.<9@Pt@Qt@Rt@St@Tt@Ut@Vt@Wt@Xt@Yt@Zt@`t@YS.g.@ u@.u@+u@@u@MF+#u@$u@%u@&u@*u@N+ =u@-u@2k ;u@>u@,u@O& yk+l2@9b@'u@<b+~i.)u@!u@[c@~u@F` Jd.{u@%P+Ej+%b@]u@^u@/u@..@#B wM.S/@(u@HD+_u@:u@fo Xt@<u@[u@}u@|u@Ff+1u@2a ;3+dj 2u@j-.3u@aR+]|@4u@5u@uj.e1+tS <R tr.^7 -/.6u@7u@8u@)7+9u@0u@he+au@bu@cu@du@eu@rT.rT.]x.0- fu@fV gu@tz 9u+z:+ c.hu@iu@ju@ku@lu@mu@nu@Ue.B;@ou@pu@qu@dv .s@b+@ru@su@[9 .t@tu@uu@>t@vu@wu@:`+xu@/y+yu@zu@2t@Oe.Au@1`+Bu@Cu@Du@Eu@Fu@3, Gu@Hu@Iu@Xt w. Ju@Ku@Lu@2i Mu@Nu@Ou@Pu@Qu@Ru@fl Su@Tu@Hy.Uu@Vu@Wu@Xu@Yu@Zu@`u@Nu@ v@.v@+v@^y+Qu@   ",
"   @v@#v@$v@%v@&v@p;.[q %x.*v@}o =v@-v@;v@>v@6l ,v@'v@)v@l=+y:+Ib+.8.!v@~v@{v@]v@^v@/v@(v@_v@:v@<v@[v@}v@P( nu )M gE.|v@=K+f) N$@1v@2v@3v@4v@*s.ed ed LI 5v@6v@7v@8v@9v@Ft@0v@av@bv@m<@GB Jt@Nu@Kt@Mt@=s@Kf Pa@e# k;..m+k8 cv@rR.dv@.6.ev@8l@fv@gv@F>@hv@iv@jv@kv@lv@mv@nv@ov@m= /s@}u@pv@!Z+(N W=@qv@X_+rv@sv@nn._[@@2+tv@7G+uv@vv@M, wv@xv@yv@zv@Av@Bv@Cv@Xb.8= Dv@Ev@VF+Fv@Gv@{h.n+.Hv@9Q.:_.Iv@Y=@Jv@9,.-0@Kv@T^@Lv@Mv@^9.!a.hP.6~@Nv@Ov@Pv@uN.Qv@Rv@Sv@@* %j@Tv@UY Uv@f3+Vv@Wv@Xv@Yv@mq.Zv@ r@`v@q_.[Q+zm@ w@.w@+w@@w@#w@$w@%w@&w@3_.*w@]x.9[+=w@-w@E2@;w@,E.>w@,w@'w@)w@!w@]u+~w@7:@{w@]w@^w@u0./w@(w@9: #s.2#+_w@:w@5N+<w@[w@}w@|w@4r@%C.A0 1w@2w@3w@4w@H @5w@6w@.t@[w@7w@O @8w@%C.9w@0w@aw@bw@GI.vT+3h@cw@_L N|+dw@ew@fw@gw@R @La hw@iw@jw@kw@lw@N#.mw@nw@lW+GB 7f.7q@ow@Tc+%g pw@qw@   ",
"   rw@sw@tw@uw@@6+@1 yn@h4@vw@3H MJ+U!@3[.d @2o ww@xw@yw@zw@Aw@Bw@Cw@Dw@>Y+Ew@Fw@Gw@Hw@Iw@ 5@Jw@Kw@Lw@Mw@[E.Nw@Ow@Pw@Qw@Rw@Sw@CS Tw@(t+Uw@Vw@lB Ww@Xw@c}+Yw@Zw@`w@lB v;  x@.x@Se@tB +x@@x@#x@<u.$x@%x@&x@*x@=x@<r cx :b.-x@;x@>x@X6.UO.,x@'x@)x@!x@~x@{x@]x@cg@^x@/x@(x@_x@:x@<x@O5+u0@[x@qv@}x@|x@1x@gk@]G.c'.V$ 2x@.x.3x@4x@5x@~> 6x@7x@8x@9x@0x@ax@ ^@bx@cx@dx@ex@fx@bp.gx@O#.hx@ix@!{.9z+=p@`~.jx@e<@kx@0I.lx@-I.$%.mx@nx@ox@*7 px@qx@Vt y=._t rx@sx@j*@tx@ux@.U Y8 vx@wx@xx@yx@I6@zx@Dc@3a+Ax@Bx@%z Cx@=0@>=@9++Lg.h2+Dx@ZC Ex@%v.Fx@Dr.Gx@ZD.Hx@P7 Ix@Jx@Kx@Lx@Mx@Nx@Ox@Px@Qx@Rx@z*+Sx@ h+Tx@F[.%,@Ux@Vx@)4+Wx@Xx@Yx@FQ+Zx@`x@ y@.y@+y@c+@@y@2G #y@$y@%y@/L (L &y@mY+&1.*y@0r@=y@Hu@-y@;y@>y@Tf mp SO ,y@'y@_L )y@_L !y@~y@gC.{y@yY+]y@^y@^y@/y@(y@(y@/t@_y@:y@EI <y@[y@qe+s$.Ol @b }y@   ",
"   |y@>d@1y@2y@P3 <r mP A7.3y@q%+4y@5y@6y@0(+7y@^[@8y@<H 9y@0y@B*+md+ <+zn I2.ay@K`+by@cy@Yf+Np+`> $$@l].dy@ey@P6.~$ fy@gy@hy@iy@-k@-k@,7@jy@ky@ly@F/ LS my@ny@oy@py@qy@ry@Tj@sy@~z e}+ty@uy@vy@wy@xy@yy@zy@$7.;s D5.Ay@By@Cy@Dy@Ey@Fy@7W+8r.xM+Gy@Hy@Iy@Jy@bK $a.Ky@Ly@My@Ny@Oy@Py@Qy@Ry@Sy@Ty@Uy@[z+{<.sC.Lq ## 7m+Iv@k= Vy@Wy@Xy@Yy@j^+!* Zy@`y@ z@{* c8+.z@+z@Gj@,}.@z@lc@#z@$z@%z@&z@H.+*z@=z@Yi@0t.-z@G3.;z@8R >z@+(@ /+,z@'z@)z@!z@!n ~z@mP+{z@yC+:F+]z@YJ+^z@76 /z@(z@_z@ V.:z@<z@[z@c +}z@|z@1z@2z@3z@4z@5z@6z@7z@8z@9z@Q/@0z@Qx@az@R}@bz@cz@y @_U.dz@ez@fz@gz@hz@iz@jz@kz@p[ lz@mz@N.@p^+N.@nz@oz@pz@8F (|.qz@rz@bx.dJ sz@Xw@YO+tz@uz@vz@wz@wt@xz@*z+yz@@s.zz@Az@w7.'d.Bz@Cz@+h.}B Dz@Ez@Fz@Gz@7m+VM. y@c+@1B 6-+Hz@Iz@po@Jz@Kz@Lz@Nf Ru@Mz@Nz@Nz@Gn Oz@el Of jW+Pz@o'+ZB Qz@Rz@Sz@   ",
"   Tz@Uz@Vz@Wz@$& z;.Xz@(,.Yz@Zz@`z@ A@.A@Ez +A@qC @A@P| )N #A@$A@%A@=[ TQ c$@&A@8m 7%.*A@@,@Gj =A@N&+Yf.-A@Ej+Ga@CO 7Z.;A@>A@,A@'A@)A@[a@_&@!A@~A@{A@]A@^A@/A@(A@_A@:A@<A@[A@}A@|A@a%.1A@2A@U +3A@LU.4A@5A@+Q R{+:r [m+,4.6A@7A@@o+<'.8A@9A@0A@aA@bA@#O+cA@L/@)A@v} dA@eA@fA@gA@hA@iA@ig.*} h$..o.Cm@]1 _(@w;.:D+L0 jA@'r.OO kA@~9@&!+lA@mA@C`.$T.Y5.nA@oA@pA@`( l^@8-.KT.0% qA@%) rA@sA@tA@uA@vA@9>.wA@[(@g~+xA@km@yA@Tl+vU+v  zA@AA@$j.BA@CA@DA@EA@P(@FA@&a@GA@HA@IA@JA@KA@LA@/=@MA@NA@OA@PA@QA@'F RA@SA@ik.%u TA@UA@VA@WA@>`+T! XA@YA@ZA@`A@ B@.B@)N $q +B@@B@#B@$B@NE.@c =[ >c+@ @J).%B@'g &B@*B@Q& Bq J%+=B@-B@;B@>B@,B@'B@mS |e.4K Dd@)B@!B@Ld+-,+~B@{B@wz.;/.]B@8u [6.c' ^B@^B@/B@u3@6h+(B@_B@71 =2.N_@:B@<B@N[@[B@f#.1^.4@@Ee vz.}B@|B@i%+1B@,e.2B@^-.g @aO+ G+P[+qr.k_+Cv.3B@&_.u^.   ",
"   4B@P2 5B@(, d1 6B@p&@%U+,: $  JH.jP 7B@E!.3J.8B@$1 s~ H# D5.xH.xH.[] [4.{*.MO J+ e3 D1 }=.p7+4u 3J.9B@0B@j; LP q +=H.f& (4 &# JO X@ =# `q 5r ^4 aB@^5 $2 VN VN D4 D4 /5 t@ Zo.qg@zi.bB@m4 U3 T3 {Q RT+cB@dB@d&@ r 7O  r eB@9P [4.(( eZ.=O 8h lP <r j$ =Q |@ L1 o;.NT+fB@om.-3 $U+$s `@ gB@D} x3 -!+yn.hB@iB@nc+w3 h2 <r MO =@ =@ @1 @1 lP ^4 ^4 C4 14 ]P -s ov k  `p *2 Wr Dr `p wr &# m  m@ -P E1 E1 A1 Zr.{s )U+<] U3 `5 T~.h@ 35 `3.*u d3 P..QJ A$ `5 y3.{5 Y` 'p jB@jB@8# Q8 Y4.kB@g3.Zz |=.!`.~t zI {r ]P Hs A2 =y }#.oD yD+h$.1E+lB@Gx i3 Ln.mB@nB@4s+gs f;.3D+;5.-s -s 7t.{>.*`.)o.oB@~1 /% c4 %`.S+  Z.pB@Lm+g~+Po qB@4s+uX+{z+rB@Z'@E$ _' !-.Y;.T^ 1,.qH.*p H1.ZZ+d5 ^4.sB@s&@mt+RS+:m@0n.=U+!Q ,3 :7..o.tB@uB@ o.44 42 z3.^6 A=@d$ yZ.)O K3.vB@&p.B5.;q.wB@xB@mP Sr -5.q7 Se :2    ",
"   $2 Nq `o Nn.fp 16+RT+25 .F 6Z.-Q t1 yB@zB@v>.AB@2n.,~+ 4 -a :5.}+ *p xi.$P !O '5 R4.BB@Xo.H& !o.hf.Xo.v;.j4 ()+Vm+im.42 0C+sR+AO X;.9h Qq 2  Y+ !r DO t1 YZ.%O GZ.Cy CB@hb.eH i*.c;.u4 F4 V$ 81 ^+.^  V] 7Y.}  `n.]6 9y ym.DB@EB@Ws 2. 18 @1 @1 5@ x;.j$ 8Y.FB@yn.Z9@97+4R {2 &u .s EP VN VN F4 j3 y3.h3 mj e2 ri GB@HB@LG.IB@JB@KB@7# /3 P# @1 pr w# T~.hr  $ ';.Vr ]o o) S4.k,@~r X@ '- |3 y3.,: TM+,: i>.&1 ;~+Wc bn.0n._# or Lr LB@'5.x# Pq z@ (n.T~.X1 hx.lO (@ ,@ >s F# T1 KT+MB@NB@OB@z3 V@ z@ Sq ;a [3 J$ S3 To ^m+ec@PB@QB@Rn@d& W1 RB@oD+SB@mB@TB@^5.2  X@ 0. Y=.5r K# &1 Xc I4 X8.UB@q{ PX+VB@WB@XB@YB@O  zr+ZB@|a@`B@_' J+ F3 9@ 5r qZ.Oq o@ ^3 C3 ,p U@ z4 m3 l3 @6 #r <3 K4. C@cn.an.+r 55 KO  r d+ BT+N+ Qn.ik.I4 X! jr u6 sn..C@+C@`p gn@@C@W5 #C@LT.$C@m8 Xs  g.%C@&C@(     ",
"   *C@:Y.q#.N1+=C@-C@|K.;C@`F.>C@,C@'C@r,+)C@!C@gs I4 ~C@{C@]C@te I).C8+z.@29./h@{|.hr.;w.Db@^C@:6.kr.xb.bv 7U.~8.5n U[+39.)}.[W./C@Ir+(C@_C@:C@45 z~+n8+<C@[C@}C@|C@GG.5q z7 1C@)H 2C@>G >G wG.3C@)o@K%@4C@5C@6C@7C@8C@9C@0C@ >@aC@bC@$H |~+k@ ,H.Dq cC@PB+:^@dC@eC@d1.Tv+fC@gC@hC@iC@jC@MT t& kC@lC@mC@ED.,/ nC@oC@r2@Vr+6).pC@qC@*s+*[ ;# D1 eH U5 fT+rC@D[ sC@q*@tC@uC@{2.vC@;B@wC@xC@yC@zC@AC@(F+`b+_x.BC@yj@CC@DC@EC@FC@GC@HC@E*.B@  r Eg AU+U, IC@da@l7.JC@ap+KC@LC@MC@NC@OC@PC@_5 QC@h$ g,.HP+RC@Nv.SC@mE+TC@UC@VC@WC@XC@YC@ZC@Pn.C/+># 6. ->.G`.FH._5.`C@.2 61 u3 :D+c;.l$  D@;>.;y..D@+D@@D@#D@$D@%D@&D@*D@=D@-D@;D@~i ,9 ,m.f@ Xr 8~+>D@,D@s0 'D@Pz !z+O4 cX+GS+Hc+)D@9Q !D@a3.cH.Yo.~D@{D@]D@^D@/D@(D@_D@o+ :D@ro nR.<D@H{.a4.Op ,@ Wr [D@}D@|D@@A+_g.Kj.t- 1D@$4@S[.2D@3D@4D@P{@   ",
"   5D@6D@7D@5I 8D@h..F| 9D@0D@aD@bD@cD@7t+dD@eD@=`.fD@Mj.gD@hD@|w@iD@jD@IA.;!@du Ur@4t@6i _L kD@lD@hG mD@wb+04@nD@oD@oD@pD@%y@!i KQ+5] qD@,y@rD@GP sD@tD@KC ud+uD@vD@wD@Gu+xD@yD@Gc+zD@AD@BD@CD@DD@Vv+ED@FD@GD@HD@;`+]I.ID@Mh@o(.G}+JD@rd@3F T-.(,.KD@RC -1@!l+LD@G[ oH MD@ND@OD@Kh mx+O- PD@QD@RD@u2@3:+SD@TD@n$@UD@VD@%$@P4+WD@XD@-w@pp A1 H3 AQ.YD@l! q{@ZD@[<.38+CF.m6+*; `D@ E@.E@+E@@E@}d@,[+#E@$E@%E@&E@*E@=E@-E@;E@9G 7#+Xx@1v./z+ip G% >E@QG+,E@a/.'E@)E@a/.Ny+!E@~E@e^ {E@]E@wu ^E@/E@.,+(E@_E@~` :E@<E@!` [E@X=  f CX S+.}E@gQ ^r |E@1E@9L 2E@3E@4E@gI+5E@6E@Se (0@[K+7E@K8 8E@J-.I0 yN.9E@0E@aE@bE@cE@dE@eE@fE@gE@hE@iE@jE@+n@MO d^+kE@lE@mE@nE@%, oE@pE@qE@rE@$1@sE@tE@{-.uE@vE@Zs.wE@xE@'F X2.yE@o!.yg.zE@AE@L` BE@7{@tA CE@DE@-5 EE@S=.FE@GE@7P.<i+HE@rl gg+IE@YW+-%.JE@vY+KE@   ",
"   LE@ME@NE@OE@PE@QE@RE@SE@TE@UE@U%+VE@WE@=_.XE@ T+8m %*.YE@ZE@`E@ F@ F@.F@+F@@F@#F@wT.$F@4Y (q@%F@&F@G[+ b _`+4d $F@VC.Na fw@ii *F@*F@=F@-F@;F@#4 >F@,F@'F@)F@!F@l3@~F@{F@gq+]F@^F@/F@(F@_F@:F@#@@<F@[F@}F@qo+|F@1F@*x.m{.2F@~, 3F@@j.4F@o& *_@9t Vw.43@5F@1/ {H gb@z[@$<.6z+6F@84+9g@[g A|@_L+7F@8F@mZ+U-@yu 9F@0F@&J aF@bF@Yi 7N.0^.l8+Sq 24.5I.H! cF@:x wE dF@Mi #^.*_.A.@{y+(i.jZ+eF@fF@gF@hF@iF@jF@kF@lF@=~ mF@nF@wz@Jo@oF@pF@qF@rF@sF@tF@uF@HL D~+>a+J! vF@6[ Ou Z[.i5@wF@xF@kZ yF@R{@zF@AF@lM.AF@BF@R +CF@K~ mL Au DF@EF@FF@GF@HF@IF@V] :^@el+Wu 1h@JF@eD+Fl.ZO I% A=@KF@f~@Mf+LF@}q =b+fl+Yr.MF@NF@OF@PF@QF@9@.,{@)O+Z-@RF@LP+.{@m`.:7.<Q+]#+mN 2^ SF@TF@UF@VF@(w F_ UL.g^.h] WF@{g@Bo+XF@QE@8a.YF@ZF@`F@Kw@ G@09 iZ+.G@+G@Ax+@G@35.`4 $A {$@#G@$G@}Z %G@CW &G@ke+S[.*G@le+=G@qz+s-    ",
"   -G@er.s4+lN.er.;G@>G@JT.'=+,G@m/ 'G@V0.)G@!G@7Y.sR+~G@F @{G@ F@]G@]G@^G@/G@<`+(G@_G@:G@<G@[G@}G@|G@1G@2G@3G@4G@u{ 5G@hl 6G@7G@8G@9G@Vc+9u xH+w. 0G@aG@bG@f5@cG@Yb dG@D`+eG@fG@gG@hG@me.iG@jG@Yt.kG@lG@4z.mG@nG@oG@pG@zE qG@rG@vW+sG@d5@W4 T-. ,.tG@sx uu uG@vG@ux DL.z[ wG@xG@yG@Y'@zG@A|@L7@Fe MZ %, wj.%0+h5@aU.R' AG@BG@9z =b. k.78.`6. ;.]!+CG@DG@EG@a8.)u@xx  {.FT.FG@GG@kD@d]+6- eO+HG@IG@JG@E++Q0+Z'.]W+3d+KG@J0.X[+LG@MG@38+6[ NG@J*.5M+OG@PG@QG@z.@W/ d0+rT RG@SG@eb+=R+TG@qz@L#@tz.UG@&@+VG@WG@Hd+af+ji.XG@{++YG@ZG@`G@ H@.H@K$ 55 +H@-z@Oh+{>@@H@72 #H@vh :K.$H@%H@2S },.&H@Fy@*H@=]@xf+=H@-H@;H@>H@^[+d{ VH JI+sQ+,H@'H@)H@=Q e2 -;+6) $(+!H@~H@{H@al ]H@^H@2k@c{./H@&`+~~ (H@_H@vy :H@J&+]( ]%.<H@7;@[H@}H@|H@1H@xy+Zg+=#@2H@3H@qt@}d.Od }/ 4H@5H@E%.6H@7H@a9.8H@9H@0H@aH@bH@   ",
"   kc+cH@dH@eH@VK.fH@gH@hH@0H+iH@7<.jH@kH@lH@mH@V) y2 Ai nH@vu@5G@oH@pH@qH@rH@sH@tH@tu@uH@NA.vH@}G@wH@xH@yH@zH@AH@BH@zH@CH@^G@DH@6`+EH@Wc+FH@GH@6o.HH@IH@JH@k).KH@LH@MH@NH@OH@PH@QH@RH@SH@TH@UH@E+@#}.VH@se@EQ.WH@'.@k!.ey .}.XH@M& YH@$:+ZH@`q /I.Vo+`H@vi  I@.I@:W++I@@I@@I@N, |t.B6 |,+|<@5).-*.~0+wi+#I@a] $I@%I@&I@*I@<k.=I@9h@dx@I| =y -I@a`.;I@>I@X> >I@,I@-6@'I@3g )I@5'@!I@9U.]|+MG@Y5@>S.~I@{I@TL.]I@^I@/I@P{@(I@|t+_I@RG %$@:I@<I@[I@w9.}I@Nc.tA |I@l^ Bg+1I@_[ 2I@zk 3I@4I@oA+5I@X4+6I@#%@xX BI 7I@_K 8I@S[ ]y 9I@Dd@0I@Hd+aI@bI@~p `e cI@dI@eI@hr+fI@cv@gI@.(@hI@kU.iI@jI@X~+&H@m0 kI@LG.lI@mI@nI@oI@pI@qI@q}+rI@sI@tI@uI@F  fZ.CJ+&,+vI@Z~ =q.wI@xI@yI@1x+zI@AI@BI@y7@zB CI@DI@EI@FI@GI@ L Mf@HI@II@JI@KI@LI@MI@NI@OI@PI@q0@;8+p +!{.Ug+Sa+QI@RI@SI@TI@UI@N#@'2@5@@VI@WI@mp@`f+   ",
"   XI@YI@ZI@`I@ J@.J@'<@A1++J@@J@iO+$g@#J@$J@Kx 'Q 54 %J@&J@*J@=J@-J@-J@;J@>J@,J@tH@'J@)J@ F@!J@!J@~J@{J@]J@BH@^J@/J@(J@_J@:J@4`+Nc+$t@hg+<J@[J@!u }J@|J@1J@2J@O_+3J@4J@5J@[$@6J@Z/@7J@8J@9J@UH@i(.(_.=.@0J@aJ@eq+bJ@cJ@/_.vg.dJ@eJ@fJ@0&.Ja+45 >=.k7 Yf+yD@!A MG 'g )$@gJ@W#.`&+hJ@iJ@_W jJ@U7@kJ@lJ@>E.mJ@Va.Y/ nJ@j4@oJ@pJ@Mb.qJ@5+.t)+$P d`.6=.oR.)C k}.rJ@qh.sJ@8E +c.|<@tJ@uJ@bU.vJ@*9+/4@wJ@xJ@yJ@K^+zJ@AJ@BJ@Af+0= CJ@G%@DJ@|p.EJ@~m ip ov+#a.FJ@qA GJ@HJ@|I@(c+4K.d@@IJ@Au Au JJ@I}@3K 1K DA )@+rf+xp... KJ@Hr+ee@$D LJ@&a.MJ@['.NJ@OJ@PJ@zC.QJ@LF@RJ@SJ@TJ@UJ@VJ@/+.:S+WJ@XJ@F6+8% /Z.4].eI.YJ@ZJ@`J@;)+gQ+DK t.@ K@`]+[4+.K@+K@Z(@MZ.xF+@K@Z>@O~+#K@$K@5V nC.jE %K@&K@y[+`k wz@T|@Sf.GA+n' *K@=K@Z(.54@-K@;K@>K@Zz+lH@,K@'K@)K@6%.!K@~K@=/+.$.Ai {K@]K@^K@QD@2] /K@(K@<B+_K@V_ :K@   ",
"   <K@[K@}K@MH@N%@{d@Ql.|K@1K@2K@3K@4K@5K@6K@A%@&1 Xu )$@7K@8K@8K@ab ;T.9K@0K@aK@@t@bK@wu@A .A .[, cK@cg+q:+BH@dK@eK@fK@gK@hK@$t@+b+iK@jK@kK@l&.&6 [e@lK@4g@u] oj@mK@nK@@M+oK@pK@Li+qK@rK@rK@sK@a<@tK@@R.uK@@B vK@wK@xK@g> @~ yK@zK@AK@BK@CK@2  l8 DK@QE yD@Qd kQ.EK@FK@R' GK@HK@8@@IK@{0+v:.JK@N|+KK@LK@MK@&d.NK@OK@Kl [:.PK@QK@Kj.<.+2!+p3 ]# =`.lJ RK@k}.SK@TK@P6 Mk.X(.9= UK@VK@~^@VK@WK@XK@oQ.,G ,t.4l.YK@Uk ZK@sQ.,h.`K@dN .i@a] P$@ a.gs  L@#~..L@Vb+MC.Cb@Z'++L@@L@{-@#L@8@.QG+bT.8X.8X.$L@J/ <y Y<.%L@&L@W0.*L@mC@%a@=L@A1.y8.-L@sp ;L@>L@mo+'N ,L@01 'L@)L@r= !L@~L@{L@]L@^L@/L@(L@_L@:L@_^.<L@[L@}L@c~@|L@1L@2L@;)+O~+hp.3L@(+ SB@3D++O+4L@@l+rR.5L@-l.6L@ I 7L@8L@9L@0L@aL@d^ bL@cL@dL@eL@fL@xk+gL@Pk |L+hL@iL@jL@Lx kL@lL@Tq mL@nL@oL@pL@qL@69.rL@sL@B].w.@tL@uL@vL@MO.d#+AG wL@   ",
"   '|.84+.W.EJ.OD@xL@yL@xq.zL@AL@BL@yU.=C@CL@2R +F :v DL@D+.EL@FL@GL@HL@IL@JL@>i+5`+KL@*X.LL@ML@Vs@NL@OL@a[+PL@QL@RL@ig+SL@TL@UL@VL@WL@XL@YL@:A SN 4=.ZL@#m+`L@lV+ M@r4+.M@vy +M@@M@+`+#M@4C.3s.$M@%M@]^@&M@^K+I6@*M@=M@-M@#4+;M@>M@,M@'M@[P J2 Zn.J~.`7.;h+)M@E(.)f+~0+{0+I[+oF@!M@~M@{M@]M@94@F0.^M@/M@Me+Zw Zw NK@W[@(M@_M@:M@8M.b4.<r 6c ~P on.u= c9@#a@>I+yk+Gq+T& j}.+z@<M@`b+[M@AV+}M@0x.|M@1M@#8 2M@O9.3M@]^+4M@*..2I@5M@6M@U(+7M@8M@A;.NT+8Z.9M@{a+~-@0M@aM@_y qk.Fv bM@n=@cM@mC@dM@eM@fM@gM@hM@iM@[|.jM@kM@lM@mM@nM@oM@B8.pM@qM@ 4 <O {m pW+R>.9 +y| a,.rM@sM@(h.tM@uM@vM@wM@xM@yM@zM@v,+t^@AM@u3 BM@CM@DM@EM@FM@^1 Uj -7 S/ oD+Yu GM@HM@IM@.Z+JM@KM@()._l.LM@hp+MM@p< Dt.qA KL VG@<&+0I@NM@OM@-' PM@QM@RM@SM@TM@UM@VM@WM@ZZ.s~ XM@4~+YM@ZM@`M@#s+ N@.N@p|@+N@w| k* 6O.LQ.k^ @N@#N@   ",
"   2` zO.bC $N@%N@&N@*N@Xn+39+!i.1# =N@-N@;N@6~+u&@[;.eD+>N@,N@'N@)N@!N@yC.1d.BJ.S& #e@~N@{N@]N@L}.]b.^N@@W.CQ./N@#8+(N@(N@D)._N@:N@_N@<N@[N@}N@ s +U+|N@94 03 Iq ((@Wm &>.5H.R/ %2+1N@w:+q&@/(@}m+d4 F4 34.34.m$ 0|.WN r7+wr 2N@3N@'l 4N@{r Es P> 5N@n8@ta@6N@7N@ZQ+,8+8N@8N@9N@Gp.0N@a3.aN@'c.m^@bN@5s cN@@w kw dN@|o.eN@nX.44 92.W+ ;# X! pO {9 6~+fN@gN@&A@~=.At hN@x=.S8.iN@'m+!o.j4 )1 i; p`.m3 E!._' 9c #5 ~$ AS+jN@kN@RC+lN@i=.uo Pn@zn.mN@jt &u *u nN@>]+PC@5a Ko oN@pN@qN@rN@a7+|k }p sN@tN@uN@vN@Ti J*.wN@_u -e@bt xN@x8.ap bE.I3 /k.yN@zN@Rl+an+AN@q. &*@BN@CN@DN@EN@FN@GN@HN@IN@JN@[m@Wc f: k  `q KN@L@ c* zm@D@ jP  # 9P T+ 9r (( 6G.k3.$m@/I.LN@MN@Q-.NN@ON@R8@EX.s2 :(@PN@vn+&m.&6 QN@%E+<s at U$ !i.Qm.F&@RN@o^.]!+%} #U+7# ;O <P SN@TN@UN@VN@WN@!4.XN@Zl+ES+>a@PN@UO .p YN@   ",
"   -s E# LP dr e# x;.e# bn@ >.ZN@`N@Lr '@ q4.bn@ O@q# hT.35.Hf fW.fW.71 20@<D+-2 s@ Qr }~  D zI &u 9h em+q4..O@.O@a4.-5.I# =5.45.Sr *[ D1 <n.H@ [l@Es L$ X# _7 8h nj JO f2 {r L3 +O@9+ %. 5+ >@ @O@I4.`&@U1 !# /n@#O@$O@%O@&O@*O@=O@zP Pr hr 1r nD+Y` 25 -O@K= vH.nD+15.@1 J0 )0 >2 %@ #1 /4 n%@,H.rp rp /5 t;.o3 [;.)r.}n._5.iP SP =3 V1 MO '- X@ Zp )1 7Y.=. 7Y.To d1 q3 r! y4 ;O@4r Ir =# ;# m@ )5 Pq kP Q<.=@ l@ -2 00@H$ :M GO T% /V+H@ Y# L;.%u s~ 9r i@ x>.Zp D3 y# ];.8+ Xz@2n@J4 >O@>O@/r z+ J1 T, $s `9@J# ,p {3 ;5.L@ T3 f: f: 3  {3 6%.zI 'T+37+Q8 ,O@RT+W-.d`.U@ )5 X! X! =# V1 gP hx.z4 2  8# L@ '- /4 %} 9r K# Nq $1 Y@ (S 3Z.4r W1 'O@/r X@ X@ f: 7r Y$ i*.m  !5 ZN@G@ K# nM >2 DH.2j+b5.lr t4 uO z4 F1 {3 Y` gr 8h f= f& ,7+'# Qo.Xz@ur X$ z%.nO )O@c&@=Q f& bm+{;.cP W1 -#    ",
"   qB.H1.6Z.VZ.M4 |=.Z3.j4.Fs E# (3.!5.04 aL '1 !O@#3 yG+bB+A=@~O@{O@{R+b4.;* @1 gO %1 ]O@yj /Q.,F ;F >: Q0@r0@^O@j> as t8@@R /O@BX.AX.8% ;(@B~ `J [F+O$ (O@*o._O@xl.YM :O@>m.A3 w2.}3 9o.<O@4/@_u [O@tR RG+}O@|O@|O@BY.1O@#% 2O@on.q3 O3..b@3O@u2 Jo. D 75 n( FO 4~+f1 ]> f2 4O@J0 <q 5O@~R+*N+2a@{u w. >+ 6O@7O@Rv dt YS+8O@9O@0O@aO@bO@/S cO@U5+dO@eO@(O@fO@]z+<D@Q5+s(@aO F@ JH '  vh Q3.V)+O5+gO@hO@iO@_>.jO@@R y8+d7+CJ+~{+kO@lO@-I.UN+mO@zr.nO@01.oO@^C+t1 mO Hx /4 [7+o4 _r p>.7>.pO@M$ oY.qO@H#+'o+}>.NG.h+ xt %[.52 5I.->.IU+#n@`Q+Om.y|+H$ rO@q`.sO@$7.Xm.tO@(3.nP o$ a>.uO@vO@ZZ+wO@xO@X_@gm.r3.dJ.~&@I3.L. ys U$ #n@5J.c  .1 yO@Q3 aC+=u A7+B,+.U+zO@%U+AO@+C@L1 |m@BO@w5+q^ al+$J.+{+($ xX.CO@DO@&H@>N Jn@#R EO@FO@GO@HO@IO@JO@KO@Rl+LO@7Q s%@MO@zp B'.'o.(4 5r Y@ rZ.d1 HP NO@   ",
"   VD.Kr+_].OO@PO@QO@RO@ b@SO@P. 4O Z)+TO@UO@VO@WO@XO@YO@ZO@(|.`O@ P@^: O/@{G..Q q!+_E+<#+t7..P@+P@@P@#P@#( $P@O^ dL+eh+%P@&P@*P@=P@4d+XC+-P@+( 6]+;P@=J tj@>P@>P@[]@7d+Vf.,P@5$ 9O 'P@!&@)P@!P@~P@{P@]P@^P@/P@%d (P@_P@:P@<P@[. [P@wA@}P@|P@1P@2P@3P@4P@w-.5P@6P@7P@8P@9P@FH..$ us 0P@aP@bP@K6+cP@dP@2y eP@fP@gP@hP@.r@(h.iP@jP@kP@yl.lP@mP@nP@j8+1[ [)+&v oP@M7 M$+pP@qP@[o.G&@|e.3/.tM.!B@&;+rP@4;@sP@tP@uP@tj@vP@nY iA.:{.)b.RX+RX+wP@oZ+BF.@,@[W G|+xP@Hi 8A yP@zP@w2..0@4  ;9@NB+AP@BP@`h@CP@n>@|^@04+DP@EP@9q+FP@8a+]a.H* GP@zA.HP@IP@c<@JP@KP@Ri.LP@MP@NP@OP@PP@I4 Wm QP@g;+@N+RP@SP@TP@UP@VP@WP@^1 XP@n!.YP@dN.a8@ZP@F&+`P@ Q@.Q@+Q@@Q@#Q@FL+$Q@P<.%Q@n1.Qm+b4.)R+ 5.m9 )~@&Q@*Q@=Q@`F+E! -Q@;Q@~i tb.>Q@ix@,Q@]h@'Q@)Q@cd x& ]}.!Q@,!@~Q@h@@5'@l;@zu+{Q@LG@vL d`.JH.]Q@^Q@|& QP+/Q@   ",
"   (Q@_Q@w5@:Q@<Q@[Q@i8 ^E@{N }Q@|Q@1Q@MC@2Q@3Q@4Q@5Q@6Q@H, 7Q@yJ@Pz.8Q@9Q@`G 0Q@a4.e,.&L@aQ@bQ@hE@~>+$P@iI cQ@dQ@eQ@fQ@gQ@Ac.hQ@O+.Y[+iQ@eA.jQ@@( kQ@lQ@`9.d7@ x mQ@nQ@lD@y- T4 oH.:a@oQ@pQ@!%+A^ qQ@rQ@sQ@tQ@uQ@vQ@wQ@xQ@yQ@zQ@AQ@BQ@CQ@DQ@#y.EQ@FQ@GQ@HQ@IQ@JQ@KQ@LQ@MQ@NQ@X$ OQ@PQ@QQ@RQ@SQ@TQ@8}+UQ@VQ@WQ@XQ@YQ@`8 UH ZQ@`Q@W^@4A.uF+ R@.R@+R@Zz@@R@1 @#R@$R@%R@&R@*R@)K@Ym+jh X} =R@-R@G%@;R@>R@bp.,R@'R@Y~@)R@!R@><.)M@~R@SX+9v G|+{R@~j.]R@r^.r^.N, 9v >r.l]+76.^R@b# E} /R@V].RH@(R@J].[w+J@._R@:R@=K@Q%@NQ.>I <R@1[@(a.~a.KP@gq.[R@}R@|R@=e+l{@1R@2R@3R@4R@5R@+J cr.eB.6R@e|+7R@8R@9R@0R@aR@F+@VJ+7u+bR@a- mT.F9+cR@dR@eR@fR@gR@hR@k{ <$@s=+i{@s=+X^.iR@qJ jR@o&@^6 m} X{ kR@lR@mR@nR@sb.oR@m~@pR@qR@rR@sR@w2+D7@tR@vf@uR@oV.I[+;L.L0+vR@04@wR@xR@yR@,}@@*.p@@l& zR@y1.AR@BR@CR@i|+   ",
"   DR@im@LD.]N ,D@[N @c+ER@3u@FR@GR@HR@IR@$D+JR@KR@LR@MR@&B+0A i^+ap.NR@U9+Nr.sC.*2 cI+OR@Fw PR@QR@mC./z Zx@4q+RR@SR@c{ <L TR@Xy+UR@UR@VR@y)@WR@XR@YR@ZR@/#@'0+-l dw@`R@ S@-~@&n+.S@+S@@S@#S@$S@%S@&S@*S@=S@-S@;S@Y_+>S@,S@}k Oe eM @~+dK+@n+'S@)S@!S@~S@,S@{S@Q0.]S@^S@/S@{&@^4 i3 (S@_S@:S@<S@[S@}S@|S@1S@2S@3S@4S@5S@6S@X-@^z@y..86 7S@8S@9S@R8+,D@!7 ~| %9.cq+0S@aS@bS@%m.'f cS@dS@{{.ht.&~@Va dN Df@eS@zu+fS@dS@b{.rT M,+M, |t.gS@hS@iS@jS@kS@lS@zn {A M=+@f@@f@mS@OR.=O )[.nS@oS@pS@r4+$}.qS@ee rS@sS@bD @h 4M.Q'@#|@tS@uS@H}.u{.vS@wS@dy xS@0- yS@zS@K`+cV AS@BS@91 CS@DS@ES@s{.FS@yS.^~@OQ.GS@HS@IS@2J@JS@KS@LS@MS@y:@NS@OS@PS@QS@RS@`}@2.._!._!.SS@TS@US@VS@WS@Q)+XS@YS@ZS@`S@ T@]y+.T@7+.$o +T@Ki hp@hp@+T@']+{b+@T@^W+^W+O|+#T@Nz@$T@Uc+ Y+%T@&T@ZW+.6@Sa+*T@;Q =T@a++-T@Tu jO+f2+   ",
"   ;T@&8 {h S~+>T@GJ@,T@3M@'T@)T@!T@~T@{T@]T@8y ^T@/T@(T@_T@Kp+}R+ce.:T@K'.a8.zG.@1 <T@[T@Bf+jU.,~@}T@mC.4q+RR@fq@|T@1T@#9+x)@F) 2T@3T@kh.(z 4T@5T@6T@c<+7T@XH+lQ@B0.8T@1) ch@.o@](@9T@/A.B> 0T@aT@bT@cT@dT@eT@fT@gT@hT@iT@jT@Po.sN@kT@lT@Q~+mT@qp.nT@FC+iN@NG@ah+]{.3p 5(@{&@-7 B@ oT@pT@qT@rT@sT@tT@uT@vT@wT@xT@yT@zT@^H+AT@BT@CT@DT@ET@FT@OI+zV+GT@HT@z0+IT@D<@bF.qf@4* Lq JT@ ' 5)+D(.KT@2i.N@+Q(.P#@Ef@l^ LT@9= @{.MT@MT@NT@OT@Mi PT@1k.hj@.g.dj.EK@QT@RT@~{.MP.{g.XQ+JO ST@TT@UT@Vf@)`+`[.VT@HI@WT@XT@YT@ZT@P^.`T@ U@vS@]x.]x..U@+U@{I+@U@f> #U@$U@%U@&U@*U@=U@-U@;U@ ` >U@,U@fy l).2..Uf@,.@'U@)U@!U@rL ~U@{U@$<.~4@]U@Xl gX.0R@^U@/U@(U@ v. v._U@(U@:U@`T@<U@gk 2  e$ 3>+bs+[U@U&.}U@|U@1U@Ol 2U@3U@R .4U@5U@6U@LK@N0+Pz@Vh+7U@8U@fl @F. F.9U@0U@aU@eg+8U@[c x6 p7+.W 0,.zg.Su `! bU@   ",
"   x*@cU@vk+dU@S=@11.RH 'R+eU@ea@fU@gU@hU@iU@jU@kU@lU@mU@nU@&S oU@]D+pU@qU@rU@sU@k@ #7+RF@'^+tU@QK+uU@ha vU@wU@xU@|s+dW..s@ur@ s@2T@yU@~z zU@AU@#9 #9 XL+sM+BU@'0+mL+){ CU@wQ.u<+,!+hK+DU@EU@FU@-E@GU@HU@IU@JU@KU@LU@7t  o++b@X)+MU@mY Ro@Y'+NU@OU@A++PU@x,.QU@ah+RU@Wn+(o+%4 <r &1 k @SU@TU@UU@VU@WU@XU@YU@ZU@`U@ V@Al@4=@.V@+V@@V@#V@$V@%V@&V@*V@=V@4L@`H DI.-V@}A+)q sc ;V@>1 DY ch@>V@;,@[f+A|@9= Gj /4@l^+KJ Qf.<B@o|@o|@(i.>j.Hn (i.,V@|<@GH@|B@U0+jk+>h.'V@4y+)V@!V@Qn.~V@{V@]V@NE@N-@Zq+^F@^V@/V@(V@_V@:V@7R@<V@hG@[V@xS@}V@+}.|V@1V@re@)+.Uu 8z.2V@NM.3V@;r@4V@q& dx 5V@Xj@6V@ I.jO+7V@)Q+uq@8V@;M@r.@}g.)|.;~@su wP.9V@0V@aV@bV@AS.cV@dV@eV@SS@fV@gV@n(.hV@iV@F4 *#@cn v'@jV@kV@lV@gp@9U@mV@K{ nV@oV@pV@qV@Il rV@oi gW+sV@7U@Ua+j+@Gu@ZE.Kl tV@^@.dg+uV@vV@wV@7t.xV@1!.j_.lW.x$+FW+   ",
"   yV@zV@AV@BV@0: sM.sM.y_ CV@DV@EV@FV@GV@n&.HV@IV@JV@KV@kk n&.LV@MV@NV@OV@PV@'k.E1 kk.QV@RV@W= !^+SV@TV@UV@VV@Wd+yy@xw WV@XV@YV@I3@ZV@`V@ W@#_ .W@hE@+W@75@bI &, >#@FX @W@#W@5o@jo.w'.Eu t& 0<+M^ +[ $W@`;+v> %W@vo >Y.&W@*W@D8@1m DC.xc d .=W@fx+,D+mY.-W@]p.fK+;W@>W@,W@o2 `9@W=..D 'W@)W@!W@~W@{W@]W@^W@/W@(W@_W@:W@<W@[W@}W@|W@1W@2W@3W@4W@5W@6W@7W@8W@9W@0W@K5.aW@bW@EX.}F+cW@dW@d(.eW@:B@ze G|+Ed.fW@N=+6^.+C *C gW@cz+xx xx x(.hW@r9 wx+P%.vc+X(.iW@kQ.Qd jW@kW@lW@9O G[@mW@=3.nW@Br.9D@/! oW@pW@qW@rW@sW@QF ie tW@uW@vW@wW@2u+0C@:(+xW@yg.Bz.H}.<a.ja+yW@zW@AW@Tq hH.~/ BW@CW@Ej.pW.DW@EW@W_@ss.FW@GW@HW@Yp+`C+<Q+IW@r9+O{.At.zM.rh@cy  |@CM.JW@0s+KW@LW@MW@NW@kr xt l9. x OW@F4+Us@PW@QW@7G@JE@RW@SW@TW@3@.Yi UW@+4@VW@Pl D2+WW@XW@YW@ZW@~Z `W@I%.}}+ X@.X@bc+f(@(^.+X@@X@|j@#X@$X@   ",
"   IB.~m %X@&X@*X@=X@.!.3z+-X@s* I +;X@>X@*I ,X@'X@)X@!X@~X@{X@]X@^X@/X@(X@w& A@+_X@:X@+6.<X@[X@}X@|X@1X@2X@3X@4X@5X@6X@7X@8X@9X@0X@aX@!s+bX@cX@sj.dX@C> eX@fX@gX@hr@Fd+8}+hX@iX@]> V3._I.%c+jX@eh.kX@$[ lX@UC+M/+B`.`N+mX@nX@oX@pX@s5@Fk@AK+qX@rX@DQ@sX@eK+P; E'.tX@|0@iD+H4.*4.o3 KC@uX@vX@wX@xX@yX@zX@AX@BX@CX@DX@EX@FX@GX@HX@IX@JX@KX@LX@MX@NX@OX@PX@QX@RX@SX@TX@UX@VX@6G.L(@Ia.WX@XX@.T@YX@{i Ie@ZX@0@@W/ gd+A).sT `X@,*.!<. Y@.Y@+Y@@Y@#Y@JM.@,@Ef@Ta.G|+Y'@Fq@n*.9%.G4 pm.$Y@%Y@$3.&Y@*Y@=Y@-Y@B|+;Y@>Y@,Y@'Y@)Y@!Y@~Y@z[.{Y@k` ]Y@^Y@b^+/Y@(Y@_Y@:Y@<Y@yS@Ag.[Y@=Q GO za@ap@}Y@|Y@HQ (w+1Y@E* ek 2Y@ol+3Y@Qr+H! L{.f9+4Y@5Y@6Y@7Y@8Y@9Y@lX.O}+0Y@38 aY@2a+bh }4.bY@cY@^g.dY@eY@fY@gY@uV. b+JE@hY@iY@jY@Kl 3@.Nl kY@lY@F0 Ai@Jp@Rw eY@mY@J( nY@oY@oY@[3+2@.pY@sI qY@e&@S4 rY@r. sY@tY@   ",
"   uY@vt+B,.Q).vY@wY@kS+xY@,m #D+yY@zY@AY@BY@CY@CY@DY@EY@FY@GY@HY@IY@JY@%r.$D CN+E# h$ KY@LY@MY@NY@e5+HE+OY@PY@QY@XI+RY@_].SY@TY@UY@VY@WY@` +XY@YY@ZY@`Y@ Z@.Z@+Z@f} SL *)+@Z@F;.Fn.#Z@$Z@hx+%Z@&Z@}z@*Z@Os.<[ =Z@vE.GJ.Rq.-Z@;Z@>Z@,Z@'Z@)Z@!Z@W>+~Z@{Z@]Z@Yn+:Y.^Z@/Z@(Z@/$ .2 <5.F*._Z@:Z@<Z@[Z@}Z@X*.|Z@1Z@2Z@3Z@#o+4Z@5Z@6Z@7Z@8Z@9Z@0Z@aZ@bZ@cZ@0p SF. & Z=.I=+dZ@{% ,H.]H.Vn+eZ@fZ@jm gZ@Ga.+D wy.hZ@iZ@jZ@kZ@lZ@mZ@4u Rq gm.nZ@oZ@pZ@6^ LD.nK+qZ@s0@qH n2.rZ@sZ@jD+tZ@NT+uZ@vZ@]N@m< z=.wZ@xZ@(+.yZ@3:@HY.GU Ii@5v+>N@B7 il+7d.&Y.YQ++I.zZ@AZ@BZ@lV+2( CZ@DZ@EZ@2r nM eE.PC+FZ@GZ@HZ@IZ@JZ@KZ@n!.LZ@MZ@NZ@M8+UE@OZ@PZ@*C+mM QZ@RZ@SZ@TZ@Ir UZ@VZ@WZ@Sn@XZ@YZ@ZZ@7n.`Z@ `@.`@+`@@`@U[.9>+ d+n:@#`@ay+$`@bH@(l %`@&`@*`@89.=`@`g+xd -`@WI@b9.;`@-Y+>`@,`@'`@r[ )`@!`@J9+n~+6@ V8+qB.u9@   ",
"   `q ~`@M&@{`@t!+FH.U;.=0@)f f;.45 TB@^m+$>.Fy+]`@0m+p@ !_@`p 8# =# g0@M4.z4 `N ^`@/`@bn@(`@+$ ,U+N3 rH.{5 d+ +>.!m+cB@_`@X% Y1 J4.9# <n.`r !r &# 8# =3 I4 I4 `p Y@ j@ p@ $# y# e4 .O@]> _{ _{ U3 JT @O 8$ _1 ;a gr /4 M4.mP 5Z.^  !-.3=.4}.q$ %5 f1 s>. o.h& X++:`@:& ~Z..s Wr z;.pO k  IH.hn.k;.j& Wm.I4 ~r kP &4.NP Q<.kP 8h -7 H# Vr 15.f& _# 47++6 S# F# M@ q +B  .6 .6 2r ~P +n@.Z.Sg@O4.{_@N.+E4.<`@ O W$ #%.6# 0r {*.g@ Ir ^4 3  75.Am+hx.-r H3 |@ `N ;7+A# [`@}`@q! cP |Z.|`@ D@ P _r KO !*@m..1`@pT+4}.7T+2`@us aL N4.VN *[ Is 9c vH.Gl.i(@uO m;.H;.3`@!O@4`@pO *-@5`@{4.6`@Y5+7`@8`@}} 9`@:& 9.@B@ AQ.@Z+@2.0`@jp xy.(+ a`@b`@c`@d`@c&@,% cp 0+ m`.XZ@e`@@9@f`@.6 ;Q g`@h`@<s 62 .m+i`@:5.|%@->.3$ :K.xh.=T+]2 k]@c`.j`@Os .h+k`@^2 d^+92 Kl+'r.l`@jq xt gn.m`@n`@An.85.[g@`N O+    ",
"   $>.]Q  % vm -# m@ 5r `q S/ D5.`q '# 3+ L$ _# -# ov )5 gr kP 6@ FZ.8n.-7+61 9n@w3 Z9@Wr :D+g2 ^`@)r.z3 |@ |@ |@ D# a;.FT+kO D1 5r pO <n.=O K# 8h 14 5;.D4 3  |3 bO D$ k4.o`@u!@*P R3 b;.#O )O  P B@ 9# Ft 3n.p`@q`@r`@v;.#,.s`@d4 5n.z# a4.vH.TP /~+Gl.t`@TP -2 q7 UN >4.Ve V5 f~@}j+~1 Z2 7m 7m Hu+4O d`.2=.X+ (# g2 t# g2 :8 'r 'r jG.EZ.f& o) r@ L_ t!+u`@v`@ `.52 w`@b  Vm.PN x`@y`@z`@AI+VG+VN+(4.`t+h@ (^+n( =-.^6 A`@b>.72 ->.92 !5.BT+{_@7H..p.pH.B`@C`@D`@{Q ^  E`@~3 F`@HZ.l2+Z@ rH.ym.d3 d& jP >!+lr `T+6R =O @1 l@ yO /3 b4 ]o 6| ]6 =7 *>.Z4.G`@H`@qO@/( QQ _!+I`@[o.Ds _I.J`@K`@L`@%P 55 ^Q Or 47+c# l  U@ o@ a. k% Nq nj /, >3 3z@|  |E@8O ^% d& k% M`@K+ Y` u@ 8. KO <v >Q D5 /(@p3 6%.^w R# C3 r! h;.V+ Pr T~.k,@k,@.s s4.s@ =3 D4 $P 0h N`@~5 =3 &2 vH.>4._k.v@ N# L@ &}    ",
"   )F <,.O`@P`@L4 Y@ ;a lk+`/@ec Q`@R`@f% LS+ch+$B.}A+sl+HG.IG.S`@u{+}D@@* @* D7 d*@`u e( T`@hE U`@Qt 21 V5 ]> ]P 6@ V`@W`@E= X`@Y`@Z`@``@  #. #IR@F,.q^ I,.%) _) YN.'z++ #j[ @ #s5.# #$ #<w % #& #* #= #Zn@- #; #> #, #' #) #! #o%+~ #{ #] #B=.^ #/ #( #_ #: #< #g~.[ #K@@} #| #1 #vw@2 #gV+DL@<.+3 #;l+,Q pO P# (@ )@ m  ~r r3 4 #tr v# vP 5 #7J.6 #[K+2`@I: 7 #8 #9 #ZY@iv@0 #_>.kU.a #b #EF.>y c #d #e #4G.j4.f #g #h #i #j #k #5X+l #m #n #o #p #q #r #s #-J.t #u #v #w #x #C!@y #z #A #B #C #D #sX.`P |&.iP .p@xi.#2 43  o.c`.^+.E #F #G #H #I #J #eC+K #L #M #kL@N #We.E=.Lt+O #5w P #Q #R #wa@md b;.`+ TU+7N@>I.S #i_@OE@u$@T #w)+U #=C@At V #W #-8.0Q@Tk.X #U6@Y #-9@_l@Z #p$+kM D7 F[@` #Z[ nm@i@ D1 IH. .#ZN.Ti ..#+.#t:@@.#%<.#.#s~.D8 $.#%.#L8 &.#G<@lz.*.#Y0@l_ W0+&C+=.#oG -.#   ",
"   ;.#YZ+'F >.#l`.7D+cT+,.#'.#_S 3b@cg.^D@;F _- X( ).#D=.!.#i}.~.#!r@/W {.#].#@*.]]+^.#/.#&g Li {t.(.#_.#6 +:.#gm nD+&,.<.#[.#}.#[.#|.#1M.1.#2.#wB.FK.S1+3.#4.#&j+5.#^N@6.#7.#8.#9.#0.#MO.a.#b.#=_.c.#d.#e.#er f.#yv+g.#h.#i.#j.#k.#l.#&Y+m.#n.#o.#p.#q.#r.#s.#t.#u.#v.#w.#`S x.#4+@y.#z.#A.#B.#-x C.#lQ Ls =;.D4 3k+mp D.#E.#F.#G.#H.#x$+P) cR@I.#J.#Hz.K.#N6.)|.L.#M.#U'.`R+N.#O.#P.#O}+3( Q.#R.#S.#T.#U.#(j.U' V.#.r+ax W.#X.#Y.#Z.#sF c4+`.# +#.+#++#@+##U@$v+yg.#+#$+#%+#&+#*+#=+#IZ p{.ne.sT.|[@zy -+#<r ;+#>+#,+#X)@_p.wE@;U n$+'+#)+#xH II.G-.Xk.tG@Iq@Lz.RG )-@t& !+#~+#{+#R{ qj@lU.]+#^+#Mr+u1@R# ,H./+#Fk.(+#_+#:+#<+#[+#}+#|+#2 @pn 1+#2+#OY.P!@vZ+Td ~[@g7 [0.jd.3+#BG@4+#5+#$h@9&.[0.6+#`4 7+#8+#9+#0+#a+#b+#Xd@a` c+#d+#e+#f+#g+#_U@h+#<_.i+#Wl j+#k+#l+#u4+m+#n+#o+#p+#q+#r+#   ",
"   dN Y'@$j@s+#t+#Vq W:.u+#v+#2G+w+#k9 k9 0{.QP.bf.).#Yo@W& -o@==+(k+x+#1h.T6.;*.y+#f$+z+#/_+A+#Fk.v~+B+#NF+vo.cN Y+ C+#D+#d{@<( sx.Xu.E+#F+#G+#H+#f- I+#xq@J+#K+#L+#M+#N+#O+#<f.P+#Q+#R+#S+#T+#U+#V+#ax+xe }l+Qr W+#1o X+#/ .P<@Y+#Z+#`+#Ru+ @#.@#+@#@@##@#c- $@#OU %@#&@#*@#=@#-@#;@#/! >@#,@#'@#)@#!@#CB+ 4 1  ~@#mn@{@#]@#^@#B1@/@#(@#_@#:@#<@#o!.[@#}@#|@#OK+1@#2@#3@#4@#WV+5@#6@#M_.7@#8@#9@#m6+bf.0@#$Z _!+a@#b@#c@#d@#e@#f@#>e@gE+g@#h@#i@#j@#k@#l@#m@#n@#aJ@;x.=.@o@#Is.qG@>.@i{@Yf@U^.p{.p@#C<@!0@y5.q@#HH r@#R'@EQ.tv@s@#lz.Wg t@#37@u@#v@#w@#x@#y@#z@#A@#-D `p+:[ B@#C@#%X+ye D@#E@#F@#G@#H@#^;.{5.gV+R@.K5@I@#J@#K@#L@#4,@ld.M@#T+#N@#O@#nJ@WV ,E.P@#Q@#aU@R@#QB S@#T@#U@#V@#P .W@#X@#Y@#g< Z@#V5.`@# ##.##+##@#####$##%##&##*##PE@=##-##p{.;##mB.>##,##'##)##F`+!##~##{##]##^##   ",
"   b^.;.#*p@Mq./##~p b^+(##_##gx 9] ]0.f @:##n< lW@&M KC ,r.w[ 9;@*<.<##[##Cz D=+}##R7.|##Q@#1##bx+T=@6]._k+2##z@ 0n.3##4##5##<p.t] 6##7##8##9##0###H a##b##-T@2Z+c##d##e##mr@f##g##bq@h##i##j##ZI@bD.k##l##m##BO n##o##o[.p##q##r##s##t##u##v##w##x##y##z##E|@A##-4@I].B##C##D##E##DO.F##G##7e H##I##J##K##L# L##M##N##)n+#X@O_.eL.4|.fV.P) O##a: ]N P##Q##)@+yp.R##S## W@TQ@8I+T##U##^) V##W##X##Y##Z##`##!!+y&@ $#3c..$#+$#@$##$#$$#@3+%$#&$#*$#=$#-$#;$#P^.;.@;.@yM.kj+>$#,$#'$#)$#rh@zS.!$#xS.~$#{$#]$#+5 ^$#|)./$#7x aJ@h;@Gu+($#_$#:$#DY TK@3; fC i).<$#[$#}$#|$#1$#2$#3$#4$#5$#6$#7$#8$#9$#w) 0$#F;.a$#b$#c$#d$#e$#f$#g$#h$#zY i$#j$#k$#N{ &T.l$#G .m$#|R.n$#o$#p$#q$#-J@4R.4e ,T.r$#s$#nd.t$#*4+u$#v$#w$#x$#y$#z$#A$#B$#C$#D$#E$#F$#t` G$#H$#ne.;##:!.I$#ko+J$#`l K$#L$#M$#N$#O$#P$#   ",
"   Q$#R$#r/ S$#T$#Po U$#V$#W$#G@@{d+X$#w[+Y$#Z##Z$#&b@MR.SP.0++lb+'h+'h+xG@oL.C] ~h nd@a@@9= l]+`$# %#m1.(N I_@-O 2Z.Nb+.%#;[ +%#@%##%#$%#%%#&%#MM.*%#=%#-%#v{.jD ;%#>%#g, ,%#X$@'%#)%#!%#K2@~%#{%#@r+}F@Bs+G1.a;.)3.@(.H*+]%#^%#/%#(%#_%#:%#<%#2e [%#}%#|%#1%#nj+2%#7u+'T {E.3%#4%#5%#VT@jX.6%#7%#8%#9%#0%#k;.a%#b%#c%#]R+d%#e%#EO.f%#f%#a- g%#(p@h%#i%#gc j%#_h+k%#l%#l%#m%#n%#o%#j< p%##'.q%#@} r%#a=.j^@zD+{n@s%#t%#u%#v%#w%#x%#y%#z%#A%#B%#C%#D%#E%#F%#G%#H%#I%#J%#K%#L%#M%#N%#rN.O%#M3@P%#Fq+Q%#R%#cr.bp S%#T%#U%#V%#W%#X%#Y%#Z%#-_+n_ `%# &#*M+4_.Bq@ax .&#+&#@&#|k.AN #&#$&#c< %&#&&#]0+Kb.GT.*&#50@64.=&#-&#;&#>&#,&#D .Mw+J%.'&#)&#!&#~&#{&#]&#>o 81@^&#76@/&#81@By.6N.(&#_&#:&#(}+s$#<&#[&#}&#V$ |&#1&#kv 2&#3&#4&#{D.}5+Df.5&#6&#7&#i{@J[@tS@8&#9&#0&#{$#h] a&#b&#*^.c&#d&#e&#bo@   ",
"   by+'z+f&#W;+g&#Do.Qh.h&#iH Qi+Dh.wn Vx.i&#t_.Z$#Z( nn@nn@SP.j&#k&#k&#l&#7| xU+$/ m&#Cs@n&#>: II.k3.:a@/)+,!+'@ -5.o&#p&#q&#Yd@a:+r&#ME@r4+Ri.w{.gO.s&#t&#u&#v&#w&#x&#]/ oz@In y&#at+z&#L(.7D.A&#}%.S1+'V@Q5@Y@ B&#C&#5U@D&#E&#F&#G&#o4@z}@H&#I&#J&#K&#L&#|%#9&#u{.M&#N&#^$#O&#)}+P&#Q&#R&#S&#>)@T&#U&#_:@#O W1 V&#5| W&#X&#:~@$x.A$+A$+-.@WP Y&#Z&#n5@mQ+1;@`&#FX+Kd@4}+k'@|!@ *#.*#fA.,t.+*#@*##*#$*#%*#A*.(1 &*#cz.**#=*#-*#X/.;*#>*#,*#6'.'*#)*#fC.!*#~*#{*#]*#^*#/*#(*#`A _*#HQ.DM.:*#kc+<*#.).[*#~# R/ }*#|*#1*#B&#KV+2*#3*#=P+4*#5*#ZA JQ k{@OF o(.Tu 6*#7*#Y(.8*#9*#=6@0*#a*#b*#{3+0S bF@c*#d*#8~+l!+e*#4g f*#g*#id+h*#i*#:1+ng+j*#k*#l*#m*#n*#C%+o*#Ll F%.p*#q*#r*#[1+s*#t*#'3+u*#v*#w*#x*#y*#9. DK.z*#A*#B*#C*#D*#$p+E*#F*#G*#H*#GO.w&+I*#At.IQ.B}.J*#K*#L*#$^.M*#mx N*#O*#P*#9B.   ",
"   Q*#tC+&u+R*#S*#T*#]h+L=.G=.+Y U*#Vn l^.V*#VF.7^ _- W*#mn@cb@l]+QG XF+'K@t!@X*#^- pW+{G.p*@Y*#nd S3.Z*#hI.5J.J0 45.`*#wJ  =#9z+{).;Z+.=#+=#@=#gX.#=#$=#+R.NF NF %=#&=#hj 79@*=#==#-=#Dr.M+@9X+;=#%v+>=#,=#@a X! L3@'=#)=#q>+!=#~*#~=#.i.nl {=#]=#ay.^=#9c.9c.]x.lX.|R@/=#Nf@(=# !@xg._=#:=#<=#]##[=#}=#H!@1n.j$ |=#!c.1=#lA.2=#tK.$x.gR.bR@3=#4=#Iq.=]@5=#6=#7=#8=#9=#0=#a=#b=#c=#FF@oL d=#e=#f=#sI g=#h=#i=#7I.9X.@H +^.,Y j=#k=#l=#m=#n=#Wi@o=#p=#q=#r=#s=#(&.t=#u=#v=#w=#x=#]1.y=#z=#A=#B=#C=#xD.D=#r;.e6.5 +E=#F=#,o@G=#[}@oy.H=#_S : #UA =.@I=#J=#3C w$+_<+K=#L=#M=#p+.br@N=#O=#P=#g:+Q=#R=#S=#T=#~z+OB+U=#QT@V=#W=#M( 3Z X=#Y=#Z=#`=# -#.-#@$..$.+-#@-##-#$-#%-#dk@&-#*-#=-#--#;-#>-#,-#'-#Qx@jP )-#~=@!-#~-#{-#]-#^-#/-#NW@(-#_-#:-#<-#[-#A&+*[.}-##p@|-#1-#2-#3-#4-#5-#6-#8J@wg.7-#   ",
"   Fs@pI.Y( 5].;a@@Z+R> YH.,S+o$@8-#a= 9-#0-#Yi@a-#xX+8l@Mf@(h ]e@6/.b-#(c+d}.v1.c-#+N Aj@d-#96.e-#f-#BA@g-#^U+J0 8@ Ey+h-#i-#l_.j-#k-#(s+/^.l-#9- m-#s#@n-#o-#p-#q-#r-#s-#t-#u-#4s.v-#w-#x-#y-#z-#A-#+V+B-#eH (Z.C-#D-#%)@E-#F-#G-#H-#I-#J-#k2@K-#%}@L-#M-#N-#po+!' O-#P-#q-+]1.Q-#R-#S-#aC@T-#6-#U-#Ck@gG.lr (S (. V-#W-#X-#ps Y-#Z-#*5 `-# ;#.;#S$ +;#@;##;#$;#M>+%;#&;#*;#=;#bp+-;#;;#nR.gz.>;#,;#';#S(.);#!;#~;#{;#PA@];#^;#/;#(;#_;#:;#<;#[;#};#|;#=M.1;#2;#3;#4;#K.+Ib@U$+<r.l/+5;#6;#dH+G_+7;#`m@)>.#r '*@8;#9;#0;#G-.Yw.~4@Co+a;#b;#s@+c;#eq.Y1.d;#T,.e;#^$#f;#g;#h;#i;#j;#k;#l;#m;#n;#o;#p;#'< S;.sH.q;#yK.r;#s;#t;#u;#l/ v;#w;#3+#x;#y;#z;#A;#B;#C;#D;#:5+>K G$+l[ op@E;#@[+F;#~w@G;#H;#I;#J;#47+Fn.`&@`9@8T+SQ Yl.nl+K;#L;#M;#N;#O;#~w.SA *%#P;#, @33@Q;#O3+R;#S;#T;#U;#V;#W;#X;#   ",
"   ,0.aC+g. *u 4G.O+ {;.Y$ BB@UN `3.=>.Y;#Y6 6m U] &C@2I.o+ p. Z;#`;# >#+;+-+ .>#+>#@>##>#$>#$>#BV@Dt+oi.ah |>.FZ.`T+/5.mo.g,.03 g3.94.93 Gt `| +6+UG.ho.Y4.q$ )>.H& *4 }K.}k %>#:5.>U+D5 |  No h& &2 5r .6 %4.&>#'4 *>#66+=>#Gs@24 W2 ->#-q :E+;>#83 @Q M}.!H.l& iT+>>#F`.r#.v5. 5.04 8H.B[ )'.4Q o) uO ]P pr F1 ,>#+Z..r Qn._v '>#a& s&@is )>#!>#~>#zn@:Y.{>#]>#pU+^>#/>#,u q3@(>#_>#RN@/4.7o+:>#|(@<>#ht [>#}>#Uq Vq Q3 RS+s&@:C+|>#(*@ p 8m %p.%S+@c 1>#2>#&R I* 62 *u G`.3>#4>#5>#6>#7>#if.8>#b  `;.cP Bm+Bm+9r O;.5.+!!+g. A2 z3.#_@$`.F2 =~+9>#e$ w+ DX.=>.5I.0>#IF.!D@a>#5m.09+b>#k> JS+2o.qp cY s@ >s ;C c>#d>#e>#f>#g>#1$ h>#i>#p~.}D@s_ Ja+Ja+OG OG MG.g_ j>#xq bx Un+k>#l>#h- ri _t m>#3N >O E-.yn.zn.n>#)@ g4.7a.{3 Nq eH ;8.X;+&7+p! p! 1k@o>#]8+$m+vf+rC+l8 G/+p>#q>#r>#s>#t>#   ",
"   AH.x3 q!+;2 l;.0r ';.FZ.D# E# D# 6@ y3 )@ wi.'_@[@  >.5@ 5@ !Q Pq 14 k,@[;.<;.tO i>.9h `5 6| n  Vm+u>#;* 2D+=_@If uO A4.q4 L1 )@  $ P1 J# (3.Xz@AB@:# l  I1 S+ cp Zp L$ |@ [@ v>#[@ [@ br (# .$ `C@z# @1 7n.85.MH.I1 I4 9# I3 4r  s U+  # /4 8n.!r eH 6Q t4.aD.=3 w>#M@ *@ 5P _`@+&.+&.8. f;.S/ U% l2+s~ X@ 9. eB@Sg@&s+k;.N# T+ g~+45 5r  $ GD+3+ m@ Ir ## -P c&@x>#+4.y>#R# F1 X-.X-.&. m`.#V+z|+{# [A {# ,# ,# 2P &1 cx z>#M# M# q7+V+ {;.cr F3 Xn.s7+{r E# )r L1 jr /,. @ u6 A;.t# Zr ^>+z++z# -_@h;.A>#^# (S 7O ]$ J9@u4.J4.T~.pO D# pO 8# ]P =Q 3+ )5 y4 O1 O1 F1 nn+QZ.-s  s %;.MO  r 5D+,p G@ e;.X! :r TB@B>#X@ =@ Y@ ,# T-.9P ik.d& ~r  # L@ nj X@ d& Yp GD+hP a# 2P )m+K1 D1 ,p 2  q!+W$ iP F;.C>#`&@D>#E>#A>#.t zo.!S.H# f~+2=.I1 _4 5r u@ `;.]Q c0@F>#BB@7c %`.b5.'`.Xk+9/.F*@   ",
"   n$ o8 p  I. G>#36 +% _& @-.+Y.Rt $p.(1 #3 jP Pq (3.*& c0@!S.vm !K d. %[.H>#AP '`.4G.:2 Y@ R3 82 I>#&$ t%@J>#K>#L>#M>#N>#O>#P>#Q>#R>#S>#t1 G#+)r V+ MO T>#yV.wc@sv+U>#V>#W>#X>#Y>#fU+Z>#`>#-N@*Z._H. ,#;m+-*@.,#R7+Um..n@Ls WE.Hs bp 52 b  DZ.+,#@,##,#ao+n/ $,#%,#>7 ~=.&,#*,#'I+=,#-,#^S.7c@CW@QA@;,#rV+*v.Sd+D=@>,#,,#',#z~ ),#V3+8V !,#Xr !r kO 'o.s>.ZZ.~,#{,#$-.],#U&@#W+!>#^,#B7+A*./,#(,#j. _,#:,#<,#MD+H  G`.G`.'>#}O@[,#},#pT+9+ ^;.|,#`_@1,#Ct ;M 2,##R 3,#4,#5,#@p p1 =]+,I.iO@rl+6,#!E++R io 7,##I.8,#sX.FU+4/@JT@;% q$ KH.9,#Lm+JT@D.#0,#a,#<2 }#.]>.s6 r. x+ a7+q3.((@j4 Ms KP  R+!. U/ !p@wA@C!+VF .(+ND+Vm.d3 SN cI.f: X@ Ro z+ 6.+D  t0@`t ~$ 7%.DS+`l+`l+Yr.-Z.dM T^@b,#[o.c,#>]+d,#e,# T+{n@)o.E} $Q :O.QQ =  Qe@T!+v# G@ f,#g,#MJ.6V <e@h,#i,#j,#Y5.k,#l,#m,#n,#Jx.o,#   ",
"   _|.v!.p,#q,#r,#s,#sr@jh.t,#u,#`#@qI@v,#H, Kq +r Yu w,#Cq@x,#y,#z,#A,#B,#C,#D,#E,#F,#G,#H,#I,#J,#K,#3l+L,#M,#N,#O,#P,#Q,#R,#S,#T,#U,#V,#Vl.W,#);.G#+X,#Y,#Z,#`,#>D  '#id@.'#0!@lM++'#@'#@^@#'#7W {|@m=@$'#%'#&'#$&+*'#Hk@XR ='#-'#,_.^g@;'#fo.>'#,'#''#)'#]8  k+3(+k0+V_ Uj+!'#aU@~'#Gh.Yg@{'#]'#^'#/'#('#_'#*i+:'#<'#['#Qj+}'#|'#1'#2'#3'#4'#5Z.Q&.5'#~V@y6@>B l= .@@6'#~( 7'#sc 8'#9'#cX+0'#.R  G@a'#b'#c'#^n+d'#e'#f'#g'#;e+h'#mg.s; nn.<q i'#(y@!s@j'#mQ@k'#l'#m'#aT jo@I7@n'#o'#p'#Io@up+q'#r'#s'#t'#u'#v'#8].w'#x'#Df@y'##N@z'#A'#@6 k;.B'#C'#J!@D'#E'#09 s'+F'#G'#H'#I'#q|@J'#Dv+K'#L'#M'#W~.{X N'#O'#cp+EL.P'#Q'#<F.xG@(F+<[ K)+## So 11 R'#mH@JL.5^ DT.@ @>_ S'##,+d^ T'#U'#qF@9b+~U.0M.Tc V'#UB+W'#7A MB+8Q.X'#ta@Y'#2 #'=.em+i1.{0@Z'#`'# )#.)#zJ@+)#IX ZV@{V ^u.@)##)#$)#%)#fq@   ",
"   ;> bZ &)#*)#=)#-)#;)#>)#,)#Bx.yb+')#))#!)#hR+~)#0. {)#sK.])#^)#/)#()#_)#:)#<)#[)#})#|)#1)#-= 2)#3)#4)#5)#Th 6)#7)#8)#9)#0)#a)#b)#c)#.}@d)#g$ }D+^H.th.Pz@e)#!0+f)#]f g)#Z1+h)#YP+i)#{[+j)#}|+%,+16.k)#k=.l)#m)#;f.n)#o)#Oj  , C;@p)#lb+@B+{. q)#r)#s)#t)#u)#v)#=: w)#x)#y)#=y@z)#xR@A)#B)#C)#)i+D)#E)#F)#G)#H)#RW+I)#J)#K)#L)#M)#N)#O)#OF+_r P)#=O+Q)#@+#R)#S)#T)#q>@U)#V)#A^.Wh W)#X)#Y)#b.@Z)#`)#-_+ !#.!#+!#@!##!#K;#Nz )C f1.$!#%!#&!#*!#=!#-!#;!#>!#,!#'!#)!#!!#5b ~!#z)#*$@}B {!#]!#^!#/!#Uc+[0+(!#_!#At@:!#<!#[!#}!#F0.|!#1!#2!#nm.t1 3!#l, tx+>o+4!#nN $z.>!@5!#6!#7!#8!#dY@o'+8%+7g+9!#9!#0!#a!#b!#c!#2h d!#e!#f!#Ie g!#*g@IB+-O qg@rl+h!#W%@II.jJ Q& i!#j!#'g@7q+'n ,<..^@Ee@'J k!#ET.g7.l!#m!#[ +n!#tW+o!#KR p!#q!#r!#&= !,.i*.+3+s!#t!#u!#v!#8,+w!#x!#y!#z!#A!#B!#C!#D!#E!#F!#   ",
"   G!#|d H!#I!#Tu@t9 J!#O< ,{ K!#!f.Ln L!#C6 ^=@aO ov M!#N!#O!#P!#Q!#1k R!#z] 5~@S!#T!#U!#yc@V!#W!#X!#Y!#Z!#`!# ~#.~#b9@+~#@~##~#$~#%~#/c+-|.44.z|+1# ZX+5k+&~#r,@Nf.*~#XF  f KV.=~#-~#V= ;~#>~#,~#'~#)~#!~#/y 6> X1+~~#{~#]~#ON.r5 2B@:[ HC.#-.3!+}0+<..^~#/~#^@.Tw |c (~#Gu@Pe.c!#gp@k- _~#:~#<~#pC@[~#}~#bg+SL@ue+Mg+Vc+|~#1~#PW@2~#3~#4~#D@ tn+5~#+5@i|@6~#7~#8~#/G 9~#0~#a~#b~#zo+c~#JP@jO+]+@lo+d~#e~#d{@f~#g~#h~#i~#CA.j~#P+#qB 9d+{z+k~#mk+l~#m~#n~#,j o~#p~#q~#r~#s~#t~#u~#v~#w~#x~#y~#z~#A~#B~#xR.xR.C~#D~#E~#6, N4+F~#+v@G~#0(.}  >= H~#I~#J~#2] y]@K~#Bu@L~#M~#N~#O~#P~#Q~#R~#S~#T~#I4+U~#V~#W~#X~#Y~#Z~#`~# {#.{#+{#@{##{#J=@c&@${#%{#o^@9(+by+pU@x1@l*+i5@&{#T8.*{#={#IM.-{#;{#>{#/R@,{#$8 !+#7}.7}.jA+'{#){#!{#~{#9z+I& *`.pr B[ Aw {{#]{#6G <u.^{#/{#({#_{#:{#<{#[{#uf@ur@O`    ",
"   }{#|{#or@1{#|T@2{#3{#XU r+.wc+v7@[+.;e.I:+/D /5.Or 4{#5{#6{#%L+7{#8{#6~@:K+9{#0{#a{#~.+O|@b{#c{#j)@d{#e{#f{#g{#h{#kM i{#j{#k{#l{#m{#n{#o{#q^ g~+[(@cK.p{#q{#r{#^W+s{#v2@Ca t{#u{#v{#p @hr@UE.w{#,&.x{#;f =L )|.yQ.y{#@,+wP@z{#qt@A{#B{#[/@YO e8 C{#a, D{#E{#SW@SW@!'#F{#r+@/!#Kj )o uT.|L G{#H{#f9 lV@C0 cg+[, I{#J{#4r@Ie `W+pz+w]@K{#[! 55 G1.k.@L{#m#@<v@M{#N{#V|.*Y@1H@O{#p{@9D.[( P{#Q{#<w+R{#S{#oj@N'@,9.@q n< T{#U{#V{#W{#DI x).|E@X{#Y{#Z{#`{#16@ ]#o~#.]#q~#+]#@]##]#$]#%]#&]#*]#=]#-]#;]#>]#,]#']#)]#!]#~]#{]#]]#^]#/]#*g H^.Q3 p@ (]#_]#:]#<]#K2@[]#}]#|]#1]#wp@wp@2]#3]#4]#5]#6]#7]#8]#9]#0]#a]#b]#c]#hD@*t@d]#3]#e]#f]#YQ+ov $6 (N rO.Q~@g]#h]#i]#j]#/m k]#xq+8O.s^+l]#m]#n]#o]#yh.8E N@+#h+l@@(I@:B+p]#S#.q]#G].r]#s]#6$ Zr ch+wy@t]#u]#v]#w]#x]#y]#z]#Ef 5k+Y[+@9+jh ~M@J0.   ",
"   A]#B]#,<+6T x- C]#{ @D]#EK@E]#8( p2+kE@c}.)=+F]#Z@ 4{#G]#2|.H]#I]#J]#K]#{M.4a L]#eN.|V+M]#N]#O]#Kc P]#Q]#R]#i)@S]#T]#U]#V]#W]#X]#,:.Y]#Z]#`]#>O@p&  ^#.^#+^#@^##^#$^#%^#YK@&^#*^#=^#w/@-^#;^#UE.rb.>^#,^# H '^#wf@^h.ap.cU.[B@9= B{#K;+Qd zm.>I.)^#!^#gp@~^#SW@SW@-%.F{#{^#sV.]^#2h YE.Wa+G{#^^#.b 'i+C0 Pc+o$.ag+/^#(^# b+e, _^#:^#<^##r@%  81.99 bF.[^#}^#|^#1^#2^#3^#4^#M&+C$+5^#6^#D* yE@7^#zA.4' Uw+8^#9:+9^#0^#<L a^#b^#u]#c^#d^#^m+e^#f^#46@g^#h^#.[@i^#j^#q~#k^#l^#m^#n^#o^#p^#q^#r^#s^#t^#@[@u^#a*#@[@v^#w^#x^# j '! Vw y^#H^.-a -h.z^#A^#B^#C^#D^#E^#F^#G^#H^#TW+I^#2]#hC.J^#K^#7]#L^#I4+M^#N^#O^#P^#Q^#R^#Au@S^#T^#{y@#{#J=@P..s&@CW.o]+)m@U^#V^#1{ W^#X^#Y^#,J PQ+Z^#nQ@`^#m]#[U@ /#./#I'@r- +/#G[.Ai P.@WJ bd+aE @/##/#*P V&@$/#wU@wd.%/#4i+tR@04@&/#+g g@@eS@F).8>+19.qN */#   ",
"   =/#-/#:B@!f+;*.;/#>/#-e.,/#'/#DG@FC.F, cO+=m  T+C3 )/#!/#~/#{/#1-@]/#^/#H9+//#(/#_/#:/#S7.</#[/#}/#^1+|/#(3@vl+1/#2/#3/#4/#5/#6/#7/#8/#9/#0/#a/#6$ b/#uB.|g@c/#d/#Ou@e/#.s@2$.2$.f/#g/#h/#zU@i/#j/#k/#hr@l/#m/#n/#o/#*_+7V+p/#q/#`;@v0 1c@82 r/#s/#t/#Na+`E.Lj Gc.u/#v/#w/#_`+x/#a+@oi y/#Q|+jW+z/#zp@QK@A/#B/#C/#D/#1i E/#j= F/#G/#H/#O~+%  5a I/#J/#K/#L/#M/#N/#O/#P/#Q/#pk@R/#S/#T/#U/#V/#]u+W/#X/#*M+{1.Y/#Z/#`/#Y^# (#.(#+(#a+@@(#>O@#(#5#.$(#%(#&(#*(#=(#-(#;(#+]#C{ >(#,(#KP.'(#)(#!(#Jw+DP.~(#{(#](#^(#/(#_.._..!(#((#_(#F{#(-.:(#T3 <(#[(#FP@}(#|(#M*+1(#2(#3(#4(#5(#6(#w]#7(#8(#9(#0(#a(#b(#c(#d(#e(#f(#g(#h(#i(#j(#k(#l(#m(#y@ l>.z_.RQ.AV./Q q:@n(#o(#p(#q(#v8.r(#nQ@%^#s(#t(#wY+1U@u(#v(#Od w(#x(#w1@rz y(#z(#w) A(#7}@VU+0 +B(#cJ+C(#Vh.D(#E(#7, bw.F(#G(#oR@Z%@r5 l>+vR@Hy.   ",
"   H(#{i I(#J(#33.K(#D[@)<.L(#F, WL.M(#N(#2j.O(#Yn.Zp S4.P(#Q(#R(#F6 S(#T(#U(#VP@V(#/[ W(#G).5W+X(#Y(#~+@Z(#^x@`(#~C+ _#._#$:.T:++_#@_##_#$_#%_#f3 `5 &_#WL.V( *_#=_#no@-_#pD@6#+2q@;_#>_#,_#'_#F) )_#uj. W@!_#~_#{_#{_#~&.l~@WC+]_#%Q.BC I,  p.ri jQ.D0.^_#_`+/_#W$@(_#__#N|+:_#v:.<_#to@[_#}_#oC.,R@b}.-f+1T@c{ c{ <d+UG ]c.|_#uO.1_#uz.N% r&@9# Lb+2_#3_#4_#5_#%4@#N+Pu.XH 6_#dt.6.#7_#%8 8_#9_#0_#p.@a_#~L@b_#c_#!z@Le.d_#Eb+e_#_g.f_#Rq S| <0.g_#h_#i_#j_#k_#=(#l_#Ru+m_#n_#o_#'@.p_#q_#q_#Ru+']#r_#s_#t_#u_#v_#:J@w_#x_#y_#p~#z_#A_#|3 `r B_#C_#D_#E_#F_#G_#ua H_#I_#G~ .&+Vr.J_#K_#L_#,b.mh.M_#N_#O_#{>+<) 9J P_#Q_#aU Kb.R_#S_#T_#U_#V_#*K [}@W_#FG ME (^ .* G[ X_#7'.<a+S|@Z8+-!@Y_#_y@Z_#`_#`H+ :#Ta+Ta+8U@)0..:#Ag+E=#G].s+@+:#y0@E7@G{#@:##:#9,+$:#%:#i+@&:#1g@z2+zy.*:#2Y+=:#-:#   ",
"   Hl+G1.{K+;:#;q J= >:#`3+,:#4I@wf 8U.w{#':#):#6$ '@ W1 ~H.4u ym+V8+<`.`3.F.#!:#(0@xq sU@): ~:#{:#]:#Ml+3j+YP ^:#w$ /:#(:#_:#Hi.C%@tA.nO.'-@@1.nj ,p ::#<:#[:#}:#Rp.|:#1:#2:#3:#3:#4:#5:#6:#Pj@o%#7:#8:#5S+9:#z8.0:#a:#b:#c:#T +Jd+d:#;<.e:#U;.)O ~=.f:#q!@9e.fp+K(#qC.p; wr.RX+g:#AM+Ct+=D h:#zQ.i:#j:#.i@k:#l:#`|+,] *=+dB+.c+56.Zi@HB.H,.h;.e3 xO@Uq@ND.ND.]q.m:#!F.p6.Xo@n:#N#@RG XF+:Q@FI.o:#p:#q:#c5.r:#s:#t:#fO@YJ Nh@u:#x6 v:#,3 w:#&@ ^=.x:#y:#z:#A:#%k+B:#C:#D:#pV@7N.47 E:#F:#G:#F:#H:#I:#J:#K:#L:#M:#2U a[+N:#O:#EL@P:#Q:#R:#^Q S:#Pv@T:#e#@U:#X3@V:#h= :l@W:#X:#Y:#Z:#`:#uv+ <#.<##<.!+#~D.+<#@<#u@##<#@c+$<#%<#&<#*<#=<#&s+-<#;<#k;.Ic sA@><#m^.zv+,<#hJ+N;@p< $N+Li+'<#3e@lI )<#!<#;_ 9r+s@.eM.~<#F, 8{@5t.gn `%#{<#:s =Q ^>.hQ+]<#^<#/<#(<#_<#:<#<<#[<#}<#|<#CK J[ g).`'@1<#   ",
"   l;.]o -s NH.:D+xS++O yn@F!+`r.B,+Yh 2<#8+#'1 (4 `# ;n@k  vr 3+ 6c J9@Y# gO <r  $ u@ zO eH p3 -O u@ G@ $@ T, Kr _4 Ar J2 q4.Y$ 3=.,1 t3.07+^s W=.T7 %>.-P .4.]# LH.0h AZ.b  #n@in.B,+R| 3<#@% Ui W;.z3.H1.r1 4<#X;+1(.IH Ud.H1.JT@{Z.5<#6Q ^5.pr @1 z%.hG.b5.+s .&.33 6<#&[ 4~+VZ.H)+4  qH.7<#lk+{>.g3.s$ 0`.Li@}F+o(@fm.-a hp Q3 HH.Qq W+ Q)+%. Fy+8<#1H.6Z.T^ |3 +>.9<#B7+6I.@3 0<# ` a<#b<#j% *0@T3 Q> ]  <c.!m+i>.VD+'T+rD+Mo P1@P# ^~+.4.z@ 82.$Q c<#d<#$H@ 5 X5 z]+e<#1&.f<#g<#h<#=% 7m+i<#j<#k<#l<#Wp m<#.7.n<#G{+o<#BQ p<#q<#}=.w# C# 7@ E. :3 QJ eH ;C T^ St.*3 `6.g$ :  r<#vs s<#t<#4<#W;.Z4.',.u<#v<#9.@w<# ` (2 x<#y<#fB {# 2H.1  ^4 f: 9# :e@z<#x2 $  A<#q' gr+(H.Qn@]!+Rm.I% iH.:!+B<#-p 5H.6~+*3 8b Q4.h3 ,m.{% &. YZ@ZN@ZN@-s o;.(@ S, {;.!@ C<#D<#U1 .4.V@ gr Y$ jP H3 _4    ",
"   b;.;* A# 7@ 14 ]P &# 3G.Im+E<#u6 ~2 -H.f-.@$ JO p3 nj I4 KO 25 @6 nA >o.z@ %U+V@ ,p ,% ## pO :8 W+ =@ Q1 H1 oM F# =s *2 f~+'@ U@ >p 45 {# ]s ~P J+ 7+ F<#>& Y# d# U1 p4 Pl+f4.Ao.G<#H<#I<#S@ u&@jO C>#Es `+ j~+F3 Wo.J<#K<#3G.J1 95 I4 $1 V@ d&@$@ #1 !; m  P# ^Q J1 sr ';.(4 H3 Y` [q L<#jR.AD.p+ T2 _& --.Q8 vm i>.RS+>p ]3 LP W=.&_@DP @m+hs M<#N<#]# LP $s #1 O+ ~P >p 45 {# Q8 x'.1o.9C+Z3.:s l& VZ.7t.'5 @O }~ O<#s6 vY.Af@q6 I-.}q +o.VO h  2. P<#cY Ef+>2 E# '@ j$ 8  Q<#s@ u;.C5.~# ik.E!.n  on+bO 1n.Gs H<@j4 T| Q;.`3.dp z@ V@ R<#S<#Am@Ud.^  SN oO T~.Z@ x;.Bn.O+ Nq T<#,: qr+zI v>.ln+U<#{Q Yo V<#g0@+r z@ {3 ;a ur wH.`q !5.O1 J# W<#X<#Y-.V+ J+ aG.-P 0# z@ W1 O+ y4 G3 G3 X! )5 o@ >p ,% kr z3 C#  $  $ 3G.-# `N &4.35.rO /4 !Q u# &>#Y<#$5 =s Z<#`<#+2.14 !# wp cp `p Rr    ",
"   <L+Ka+N}@z=@KT  [#3C@*l+.[#!K@}5 +[#/5@z4+-a@@[#1; #[#m<  &#$[#%[#aq BR &[#*[#z@ o@ QJ Zs _8+=[#{6.q  #5.5_@-[#N5.;[#9L >[#V5 ,[#Eg n$ l(@/j Fm.C6.y`+8>#5,#(Y@'[#)[#R|+sG.dm ![#lO ~[#{[#][#^[#/[#([#_[#:[#<[#,F+&m+x} }F+q7+5.+cY [[#}[#$o+|[#2Q@1[#2[#3[#4[#5[#6[#7[#!`.l3 G)+(j x6 AG@8[#u@@)~ }k+SK@9[#0[#.(@Po.0 +|-@a[#b[#c[#d[#d[#d[#e[#f[#g[#xP h[#i[#j[#k[#J@ qZ.&. r$ :N@M1.l[#m[#Ev+'/#5~#'K@)d@n[#74+8g.o[#49.b}.p[#q[#r[#w]@s[#P7@qJ@yO+t[#9r+*p@hk.9h X! $s aL _1.^1 u[#v[#w[#x[#y[#z[#A[#(].OZ@M<.B[#C[#D[#wB.E[#F[#.N .N ;[#cq G[#H[#I[#J[#u1@K[#yN.g& {o L[#FC@M[#N[#O[#<C.P[#Q[#R[#S[#T[#U[#V[#wT+&T+;-.}F+W[#yA@oR+X[#Y[#Io Z[#`>#V5+`>#+K  #.(s J# lO 0;._7 `[# }#.}#+}#n# @}##}#Q1 $}#%}#95.)@ pO H3 <@ &}#*}#=}#Nf@)5@_~ -}#a8@}K+jW.!:@)o@04 v$ CE@&A@5m+Fm.;}#>}#   ",
"   ,}#'}#'X+Tx.)}#!}#')@cd.2H ~}#)l+{}#30.]}#^}#|M /}#QQ+h&#(}#_}#2<.:}#<}#[}#m!.(C+wO@}}#|}#1}#c +Ax U$+2}#3}#4}#5}#6}#Oj+7}#8}#Oi.!<@/n+#i@(2@9}#0}#@<.,C.^W a}#f&+b}#-/+1b 9n KP c}#)x@d}#oI@SK+e}#f}#1H+EK+%9 g}#h}#MJ@i}#o=+j}#k}#W%+l}#m}#n}#o}#p}#q}#FK+FK+r}#s}#V0.t}#JO f3 u}#v}#w}#8=+x}#,%.0p@YY.y}#z}#>=@[j+A}#B}##X@C}#D}#E}#F}#G}#H}#I}#J}#K}#L}#M}#Lc 1a 4f EP Yo N}#O}#P}#Q}#R}#S}#~i+T}#M{ U}#V}#P7@W}#X}#Y}#+X+{^#(`+Z}#`}#ZE.q:+ |#.|#+|#@|##|#$|#w5 %|#!@ ~0@&|#kh@dD.*|#=|#-|#Ts.;|#>|#E#.,|#'|#gx@)|#!|#~|#Z, k}.wj@{|#W5.]|#^|#/|#(|#_|#:|#<|#m=+hm.[|#tf@H(#}|#7- fY+`' J#@'9 )u.#@+dK.@;+||#=' 1|#]k.QM@F'@2|#3|#U1@X{ &@+j,.4|#5|#B_ )m@)j@6|#IZ.7|#R!#8|#lj@@z+9|#3|.mz.0|#0|#mz.Sa F&+a|#b|#8L.c|#j{@6R@d|#e|#ek@f|#KY.g|#h|#U|.i|# c j|#Z++.s xZ@ve 2j@}-#k|#[u@   ",
"   l|#m|#|b.n|#o|#p|#q|#r|#c+#s|#g|#t|#QI@u|#v|#v|#w|#x|#y|#z|#A|#!h+B|#XC 0V k>#L$ C|#D|#E|#F|#G|#%)@H|#[s.I|#J|#SM.K|#L|#Rh+-C M|#N|#O|#zt 66+T,.X #g!.|o 3j hd.P|#Q|#R|#S|#T|#U|#V|#|:+_h+`k+P$.K~ [9+[g.;a+_h.Z0+%c.%c.Z;@)=+._  =+W|#X|#Y|#Z|#_h.`|# 1#.1#hM@,/ +1#@1##1#s@ X-.'< j>@$1#%1#${.mz@&1#*1#=1#-1#IB@;1#>1#,1#'1#)1#!1#~1#{1#]1#^1#)1#/1#^1#L}#(1#_1#g)@:1#9c Yq <1#[1#}1#|1#11#21#31#:E 41#51#Ex+&*.61#br@*J =c Ie 71#81#:'#91#01#}U a1#b1#@J )'#X@#c1#)o@ur mn d1#e1#j_.nU.Dz.[].7@#bf *|@bI++] uf@f1#Bd.1]@g1#h1#i1#j1#<w.k1#Kb@tE.Q,+l1#x@@{%#m1#n1#gm q/ E.@o1#fW+2I@R_#p1#[l.qZ+iM.iM.Ct+q1#r1#-=+:6.l^ h5@s1#-&+t1#u1#)<.D^.cM.v1#qS+GH+r,.!C w1#Gr x1#9~@0X.Eg.y1#DB.`P@z1#`L+`L+qK.A1#JQ.B1#0)@HQ.`D./-@$M+C1#D1#E1#F1#G1#H1#I1#J1#S@.K1#L1#mn DO wD@M1#JP@Xu.&P.N1#   ",
"   l|#O1#:3@P1#5^+Q1#P2@UX R1#S1#6:@T1#U1#V1#W1#X1#Y1#5` Z1#`1# 2#i-+.2#PY.+2#@2#/4 =]@#2#g!.$2#%2#KC.)C.&2#de+;6@U-#ps.*2#yB.=2#Qd+ k mM }}.WS@R>.'1+-2#:g dk@qz 82@Xh+q$.;2#>2#,2#'2#)2#!2#~2#|:+sz.h}#{2#]2#){@T!.^2#[g.ZQ@FA  q+/2#(2#_2#M>@Z*+.1#MJ@{D :2#.1#xR+)} <2#[2#Pq JT mo+%B@}E }2#|2#12#22#rG@32#W6. M+42#WF@}J@52#62#72#82#92#02#L}#(1#/1#a2#(1#b2#Z!#c2#K]#9c 3D+d2#e2# I@EZ+f2#g2#h2#%k+BG@ d+$V+i2#( .j2#c9.k2#l2#7r@m2#n2#&*.o2#p2#q2#i_#!^ L9.B++r2#B5 _;.mn -u@V@.s2#da+t2#u2#v2#w2#lr.cw@)i@2j.x2#y2# k.pC.dU.z2#fx@TR.>k.A2#B2#;k.C2#NC D2#E2#f # l.uX+Fj F2#9b+*g@xF@}<.HJ@G2#B; B; LC.k,.k9@wr.}W.H2#I2#Ti+J2#K2#L2#M2#,2@N2#mS@O2#Dt+P2#Q2#R2#8r S2#kq@T2#U2#V2#W2#eX.X2#Y2#Z2#Z2#Z2#0|#`2# 3#.3#CW++3#z1#@3##3#$3#%3#&3#*3#=3#vA.QX -3#m_ t5+;3#xJ >3#,3#'3#)3#Ad+   ",
"   0P.!3#X4@5A ~3#3:@TE Ws@XC {}#{3#]3#^3#/3#(3#_3#:3#<3#[3#}3#|3#13#UX YC 23#33#}5.>H./n+L7 43#Jh $%.Rk.,[ 53#Ez 63#;>#Mf+#C@73##0+Qd+83#93#7W+j+.]k 2 #v5 03#F~#a3#b3#c3#d3#IH :& )p.e3#f3#;1.g3#ax._K {^+ZQ@h3#W0.]D ~;@i3#j3#ZO@ZO@k3# q+~^+l3#m3#lF n3#o3# I  I p3#q3#r3#';.~H.s3#0.#t3#N7.u3#v3#w3#g2+g)@x3#y3#/v.V{.1&.z3#A3#A3#B3#C3#D3#E3#)/./v.F3#G3#!f@c2#IN+H3#k]@tc I3#J3#nb+K3#L3# 1.]$@M3#X|.N3#O3#l:.P3#Q3#f*#p~ R3#S3#T3#U3#ez+S3#V3#W3#X3#Y3#Z3#`3# 4#.4#1  +4#@4#0J@(.@#4#R{#$4#r; be+%4##W@-f 08+su &4#*4#Io@5+.(Y _Y aO+&:.=4#C` 5/.=A.-4#},@;4#b +*p >4#-;#F, 9F ,4#'4#nO.*G.>W+g7@cS@cS@Fj vV.)4#!4#+!.'g@c}.Dv@t0+dF@O3#~4#Vh@'t.{4#.r.E%@X%@0l+q@ ]4#^4# p+/4#(4#~<+_4#E8 eB.:4#b)@/l+<4#[4#}4#]v.zg.|4#14#24#34#7j+44#54#64#74#84#94#t7 04#o& nA a4#b4#c4#W)#d4#e4#   ",
"   UE f4#g4#h4#~b i4#2{ j4#F;@`d@#A.k4#l4#m4#n4#o4#p4#q4#r4#s4#t4#b` ff@u4#v4#w4#Wr +Q (}.x4#u/.F-+y4#~z.z4#6L.`Y.4I.|$ $E+@H@ws.A4#B4#z4#QP@3s@=C@C4#s_ &' D4#E4#F4#G4#H4#I4#v$ w. J4#wv *a@K4#.1#!D L4#M4#g@.N4#OT KU.~D y=@]y O4#nC@!a ZO@P4#`V+hM@Q4#eB+,O+jF R4#S4#T4#al+U4#V4#W4#g~ X4#Y4#Z4#`4#w%+ 5#F #H9+x=+.5#+5#@5##5#$5#%5#B3#B3#&5#&5#*5#(l+K]#Pc :K+=5#g)@-5#;5#3D+[N@>5#,5#'5#)5#nu@|H 2c@aE !5#eB ~5#{5#]5#^5#/5#VD@(5#_5#9F@23.:5#<5#[5#}5#|5#;T.15#j*+$7.!P ,& q4+25#&L+35#45#bU@55#65#7+.75#85#r^.95#05#N[.mq+)Q@_; nO.F^.a5#E:+b5#c5#|b+d5#:@+px e5#~&@Mo.Ld+(: q1#x=#f5#g5#,t.UJ.h5#h5#7V.8: i5#j5#YQ.PB.k5#0#+oZ+A_.a@@[##l5#m5#/<.n5#jp+o5#2z++]+>p Yi.1:@V}@d0 p5#q5#r5#s5#t5#I1+u5#U_@v5#w5#x5#y5#FB.b-@x,@z5#t$#A5#B5#C5#D5#e+#E5#F5#X2#(<@#. }-@5J+G5#n] ie H5#I5#   ",
"   J5#K5#L5#mz@OW H%.<b M5#N5#O5#P5#Q5#R5#S5#S5#Z..uG@c..T5#T5#H;@U5#u[ V5#P5.W@ /4 b>.W5#zE.X5#0,.Y5#Ka@=b+Z5#`5# 6#-% =% .6#Tj 0$#UQ +6#@6#_t #6#$6#Q4+zZ@YE f$+%6#7U@&6#u~+t;.:(@*6#=6#-6#Ra@;6#r.+x_.>6#,6# :+/|@Lk@7r.'6#pk.~;@~;@T!.!a [$.)6#ZQ@r}#:s@n3#rk =6#!6#~6#nm.{6#dm@]6#^6#fj+/6#(6#_6#:6#<6#[6#}6#|6#16#26#36#46#56#66#tU.B3#&5#76#)/.86#6~@96#06#a6#b6#c6#Tj IZ.d6#e6#f6#g6#h6#i6#j6#k6#l6#l]+:3.k[ EL.m6#n:@n6#WB o6#%h+p6#7@@q6#r6#pz s6#<Y t6#4H@$##>H.u6#;Q v6#w6#x6#y6#z6#}Z.Lv@A6#A).hx@YS@%G. P.fv RV ;M.B6#C6#D6#E6#F6#p^@G6#.E@#8.Y:+vf.Af.R@+17+#c vj H6#8; .r.Tc.I6#UG@ S.J6#K6#L6#Ca.Tc.tA.M6#|I@D] GC.FC.,4#`{.v! FG Eu+!C N6#;( /h 6^ k1 0;.76+O6#P6#Q6#R6#S6#T6#U6#V6#[Z.W6#Oh@Bb ])#69 jq@X6#;z+Y6#Z6#`6# 7#9j+.7#+7#@7#qV #7#$7#%7#!% .>.&7#*7#::.nA.q#@=7#   ",
"   Ef.KH+-7#;7#>7#,7#'7#10.q1@K~.)7#6^@Df.{H Xa !7#NE P|.x.#~7#ee+{7#7*#*u Q> ov J2 e= <}.3+@&}@kA+]7#^7#/7#~6.(7#]6.=b+_7#r= 0,.76+2!+h> m$+v,+r(.:7#_G.<7#[7#Kh.}7#h|.|7#17#pO 3o.27#37#47#57#67#77#87#97#E8.07#)x@@ + d.a7#b7#c7#E#@d7#e7#f7#g7#h7#MJ@i7#j7#|e.k7#l7#m7#Yq @%.W1 #O Qd+n7#o7#Sl HM+p7#q7#r7#_d+s7#t7#G3#7-@u7#9L.v7#tU.E3#B3#H}#^1#w7#x7#<K+y7#z] *L+(<+~{+s~ z7#Or+A7#B7#M& C7#v5@HT.D7#E7#``+F7#G7#9&@6y+YR H7#I7#J7#K7#L7#}$#M7#sc.dz+&G@g[+N7#'l+-* '5.d& 2V.`u O7#P7#Q7#R7#S7#G; bv hr.cM.=c.Cb.y#.2j.RJ.oA+T7#U7#%z V7#:: Wc.W7#ad@Ux X7#{~ Y7#*3 -u n=@nf+E~ Z7#`7#gZ@ 8#.8#+8#:i.lm @8#i:#kM.gQ.#8#t`.$8#%8#$8#l.@)-@rJ@v0+(F.&8#X%@qv+`| JO C5.*8#=8#-8#;8#>8#,8#6-@='.X/@'8#'; Uz+)8#`Y+!8#1x.~8#2s.2].HQ {8#l(+R5#]8#^8#cd@*K./8#(8#)P W<#(^+_8#:8#<8#[8#x`+}8#   ",
"   |8#TQ H@#F{+[n+u_.h[.P~@18#28#38#]+.48#58#xB.H{+bh fD+h<#68#78#+5 IH.m;.P# m  %u |&.3  Q> dH ]> W;.A=@]$#88#98#I`@4u A=@Wm St.=I ch 64 n$ 4Q 08#Jn@,E+O* a8#b8#c8#d8#cq '@ e8#em QD+f8#3& g8#h8#j=@i8#'Q+1& j8#Lp+k8#k8#l8#m8#]{.4t n8#o8#p8#q8#r8#en@ >#s8#RG.t8#Zo &s+)-.Nq f& *4..s h3 _  (  s;.p/ -I.06.A%@u8#+k (% l9 v8#6E@w8#8Y.i[#*@ 8n.nD+35.}-@x8#U^ Yz y8# + 6%.z8#!O y`+A8#N:@Lm.B8#*8+Sh.;y.zO.C8#3O 3. 7h .6+.6+D8#dY.E8#F8#G8#H8#I8#k5 J8#K8#a(.$A.,'..$ D3 0P S+ E!.p) <`@&O (e cY 4Q cY ZZ+J3. o.(. pn+6T+J5 $p.A@ r3.A7+L8#M8#h& 6Q n  fB _O xy.w1 LP  # Xu h+ Rm.Tm+Zz rt QF.N8#Hq.2 +O8#Fo P8#Q8#R8#2. {;@S8#T8#nG.nG.U8#V8#dY W8#FS+(`.X8#wh yS+b;.Y8#Kp eC@>C.,[ Z8#1X.j`@`8# 9#MN+.9#+9#@9#mK.o2.93 ->.#9#eD+28#QQ.p  Eg n, 33#l& d`.W<#^O W<#+# eH $9#%9#&9#/E.*9#   ",
"   ]#  # J0 15.J0 X+ !Q Y$ F4 Yp 9@ $s q;.hT.Q<..$ ir V# C>#.$ J;#Gr xH.M# ik.^Q V+ /4 eZ.L$ d* F;.!Q bn@ >.|@ V@ E# MO J1 7# W+ `N j$ Y+ [] Hr :v X% =9#!@ #$ /3 +*@05 T/ rr -9#;9#';.ST+f& pr f2 l;.k  J1 p# >9#,9#/;.on.a;.0;.Rq ,% qZ.Qo PG Re *[ 7z e`.7o.'9#)9#!9#4D+Ro ;5.Rr -s -# !; @# .U+D+ X-.zO V% ~9#'4 Rq 2P qZ.S/ gO ;5.;# m`.{9#eB@ r U@ @# k  /O 9h -# M<#i`.]9#+# GD+e;.vm }O N# T+ ]$ i@ Fy+/>.{#  r ED+Z(@Oq eB@D1 9. 2P PG q3 (u@^9#u>.HH.Zo.>Q k@ dr kr vm gP )5 }@ `N |@ |@ 5@ q;.sH.i1.D|.]P 0m+T~.{# g% z+ I4 u@ r@ }3 7a.ov pO MO eZ.^O S, {9 J+ aP  # {*.S, F# e# }@ k@ Zr F;.p4 )5 =3 M4.Qq 5r 3G.=# P# 8h KO ^4 `p &# <r D# J# ^3 _0@Zr./9#'r $c+6# #,@@2 *2 y# D# hr 5@ %;.'_@T!+u# m  m   $ MO  # ur o@ Oq ov @m+Q)+BL 5r ,p 5D+eZ.(9#:r b4 Xz@_9#K4.K4 h;.o)    ",
"   :9#<9#O3 2P [9#}_@1,.cY@61.1% |l+}9#qo.wT+x8@EM w. |9#19#29#ut+39#49#59#ea@Tk+69#79#89#*h 99#*m+82.7G.Xz@'@ /4 &# 09#a9#b9#X-#O5 -u Ic eg.wT+c9#d9#:(@'  b7+e9#f9#]& Q&@g9#ua.h9#n$+Oe i9#j9#5%.k9#l9#m9#s4.n9#D|.Um.v(@ct eS._%@Vm.#!+q6 `X+o9#p9#_=.q9#)j+!$ &m+r9#s9#t9#u9#v9#lt W3.w9#Y2 [(@<,#x9#:7 y9#_D+~1 :!+V] fp 'o.1# Q;.z9#A9#B9#Kv@CT+q& C9#@% D  D9#W3.E9#.E+]Z@wA@UP+/Z.F9#[,.G9#H9#~)#I9#J9#mL@Wn+K9#L9#o8#M9#N9#O9#P9#Q9#R9#S9#T9#U9#V9#W9#X9#Y9#~$.Z9#`9#YJ #_.Mo+ 0#.0#0;#>L@+0#fD+a4.[g@qr ;  @0#q^ nR.$6#z{+D8#!R vl.#0#AD+6Z.|~+w1 FO cr.`3.nm.4~+8~+Z@+$0# 6.%0#&0#Hl+Go nZ@Af@I%+@0@*0#=0#V7 -0#%E+;0#]]@&!+.%@YQ+LN m& QJ 3  U3 `3.`3.'*@Hm+v@ >0#6=.~w+e:#,0#'0#A} )0#<U+qH./P uH.!0#p9#C_@~0#{0#iZ.}&#/t H@#T: ]0#^0#/0#-q jC+(0#_0#j*.>D@0l ,=.B4#:0#hG.QC@:Z.   ",
"   <0#[0#}0#|0#10#.F M2 YQ+jx@2f y>@~r+`>@W8 mh 20#xA+30#40#50#2C+R&.EB+60#70#80#90#dL+00#a0#b0#7h+CC@c0#C4 7O X@ qZ.;% mf+fd@d0#e0#f0#g0#(O@L_+h0#i0#j0#k0#l0#m0#n0#o0#]z+p0#q0#-J.By@r0#Fg.s0#t0#u0#lL.v0#w0#xt ^4 x0#y0#z0#=' A0#B0#0F )j@C0#gy.df+b/#OZ@D0#E0#F0#5C@kC+G0#H0#I0#I0#*B+J0#k-#K0#L0#=].M0#67+(5.Vg.]_.N0#E,.dh O0#3 +P0#Q0#R0#O  u  S0#T0#LL 2i@@H+AV@U0#V0#W0#X0#Y0#t_.gP.Q& Z0#`0#yO@ a#.a#SD++a#@a##a#$a#%a#&a#*a#=a#-a#;a#>a#,a#'a#'a#)a#!a#~a#{a#]a#e@.)>+^a#0!#/a#(a#_a#:a#<a#[a#fs K9@Q> V0#}a#%B+|a##M *M 1a#I~+r'@2a#3a#4a#5a#(C.6y 6a#iF _h.Nu 3c 7a#:|.8a#9a#9a#|:+#j+0a#aa#ba#oP D(+ca#da#ea#fa#ga#/[ d-#ha#qs+ia#ja#hJ+*S+ka#la#8l@ma#na#oa#pa#[Q@qa#w{#ra#3:+uj sa#ta#N.#ua#f_ va#wa#-F  A+`H@xa#}o ya#za#Q|.c*#FJ Aa#Ba#qC '^@Bn Ca#W(#Kg+YD@ B@Da#Ea#%B hE+   ",
"   Fa#Ga#Ha#Ia#Ja#Ka#d3.x_+La#sZ Ma#36.k:#c] &x+ta#%I+Na#SP+Oa#Pa#Qa#Ra#}o@[&+%J+!E@Sa#Ry Ta#C0.[x+Ua#V`+Va#Wa#8P V1 Xa#Ya#Za#`a#AJ@ b#.b#+b#@b#;$##b#Ao+$b#%b#&b#1!.0X+*b#=b#-b#;b#>b#,b#'b#s7 )b#!b#~b#$g@{b#.o.W)+]b#^b#8K.}+@/b#%k Cv.(b#_b#:b#<b#[b#}b#|b#1/@1b#2b#O- _K 3b#X$.X$.4b#Sb+5b#wW.6b#:G.g. 7b#/% Ni.8b#ny DE OG 9b#@0#0b#ab#bb#cb#3 +Z>#db#]<#oi.(v bR.wk+eb#@ #5f+fb#[Q gb#g4@PI@ln hb#ib#TT+],#jb#kb#lb#mb#nb#ob#pb#qb#rb#rb#>a#sb#sb#tb#ub#vb#wb#xb#yb#_%+zb#Ab#Bb#Cb#l+@Db#Ez@Eb#Fb#Gb#wm (. J#@Hb#6O.d^ 6= S~ ^h Oi.29+Ib#f;@Jb#Kb#Lb#O|@O:.}%+Mb#Nb#Ie@Ob#A; MC.Pb#fw Qb#ff+Rb#Sb#!{+Tb#(c.Ub#Vb#Wb#4.+>8.Xb#x_ C$.Yb#@].Zb#J, qq@68.#N@`b#a@@ c#H^.><.2; j5.#j@-' ;o@.c#+c#@c#O/ |m+#c#wi .c.$c#w%+%c#&c#*v *c#=c#-c#;c#=K@>c#,c#'c#)c#!c#~c#b2@{c#Zy.vl+]c#l{ ^c# +@   ",
"   /c#(c#_c#:c#<c#[c#}c#{6@|c#1c#2c#3c#c}.Wa.Qt@zK *c.4c#7Z vo.]<#5c#6c#_[@-8.vh 8C+7c#z[@l].Le.8c#9c#0c#ac#6I.^H.eZ./*@bc#cc#dc#ec#>_#_|@fc#gc#|%.hc#ic#xK@{f@A{.jc#Tz+kc#lc#mc#nc#d|+UA wE@oc#pc#D`+y]+qc#rc#sc#29+L #)i tc#ZO+uc#fg@vc#]V@s;+wc#|F@]l+H1+xc#gQ.+j+l/#Ed+QO+yc#zc#w; uE I^.]6@[X.2h.qO.gK+Ac#-)+Bc#Cc#F[@U$#}9@G1.u= xT+Dc#Ec#Fc#t. El+lZ@ds L{.v8+[z+xU+yV. e@Y[@h7 +v Gc#=H Hc#!J.Ic#`o GU+Jc#Kc#Lc#Mc#Nc#Oc#Pc#Qc#Rc#Sc#Tc#Uc#Vc#Wc#Xc#Yc#Wc#Zc#`c# d#.d#+d#@d##d#$d#%d#&d#{y@LD *d#cM.55 =d#j: 8v+-d#6 .Sa.dM+jF =/.;d#*}.>d#,d#'d#0%.)d#!d#~d#e8+G/#6] {d#a;@UL.#r+) #]d#6!@^d#/d#(d#_d#P).RX+:d#Hg+&' C, a= .i@<d#>^#[d#v.+d9@}d#&< od@|d#tT 1d#tg.@l @^.D@@[r.E: I[.2d#v.+ Q.3d#e% 4d#5d#6d#7d#ae@8d#9d#0d#ad#bd#cd#dd#ed#fd#gd#hd#c6@id#jd#R .kd#ld#md#nd#y5#K&#m@#   ",
"   od#pd#qd#rd#sd#;. $I.td#ud#vd#z7.wd#xd#cw yd#(J.zd#Ad#~@#]<.|M@8/.Bd#Cd#Dd#Ff+ua+Ed#qa+Fd#8{ RA+[g.Gd#J8+at Hd#0r 2 +|f@Id#Jd#Kd#Ld#Md#QZ@Nd#Od#_.@Pd#Qd#Rd#Sd#Td#Ud#Vd#Q1.VY+Wd#u&#Xd#Yd#Zd#G!@ E.FI@`d#mQ+9C+Li+l}. e#|_ .e#+e#@e#4l.#e#$e#%e#&e#/x+*e#=e#-e#;e#'z >e#,e#'e#)e#!e#J4+~e#|#+-, VR@v,#%J.{e#4T+bz@OS.aq uG.GN D=@li.]e#^e#!6.Q$ /e#Oz+09@k_ k]+(e#Dz _e#M3+.y /Y g9.~7#s#+:e#<e#[e#}e#DD+S/ |e#1e#2e#3e#4e#5e#6e#7e#8e#>a#9e#0e#ae#be#>a#ce#de#ee#fe#ge#he#]N+ie#je#ke#le#me#ne#oe#U{#:[ 07+e%@[t.5g.pe#qe#'M P_@d2.(|.vP.py re#se#L8+te#ue#ly@Te@ve#FQ+1>+we#xe#3(.M2@WN.IL sZ vA ye#ze#@& p*@6}.+].Ae#jy -k.BM+xb@;; Cb.58.Be#1j.O:.^: Ce#De#B@+Ee#Y/ +*.Fe#m@@>; <Q Ge#|C Q6 He#Ie#Je#Ke#Pb Le#wC.Me#gN+j{ YY+Ne#Oe#Pe#Qe#Re#Se#Te#Ue#Ve#We#Xe#Ye#Ze#bc+`e# f#NQ..f#+f#   ",
"   @f##f#$f#%f#&f#*f#G2+YN+=f#-f#`, ;f#>f#,f#'f#3d#)f#|1.!f#=g.~f#Od+kO.{f#]f#&>.^f#9Y./f#(f#lP._f#:f#<f#X, X| [f#_4 }f#|f#1f#2f#3f#4f#UP@H9+5f#6f#bq+7f#8f#9f#vd@iX 0f#af#bf#cf#mc#Xt.df#ef#ff#a4+Q`+gf#hf#>* ,!+if#`-@/f.jf#q3+kf#lf#lr@4s@Ot.*[@mf# L nf#of#pf#9_+qf#rf#.3+#)#sf#Ue@tf#uf#vf#vk UL+BJ@nQ+wf# &.u.#R..!G@xf#yf#B=.nL.zf##M &b@Af#N`.kP.Bf#MB+DT.Cf#Df#Ef#3B@n +De@Qj.Ff#f2#uG@z).zn Da+@6+T3 Gf#Hf#If#Jf#Kf#Lf#Mf#Nf#Of#Pf#Qf#Rf#Sf#Tf#Uf#Vf#Vf#Wf#Xf#Yf#Zf#6T@`f# g#.g#+g#@g#!L #g#$g#*W+FO @D+~;+Jr+%g#T{ &g#] +A..*g#8V d#@=g#=,#F'@-g#Cc ;g#ub.>g#,g#'g#q/#EF@ s+!<#}3.,c+)g#!g#~g#-p %P P2#{g#tP@]g#^g#/g#o0.(g#;; cn _g#:g#<g#$O.O+.[g#}g#vJ@|g#v'@L0.q^+>g.1g#4^.2g#k' s2+qv.~d@%E+3g#4g#5g#6g#d2+PH@7g#PU WJ+8g#9g#KZ+ft.0g#ag#bg#cg#`+#dg#i^#eg#HY.fg#[a.gg#hg#l;#   ",
"   ig#jg#kg#lg#mg#ng#og#Q$#0).dO.E< pg#: +qg#V0#!F.rg#||.sg#xk tg#ug#vg#38#h(@+D@wg#xg#yg#zg#a1 s)@Nh Ag#Bg#M_ G#+_4 Cg#gH@)I Ri.`z@^l+Dg#Eg#Fg#Gg#Bq@d{.Hg#Ig#;e+/x+Jg#Kg#Lg#Mg#Ng#5z@^2.,N H6@Og#Pg#Qg#Rg#Sg#Tg#jO@Id@Ug#Vg#Wg#Xg#Yg#Zg#`g#u7 qn@ 5#^+@)!.IX  h#.h#+h#YV@@h#l! >m@#h#Zf#*_#$h#5]+b<++i.49@h;.rP.%h#du@&h#_j.Dr@LD@TC *h#HJ jW@=h#-h#;h#P`.>h#,h#'h#R(.)h#l]+l6#!h#~h#wZ+k7 cu@{h#]h#^h#bE.0;./h#(h#_h#:h#<h#[h#}h#|h#1h#2h#3h#4h#5h#6h#7h#8h#Pf#9h#0h#ah#bh#ch#dh#eh#fh#gh#hh#ih#jh#kh#0M.AQ.lh#H-.($#~4@mh#nh#oh#ph#fH qh#&g#rh#zM@sh#th#uh#vh#wh#xh#SO+yh#ly.0I+zh#Ah#+e.YS@_; 4++Bh#*p #3 r..Ch#Dh#Eh#Fh#Sd.od@'}.Gh#L,+rT /: Hh#Ih#-@+K|+Jh#8-+Kh#_M@dl Lh#=X+4)@4@@5l _-.Mh#Nh#W5+xh.Oh#Ph#t&#O'@Qh#Rh#Sh#@h Th#Uh#&[+Vh#Wh#Be+Xh#Yh#Zh#zg `h# i#.i#/g Dw.(V@+i#@i##i#   ",
"   $i#%i#&i#*i#=i#-i#;i#;-@>i#&b C_@,i#_}.{@+33#9`@'i#)i#=6#!i#KP+~i#{i#{u.]i#x8#^i#/i#GB.(i#_i#:i#<i#ug#$0+$H.^# X! [i#}i#|i#1i#2i#3i#4i#nb@5i#Fn+6i#7i#j<@:: 8i#E6#9i#0i#ai#bi#ci#di#ei#fi#Kk@(f@gi#hi#I.+ii#p& R8#ji#ki#li#}A@#U mi#ni#oi#pi#$[@Cd+qi#ri#si#'r+ti#ui#)1+vi#wi#vO.],+xi#Y4+|W.!> yi#,] Q..oZ.zi#(y.Ai#Bi#Ci#0t.Di#9y@Oj.Ei#KC ax+]N T=@x* Fi#0: S.#Gi#Hi#Mt+H0 )V@/Y@(b@Ii#Vx.>v@Ji#=b+x>.k& u9@Ki#Li#Mi#Ni#Oi#Pi#Qi#Ri#Si#Ti#Ui#Vi#Wi#Xi#Yi#Zi#`i# j#.j#/| +j#@j##j#$j#%j#&j#*j#=j#Ur.ot+Xu -j#%I.;j#E=+qe.tC+>j#}Q sA.,j#'j#)j#!j#~j#{j#]j#p| *#+^j#/j#<;@(j#;u+_j#QL+>t+:j#&I+0| <j#[j#f;.}j#W|+|j#D[@sQ.=m 1j#2j#LK.3j#=< 4j#5j#6j#7j#8j#[L 9j#0j#a(#aj#bj#cj#d0.'[+&g.BF.L!#bw :+ 3N dj#L=+cy+)w@nG@ej#fj#gj#5C hj#U!@ij#jj#~h+kj#lj#vi@mj#nj#oj#pj#qj#rj#&T sj#tj#uj#   ",
"   vj#wj#xj#yj#Ud@qP N:@'I.zj#=| -5.3P d0@U;.Y3 *S Aj#:9+qp I  ': HZ.Bj#7|#in.Cj#=& Dj#38 Ej#Fj#q9+Gj#0D 1o.z+ %} L@ Hj#Ij#Jj#Kj#Lj#br.Mj#Nj#8<+yl.v  Oj#Pj#pF+Qj#PX.Rj#Sj#Tj#oa@Uj#Vj#Wj#Xj#~9 Yj#:8@W8#mb@Zj#%O V+ `j#8M+ k#.k#+k#@k##k##)+$k#%k#eA@KB@w9#4Y.Ih +O+&k#7s [~@*k#=k##).-k#Yj.;k#SF+Jp+S8.St.^$ l3 )g+G5#>k#-a@kQ+,k#zf@'k#)k#!k#* #~k#sL ^} {k#]k#^k#2L+c= j}.%_.:G.'M+'J./k#Q7#=]@(k#1  I1 fZ.O)+_k#:k#<k#[k#}k#|k#1k#2k#3k#4k#5k#6k#7k#8k#9k#0k#ak#bk#ck#dk#ek#fk#gk#hk#ik#jk#Zx.kk#Sk++% Q> ^  %2+lk#RG.~+ Mn+mk#=d#nk#U=.ok#u6.pk#qk#pk#rk# (+sk#tk#uk#3d#vk#Pv wk#xk#yk#zk#aR lp.Ak#7r pr Bk#}o.`;#>5+7h Ck#Dk#CQ@A,.C~ Ek#Fk#mp. b@-r.p} QH H/ 8K.Gk#'h#Hk#Ik#vI+5d@Jk#66.;'#b% N0 gO Kk#k8+Lk#e6+Mk#l!.(<@Vh aB.Qs.Nk#Ok#Pk#Qk#sh.s3#Rk#}+#Sk#Tk#k +Uk#Mz W}+@V Vk#**#   ",
"   A*.n  |~+`/.,@ Wk#14.!@ Xk#hB@T, I1 MH.`9@4r /3 ^..z%.';.Yp #9@9+ 'r ^Q O4.K1 ov Yk#l;.l& _{ $P _V.Zk#~T N# /;.~r ur  # G)+m@ m  %2 C<#`k#!~+eH ~r Ir LP e;.^5.#r 45 $u E# }@  $ P..N3 k,@k@ '@ o). l#7  x;.e3 .l#%. wH.~r X@ g% K4.N+ T3 hH.Zo +l#TD+@l#fp Q7+oO ;H.X++s>.aC+P3 ]Q Zo.g& e+ om@j+ h>.<] y1 -O }+ +n+#l#>[#tq J%+KB@<+ vs (+ $l#%l#'Y.<s yw.&l#>]+)K@|o.>m.v*.`_@%[.LT.V5.*l#5u Y-.T1 }@  $ 5r +r 9<#=l#lA+-l#;l#>l#,l#'l#)l#!l#~l#{l#]l#^l#/l#(l#_l#_l#:l#<l#qg@um+bn.6%.zm+[l#ri@k% K4.^Q jP b4 P# u@ $2 a# r@ !m+yZ ]Q 8. 55 Rq <r S4.Xr X+ :v !5.Y` *4.;7+}_@Sr }l#;7+nD+i*.N# m~+3*@p;.|l#.$ g2 z;.47+w:#^~+_4 ^4 lP lr 1l#2l#12 v3.gp }D+3l#)O !-.2Z..O 4l#>Y  5.2Z.ik.=Q =# nM -s ;7+;* WN D@ -& ~T n( ~H.3F /s :s Q{+z@ 8P [m+~H.nA nA %O P> .s qO D5.m  hx.5l#+5    ",
"                                                                                                                                                                                                                                                                                                                                                                                                                                                                                                                                                                                                                                                                                                                                                                                                "};
