/* XPM */
static char *west[] = {
/* columns rows colors chars-per-pixel */
"100 100 231 2 ",
"   c #0E0A08",
".  c #130E0A",
"X  c #170E08",
"o  c #1B130C",
"O  c #17120B",
"+  c #1D1914",
"@  c #191410",
"#  c #22180D",
"$  c #241B12",
"%  c #291F14",
"&  c #231E19",
"*  c #26211B",
"=  c #2C241B",
"-  c #2D2419",
";  c #31261B",
":  c #342A1D",
">  c #392C1D",
",  c #302215",
"<  c #3A301F",
"1  c #2E2A22",
"2  c #2A2621",
"3  c #342D23",
"4  c #392F21",
"5  c #322F2A",
"6  c #3C3224",
"7  c #36322A",
"8  c #3B352A",
"9  c #3E382D",
"0  c #353126",
"q  c #3E3A32",
"w  c #393630",
"e  c #423524",
"r  c #413629",
"t  c #443A2C",
"y  c #4A3D2C",
"u  c #493926",
"i  c #433D32",
"p  c #493E31",
"a  c #41331F",
"s  c #4D412E",
"d  c #47402D",
"f  c #53432D",
"g  c #5C472F",
"h  c #454135",
"j  c #4C4234",
"k  c #4C453A",
"l  c #4E483C",
"z  c #45423A",
"x  c #524534",
"c  c #544835",
"v  c #5B4B35",
"b  c #514739",
"n  c #544B3C",
"m  c #5A4D3B",
"M  c #5B4630",
"N  c #5C513D",
"B  c #56503E",
"V  c #614F37",
"C  c #63533C",
"Z  c #6C593E",
"A  c #675438",
"S  c #725B3D",
"D  c #4E4941",
"F  c #544D42",
"G  c #594E41",
"H  c #555044",
"J  c #5C5343",
"K  c #555249",
"L  c #5B564A",
"P  c #5D594B",
"I  c #5F5847",
"U  c #5D5A51",
"Y  c #625643",
"T  c #655945",
"R  c #6B5C45",
"E  c #615748",
"W  c #645B4B",
"Q  c #6A5E4B",
"!  c #695541",
"~  c #725E45",
"^  c #645E52",
"/  c #695E51",
"(  c #67614F",
")  c #6D614D",
"_  c #6F6047",
"`  c #736146",
"'  c #73634C",
"]  c #7A664B",
"[  c #7B6A4D",
"{  c #77684D",
"}  c #666153",
"|  c #6C6453",
" . c #6B665A",
".. c #6E695B",
"X. c #696559",
"o. c #726653",
"O. c #746955",
"+. c #7A6C54",
"@. c #716759",
"#. c #746C5B",
"$. c #7A6E5A",
"%. c #786751",
"&. c #7E7056",
"*. c #76715E",
"=. c #7C715C",
"-. c #6E6C62",
";. c #736E62",
":. c #786F61",
">. c #767163",
",. c #7C7463",
"<. c #7E7966",
"1. c #757369",
"2. c #7B7669",
"3. c #7E796B",
"4. c #7D7C72",
"5. c #826E4D",
"6. c #826E53",
"7. c #806F58",
"8. c #837255",
"9. c #83745C",
"0. c #86795E",
"q. c #8B7A5D",
"w. c #897557",
"e. c #917D5D",
"r. c #85704F",
"t. c #817663",
"y. c #847A65",
"u. c #8A7D64",
"i. c #847C6B",
"p. c #897E6A",
"a. c #807768",
"s. c #837E71",
"d. c #897F70",
"f. c #947F61",
"g. c #8D8066",
"h. c #86816D",
"j. c #8C826D",
"k. c #8B886F",
"l. c #928264",
"z. c #92856C",
"x. c #95886E",
"c. c #9C8B6D",
"v. c #988768",
"b. c #858173",
"n. c #8C8473",
"m. c #8E8975",
"M. c #86857A",
"N. c #8B867A",
"B. c #8D8A7B",
"V. c #918672",
"C. c #948A75",
"Z. c #9A8D74",
"A. c #938D7B",
"S. c #998F7A",
"D. c #908678",
"F. c #9D9175",
"G. c #96917D",
"H. c #9B927D",
"J. c #949077",
"K. c #A29374",
"L. c #A1957C",
"P. c #A4997D",
"I. c #AA9B7D",
"U. c #A08F72",
"Y. c #AFA07F",
"T. c #8E8C81",
"R. c #928E81",
"E. c #959283",
"W. c #9C9583",
"Q. c #9E9986",
"!. c #959489",
"~. c #9A9689",
"^. c #9D9A8B",
"/. c #97988C",
"(. c #9D9D92",
"). c #8F9085",
"_. c #A19681",
"`. c #A39A84",
"'. c #A99D84",
"]. c #A39D8B",
"[. c #A89E89",
"{. c #A19E92",
"}. c #9FA096",
"|. c #ABA186",
" X c #A6A18E",
".X c #ABA38C",
"XX c #B1A68B",
"oX c #B4A98C",
"OX c #B3A687",
"+X c #A5A293",
"@X c #ABA593",
"#X c #ADA995",
"$X c #A5A499",
"%X c #A9A699",
"&X c #ADAA9B",
"*X c #A7A89C",
"=X c #B1A791",
"-X c #B3AB94",
";X c #B2AD9B",
":X c #B8AE94",
">X c #B5B19D",
",X c #BAB39C",
"<X c #B9B297",
"1X c #ADADA1",
"2X c #A8A8A0",
"3X c #B1AFA0",
"4X c #B4B2A3",
"5X c #BAB6A4",
"6X c #BDB9A6",
"7X c #B5B5A9",
"8X c #BBBAAB",
"9X c #B7B7AB",
"0X c #BDBEB2",
"qX c #AEB1A4",
"wX c #C2B89D",
"eX c #C1BBA5",
"rX c #C1BDAA",
"tX c #C0B7A0",
"yX c #C1BEB1",
"uX c #BFC0B4",
"iX c #C5C1AD",
"pX c #C3C3B4",
"aX c #C3C5BA",
"sX c #CACBBD",
"dX c #C9C9B8",
"fX c #D0CDBA",
"gX c #CBCEC1",
"hX c #CDD1C6",
"jX c #D3D5C8",
"kX c #D6DBD1",
"lX c #E4E3D4",
/* pixels */
"R.B.N.q h ^.4XpXpX&Xn.B.>.A.].H.W.@X+XE.R.i.i.n.~.N.>.i.P #.W.R.i.n.d.: B =.B.2X4.../.E.4.m. X>.G i.j.=.8 i | i.#.J y > c j.Q.m.C.T 8 y.n.E I h.$.u.z.V.n.j.H.a.j f R S.-XL.`.`.n.=.y.Q ' j n.]. X]._.C.",
"!.!.T.H * W ~.5XpX9X1XE.$.n.%XW.S.A.b.<.<.;.$.o.;.<. .#./ #.A.A.~.A.X.6 } m.E.{.N.>.R.R.s.#.$.o.y.i.C.+.8 i ) i.,.n j j c } W.m.n.E - j.j.W | S.t.z.z.j.k.j.S.V.c c 9.XX.X.X.XF.j.,.W j %.$.A.S._.Q.H.+.",
"N.M./.3.8 H ~.pXsX9X*Xn.O.} i.<.<.b.m.H.S.i.i.i.n.n.@.W | #.A.Q.C.G.L 3 E.{.N./.B.} ,.i.C.t.Q V.H.[.'.) b r W <.y.k } $.j | +XH.S.| j } *.) $.@Xk.C.z.C.j.t.V.[.=.R S.`.-XH.`.A.p.V.} 6 Q =.b.u.C.z.+.m ",
"3.T.+X4.8 } &XgXgX8X%Xm.=.J i.A.V.A.A.W.H.i.b.C.W.E.<.^ @.i.H.A.%.t.E q (.^.b.E.%XE.V.`.Z.) } b.H.F.x.Y k r W i.i.8 2.B.m <.8X&X&XC.$.i X.<.A.;X`.H.F.C.V.y.=.Q ! v =.V._.'.`.S.n.C.} 3 o.u.A.W.].C.Z.P.",
"M.!.2X1.3 X.8XjXgX8X].i.$.P 2.+X].].]._.W.V.S.H.+X*XE.#.i.^.].y.E ) ) D /.^.W.R.{.+XQ.t.,.p.W b.`.[.Z.J 4 t ) i.<.6 b.E.i.A.8XpX0X4Xi.3 L  X&X7X>XH.V.z.j.J e % v v j.@X-XF.Z.C.j.j.H p ,.n.H.].].`.@X>X",
"!.}.$XU + i ..b.R.@X].,.O.#.W ^.#X[.[.].H._.H.`.@X+XB.} m.+X{.m.i.C.i.1.!.R.~.A.(.E.A.p.p.u.W V.`.W.9.J 4 j O.y.<. .E.$XA.;X8X8X7X@X,.t H +X@X4X Xt.Y Q Q x e , y ' A.Z.F.H.A.H.C.j.l r S.W._.W. X[.,X5X",
"/.!.(.q + F >.' R $.t.A.C.j.>.@.;X+X].].Q.].]._.].d.| ,.+X@X{.E.T.&X<.4.B.b.b.E.+XR.A.n.C.u.i.H.S.y.&.W 8 m $.h.,.<.N./.b.4XpXpX7X~.o.x h H.#X;X#Xi.! N J ! v y f &.`._.[.S.V.V.S.b.t x C.W._. X`.H. X X",
"$XB.T.5 o j $.[. XO.$.o.Q u.Q.W  X&X+X+X].Q.].`.].>.$.j.A.].{.].B.%Xi.b.b.2.b.A.E.].Q.n.Q.y.$.L.z.&.p.>.r m @.b.h.,.b.2.,.&XaX8X;X].=.c 1 n.].&XW.y.t.,.y.=.%.C R [ F.;XH.z.j.C.C.<.8 c 9.S. X_.H.`.[.`.",
"{.s.4.2 O J i.].3XW.t.m c _.8X;.>.2.;.i.i.i.A.Q.Q.p.y.W.p.z.Q.Q.W.7XQ.b.M.F ..b./.~. XA.A.y.Q V.0.&.<.H e J X.<.E.<.i.;.@.@XpX0X8XuX;XW & <.Q.&X].b.n.p.n.C.y.) +.[ K.`.S.H.H.S.S.>.4 B y._.@XC.L.[.[.`.",
";.s.;.O o O.H.~.+X@Xj.a.W.&X8X-.} @.$.b.b.n.C.W.A.V.S.].y.z.Q.]. X;X`.B.^ t } B.~.A.S.m.p.V.a.) %.o.W j 6 x @.h.N.,.i.2.o.#X9X3X8X8X&X<.8 2.G.&X%Xi.S.j.j.H.t.g.y.R S.L.S.[.n.C.W.;.: B &.z.F.[.;X.X`.Q.",
"i 2.;.  = H.W.+X^.S.H.Q.R.@X{.L i.m.,.i.b.n.N.A.R.~.E.b.$.9.~.+X&X;X+XB...b ^ E.^.~.C.S.n.k.Z.=.$.W W p 6 j W i.n.i.n.b.$.@XQ.Z.@X0X&Xi.i L A.+XB.t.W.S.j.p.$.k.Z.c A.H.C.W.p.o.A.j.r T 0.u.Q =.-X5X>XH.",
"8 ) ,.  2 m.Q.&X].S.L.j.i.,XH.@.S.! Z R ,.p.j.u.W.{.A.$.| Q j.S.#X].C.A.>.1 U E.}.^.%XH.j.H.H.y.y.) E p y m Y $.b.m.A.i.i.&X&XA.u.9X&Xn.8 K A.+X~.j.j.9.&.y.i.j.C.c ].`.`.W.m.F ^ A.p T 0.F.A.i.t.V.`.W.",
"j } i.. 8 S.W.^.A.[.;Xi.b.eX-X,XL.M Z Q W 0.u.z.{.E.n.$.%.[ 8.H.>X@X`.E.W = ^ N.E.^.$XH.j.z.p.j.V.o.Q c t m Q O.$.a.n.j.S.@X7X+Xn.7X8XG.r L A. X].A.G.j.$.t.$.n.;X$.Q.$X&X+X%Xk 7 n.p N u.Z.S.W.Q.,.a.d.",
"j O.u.@ b V.W.i.C.H.].#.2.rX<X-Xz.A ~ $.T $.j.n.R.W.E.$.8.] u.-X>X@X1X^.J = P b.!./.~.].A.H. XH.u.t.E E ) Y m Y ) ,.m.].]. X3XuXM.*XuXG.j k B.%X4X XA.Q.j.y.y.y.~.p.Q.&X@X+X!.6 W S.t N L.L.F.S.Q.].H.m.",
"4 O.i.1 J j.d.=.S.t.i.J >.tX-XH.Z.S ~ o.Q +.z.S.R.A.A.o.Z 5.-XiXdX#X%XB.B 3 } b.R.R.~.].H.@XQ.j.u.t.J T Z.[.n.O.W | b.].5X&X4X8X| A.&X]...z B.%X7XQ.p.H.j.=.y.m.=.9.^.1X^.R.U . Q Z.b j.eX=XP..X#X-XC.j.",
"- c W j ) S.W.n.W.W.$.J <.-X-XXXOXS Z ] O.y.z.R.(.A.R.p.V 8.-X8XsX>X$XM.#.8 P <.B.!.E.^.~.H.S.j.O.Q n $.[.;X,X6X+XJ J o.4X7X4XQ.$.n.^.@X .w M.].9X&XC.`.A.n.Q <.y.y.A.Q./.>.k   c 0.Y x.,X=Xx.5XjXdXS.p.",
"* ; c O.a.~.^.W.].C.+.Q a.XX,X:XOXe.S ] =.#.n.R.E.n.N.>.~ x.'.6XsX0X7XN.| 9 l s.N.N.A.A.A.H.].`.Q =.,.H.;X>X;XrX7X8 ; } 6X8X].E.[.V. XW.J w E.%XuX4X%X1X X&X>.) ) O.i.Q.&XA.8 . j Y > ) -X`.y. XjXsX[.C.",
"3 O e =.G.].].W.`.j.+.$.$.#X,X<XwXK.e.R | $.$.m.A.A.a.Q 0.Z.F.,XkX8X&XN.( 8 F M./.!.~.E.W.[.V.W.y.S.i.n.;X&X6XrXi.$ : W [._.#.,.S.V.`.H.Y 8 E.%X9XaX8X].+X%XJ m E ) $.+X;X~.r o m ) c Q H.S.Z.F..X-X`.W.",
"q = T b.+X+X@XH.A.Z.$.>.W @X,XeXrXS.e.V x $.' u.R.A.a.$.F.u.x.8XjX8X&X/.J 6 L s.T./.A.E.A.m.m.[.n.S.j.o.H. X;X5X| , y ) R m e M ' 9.z.F.E 8 E.&XW.*X4Xj.i.].! C +.' ` B.+X~.y % R ` ~ [ 9.F. X-X;X[.W.H.",
"8 r +.H.[.#X5X XH.x.C.<.P `.-XiX`.! ] V c E ' 9.n.t.+.p.H.x. XpXhX8X&X+Xj 8 U 3.B.(.b.B.B.A.V.S.H.H.n.E i.4XrX,XE $ s $.' o.' 6.9.` %.H.o.c b.3XQ.%X].n.~.Q.9.%.=.t.=.^.+X~.j t 8.l.q.6.` u.`..X`.A.S.S.",
": m j.`.H.W.].@X`.F.C.1.^ ].>X[.R v g u Y E y.j.i.7.' _.`.F. X6XgX5X%X+Xm h W 2.T.^.<.i.n.m.j.W.H.A.C.} W.dXhX[.t , Y V.$.,.t.8.u.9.7.`.z.x 2.&X+X8X$X].&X4XC.+.9.t.i.*X&XA.J r C x.c.r.8.+.8.F.Q.j.n.C.",
"t R n.%XQ.[. Xz.H.C.W...} B.A.o.` 8.Z A [ } j.V.N.#.) .XP.`..XpXkX6X+X$XE 8 P b.T.E.b.b.B.a.j.C.C.[.Q.;.$XgXpXH.c 6 =.].#.' 6.9.@XH. X#XH.j -.%X%X$X%X@X@X;XA.' $.9.A.3X9X+XW 4 t u.I.q.w.u.x.'. XC.A.m.",
"s ) n.@X;XrX X0.j.V.].<.,.A.V.8.q.q.5.` u.@.t.t.n.O.9.<XP. X6XpXkX5X+X&XQ 3 L <.b.B.A.B.m.j.y.A.@XQ.b.$.+X8X4XZ.R r ,.#Xy.~ ] C.^.].4X#XS.r  .4X%X$XW. X;X&X~.' V.H.].&X4X].W : b @.z.8.$.A.[.[.W.z.C.i.",
"y Q b.Q.-XsX4Xj.`. X Xi.>./.`.[.Z.u.+.) =.W ) &.` R Z..XF.[.#X|.pX5X&X&XX.= P >.3.B.W.G.A.C.i.y.S.A.S.V.V.].&Xu.Y 6 9.@X`.t.) H.b.+X;X;X_.y } 4X7X0XQ.H.&X~.t.+.V.@X@X&X&X+X| ; J <.E.Q. X X[.H.V.b.b.p.",
"e ) u.W.4X XH. X;X#X].$. .(.+X|.Z.XX XZ.R c R ' f ) u.u.t._.S.x.H.@X4X%X} 1 K ;.b.R.~.Q.A.A.H.j.m.A.j.n.Q.C.G.j.T x j..X8X3X=.j.j.] A.4X`.E ^ &X9X4XW.i.@Xn.' 9.n.4X4X4X&XA.) : m n.E.E.[. X[.`.S.A.C.u.",
"% s &.9.H.y.W.@X&X@X^. .X.(.@XOXP.XX XL.` C ' [ v N ! ! Q _.z.l.V.=.>X{.} l k K 3.4.b.h.E.E.`.m.A.A.i.i.A.A.G.m.) ' y.[.pX$XO.$.y.u.@XpX_.Q H $X4X4X4X].@XV.$.y.i.%X9X3X@XA...6 J B.T.E.W.C.L.H.V.V.C.p.",
"6 C 0.8.m Q ,X>X#X].Q...;.(./.F.P.[.u.&.z.>X;XP.u.+.] C i.S.y.i.S.| A.n.| P 9 F >.3.B.A.^.~.^.Q.n.n.j.m.i.C.n.i.$.+.w.n.E.Q ` +.y.p.H.A.o.O.n M.2X*X{.+X%X].+X;XV.b.+X].+XE.i.j T B.!.E.W.$.S.[.H.p.V.9.",
"b x 0._ t A.eX9X@X X^. .2./.W.Z.u.j.y.u.[.uX5X|.'.v.g.u.n.V.i.A.^.j.S.V.$.m 8 F >.T./.E.^.~.@XW.9.u.`.].A.S.i.b.i.$.~ o.`.|.|.oXoX|.-X[.y.O.W :.E.^.p.=.y.j.4X&X$.V.Q. XQ.Q.n.J o.~.~.A.i.O.j.].W.n.$.' ",
"K . ; - ; Q.8X8X;X5X].>...E.W.`.S.W.Z.g.Z.-X#XH.Z.g.H.H.V.j.i.n.`.[. XG.,.P r H ..M.!.m.A.^.A.V.S.Q.;X{.W.C.h.2.B.S.$.} 5X,X<XtX@X X`._.V.9.o.E >.B.b.O.u.0.#X].+.C.@X#X+X Xj.J $.!.B.E.b.$.y.j.y.Q.<.m ",
"3   . 4 4 S.6XpX6X;XH.i.^ B.Q.S.V.G.C.Z.F. X#XH.C.H.^.V.V.V.i.u.G.F.&X~.$.H 3 L ..s.B.E.B.W.k.].W.+XA.o.m.b.>.>.i.m.H h ^.+XH.`.H.S.`.F.C.y.) 6 J O.=.t.0.W.;Xi.+.o.Q.;X&X+XC.W @.M.s.b.E.n.,.y.t.A.B.J ",
">   $ u = j.<XrX5X;XQ.i.^ B.~.G.H.^.A.l.v.`.-XW.H.S.A.V.Z.H.C.k.S.0.H.E...k 7 X.>.M.R.2XB.n.C.W.H.Q.S.V.].A.i.<.C.y.6 8 S.[.H.`.@Xz.W.L.u.u.T : | i.m.y.! i.A.0.Z.Z.:X,X`.n.C.| @./.~.>.<.i.i.C.A.A.E.J ",
"x . > A t =.,X;X4X4X].>...E.A.W.].^.b.9.l.F.|.`.W.W.A.C.z.C.k.C.H. X;X+X( h K 1.1.3.s.(./.b.S.V.~.@XV.Q.].C.j.$.$.| : 8 B.C.z.H._.n.S.A.S.V.) : W n.A.~.i.O.S.|.XXOXY.'.z.) ,.J H b.<.I | E.n.G.G.G.~.J ",
"y ; > ` R :.;X>X;X3XW.,.;.!.m.A.m.B.2.+.c.oX|.`.].^.E.W.A.Z.S.i.W.;X7X(...l D ;.1.b.b.M.T.i.t.j.S.7XH.H.].W.A.>.E | 4 t E.A.z.H.`.Z.C.u.u.p.) - n j.W.A.A.m. X.X|.I.c.k.j.T y.) j 2.j j ,.B.A.A.G.A.B.W ",
"m ) j ! +.$.,X6X4X5XW.<.;.T.j.A.m.+X;.' F.-X<X.X].].^.^.H.0.t.,.H.-X&XE.#.i z ..;.b.M.T.E.B.A.`.C.H.C.].@XS.G.| x E t j n.y.z.H.`.x.V.j.z.x.+.; j y.n.y.h.,.[.|.L.K.F.G.C.+.V.y.j x 4 W h.N.~.W.H.A.m.W ",
"n._.9.3 ! ,.eXiXpX8XS.;.;.{.n.m.~.+X^ u.<X#X.X`.~.~. X$X^.u.j.H.`.-X`.E.<.c k ;.2.M.M.N.n.m.W.&XA.S.H.Q.C.n.n.#.E n.| r P o.g.z.u.S.A.V.u.x.9.< j ,.y.=.,.| C.|.K.K.c.g.n.t.C.=.| s E 2.h.b.G.G.W.A.<.W ",
"b.;XH.% f o.#XrXsX7XA. .1./.t.A.i.} >.H.,X-X>X X^.`. X$X^.G.C.A.[.oXL.~.<.J 8 U 1.M.!.R.B.i.G.].A.F.#X4XW.H.A.m.i.S.i.4 3 >.A.S.S..X`.z.&.R v a x ,.y.,.>.i.S.|.H.F.I.l.S.u.j.y.$.N $.<.,.*.h.m.H.C.<.| ",
"].5X'.6 f x E.iXpX+Xa.^ N.$XA.~. .P m.S.-X5X<X#X+X]. X^.A.G.G.H.@X,X[.B.>.E 0 ^ 4.T.!.!.A.n.b.W.W.H.[.`.`.S.n.i.i.^.b.- 3 ,.S.H.H.L..XF.+.v v c j j.y.O.,.<.k. XQ.P.OXl.H.m.9.g.t.N | ,.<.h.h.y.y.j.>.| ",
"4X;X-Xh % r E.rX&X].,.l ,.{.Q.].W P m.p.'.|.L..X X@X X+XE.~. X+X X@X].M.,.J 7 X.b.T.N.!.~./.E.W.].H.`.L.j.j.j.b.m.j.b O F d.m.x.`.'.<X`.z.! C m j k.k.j.n.t.,.^.[.'.OXF..XS.9.m.h.J W b.n.h.m.N.j.h.,.| ",
"pXrXrXi $ f R.6XQ.i.E F ;.i.A.A.c ^ W.V.[.@X.X@X[.&X#X@X^.].%X%X XH.H.+Xb.J 8 } b.(.!.!.A.~.~.].].H.W.F.Q.].].A.h.=.= & =.<.i.u.C.L.'.K.q.R ' ) c p.C.H.H.t.$.S.S.P.XX'.-Xm.$.m.m.W ) h.k.m.E.A.b.h.$.} ",
"sX,X<Xi , f ].rXm.a.W } E.y.$.c e H @.m W 3.b.j.,.i.b.i.h.n.n.^. X`..X4XM.m 3 } 3.E.B.!./.$X^.4X@XH.W.S.`.@X XW.i.+.r $ | o.y.=.u.x.x.9.C ' 9.j.m j.S.`.F.0.Q o.g.x.'.|.;XA.O.=.h.W J ,.J.h.#.*.m.y.$.J ",
"pX<XL.1 > A 0.H.i.A.^ ^ ^.].^.F j $.$.t.H.[.].`.C.m.m.k.n.y.u.n.].|..X1X>.J 5 X.2.s.b.T.T./.+X&XH.S.`.S.H.@X].n.$.+.y $ } C.i.y.V.u.R ' ] C &.z.B i.S.`.z.j.o.W C.j.A.x.`.u.=.t.j.N c O.t.| W n.G.o.$.J ",
"_.'.l.+ 8 9.8.q.W.n.} ,.A.n.i.x i.m.j.C.C.H.`.H.k.G.A.S.W.G. X^.W.H.'.4Xh.J 8 ;.3.3.b.T.b.| b.C.H.[.[.H.H.;XW.,.p.=.x % P G.j.p.y.o.V.L.l.Z ' y.x O.V. X`.W.O.o.H.l.8.&.9.[ 9.j.G.W 6 N J P <.~.G.W #.J ",
"=.L.K.1 8 x.K.z.b.A.m.A.n.H.p.p M.<.y.h.h.n.A.J.j.W.W.S.G.H.4XqX#XH.P.4XA.J q ;.>.3.<.R.E.} ' V.A.C.`.[.Q.].n.y.A.=.N : H /.G.i.i.S.L.L.v.` f c R 9.y.H.j.H.) m Z.c.K.`.K.Z. X@X].h.j x } b.J.^.W.W ^ W ",
"y..XL.= 3 k.;Xi.b.!.R.A.Q.].i.c 3.,.,.n.A.C.A.k.y.W.^.G.m.m.+X$X@X#X@X@X~.P 8 P ..b.N.E.B.;.R u.H.`.[.Q.) j +.9.k.t.Q 4 i A.S.j.n._. Xx.u.~ y ` u.u.V. X.X`.o.c t.I.XX<X<X,XrX.XW.A.| E h.J.G.G.j.#...i.",
"m.;X;X3 + >./.b.T.M.m.j.A.G.A.m W ) $.n.~.W.^.Q.].].^.^./.^.^.+XE.+X&X4X1XX.h k -.M.!.~.R.E.=.R $.].4X=.: Y F.`.S.u.) 6 8 n.H.V.V.]. XF.u.~ m ' u.H.&X<X:XP.j.) >. X;X,XrXiXfX-XW.W.o.) B.G.W.W.m.>.b n.",
"E.^.A.8 O W M.T.M.b.b.i.B.1X{.j C o.i.j.m.^.%X%X1X$X].+X X^.+X&X%X%X>X&XqX| k k >.b.T./.B.~.A.o.y Q i.y x y.C.H.S.n.$.6 3 2.A.j.H.Q. X|.Z.` +.+.Z.&X;X&X XH.p.=.y.W.5X<X,XfXlX6X@Xk.T | <.,.b.^.E.,.8 >.",
"n.B.o.t o m B.3.d.i.b.i.m.9Xb.y ' =.A.m.*.M.b.E.E.E.A.E.B.n.^.qX9X8X8X4X&X>.j 8 ..b.T.}.E.E.A.A.Q Q 4 y j.W.@X`.`.~.y.y +  .A.i.V.^.@X[.Z.~ ' l.[.@X].]._.z.j.n.i.H.-X-X|.iXjX5XW.C.W B *.h.h.~.n.>.3 W ",
"n.R.@.d $ m A.3.i.b.R.A.B.A./ ) +.y.^.W.i.>.b.{.+X^.R.N.,.#.E.@X7X9X4X4X&Xi.j 9 X.2.R.E.i.B.^.#XW.W.7 j `..X`.C.A.m.&.j $ ^ A.k.z.H. XH.Z.' ` S.oX-X@XA.F.u.p.y.y.j.z.j.j. XfX8Xj.G.W | B.E.^.E.j.2.- J ",
"R.(.d.y $ k a./ ,.b.B.E.A.i.W n.u.i.~.^.A.G.~.~. X].G.C.m.B.M.%XuX9X9X8X>Xn.J 5  .s.B.B.R.R.~.;X@X`.3 : A.`.L. X@XW.u.c # ^ A.`.S.j.W.H.K.0.R C.OXwX-XZ.z.&.o.o.9.e.8.l.u.`.dXpXH.C.E ( N.G.E.b.i.;.$ j ",
"/.(.i.d < k i. .$.i.n.B.A.$.>.i.=.i.n.A.n.E.E.G.C.S.~.~.~.+XR.b.{.0X0X&XW.,.E 5 -.M.N.E.T.E.^.].H.) X : V.;X[.;X;X`.S.Y $ } W.Z.p.i.H.H.L.C.] R o.[.-Xu.u.+.T o.] ] w.I.9.u.,XpXG.C.E ( N.h.y.,.b.L O y ",
"(./.} y s G E.i.<.n.b.m.n.| :.) t.A.i.=.t.E.^.+XQ.W.+X~.~.^.(.$X!.^.@XE.$.j c k  .n.n.!.s.b.+X].u.v o 8 W.-X X[._. X`.! % } C.t.W t.C.Z.Z.F.Z.R v u.L.u.y.o.W u.~ ] L.-XW ' -X].n.m.c | n.E.G.n.b.k X j ",
"R.^.#.n x n E.<.,.b.d.m.a.#.>.,.n.h.<.u.u.n.^. X+X+X^.A.b.h.$XqX(.+X/.B.X.9 <.,.X.,.E.!./.N.Q.`.j.T # 8 n.A.Q.C.W.@XV.` ; o.V.#.n n.V.z.Z.[.H.z.R 8.~ &.V.O.E V.w.u.-X6X} Y `.H.G.W.k ( n.E.G.m.~.8 o c ",
"3.R.<.J t F ^.i.i.i.<.A.<.,.=.C.E.n.i.u.j.<.A.W.].^.W.~.E.n.*X&X^.aX8X{...q M.n.@...E.^.$X;X+XS.u.C o 9 y.n.H.S.].H.V.j.$.o.C.W L A.z.H.L.L.`.`.Y ` %.&.S.<.| Q.H.L.-X X=.W G.H.G.H.m W B.~.b.n.W.6 $ b ",
"^ !.$.m 8 F B.m.i.i.i.R.d.i.A.C.i.A.i.t.i.B.A. X.XH.~.~.E.B.+X+X~.uX6X%X>.q 4.B.E.2./.(.&X].A.j.9.N # p u.G.H.G.C.H.@XV.p.9.$.x } n.i.V.C.x.'. X+.` [ ' y.O.$.].;X=X;Xj.i.@.^.&XH.J.J W n.A.j. Xm.- 6 H ",
"W ^.n.) t n #.~.i.i.b.M.b.A.i.<.A.C.y.y.b.i.b.@X@XW.E.^.E.B.%X/.+X8X,X X@.q X.R.E.M.+X^.`.^.W.C.u.v $ h y.W.S.C.W.`.W.H.S.p.&.x k i.j.x.C.z.z.L.S.` ` ! ) O.V.`._.Z.S.u.i.E i.G.W.V.l r O.k.W.;X;.$ t L ",
"W ^.{.<.c k i A.E.d.M.b.n.E.a.i.^.n.u.p.A.b.A.].j.u.n.A.~.m.4X(.i.{.@X].i.h P E.R.T.].S.Z.A.@XW.j.N , k y.W.W.S.W.].W.C.n.i.$.4 k S.S.F.H.Z.Z. XL.R ` N Y | S.z.v.v.u.u.$.c t.j.C.=.j k i.Q.@X].b # j W ",
"^ !.1Xd.Q j ; n.A.b.N.A.b.m.a.d.$XV.u.S.E.A.n.S.V.j.C.A.~.<.,.! #.*X4X5X~.i L !.!.+X&X#X].C.A.S.V.W > r =.S.n.H.Q.S.V.V.H.C.$.4 k E.C.H.W.Z.S.H.S.R ! c m <.A.j.j.C.l.0.t.x E =.z.O.r W A.]. X`.t : J @.",
"b.T.7Xn.$.j > A.B.a.b.B.i.i.2.;.^.].V.A.E.^.~.Q.H.S.C.H.n.<.m.o./.aXpX0X].i D N.s./.^.].E.m.A.C.S.| s e O.W. XQ.j.A.W.`.].W.o.e Q ,.V.i.H..X`.L.'.%.A f m C.S.j.V.S.z.&.,.O.j | j.Q r +.H.C.W.i.: j <.<.",
"Q.T.$XN.y.B 6 b.E.i.N./.R.b.i.k ;.<.$.$.;.3.i./.[.W.^.*Xm.,.~.$X9XpX4X^.;.= l ).!.R.R.G.i.A.Q.].n.o.m r J =. X].j.Z.[.].[.Q.p.Q %.c #.,.C.`..X X=XS.R y m Z.C.k.z.j.v.u.,.j.J O.W.| : =.j.A.H.) j J B.A.",
"<.!.2X/.b.( 6 1./.2.i.i.>.2.#.1 } i.,.<.i.m.m.i.i.i.i.A.$.#.A.1X9XaX8XB.k 0 >.!.M.!./.{.i.n.^.j.V.,.,.8 6 J C.H.&.C j.C.V.j.k.$.J r =.p.p.H.[.[.;X'.u.v i.[.p.y.z.z.x.z.u.j.J O.,.Q - ,.m.C.t.x n 2.E.E.",
"2.+X$X^.i.} : ..{.$.#.$.#.i.@.3 ;.S.n.i.i.H.H.A.A.j.b.i.P $.C.&X8XgXaX{.L q M.(.N.s.^.$XE.A.m.k.Z.C.t.6 t P C.4XW.u.0.H.C.n.j.&.J 6 i.V.C.H.[.L.H.j.t.C 9.x.j.y.A.V.Z.z.u.,.W =.=.o.j | S.C.p.c m i.~.^.",
"+X^.^.(.i.#.e X.(.b.,.i.>.2.i.i ;.].S.m.j.W.W.W.W.W.~.<.J ,.n.+X8XhXhX4X} 7 4.$XT.d.E.E.A.E.W.V.n.H.y.y j L h.#X;X;XH.`.]. XA.j.W 8 ;.j.j.C.S. X@X`.' v y 6 J =.V.Z.H.k.=.O.n O.y.C.n.,.p.j.n.W o.A.E.A.",
"/.^.+X(.i.i.j b ^.b.i.B.<.N.N.H X.+XW.H.F.W.].].[.@X+X} } o.,.@X5X9X9XR.l * 1.*X(.E.W.R.A.Q.W.H.H.W.V.x j H i.].4X5X@X].].W.W.S.>.4  .j.A.S.Z.H.`.F.y.A e , e m y.&.+.0.&.) m $.=.n.H.A.j.h.i.Q >.^.E.i.",
"A.+X*XA.b.B.m 4 R.i.M.R.:.T.R.G ^ @XW._.].W.[.]. X;X<.X.y.j.n.V.p.R Y W j + K $X/.R.W.^.C.k.`. XH.A.t.v m P M.W.;X;X-X_. XH.H.`.i.4 W C.C.C.C.H.F.Z.H.R a e c m m m m Q V.$.Y =.=.j.Q. XW.G.E.>.b.{.B.<.",
"^.+X2Xb.i.#.y t 2.i.B.b.i.i.1.z ^ 3XQ.+X].].@X+X&X].E R.p.i.i.O.%.V.C.,.j O i /.R.+X+X%X].`.@X].`.H.9.Y B P b.~. X[.[.H.`.@X[.C.=.6 b m.C.V.j.S. X@Xx.` v m ) o.O.O.| W A.a.Q p.$.=.n.C.W.Q.B.,.2.B.i.>.",
"~.{.{.i.<.| m H d.2.b.N.R.^.T.k L @XW.A.n.B.A.B.{.C.;.;Xj.j T t.p.9X].$.j O 7 M.b.$X*X&X&X].S.H.W.V.+.Y m J @.A.W.[.[.`.Z.Z.@Xz.&.t p b.S.V.S.V.W.@Xl.[ ' Q p.j.n.i.=.O.y.E O.j.V.G.W.j.H.W.<.i.b.n.i.i.",
"A.R.N.n.;.J E  .b.,.b.!.^.].A.k D ].W.S.p.i.i.} E E 3.aX#X$.T p.-X+X~.C.Y . * 3.3.R.~.A.].C.u.#X[.V.9.T m m #.m.W.`.[..X[.[.[.Z.$.y 8 n.W.S.H._.F.`.z.) 9.&.j.W.W.W.A.A.H.$.=.A.].]. X].%X@Xh.n.Q.j.i.<.",
"b.R.,.<.*.} | N.i.d.~.].S.Q.^.H l W.W.j.j.m.b.i.A.>. .&X+X+X~.H.H.^.~.H.h.+ @ <.2.^ ].].].H._.;X_.u.9.) Y H <.A.H.Q.#X,X@Xu.+.0.$.j p C.S.:.S.Q.S._.=.Q H.j.t.W.`.[.@XQ.S.i.$.n.].].Q.[.@X X=.m.Q.C.b.<.",
"d.!.b. .;...$.A.i.B.@XS.S.E.N.y.b i.W.A.n.C.i.i.A.b.F E.E.j.C.S.S.+X%XQ.m.& O <.W F ].&X;X#X#X_.'.S.&.) B m >.n.C.].>X[.p.@.i.C.+.x J `.n.W V.H.H..Xn.m |.[.i.V.n.S.W.j.V.j.9.V.Q.W.].H.W.G.| A.H.n.n.m.",
"i.R.A.;.;.i.| m.a.B.@XW.^.R.b.i.b s.[.].B.n.<.>.A.].b N.{.V.V.C.S.Q.&XQ.n.* @ i.E F ^.&X X#X&X_.`.V.9.C m H #.i.j.b.t.$.V.].H.C.&.j E [.n.J y.j.C.@XV.c L.-Xp.j.H.V.C.C.V.V.y.y.H.W. XA.j.n.*.B.C.n.,.,.",
"i./.b. .^ ,.| i.D.R.m.A.A.B.E.A.k 3.`.Q.R.n.;.<./.+X .4.+XA.j.a.H.j.m.W.C.9 + j.} n n.W.W.^.@X_. XS.9.T Y J >.b.n.n.S.]._.C.Z.F.y.e E '.+.J V.z.9.O.x v 8.u.Z..X-X@XW.V.H.[.A.y.W.Q.[.G.G.m.2.C.j.j.c J ",
"d./.i.W L } | N.E.R.m.A.E.R./.B.k >.W.R.M.;.W ..M.~.i. .{.m.=.o.y.S.a.B.p.k 2 j.| r ;.].].@X[.p.Z.Z.p.%.Q J >.n.j.n.W. X`.`.`.-X@Xb J K.9.W S.=.N u f +.Z.'.OX:X:X.XS.a. X@XQ.j.[.].Q.A.H.i.>.C.j.A.c E ",
"A./.,.E P ^ ^ A.E.E.A.N.~./.b.b.G ;.m.b.i.$...>.m.Q.A.k b.C.=.=.n.A.t.A.n.E 9 $.J 6 <.].+X&X`.S.H.Z.9.' O.E  .i.p.p.Q.pXeX=XZ.,X;Xu.) x.z.Y R R C C C l.Z.'.oX:XXXZ.$.p..X.X`.j.F.W.`.H.A.<.n.y.h.j.V o.",
"R.B.i.^ X...^ B.Q.W.A.A.~.p.i.R.^ #.A.h.<.<.<.b.B.^.^.l i.b.=.9.`.].H.].A.O.R m > 7 i.A.@X7X#XH.C.z.9.%.O.J P i.A.k.&XkXjX`.z.;X XY t +.R c ` r.Z ' ` e.l.L.L.<XoXZ.+.=.`.-X[.u.`. X XS.i.>.G.h.n.| x $.",
"!.!.b.L F | W A.Q.~.W.W.].C.b.].,.P C.j.b.i.<.d.R.].+XW b.A.y.+.z.].H.^.{.m.+.e o 8 i.i.^.4X#XW.j.j.0.&.y.E L d.W.W.#X6X=Xz.g.L.`.y v ) Q T o.R v q.e.q.z.`.F.F.F.H.z.&.Z..XA.9.H.`.].H.i.;.Q.A.A.x : n ",
"/.!.s.F 8 W | i.j.j.A.].A.y.=.].~.#.j.j.n.d.$.2.b.].;X$.i.j.' +.x.S.W. X].].t.y O F y.c A.[.;X@Xp.Z.8.9.y.W b #.C.W.`. X-X|.`.S.g.! Z R ~ R Q c ! e.e.q.$.XX X_.z.[.-Xj.y.S.j.=.t.C.W.W.O.x x o.' C : ; ",
"(.N.3.K 6 J ~.A.b.o.a.b.i.i.Y m.].A.a.t.t.t.$.2.b.].,Xm.>.m.O.t.S.H.[.4X&X+XC.%.0 n } r ~.].S.=.y.S.y.t.y.c G W i.H.S.`.-X-X`.u.` 5.8.w.6.~ m r ! l.q.v.` z.F.`.S.`. XV.n.H.Z.y.=.A.C.j.7.~ m ! R ' 6 - ",
"{.B.2.L 9 m *X&X;X].A.E.~.d.W ].%XA.t.9.p.p.i.>.>.A..XC.$.].j.0.x._.@X#X`.W.W.=.t 6 = m %X@Xm.p.].C.u.9.$.j Q ) a.S.n.C.H.`.u.+.[ w.U.l.8.~ c r Q q.0.l.w.0.z.H.z.W.`.z.j.H.[.F.u.n.C.y.0.+.t.$.t.$.u $ ",
"!.B.<.P i E $X@X8XaX%XQ.A.<.) #X@XA.j.j.S.A.n.<.=.b. XW.<.`.S.u.S.`.W.].W.H.+Xn.Y 6 $ P +X*X^.%X XA.u.u.9.m $.=.$.C.j.A. Xx.8.u.w.l.I.u.+.' R y %.q.e.K.c.Z.Z.j.V.W.`.z.g.H.@X`.A.+XH.H.V.+.0.' p.W.N , ",
"E.n.i.F 4 | &X+XiXkX1XW.H.].i.~.].m.A.A.n.i.>.@.o.>.~.].<.Z.Z.9.y.x.0.@X;X#X%Xi.R t % W /.$X~.%X].V.C.u.u.W >.i.,.m.S.S. X.X`.0.] u.v.7.o.%.6.m ! v.K.|.P.S.z.x.A.H.W.S.u.Q.&X].Q.&X X].@X0.] R V.].) 4 ",
"n.i.>.H 3 $.;X@X8XhX2X^.].].A.{.Q.n.Q.W.m.b.2.@.$.<.E.^.i.z.x.g.j.V.t.5XsX-X].n.R e - } R./.~.@XC.W.H.u.%.) #.i.i.d.b.j.S.W.`.[.S.z.R ' +.9.9.m x '.OX'.L.F.`.A.j.S.b.j.u.A.@X;X;X5X5X@Xn.j.R +.`.].Q > ",
"E.3.>.K = @.&X>X8X9X$XR.S.V.E.4X{.i.G. XQ.A.M.$.@.<.E.+Xb.p.Z.x.L.C.a.].5X;XQ.u.R 6 3 *.E././.@XS.W.Z.0.&.O.X.y.t.p.C.m.S.[. X=X_.C.Q W u.Z.Z.c y L.|.K.Z.`.,XH.u.S.,.k.A.A.].[.@X;XV.,.A.u.$.&X;X`.o.6 ",
"M.4.^ D i | &X5Xp.k.n.S.`.j.@XyX+XA.C.].Q.A.R.i./ <.E.Q.i.=.y.Z.C.O.J j.W.@Xu.9.m , 4 i.^.$X+X#XS.S.V.u.9.$.| ,.=.V.C.C.A.H.`.|.S.y.W j [ u.v.c j j.P.Z.g.H.-XH.p.j.i.C.H.C.V.j.`.pXZ.9.j.9.n.pXrXW.a.x ",
">.>.l i P } H..X+.V =.H.`.&.n.].G.C.C.].W.j.n.i.| b.~.{.i.6 p O.R f 8 ) ) +.8.+.s $ 8 G.+X^.].#X_.z.k.u.9.=.W $.$.p.V.j.H.`.'.`. Xy.~ 9.Z.V.u.y j z.`.`.A.H.P.[.H.n.y.k.W.[.C.y.i.%XS.p.$.` T M.5Xj.u.O.",
"M.>.D 9 J #.z.H.Z.` =.y.O.A.].%X+XH.S.S.A.A.m.a.@.b.{.~.i.r F ~.&.C N o.| ! l.Z.) : i A.E.~.Q.@X[.z.z.z.9.t.Q ,.+.9.y.V.[. XZ.I.P.! +.H.H.V.t.f e j.H.`.`.A.A.`.@Xn.p.n.j.W.G.j.n. XL.C.L.x.z.p.i.o.] O.",
"M...D r J ,.S.`.`.V.~.R.E W.+X%X+XC.S.S.W.V.V.p.,.$.B.b.t.y F A.C.S.u.y.j.v.P.|.=.t i !.+X%X@X#X`.j.y.z.0.$.o.y.$.N i.n.H.H.z.q.~ V z.C.A.y.y.Q 4 $.P.S.F.C.G.m.`.W.j.i.t.C.n.j.W.[..X-XwXwX<XtX&X/ 9.H.",
"3...F 8 E ,.^.%X[.W.$X{.W b.Q.C.m.i.A.C.z.9.k.k.,.@.R.E.i.j } +XQ.Q.S.9.x.L.|.|.C.n 8 M.$X/.#X[.S.=.j.j.u.y.:.S.9.m b.C.C.H.V.Z.Z.$.' Z.A.p.y.&.t ) H.H.V.p.V.y.j.S.j.u.y.p.9.&.C._._.H.[. X`.&XA.i y.A.",
"b.>.P 1 B $.~.`.&.y.].$X .#.m.j.A.].`.z.A.C.V.V.i.W.&X@XH.J P 7X%X].`.+.z.'.L.@X;XJ 8 N.*X4X;X`.n.y.j.u.p.i.#.p.) J b.V.C.F.[.'.Z.F.) i.C.V.j.=.j Q W.n.A.y.u.i.,.p.Z.z.0.=.A.z.j.H.H.A.[.H.W.@Xi.* W b.",
"4.>.;.q h | ].[.x.n.^.E.L ..m.A.].].S.j.V.j.h.j.V.<X;XF.H.W i ].`.n.i.j.c.I.I. X[.E 8 4.7X%XH.H.u.j.j.y.i.i.a.=.c E b.j.z.Z.H.;Xz.v.,.a.z.V.y.o.e | Q.S.i.A.C.H.j.n.S.F.z.j.A.x.g.H.S.C. XF.S.S.<.% j ,.",
"4.3.1.K l ..$X5X#XS.n.H.@...A.A.+X].j.y.C.S.W.~.C.=X,XH.A.@.r j.v.[ +.S.l.P.K.`.`.| r -.*X+X].C.n.S.j.i.A.k.k.Q n X.y.y.j.u.V.H.0.0.y.n.C.V.y.o.e t.C.A.n.j.C.G.m.n.m.j.) | u.Z.Z.z.C.C.W.V.j.H.i.- p @.",
"s.;. .z l #.(.4X#XW.t.C.j.S.Q.Q.].].`.Z.A.W.W.^.Q.H.XXS.H.i.p C.v.&.u.Z.K.oX<X=X_.W j X.+X&X@XQ.S.V.p.n.C.S.=.) E W n.m.A.H.p.u.Z.z.j.n.H.H.p.9.Y W y.,.G.H.A.b.n.i.b.,.4 t u.C.z.z.H.S.[.H.j.m.h.: j W ",
"M.>.;.z j <.E.[.-XH.m.y.y.^.+X].~.Q. X[.[.[.k.A.A.S.S.j.W.i.j A.S.+.y.S.:XwXdX8X&X$.y K ^.&X].W.H.j.p.j.W.H.&.+.Q W b.m.G.`.S.H.-X Xj.i.@X[.x.w.%.x %.z.L.|.m.@.,.,.y.=.: x z.Z.Z.V.x.l.C.z.u.O.| e | } ",
"4.2.U i J b.^.`.-X`.H.C.S. X$X XQ.~.`.-X-X,XA.A.].S.`.S.Q.,.i i.W.=.n.W.`.,XeX4X1X:.t 8 R.@X+X`.y.u.p.j.W.V.%.' ) W <.m.A.H.S.z.F.-XC.{.,X@XV.u.$.Y y.F.P. Xj.<.<.y.t.=.6 y +.9.y.V.[.H.z.z.n.E 4 j A.m.",
"M.1.L 8 E ,.E.L.<X XV.S.H.~. X X].+X#X,X,X-XH.j.<.=.Q.`.F.=.h 3.V.=.n. XA.`.[.>XaXi.j 8 M.].#X].$.i.i.i.S.Z.+.' O.| >.i.j.n.n.0.l.x.Z.Q.W.C.S.y.+.&.P.F.`.[.n.<.@.=.u.,.t s f C 0.L. XL.L.H.A.^ % j A.W.",
"M.4.} 0 W >.B. X>X X].^.G.G.^. X X+X.X|.-X'.i.b.<.S.~.Q.`.n.l n.v.k.W.[.C. XoXOX5X[.B 6 1.]._.Q.| y.S.<.W.u.+.) ) | 2.n.y.A.A.C.j.o.7.#.o.n.z.j.u.Z.OXP.+XH.=.i.i.=.k.=.y C V _ u.|.oX`.L.Z.m.;.- 3 i.S.",
"!.b.U 7 P i.~._.`. X%X@X^.^.%X#X&X X@X`. X XA.H.>.i.>.N.].n.G G.y.W.@X`.H.-X'.<XrX4XQ r ^ E.a.b.| ,.C.t.A.j.u.%.W | ,.A.p.R.C.S.S.F.L.Z.o.p.u.y.y.P.OXP.W.S.$.j.H.A.Z.$.s Y Z [ Z.'.|.`.H.j.b.i.J . j j.",
"/.3.^ 3 J T.&X`.H. X+X^.~.G.E.~.A.j.W.A.B.;.o.m.P Y A.^.Q.p.H S.j.S._. X`.=.y.;X6XsX=.6 U A.#.h.<.i.i.b.Q.S.u.[ T W >.=.t.i.i.Q..X'.=X<Xn.R.'.C.z.|.P.Z.z.=.) z.P.H.S.O.N y.+.` ` F.L.Z.y.t.>.$.E $ x t.",
"b.1.^ 3 J b.4X-X|. Xb.=.,.i.y.i.i.j.A.A.A.=.T W F J %X&X~.n.j n.`.W.`.`.@XF i  X#XdX$.$ ^ H.j.j.i.>.b.~.W.y.+.R ) W =.Q y.#.| A.;X5X5X-X_.@X-XP.W.[.F.z.y.J $.u.F.L.F.O.Q k.+.R ! R 9.x.u.a.i.i.k $ m +.",
"3.3.X.5 J 3.1X'.`.W.G.G.C.H.S.S.A.C.W. X`.H.C.V.m.#.,.E.n.i.b A.@X@XZ.0.].U = z.U._.m = 2._.z.j.S.j.B.~.H.0.o.j.#XG.$.W A.B.W E n.`.XX;X6XA.Z.Z.0.9.0.z.H.E y.H.H.`.V.E ) k.Q Z l.u.O.9.k.y.j.A.i % Y $.",
"i.2...h I R.7X'.H. X%X%XH.G.S.A.G.j.H.H.j.j.i.i.b.b.^ E.{.i.$.].;X].f.v.z.i = c.P.S.T 6 <.V.Z.F.S.a.N.W.L.y.p.7XpX#X#.O.^.E.h.X.m $.l.L.5X-XC.C.l.x.l.c.V.J y.[.H. Xt.) x ' C 8.'.|.H.=.t.j.G.A.i 4 Y u."
};
