/* XPM */
static char * chili_6_xpm[] = {
"90 100 2624 2",
"  	c None",
". 	c #A79215",
"+ 	c #F3DB19",
"@ 	c #E0CB32",
"# 	c #D4CD0E",
"$ 	c #E3CA0E",
"% 	c #D6C708",
"& 	c #DEDE17",
"* 	c #C8CB21",
"= 	c #5D5907",
"- 	c #5B6A07",
"; 	c #4F5403",
"> 	c #555C00",
", 	c #787503",
"' 	c #888903",
") 	c #CECB27",
"! 	c #DEDC38",
"~ 	c #2C4305",
"{ 	c #404700",
"] 	c #515101",
"^ 	c #444401",
"/ 	c #4B4F00",
"( 	c #595B01",
"_ 	c #838404",
": 	c #E0EC3B",
"< 	c #443402",
"[ 	c #283000",
"} 	c #363400",
"| 	c #353400",
"1 	c #3B3C00",
"2 	c #504902",
"3 	c #7E8306",
"4 	c #83A418",
"5 	c #332D02",
"6 	c #252D00",
"7 	c #3B3700",
"8 	c #373600",
"9 	c #413F00",
"0 	c #999A1E",
"a 	c #5F760F",
"b 	c #2B2B01",
"c 	c #342B00",
"d 	c #352E00",
"e 	c #383400",
"f 	c #5F5707",
"g 	c #94961D",
"h 	c #102200",
"i 	c #2A2200",
"j 	c #363201",
"k 	c #3F3801",
"l 	c #6B6C0E",
"m 	c #5D780F",
"n 	c #DE361F",
"o 	c #DC3219",
"p 	c #E13118",
"q 	c #942F0C",
"r 	c #372E00",
"s 	c #302900",
"t 	c #4D4300",
"u 	c #565800",
"v 	c #868522",
"w 	c #C34315",
"x 	c #E0301A",
"y 	c #E2311B",
"z 	c #E7321A",
"A 	c #DF2816",
"B 	c #E22B18",
"C 	c #EB271A",
"D 	c #1B1E00",
"E 	c #352901",
"F 	c #463E03",
"G 	c #3C3B00",
"H 	c #555A07",
"I 	c #988224",
"J 	c #E42815",
"K 	c #EB391A",
"L 	c #E7381C",
"M 	c #E8371E",
"N 	c #E8361C",
"O 	c #E9381A",
"P 	c #EB361B",
"Q 	c #E32B1B",
"R 	c #E12C1D",
"S 	c #E42C17",
"T 	c #EC2817",
"U 	c #EF2917",
"V 	c #E92D18",
"W 	c #E82818",
"X 	c #ED2E16",
"Y 	c #1B2201",
"Z 	c #453501",
"` 	c #322B00",
" .	c #605C0A",
"..	c #A2993A",
"+.	c #766318",
"@.	c #973B0D",
"#.	c #E72A1A",
"$.	c #EB2715",
"%.	c #E82517",
"&.	c #E52417",
"*.	c #E72616",
"=.	c #EC2D18",
"-.	c #EE2C17",
";.	c #ED2D18",
">.	c #EC2C17",
",.	c #EC2D1B",
"'.	c #EC2E19",
").	c #E72E1A",
"!.	c #E5331B",
"~.	c #E72B18",
"{.	c #E92E18",
"].	c #ED3116",
"^.	c #F32B19",
"/.	c #F63018",
"(.	c #F03017",
"_.	c #EE2D17",
":.	c #F23417",
"<.	c #392D06",
"[.	c #3F3002",
"}.	c #7F7A17",
"|.	c #9B933B",
"1.	c #413E05",
"2.	c #405B0D",
"3.	c #F02A18",
"4.	c #F12916",
"5.	c #F42E15",
"6.	c #EE2C19",
"7.	c #EC2916",
"8.	c #F52D16",
"9.	c #F82B16",
"0.	c #F52D17",
"a.	c #EB2D17",
"b.	c #EC2E18",
"c.	c #F22E15",
"d.	c #F13118",
"e.	c #EC2B16",
"f.	c #EC2E1B",
"g.	c #EA321C",
"h.	c #E82C17",
"i.	c #EA2E1C",
"j.	c #F43619",
"k.	c #F53117",
"l.	c #FB3615",
"m.	c #F53518",
"n.	c #F54218",
"o.	c #3E2C06",
"p.	c #403004",
"q.	c #3A3100",
"r.	c #7B7920",
"s.	c #3E3D07",
"t.	c #6C6E16",
"u.	c #605709",
"v.	c #F03315",
"w.	c #F72E16",
"x.	c #F63316",
"y.	c #F63513",
"z.	c #F73417",
"A.	c #FD3015",
"B.	c #FE3316",
"C.	c #FD3716",
"D.	c #F13117",
"E.	c #EF2F15",
"F.	c #F42E14",
"G.	c #F62E15",
"H.	c #F32C16",
"I.	c #F23018",
"J.	c #EF3119",
"K.	c #EC301B",
"L.	c #F32E18",
"M.	c #FB3818",
"N.	c #FC3B15",
"O.	c #FF4417",
"P.	c #FF4A15",
"Q.	c #FF461A",
"R.	c #FD521E",
"S.	c #FE6824",
"T.	c #464107",
"U.	c #3E3602",
"V.	c #372F00",
"W.	c #464505",
"X.	c #949538",
"Y.	c #ACAC48",
"Z.	c #514F0A",
"`.	c #54550A",
" +	c #FD4613",
".+	c #FF3D13",
"++	c #FE4417",
"@+	c #FF4418",
"#+	c #FF3B16",
"$+	c #FF4116",
"%+	c #FF4316",
"&+	c #FF4114",
"*+	c #FC3614",
"=+	c #FF3614",
"-+	c #FF3615",
";+	c #FD3116",
">+	c #F8331A",
",+	c #F12C17",
"'+	c #E72F1C",
")+	c #E52D19",
"!+	c #EC311C",
"~+	c #EB2E1C",
"{+	c #EF2F18",
"]+	c #FF4019",
"^+	c #FE441A",
"/+	c #FF4E18",
"(+	c #FF571A",
"_+	c #FF4F1B",
":+	c #FE6823",
"<+	c #884610",
"[+	c #5F4B09",
"}+	c #373301",
"|+	c #3B3601",
"1+	c #454405",
"2+	c #5A5C15",
"3+	c #6A6A18",
"4+	c #747318",
"5+	c #4D4801",
"6+	c #DC5A0E",
"7+	c #FC4A12",
"8+	c #FF5A19",
"9+	c #FF5717",
"0+	c #FF4A19",
"a+	c #FF5018",
"b+	c #FF5118",
"c+	c #FF5019",
"d+	c #FF4917",
"e+	c #FF3D15",
"f+	c #FF3814",
"g+	c #F63217",
"h+	c #F02D19",
"i+	c #EB311E",
"j+	c #EE331F",
"k+	c #E2301B",
"l+	c #E62E1D",
"m+	c #E82C1A",
"n+	c #F12F1A",
"o+	c #F22E1B",
"p+	c #EF2C18",
"q+	c #F52D19",
"r+	c #F0291A",
"s+	c #F0321B",
"t+	c #F93D18",
"u+	c #FC4D19",
"v+	c #FF5D17",
"w+	c #FF631C",
"x+	c #DD6017",
"y+	c #443B02",
"z+	c #4E4305",
"A+	c #342B01",
"B+	c #3E3802",
"C+	c #707316",
"D+	c #73761C",
"E+	c #7A7A22",
"F+	c #848121",
"G+	c #63620B",
"H+	c #444202",
"I+	c #3A3B00",
"J+	c #FF7C1F",
"K+	c #FF6B1E",
"L+	c #FF651E",
"M+	c #FF641A",
"N+	c #FF5919",
"O+	c #FF5F16",
"P+	c #FF5316",
"Q+	c #FF4B16",
"R+	c #FF4513",
"S+	c #FD3C14",
"T+	c #FD3818",
"U+	c #FA3217",
"V+	c #F3311A",
"W+	c #F3311B",
"X+	c #F1311B",
"Y+	c #E82E1F",
"Z+	c #EE2D18",
"`+	c #F63317",
" @	c #F62818",
".@	c #FC3B1B",
"+@	c #F62F18",
"@@	c #F32B18",
"#@	c #FB3A19",
"$@	c #FC491B",
"%@	c #FE5418",
"&@	c #FF681C",
"*@	c #FF721B",
"=@	c #F7781F",
"-@	c #534008",
";@	c #493D02",
">@	c #393001",
",@	c #393100",
"'@	c #3B3500",
")@	c #545407",
"!@	c #676910",
"~@	c #848626",
"{@	c #C3C254",
"]@	c #777715",
"^@	c #555203",
"/@	c #5C5A05",
"(@	c #69590B",
"_@	c #D0680D",
":@	c #FE751E",
"<@	c #FF6D1C",
"[@	c #FF6A1E",
"}@	c #FF6D1B",
"|@	c #FF5F18",
"1@	c #FF5617",
"2@	c #FF4E16",
"3@	c #FF4716",
"4@	c #FF4118",
"5@	c #FE3C18",
"6@	c #F93318",
"7@	c #F5311B",
"8@	c #F4301B",
"9@	c #F3301B",
"0@	c #F2311B",
"a@	c #EF301B",
"b@	c #FF551D",
"c@	c #F92F16",
"d@	c #FA3218",
"e@	c #F93117",
"f@	c #F73419",
"g@	c #FF491A",
"h@	c #FE561E",
"i@	c #FF631E",
"j@	c #FF781E",
"k@	c #FF8223",
"l@	c #674309",
"m@	c #564609",
"n@	c #3C3700",
"o@	c #473F04",
"p@	c #3E3803",
"q@	c #413C00",
"r@	c #5C5C08",
"s@	c #61610A",
"t@	c #6D6B12",
"u@	c #6B670E",
"v@	c #6F6E11",
"w@	c #767412",
"x@	c #585106",
"y@	c #625708",
"z@	c #5F4D07",
"A@	c #4C4302",
"B@	c #6C4E0A",
"C@	c #FF6A1A",
"D@	c #FC771D",
"E@	c #FF6818",
"F@	c #FF6117",
"G@	c #FF5B18",
"H@	c #FF5217",
"I@	c #FF4D17",
"J@	c #FD4216",
"K@	c #FA3517",
"L@	c #FA3819",
"M@	c #F7301A",
"N@	c #F42F1B",
"O@	c #EE321C",
"P@	c #E62E1B",
"Q@	c #EE2919",
"R@	c #F72D16",
"S@	c #FF481B",
"T@	c #FE321A",
"U@	c #F93517",
"V@	c #FF4318",
"W@	c #FF4415",
"X@	c #FF581B",
"Y@	c #FE621B",
"Z@	c #FE6D1D",
"`@	c #FF882A",
" #	c #543505",
".#	c #58450B",
"+#	c #554507",
"@#	c #5C500B",
"##	c #252100",
"$#	c #433C04",
"%#	c #423A01",
"&#	c #606106",
"*#	c #ACA92B",
"=#	c #A8A82E",
"-#	c #C7BE41",
";#	c #A39F2D",
">#	c #575B08",
",#	c #545805",
"'#	c #5B5105",
")#	c #483B00",
"!#	c #5C5002",
"~#	c #755107",
"{#	c #3F2E00",
"]#	c #6B2806",
"^#	c #FA7119",
"/#	c #FF6C19",
"(#	c #FF661A",
"_#	c #FF5F15",
":#	c #FF5314",
"<#	c #FA3417",
"[#	c #FC3416",
"}#	c #F92F18",
"|#	c #F12A1A",
"1#	c #EC2B19",
"2#	c #F02F1B",
"3#	c #F3301D",
"4#	c #E82F1C",
"5#	c #E5281B",
"6#	c #F12D1D",
"7#	c #FE3D1A",
"8#	c #F52C19",
"9#	c #F52F18",
"0#	c #F93A16",
"a#	c #FF4615",
"b#	c #FE5819",
"c#	c #FF671B",
"d#	c #FC8021",
"e#	c #322802",
"f#	c #564106",
"g#	c #473B02",
"h#	c #3C3204",
"i#	c #3C3202",
"j#	c #473E02",
"k#	c #554D06",
"l#	c #494301",
"m#	c #6C6104",
"n#	c #403C00",
"o#	c #404200",
"p#	c #221E00",
"q#	c #535A03",
"r#	c #576305",
"s#	c #5F5D05",
"t#	c #502C00",
"u#	c #7E0C00",
"v#	c #CD0002",
"w#	c #D00002",
"x#	c #D10203",
"y#	c #E70102",
"z#	c #E64610",
"A#	c #FF7F1D",
"B#	c #FF761A",
"C#	c #FF6D1A",
"D#	c #FF631A",
"E#	c #FF5318",
"F#	c #FE3A17",
"G#	c #FB3316",
"H#	c #ED2616",
"I#	c #F02D1B",
"J#	c #F32C1C",
"K#	c #E72F1D",
"L#	c #E82D1C",
"M#	c #EA2C1D",
"N#	c #E42517",
"O#	c #EE2B19",
"P#	c #EE2C18",
"Q#	c #F33316",
"R#	c #FB4416",
"S#	c #FC6418",
"T#	c #F9751C",
"U#	c #481200",
"V#	c #513E07",
"W#	c #584407",
"X#	c #3F3702",
"Y#	c #3E3201",
"Z#	c #493E04",
"`#	c #474303",
" $	c #3E3503",
".$	c #472000",
"+$	c #660300",
"@$	c #AA0200",
"#$	c #C30500",
"$$	c #DB0700",
"%$	c #F20002",
"&$	c #F00002",
"*$	c #F50001",
"=$	c #FE0901",
"-$	c #FC1000",
";$	c #FA0400",
">$	c #F90600",
",$	c #FA0300",
"'$	c #F40000",
")$	c #FA0E00",
"!$	c #F71706",
"~$	c #FF8A20",
"{$	c #FF801F",
"]$	c #FF701C",
"^$	c #FF5E16",
"/$	c #FF4517",
"($	c #FE3B13",
"_$	c #FC3315",
":$	c #F82915",
"<$	c #F32816",
"[$	c #F82E17",
"}$	c #EB2015",
"|$	c #F22A18",
"1$	c #E72E1E",
"2$	c #E82C1D",
"3$	c #E82C1F",
"4$	c #E82B1B",
"5$	c #E2251B",
"6$	c #E6281A",
"7$	c #EF2E16",
"8$	c #F73C17",
"9$	c #FD4F16",
"0$	c #FD6617",
"a$	c #9F1F01",
"b$	c #711B06",
"c$	c #5C5811",
"d$	c #483502",
"e$	c #322200",
"f$	c #4B3803",
"g$	c #564406",
"h$	c #3A2501",
"i$	c #5D0A00",
"j$	c #BA0000",
"k$	c #D30000",
"l$	c #E10000",
"m$	c #FB0901",
"n$	c #FF1703",
"o$	c #FB5235",
"p$	c #FE6A3E",
"q$	c #FF1C03",
"r$	c #FF0100",
"s$	c #FF3508",
"t$	c #FF4616",
"u$	c #FF0800",
"v$	c #F90601",
"w$	c #FC0300",
"x$	c #FE0800",
"y$	c #FF0D00",
"z$	c #FE0300",
"A$	c #FFAF32",
"B$	c #FF8624",
"C$	c #FF7921",
"D$	c #FF6B1B",
"E$	c #FF5818",
"F$	c #FF4C14",
"G$	c #FF3E14",
"H$	c #FB3214",
"I$	c #FE3116",
"J$	c #FF3914",
"K$	c #FB381A",
"L$	c #F12C1C",
"M$	c #EC2F1B",
"N$	c #E6291C",
"O$	c #EC2C1E",
"P$	c #E6281C",
"Q$	c #E32519",
"R$	c #E92917",
"S$	c #F53616",
"T$	c #FC4917",
"U$	c #FF5718",
"V$	c #FD8924",
"W$	c #B52E39",
"X$	c #E67674",
"Y$	c #A8000C",
"Z$	c #8F0000",
"`$	c #810100",
" %	c #540400",
".%	c #4A0100",
"+%	c #8D0001",
"@%	c #BE0002",
"#%	c #DC0000",
"$%	c #E30000",
"%%	c #E90000",
"&%	c #F70601",
"*%	c #FD0700",
"=%	c #FF3317",
"-%	c #FF7C5E",
";%	c #FF5B38",
">%	c #FF0B00",
",%	c #FF0E00",
"'%	c #FF4113",
")%	c #FF2E06",
"!%	c #FD0400",
"~%	c #FA0000",
"{%	c #FA0200",
"]%	c #FF0500",
"^%	c #FF0F00",
"/%	c #F90000",
"(%	c #FEAA34",
"_%	c #FF8322",
":%	c #FF791E",
"<%	c #FF691C",
"[%	c #FF5518",
"}%	c #FF4614",
"|%	c #FF3B13",
"1%	c #FF3A16",
"2%	c #FF3D16",
"3%	c #F9351C",
"4%	c #F02E1B",
"5%	c #EB2718",
"6%	c #EA261A",
"7%	c #E9271B",
"8%	c #E3271A",
"9%	c #E92719",
"0%	c #F12D16",
"a%	c #FD3F15",
"b%	c #FD5718",
"c%	c #FF6517",
"d%	c #BD0213",
"e%	c #E45666",
"f%	c #DE455C",
"g%	c #A90002",
"h%	c #AC0001",
"i%	c #BD0003",
"j%	c #BF0000",
"k%	c #BE0000",
"l%	c #CF0000",
"m%	c #D70000",
"n%	c #E60000",
"o%	c #F10001",
"p%	c #F20000",
"q%	c #F70000",
"r%	c #FE1F10",
"s%	c #FF957B",
"t%	c #FF9A85",
"u%	c #FF6446",
"v%	c #FF2711",
"w%	c #FF290B",
"x%	c #FF3917",
"y%	c #FF3F18",
"z%	c #FF0700",
"A%	c #F60000",
"B%	c #ED0000",
"C%	c #FC0900",
"D%	c #FF1501",
"E%	c #F00000",
"F%	c #FE8D24",
"G%	c #FF8024",
"H%	c #FF7720",
"I%	c #FF4D14",
"J%	c #FF3716",
"K%	c #FF3612",
"L%	c #FB2E17",
"M%	c #F52919",
"N%	c #EB2819",
"O%	c #ED291B",
"P%	c #F02C1E",
"Q%	c #EF291D",
"R%	c #EF2B1C",
"S%	c #E22518",
"T%	c #E8241A",
"U%	c #E5271A",
"V%	c #E92718",
"W%	c #FA3317",
"X%	c #FF4A18",
"Y%	c #FC5D17",
"Z%	c #FF8A24",
"`%	c #E03E52",
" &	c #E6616D",
".&	c #CE1A3E",
"+&	c #A70001",
"@&	c #B50001",
"#&	c #C00004",
"$&	c #C50001",
"%&	c #C10001",
"&&	c #DB0001",
"*&	c #E70000",
"=&	c #FE0A04",
"-&	c #FD482C",
";&	c #FF5640",
">&	c #FF7157",
",&	c #FF644E",
"'&	c #FF6B4F",
")&	c #FF7754",
"!&	c #FF5432",
"~&	c #FF3C19",
"{&	c #FF0600",
"]&	c #FA0100",
"^&	c #F10000",
"/&	c #FF0900",
"(&	c #FE0900",
"_&	c #FFB736",
":&	c #FF8B27",
"<&	c #FF8124",
"[&	c #FF7721",
"}&	c #FF5915",
"|&	c #FF4012",
"1&	c #F92917",
"2&	c #F0251A",
"3&	c #EB2519",
"4&	c #ED281C",
"5&	c #F42B1B",
"6&	c #F42B1A",
"7&	c #F12B1D",
"8&	c #FB3E15",
"9&	c #FA3413",
"0&	c #E52F1E",
"a&	c #EA281B",
"b&	c #E82317",
"c&	c #E22219",
"d&	c #E82619",
"e&	c #E7271A",
"f&	c #F02817",
"g&	c #FD3D14",
"h&	c #FF5317",
"i&	c #FD6017",
"j&	c #D41500",
"k&	c #E35666",
"l&	c #E55362",
"m&	c #BB000D",
"n&	c #AB0001",
"o&	c #BC0001",
"p&	c #BA0002",
"q&	c #C20003",
"r&	c #C40000",
"s&	c #D50000",
"t&	c #DC0002",
"u&	c #E80204",
"v&	c #EC0000",
"w&	c #EF0100",
"x&	c #F50000",
"y&	c #FC0E04",
"z&	c #FF3E2B",
"A&	c #FF3927",
"B&	c #FF4531",
"C&	c #FFB192",
"D&	c #FFC8AE",
"E&	c #FF9E82",
"F&	c #FF492D",
"G&	c #FF1100",
"H&	c #E80000",
"I&	c #E80001",
"J&	c #E40000",
"K&	c #F10E00",
"L&	c #FF8D2A",
"M&	c #FF8B2A",
"N&	c #FF8321",
"O&	c #FF6519",
"P&	c #FF4914",
"Q&	c #FA2914",
"R&	c #F42516",
"S&	c #F22416",
"T&	c #EF2314",
"U&	c #F02218",
"V&	c #F42918",
"W&	c #F32F1F",
"X&	c #FE2B13",
"Y&	c #FA9B33",
"Z&	c #F84C1C",
"`&	c #E72A1D",
" *	c #E92C1B",
".*	c #F22A1B",
"+*	c #E92418",
"@*	c #E42318",
"#*	c #E4261A",
"$*	c #EA2818",
"%*	c #F72D19",
"&*	c #FF5C17",
"**	c #FF8122",
"=*	c #BC000B",
"-*	c #E55F6C",
";*	c #E4465C",
">*	c #B20006",
",*	c #A90000",
"'*	c #C20005",
")*	c #BB0003",
"!*	c #C40004",
"~*	c #C30001",
"{*	c #D60000",
"]*	c #E00001",
"^*	c #F0191A",
"/*	c #F31413",
"(*	c #EF0000",
"_*	c #EE0001",
":*	c #FF2415",
"<*	c #FF422C",
"[*	c #FF8B73",
"}*	c #FFBEA3",
"|*	c #FFD1B5",
"1*	c #FFBBA1",
"2*	c #FF7A5C",
"3*	c #FF2E13",
"4*	c #FE0000",
"5*	c #DF0000",
"6*	c #FB0900",
"7*	c #FDB43B",
"8*	c #FF932C",
"9*	c #FF731D",
"0*	c #FF5414",
"a*	c #FF4014",
"b*	c #FB2A15",
"c*	c #F62416",
"d*	c #F42715",
"e*	c #F42816",
"f*	c #F02217",
"g*	c #EB2416",
"h*	c #F3291C",
"i*	c #F62F1E",
"j*	c #FF3818",
"k*	c #F62D1A",
"l*	c #E72D1B",
"m*	c #E82A1B",
"n*	c #ED2919",
"o*	c #ED261A",
"p*	c #E82018",
"q*	c #E82417",
"r*	c #E8261A",
"s*	c #EF2A18",
"t*	c #FD3416",
"u*	c #FF5116",
"v*	c #FF681B",
"w*	c #FF6016",
"x*	c #E12547",
"y*	c #E55C69",
"z*	c #E5435A",
"A*	c #B30006",
"B*	c #A40004",
"C*	c #CB0013",
"D*	c #BE0007",
"E*	c #BF0006",
"F*	c #C40002",
"G*	c #D40000",
"H*	c #E50206",
"I*	c #F53433",
"J*	c #F73332",
"K*	c #F61110",
"L*	c #F00100",
"M*	c #F80000",
"N*	c #FF402D",
"O*	c #FFAC91",
"P*	c #FFD6B9",
"Q*	c #FFD2B7",
"R*	c #FFC7AA",
"S*	c #FF876A",
"T*	c #FF3A23",
"U*	c #FC0100",
"V*	c #E50000",
"W*	c #E70100",
"X*	c #FA0500",
"Y*	c #FF952C",
"Z*	c #FF932B",
"`*	c #FF8326",
" =	c #FF4812",
".=	c #FF2E15",
"+=	c #F72516",
"@=	c #F72A16",
"#=	c #F52A14",
"$=	c #F22717",
"%=	c #F32416",
"&=	c #EF2716",
"*=	c #F22E1E",
"==	c #F4301E",
"-=	c #EA291B",
";=	c #E92619",
">=	c #EE2718",
",=	c #EC2519",
"'=	c #E72519",
")=	c #EC2718",
"!=	c #F42E17",
"~=	c #F93917",
"{=	c #FF6919",
"]=	c #D41001",
"^=	c #E42D50",
"/=	c #E25B6D",
"(=	c #E7566A",
"_=	c #AB0005",
":=	c #A00001",
"<=	c #CA011F",
"[=	c #C4000B",
"}=	c #BC0003",
"|=	c #C30000",
"1=	c #D40001",
"2=	c #F01411",
"3=	c #F23F3D",
"4=	c #F8453E",
"5=	c #F61D20",
"6=	c #ED0002",
"7=	c #F70101",
"8=	c #FF3628",
"9=	c #FF8670",
"0=	c #FFB49B",
"a=	c #FFD7C1",
"b=	c #FFDEC6",
"c=	c #FFBEA4",
"d=	c #FF7457",
"e=	c #FF482D",
"f=	c #FF0501",
"g=	c #DE0000",
"h=	c #F90100",
"i=	c #F90400",
"j=	c #FCBF35",
"k=	c #FF992A",
"l=	c #FF8E26",
"m=	c #FF741C",
"n=	c #FF5013",
"o=	c #FF3A13",
"p=	c #FE2F16",
"q=	c #F82C16",
"r=	c #F62616",
"s=	c #F92B16",
"t=	c #FC2D18",
"u=	c #F72916",
"v=	c #F22D1D",
"w=	c #F12E1D",
"x=	c #F02F1E",
"y=	c #EF2E1C",
"z=	c #EA2A1D",
"A=	c #EC2619",
"B=	c #EB2418",
"C=	c #E4231B",
"D=	c #E72719",
"E=	c #F02A17",
"F=	c #F83016",
"G=	c #FF3D17",
"H=	c #FF5E19",
"I=	c #FF721E",
"J=	c #BF0200",
"K=	c #E43058",
"L=	c #E35868",
"M=	c #E2495D",
"N=	c #A70003",
"O=	c #9F0000",
"P=	c #C5001A",
"Q=	c #C4000D",
"R=	c #BD0001",
"S=	c #D20000",
"T=	c #EB0607",
"U=	c #EF4744",
"V=	c #F85048",
"W=	c #F63231",
"X=	c #EE0004",
"Y=	c #F40001",
"Z=	c #FE3121",
"`=	c #FF6F56",
" -	c #FFA48D",
".-	c #FFC2A8",
"+-	c #FFA388",
"@-	c #FF775A",
"#-	c #FF472C",
"$-	c #F70100",
"%-	c #FB0602",
"&-	c #FF4411",
"*-	c #FF9929",
"=-	c #FF9127",
"--	c #FF781C",
";-	c #FF5D19",
">-	c #FF4514",
",-	c #FC3215",
"'-	c #F92D16",
")-	c #F82C15",
"!-	c #FE2A15",
"~-	c #FF2D17",
"{-	c #F82917",
"]-	c #F32F1E",
"^-	c #F22E1D",
"/-	c #EC2F1C",
"(-	c #F12C19",
"_-	c #E7231A",
":-	c #E9251A",
"<-	c #EA2218",
"[-	c #E72419",
"}-	c #EA2718",
"|-	c #ED2918",
"1-	c #F93518",
"2-	c #FF3E15",
"3-	c #FF6217",
"4-	c #FF7D1D",
"5-	c #B90000",
"6-	c #DE3055",
"7-	c #DF5465",
"8-	c #DB3D56",
"9-	c #9B0105",
"0-	c #9A0000",
"a-	c #B8000C",
"b-	c #B60007",
"c-	c #BB0002",
"d-	c #BE0001",
"e-	c #CA0000",
"f-	c #DF0105",
"g-	c #F03C3B",
"h-	c #F85149",
"i-	c #F32B2B",
"j-	c #EA0104",
"k-	c #EF0003",
"l-	c #FD160C",
"m-	c #FF6447",
"n-	c #FF6A51",
"o-	c #FF846E",
"p-	c #FF997D",
"q-	c #FF8A6E",
"r-	c #FF7150",
"s-	c #FF5032",
"t-	c #FF260D",
"u-	c #E20000",
"v-	c #F70301",
"w-	c #F90401",
"x-	c #FE9023",
"y-	c #FF942B",
"z-	c #FF761B",
"A-	c #FF4913",
"B-	c #FC3613",
"C-	c #FE2E14",
"D-	c #FB2A12",
"E-	c #FF3215",
"F-	c #FE2812",
"G-	c #F42517",
"H-	c #F02B1C",
"I-	c #F63721",
"J-	c #E92F1F",
"K-	c #E5241A",
"L-	c #F02818",
"M-	c #E92219",
"N-	c #E42417",
"O-	c #E7241A",
"P-	c #F12D19",
"Q-	c #FC3816",
"R-	c #FF4217",
"S-	c #FF6418",
"T-	c #FF8822",
"U-	c #BA0001",
"V-	c #D9224A",
"W-	c #D9485A",
"X-	c #D4314C",
"Y-	c #9E0008",
"Z-	c #930000",
"`-	c #AA0004",
" ;	c #B20004",
".;	c #B70001",
"+;	c #EC2F30",
"@;	c #F5403D",
"#;	c #F42025",
"$;	c #E70002",
"%;	c #FC0201",
"&;	c #FF442B",
"*;	c #FF644B",
"=;	c #FF6D52",
"-;	c #FF9378",
";;	c #FF9D82",
">;	c #FF785A",
",;	c #FF5233",
"';	c #FF3417",
");	c #DE0001",
"!;	c #F30101",
"~;	c #F10201",
"{;	c #FFA727",
"];	c #FF962A",
"^;	c #FF7B1F",
"/;	c #FF691A",
"(;	c #FE3714",
"_;	c #FE3111",
":;	c #FD2812",
"<;	c #FF3516",
"[;	c #FC2A14",
"};	c #F31E15",
"|;	c #F12C1D",
"1;	c #F2331F",
"2;	c #EA311F",
"3;	c #ED261B",
"4;	c #F22919",
"5;	c #EE261A",
"6;	c #E32318",
"7;	c #F52D1A",
"8;	c #FC3818",
"9;	c #FF681A",
"0;	c #FF8D23",
"a;	c #BA0101",
"b;	c #CD103D",
"c;	c #DA4A5B",
"d;	c #D02B47",
"e;	c #A1020A",
"f;	c #910000",
"g;	c #A20001",
"h;	c #B00004",
"i;	c #B90002",
"j;	c #B70000",
"k;	c #CD0000",
"l;	c #E71920",
"m;	c #F23031",
"n;	c #F1151A",
"o;	c #E60002",
"p;	c #F90001",
"q;	c #FF2212",
"r;	c #FF5639",
"s;	c #FF7056",
"t;	c #FFAC92",
"u;	c #FFB399",
"v;	c #FFA181",
"w;	c #FF6345",
"x;	c #FE341C",
"y;	c #EB0000",
"z;	c #DB0002",
"A;	c #F00300",
"B;	c #F10701",
"C;	c #FBB62B",
"D;	c #FF9328",
"E;	c #FF4E19",
"F;	c #FF3915",
"G;	c #FB3015",
"H;	c #FF2F15",
"I;	c #FF2A15",
"J;	c #ED2013",
"K;	c #F22C1B",
"L;	c #F42D1D",
"M;	c #EF2518",
"N;	c #F32918",
"O;	c #EA2418",
"P;	c #E22218",
"Q;	c #E62619",
"R;	c #FD3515",
"S;	c #FF4C15",
"T;	c #FE6B1B",
"U;	c #FE9025",
"V;	c #C70303",
"W;	c #BB051A",
"X;	c #CE3148",
"Y;	c #CC2943",
"Z;	c #9F000C",
"`;	c #9D0002",
" >	c #AA0005",
".>	c #B40003",
"+>	c #B40000",
"@>	c #C20000",
"#>	c #D30005",
"$>	c #EC1A22",
"%>	c #E50107",
"&>	c #FD1303",
"*>	c #FC4529",
"=>	c #FF6F53",
"->	c #FFC7A9",
";>	c #FFCCAF",
">>	c #FECBB0",
",>	c #FF876E",
"'>	c #FD0601",
")>	c #E00000",
"!>	c #D90000",
"~>	c #F30401",
"{>	c #F30200",
"]>	c #FA6811",
"^>	c #FF8C23",
"/>	c #FE6C1A",
"(>	c #FF4916",
"_>	c #FD3115",
":>	c #FB2E14",
"<>	c #FA2A15",
"[>	c #FC2E14",
"}>	c #ED1F16",
"|>	c #F42E1D",
"1>	c #E5251B",
"2>	c #F22518",
"3>	c #FB3217",
"4>	c #F42717",
"5>	c #F73017",
"6>	c #FF711D",
"7>	c #FF8A25",
"8>	c #C50300",
"9>	c #B20008",
"0>	c #C31235",
"a>	c #C41E3A",
"b>	c #A70112",
"c>	c #940000",
"d>	c #A70002",
"e>	c #B00002",
"f>	c #B30001",
"g>	c #B50000",
"h>	c #BC0000",
"i>	c #C80000",
"j>	c #D70003",
"k>	c #DB0000",
"l>	c #E30001",
"m>	c #F20001",
"n>	c #FC0400",
"o>	c #FE4727",
"p>	c #FF684F",
"q>	c #FFB193",
"r>	c #FFAE91",
"s>	c #FF9C7A",
"t>	c #FF6A4C",
"u>	c #FF220D",
"v>	c #FE0B02",
"w>	c #DA0000",
"x>	c #D50001",
"y>	c #FA0F03",
"z>	c #EF0500",
"A>	c #F80600",
"B>	c #FF8D24",
"C>	c #FF7C20",
"D>	c #FF6618",
"E>	c #FD3017",
"F>	c #FD3016",
"G>	c #F82916",
"H>	c #FB2B17",
"I>	c #F32419",
"J>	c #EF2819",
"K>	c #F32E1E",
"L>	c #FD3C1A",
"M>	c #EA291D",
"N>	c #F02617",
"O>	c #FD361A",
"P>	c #F63017",
"Q>	c #F93317",
"R>	c #FB3314",
"S>	c #FF5F1A",
"T>	c #FF771E",
"U>	c #FF7B1B",
"V>	c #C10000",
"W>	c #AF0007",
"X>	c #C40F31",
"Y>	c #C81836",
"Z>	c #A80112",
"`>	c #900000",
" ,	c #A10104",
".,	c #A90003",
"+,	c #B10001",
"@,	c #B20000",
"#,	c #C90000",
"$,	c #EC0002",
"%,	c #FF4C33",
"&,	c #FF8062",
"*,	c #FF8D71",
"=,	c #FF6144",
"-,	c #FF361A",
";,	c #FF3118",
">,	c #FD0300",
",,	c #D80000",
"',	c #F91406",
"),	c #F70F01",
"!,	c #FF801E",
"~,	c #FF4115",
"{,	c #FE3115",
"],	c #F72614",
"^,	c #F22515",
"/,	c #F32318",
"(,	c #EF2415",
"_,	c #EF2C1B",
":,	c #EF2E1D",
"<,	c #F02E1F",
"[,	c #EE2214",
"},	c #FE3B17",
"|,	c #FD3915",
"1,	c #FB3515",
"2,	c #FF7A1F",
"3,	c #FF7819",
"4,	c #B60221",
"5,	c #C00D2B",
"6,	c #A9000F",
"7,	c #9A0001",
"8,	c #A00000",
"9,	c #AE0001",
"0,	c #B10000",
"a,	c #EE0000",
"b,	c #FC0200",
"c,	c #FF371E",
"d,	c #FF5A3B",
"e,	c #FF5135",
"f,	c #FF1C0C",
"g,	c #FE3718",
"h,	c #FF0801",
"i,	c #FA1103",
"j,	c #FE3306",
"k,	c #EC0400",
"l,	c #FF8E23",
"m,	c #FF861F",
"n,	c #FF621B",
"o,	c #FF4414",
"p,	c #FE3616",
"q,	c #FF3214",
"r,	c #F92D15",
"s,	c #EF2817",
"t,	c #EB2017",
"u,	c #EE211A",
"v,	c #ED291A",
"w,	c #F12F1E",
"x,	c #EE2A1A",
"y,	c #FC3A17",
"z,	c #FE3B15",
"A,	c #FE4115",
"B,	c #FF5115",
"C,	c #FF671D",
"D,	c #FF8226",
"E,	c #EA1203",
"F,	c #A80212",
"G,	c #BA0522",
"H,	c #AE000D",
"I,	c #940001",
"J,	c #A80000",
"K,	c #AF0000",
"L,	c #B60001",
"M,	c #BD0000",
"N,	c #F60100",
"O,	c #FE0E02",
"P,	c #FF3015",
"Q,	c #FF2109",
"R,	c #FF2312",
"S,	c #FF3418",
"T,	c #FF0D03",
"U,	c #F30A01",
"V,	c #FD470B",
"W,	c #F10401",
"X,	c #FF9825",
"Y,	c #FF871F",
"Z,	c #FF661B",
"`,	c #FF4815",
" '	c #FE3916",
".'	c #FA3117",
"+'	c #F42914",
"@'	c #EB2216",
"#'	c #EB2419",
"$'	c #EF2919",
"%'	c #FB3416",
"&'	c #FF4013",
"*'	c #FF4713",
"='	c #FE4815",
"-'	c #FF4612",
";'	c #FF6118",
">'	c #FF8D2D",
",'	c #FF8524",
"''	c #FF620F",
")'	c #C30202",
"!'	c #A80006",
"~'	c #B4021A",
"{'	c #AC0011",
"]'	c #9C0002",
"^'	c #8C0000",
"/'	c #9B0002",
"('	c #A20000",
"_'	c #AA0000",
":'	c #C60000",
"<'	c #FD0000",
"['	c #FF0B03",
"}'	c #FF1809",
"|'	c #FE422A",
"1'	c #FF583C",
"2'	c #FF1B0A",
"3'	c #D20001",
"4'	c #D10000",
"5'	c #E00202",
"6'	c #FF3F05",
"7'	c #F50400",
"8'	c #FFB32F",
"9'	c #FF8B21",
"0'	c #FF6E1B",
"a'	c #FF5114",
"b'	c #FF3D14",
"c'	c #FC3214",
"d'	c #F92717",
"e'	c #F22417",
"f'	c #ED2216",
"g'	c #F1291A",
"h'	c #EE2B1D",
"i'	c #F62C16",
"j'	c #FE3B14",
"k'	c #FF4813",
"l'	c #FF4E15",
"m'	c #FE4E12",
"n'	c #FE6619",
"o'	c #FF7620",
"p'	c #FF8B2B",
"q'	c #FF8B28",
"r'	c #FF9420",
"s'	c #BE0101",
"t'	c #AD0000",
"u'	c #B40010",
"v'	c #AC000E",
"w'	c #8D0000",
"x'	c #950001",
"y'	c #9C0000",
"z'	c #A80001",
"A'	c #C00000",
"B'	c #D30001",
"C'	c #DA0001",
"D'	c #DD0000",
"E'	c #F80001",
"F'	c #FF180A",
"G'	c #FF3F28",
"H'	c #FF5E43",
"I'	c #FF7359",
"J'	c #FF2B15",
"K'	c #FF0000",
"L'	c #CE0000",
"M'	c #FF2303",
"N'	c #F60600",
"O'	c #FD9F26",
"P'	c #FF8A1E",
"Q'	c #FF731C",
"R'	c #FF3C15",
"S'	c #FE3315",
"T'	c #F92815",
"U'	c #F42214",
"V'	c #F62D1B",
"W'	c #E8251A",
"X'	c #EC2719",
"Y'	c #FE4F18",
"Z'	c #FF5311",
"`'	c #FF6619",
" )	c #FF9432",
".)	c #FF8D29",
"+)	c #C30003",
"@)	c #C00002",
"#)	c #B20105",
"$)	c #B10005",
"%)	c #B4000A",
"&)	c #920000",
"*)	c #8C0001",
"=)	c #980000",
"-)	c #B30000",
";)	c #BB0000",
">)	c #C80001",
",)	c #D00001",
"')	c #FF2A16",
"))	c #FF7156",
"!)	c #FF5235",
"~)	c #FF452A",
"{)	c #FF3315",
"])	c #FB0100",
"^)	c #EA0001",
"/)	c #D00000",
"()	c #D10001",
"_)	c #F60F01",
":)	c #FE3502",
"<)	c #FF2E04",
"[)	c #FF861B",
"})	c #FF4412",
"|)	c #FC2F16",
"1)	c #FF2D14",
"2)	c #F52414",
"3)	c #ED2417",
"4)	c #EF2618",
"5)	c #F32819",
"6)	c #EE2918",
"7)	c #EA2A1B",
"8)	c #E7261A",
"9)	c #E92417",
"0)	c #FF4611",
"a)	c #FF4E13",
"b)	c #FF781B",
"c)	c #FF9330",
"d)	c #FF902F",
"e)	c #FD922C",
"f)	c #DF0500",
"g)	c #AF0102",
"h)	c #B50007",
"i)	c #990000",
"j)	c #8C0100",
"k)	c #8E0000",
"l)	c #9B0000",
"m)	c #A10000",
"n)	c #AC0000",
"o)	c #B80000",
"p)	c #C20001",
"q)	c #CB0000",
"r)	c #F30000",
"s)	c #FE1C0A",
"t)	c #FE3C1C",
"u)	c #FE3D20",
"v)	c #FF210E",
"w)	c #FF2A0F",
"x)	c #FF1F0A",
"y)	c #E60301",
"z)	c #FF4808",
"A)	c #F60400",
"B)	c #FF871B",
"C)	c #FF8020",
"D)	c #FF6B18",
"E)	c #FF4E14",
"F)	c #FF3813",
"G)	c #FD3013",
"H)	c #FC2B13",
"I)	c #F72713",
"J)	c #F12017",
"K)	c #EF2516",
"L)	c #F32516",
"M)	c #ED2A1A",
"N)	c #EE2B1B",
"O)	c #EA281C",
"P)	c #E32217",
"Q)	c #EC2418",
"R)	c #FC3E14",
"S)	c #FF4416",
"T)	c #FF721C",
"U)	c #FF9E3B",
"V)	c #FF9C36",
"W)	c #FF9632",
"X)	c #FF5511",
"Y)	c #B90005",
"Z)	c #8B0000",
"`)	c #8B0002",
" !	c #EA0000",
".!	c #FE0301",
"+!	c #FF1301",
"@!	c #FF1D03",
"#!	c #FF0B01",
"$!	c #FF270F",
"%!	c #D10100",
"&!	c #FE4D08",
"*!	c #FC971E",
"=!	c #FF731B",
"-!	c #FF5514",
";!	c #FF3E16",
">!	c #FD3215",
",!	c #FF2A11",
"'!	c #FB2816",
")!	c #F32817",
"!!	c #F52916",
"~!	c #F02A1B",
"{!	c #EF2C1C",
"]!	c #E52B1E",
"^!	c #E42319",
"/!	c #E0211A",
"(!	c #E52519",
"_!	c #E92818",
":!	c #FC3915",
"<!	c #FC4514",
"[!	c #FF5E17",
"}!	c #FF9C39",
"|!	c #FF982F",
"1!	c #FFAF2E",
"2!	c #D70302",
"3!	c #C40100",
"4!	c #8A0000",
"5!	c #9E0000",
"6!	c #A60000",
"7!	c #B00000",
"8!	c #C70000",
"9!	c #F80100",
"0!	c #FF0A03",
"a!	c #FE492E",
"b!	c #FF6649",
"c!	c #D80001",
"d!	c #F00500",
"e!	c #FFA023",
"f!	c #FF731A",
"g!	c #FF5F14",
"h!	c #FF4214",
"i!	c #FF3412",
"j!	c #FD2813",
"k!	c #F72112",
"l!	c #FD2A13",
"m!	c #FF782C",
"n!	c #F42617",
"o!	c #F32B1A",
"p!	c #E62A1D",
"q!	c #E62B1D",
"r!	c #E7251C",
"s!	c #E42519",
"t!	c #E1211B",
"u!	c #E12119",
"v!	c #E0251A",
"w!	c #F53018",
"x!	c #FC3C15",
"y!	c #FF4C17",
"z!	c #FF7D25",
"A!	c #FF9835",
"B!	c #FF9731",
"C!	c #FF9A29",
"D!	c #E90900",
"E!	c #890000",
"F!	c #A40000",
"G!	c #FE0101",
"H!	c #FF1004",
"I!	c #FF5437",
"J!	c #FF8368",
"K!	c #FF3D23",
"L!	c #FF0400",
"M!	c #F10300",
"N!	c #FF8C17",
"O!	c #FF8520",
"P!	c #FF791D",
"Q!	c #FF6616",
"R!	c #FE3815",
"S!	c #FB2413",
"T!	c #FE2416",
"U!	c #FE2A13",
"V!	c #F82618",
"W!	c #F02517",
"X!	c #F92A18",
"Y!	c #E42B1D",
"Z!	c #E1271A",
"`!	c #E4251A",
" ~	c #E32419",
".~	c #E2221B",
"+~	c #DE211B",
"@~	c #DC2219",
"#~	c #E9271A",
"$~	c #F53017",
"%~	c #FF671A",
"&~	c #EC0100",
"*~	c #D30300",
"=~	c #C70001",
"-~	c #8F0100",
";~	c #970000",
">~	c #E60001",
",~	c #FB0000",
"'~	c #FE0100",
")~	c #FF0C01",
"!~	c #FF5B3D",
"~~	c #FF997F",
"{~	c #FF664B",
"]~	c #FF1508",
"^~	c #FB0500",
"/~	c #F50500",
"(~	c #FE2E04",
"_~	c #FF8722",
":~	c #FF8421",
"<~	c #FF7319",
"[~	c #FF3C14",
"}~	c #FF2D13",
"|~	c #FD2A11",
"1~	c #FE3919",
"2~	c #FD2F16",
"3~	c #FA2816",
"4~	c #F92617",
"5~	c #FB2F19",
"6~	c #E42A20",
"7~	c #E3261C",
"8~	c #E3261B",
"9~	c #E2251C",
"0~	c #DD2419",
"a~	c #DA231A",
"b~	c #D8211C",
"c~	c #E0231B",
"d~	c #F72F17",
"e~	c #FF6F1D",
"f~	c #FF8528",
"g~	c #FF952D",
"h~	c #EA0600",
"i~	c #CC0000",
"j~	c #950000",
"k~	c #A30002",
"l~	c #C50000",
"m~	c #FF0C06",
"n~	c #FF5A40",
"o~	c #FFA68D",
"p~	c #FF9A83",
"q~	c #FF5C3F",
"r~	c #FF2412",
"s~	c #DC0001",
"t~	c #F30100",
"u~	c #FF9F2C",
"v~	c #FF8B24",
"w~	c #FF6218",
"x~	c #FE3F11",
"y~	c #FF2E11",
"z~	c #FF2912",
"A~	c #FF6823",
"B~	c #FF2715",
"C~	c #F82918",
"D~	c #FC2E16",
"E~	c #FD361E",
"F~	c #E4271C",
"G~	c #E0261C",
"H~	c #E3241B",
"I~	c #E4271B",
"J~	c #D4211A",
"K~	c #D8221B",
"L~	c #EE2617",
"M~	c #FD3A15",
"N~	c #FF5D15",
"O~	c #FF751F",
"P~	c #FF8A28",
"Q~	c #FDB941",
"R~	c #E80502",
"S~	c #E00100",
"T~	c #B60000",
"U~	c #FC0500",
"V~	c #FF0806",
"W~	c #FF6B55",
"X~	c #FFA78E",
"Y~	c #FE9881",
"Z~	c #FF8970",
"`~	c #FD5740",
" {	c #FF0201",
".{	c #F90300",
"+{	c #FDE558",
"@{	c #FFA235",
"#{	c #FF992E",
"${	c #FF7C24",
"%{	c #FF5A1A",
"&{	c #FF4B12",
"*{	c #FF3A12",
"={	c #FF3211",
"-{	c #FF3115",
";{	c #FF2816",
">{	c #F92918",
",{	c #F92716",
"'{	c #F82819",
"){	c #FF2E18",
"!{	c #E6261A",
"~{	c #E9261A",
"{{	c #DF221A",
"]{	c #E6231B",
"^{	c #FE3818",
"/{	c #DE1F1A",
"({	c #D91E1B",
"_{	c #E12217",
":{	c #F73117",
"<{	c #FF6C18",
"[{	c #FF8525",
"}{	c #FF9329",
"|{	c #FF3408",
"1{	c #E50200",
"2{	c #C70100",
"3{	c #9D0000",
"4{	c #A70000",
"5{	c #FD2618",
"6{	c #FE7D69",
"7{	c #FFBDA4",
"8{	c #FF9780",
"9{	c #FF7B64",
"0{	c #FF190A",
"a{	c #FE0B00",
"b{	c #F92304",
"c{	c #FFB13D",
"d{	c #FFB243",
"e{	c #FF9E3A",
"f{	c #FF7823",
"g{	c #FF5619",
"h{	c #FF4212",
"i{	c #FF2B12",
"j{	c #FE2C16",
"k{	c #FB2516",
"l{	c #FB2715",
"m{	c #FC521B",
"n{	c #E72517",
"o{	c #E3211C",
"p{	c #E4211A",
"q{	c #D81F19",
"r{	c #DF1F19",
"s{	c #FF7D20",
"t{	c #FF8F27",
"u{	c #FCAA31",
"v{	c #E40300",
"w{	c #FF0101",
"x{	c #FF3328",
"y{	c #FF8E75",
"z{	c #FF8F78",
"A{	c #FF9784",
"B{	c #FF3D28",
"C{	c #FF0300",
"D{	c #FB0002",
"E{	c #FFBE41",
"F{	c #FEB343",
"G{	c #FFA945",
"H{	c #FF9539",
"I{	c #FF7120",
"J{	c #FF5715",
"K{	c #FC2915",
"L{	c #FE2A16",
"M{	c #FA2516",
"N{	c #FE2D14",
"O{	c #FD2413",
"P{	c #FF2F17",
"Q{	c #F53220",
"R{	c #E72318",
"S{	c #E62217",
"T{	c #E42219",
"U{	c #E3211A",
"V{	c #E92316",
"W{	c #FC2F18",
"X{	c #E11F19",
"Y{	c #DC2018",
"Z{	c #E52415",
"`{	c #F62F16",
" ]	c #FF701D",
".]	c #FF851F",
"+]	c #FE1901",
"@]	c #E20200",
"#]	c #930001",
"$]	c #AE0000",
"%]	c #FC0000",
"&]	c #FF2A1C",
"*]	c #FF705B",
"=]	c #FF8772",
"-]	c #FF6C53",
";]	c #FD2B15",
">]	c #E30100",
",]	c #F90500",
"']	c #FFAD29",
")]	c #FFAC3A",
"!]	c #FFA63D",
"~]	c #FF9A37",
"{]	c #FF7D27",
"]]	c #FF651F",
"^]	c #FF5014",
"/]	c #FF3613",
"(]	c #FE2914",
"_]	c #FC2C15",
":]	c #F92A14",
"<]	c #FA2C12",
"[]	c #F52918",
"}]	c #F6301C",
"|]	c #E0261D",
"1]	c #E3221A",
"2]	c #EB261B",
"3]	c #DE201A",
"4]	c #E2231A",
"5]	c #EB2218",
"6]	c #FE2F17",
"7]	c #F62714",
"8]	c #FF3F16",
"9]	c #FF5D16",
"0]	c #FF7B20",
"a]	c #FF8825",
"b]	c #FDB132",
"c]	c #A30004",
"d]	c #A80003",
"e]	c #E90001",
"f]	c #FE3724",
"g]	c #FF614D",
"h]	c #FE8A74",
"i]	c #FF634A",
"j]	c #FF0904",
"k]	c #F20100",
"l]	c #FCC037",
"m]	c #FFA23A",
"n]	c #FFA23E",
"o]	c #FF8F2C",
"p]	c #FF5F17",
"q]	c #FE3314",
"r]	c #FB2D17",
"s]	c #F42615",
"t]	c #F62919",
"u]	c #FA2B1A",
"v]	c #F3311C",
"w]	c #E72717",
"x]	c #E92319",
"y]	c #E5211A",
"z]	c #E12118",
"A]	c #FA3116",
"B]	c #FE3318",
"C]	c #FE3419",
"D]	c #FF7E1E",
"E]	c #FF6513",
"F]	c #9C0001",
"G]	c #AB0003",
"H]	c #A50000",
"I]	c #FB0200",
"J]	c #FF2819",
"K]	c #FF806B",
"L]	c #FE9176",
"M]	c #FF8A6F",
"N]	c #F10202",
"O]	c #F31904",
"P]	c #FF932D",
"Q]	c #FF9934",
"R]	c #FF721D",
"S]	c #FF4912",
"T]	c #FF3E13",
"U]	c #F52915",
"V]	c #F52A18",
"W]	c #FA2918",
"X]	c #F62918",
"Y]	c #F53320",
"Z]	c #E4221B",
"`]	c #E6251A",
" ^	c #E2231C",
".^	c #DC1E17",
"+^	c #FE3E16",
"@^	c #FF4817",
"#^	c #FF641C",
"$^	c #FF731E",
"%^	c #FF7C1D",
"&^	c #FF9F2A",
"*^	c #860000",
"=^	c #9C0004",
"-^	c #B10010",
";^	c #AB0000",
">^	c #FD0702",
",^	c #FF634E",
"'^	c #FFBDA3",
")^	c #FFB7A0",
"!^	c #FF866D",
"~^	c #FD0001",
"{^	c #F80200",
"]^	c #E40100",
"^^	c #FC9C29",
"/^	c #FF8022",
"(^	c #FF5A15",
"_^	c #FE4814",
":^	c #FF3C12",
"<^	c #FA3114",
"[^	c #FC2B19",
"}^	c #FD2C18",
"|^	c #F72E1B",
"1^	c #E6241B",
"2^	c #E92519",
"3^	c #ED271A",
"4^	c #E22318",
"5^	c #E1211A",
"6^	c #E52019",
"7^	c #FC3317",
"8^	c #FD3815",
"9^	c #FE4013",
"0^	c #FF5816",
"a^	c #FF7C1A",
"b^	c #870000",
"c^	c #880001",
"d^	c #A10007",
"e^	c #A70005",
"f^	c #CF0002",
"g^	c #FF412B",
"h^	c #FF7B67",
"i^	c #FFAF99",
"j^	c #FFAA8E",
"k^	c #FF4131",
"l^	c #FD0100",
"m^	c #E40101",
"n^	c #F91301",
"o^	c #FF871C",
"p^	c #FF8424",
"q^	c #FF8120",
"r^	c #FF751D",
"s^	c #FF6219",
"t^	c #FF5516",
"u^	c #FE3812",
"v^	c #FA2B16",
"w^	c #FE2D18",
"x^	c #F93017",
"y^	c #F52C17",
"z^	c #E6271E",
"A^	c #E42418",
"B^	c #EA2219",
"C^	c #E51F19",
"D^	c #FD3214",
"E^	c #FF3F15",
"F^	c #FF671C",
"G^	c #FF8320",
"H^	c #FF8A23",
"I^	c #EE0300",
"J^	c #F20200",
"K^	c #860101",
"L^	c #9E0002",
"M^	c #FF0401",
"N^	c #FF3523",
"O^	c #FF6752",
"P^	c #FF907A",
"Q^	c #FF6650",
"R^	c #FF1006",
"S^	c #FFA32E",
"T^	c #FF7B1D",
"U^	c #FF5C15",
"V^	c #FE3A11",
"W^	c #FB2D14",
"X^	c #F12E1B",
"Y^	c #E3251A",
"Z^	c #EB271C",
"`^	c #F22818",
" /	c #F42A18",
"./	c #F12818",
"+/	c #FA3016",
"@/	c #FF501C",
"#/	c #FF6523",
"$/	c #FF6D1D",
"%/	c #FF751A",
"&/	c #FF8621",
"*/	c #E70201",
"=/	c #A30000",
"-/	c #C00001",
";/	c #FB0401",
">/	c #FE2E17",
",/	c #FE6B51",
"'/	c #FF7560",
")/	c #FE341F",
"!/	c #FCB82F",
"~/	c #FF801B",
"{/	c #FF6D19",
"]/	c #FE5D17",
"^/	c #FF4C13",
"//	c #FD2D12",
"(/	c #FD2D14",
"_/	c #FA2D17",
":/	c #F92812",
"</	c #F32F1C",
"[/	c #F3311E",
"}/	c #E32319",
"|/	c #E3231C",
"1/	c #E62219",
"2/	c #F72E17",
"3/	c #FC3516",
"4/	c #FF3F17",
"5/	c #FF5E1D",
"6/	c #FF641B",
"7/	c #FF6F1A",
"8/	c #FF8522",
"9/	c #FDB23A",
"0/	c #F50101",
"a/	c #FC0700",
"b/	c #8E0001",
"c/	c #880000",
"d/	c #F50103",
"e/	c #FB0300",
"f/	c #FF1206",
"g/	c #FF513C",
"h/	c #FF4B35",
"i/	c #FC4124",
"j/	c #FE0F01",
"k/	c #F90200",
"l/	c #FB5211",
"m/	c #FF7019",
"n/	c #FF6417",
"o/	c #FF5213",
"p/	c #FE4513",
"q/	c #FF3714",
"r/	c #FC2E15",
"s/	c #F92A17",
"t/	c #F4341F",
"u/	c #E22B1D",
"v/	c #E2231B",
"w/	c #EC291C",
"x/	c #ED2818",
"y/	c #F52B16",
"z/	c #F82E16",
"A/	c #FD3717",
"B/	c #FF3F14",
"C/	c #FF6C1C",
"D/	c #FF8926",
"E/	c #FF9C31",
"F/	c #FBDD59",
"G/	c #F20300",
"H/	c #F40301",
"I/	c #850000",
"J/	c #A20002",
"K/	c #FD2C13",
"L/	c #FF3D29",
"M/	c #FF5030",
"N/	c #FF1904",
"O/	c #F01000",
"P/	c #FF921A",
"Q/	c #FF6A18",
"R/	c #FF6214",
"S/	c #FF5210",
"T/	c #FF4314",
"U/	c #FF3616",
"V/	c #F62F1D",
"W/	c #F52F1D",
"X/	c #E2291D",
"Y/	c #DE2318",
"Z/	c #E2211A",
"`/	c #F22A17",
" (	c #F52C16",
".(	c #FE3A15",
"+(	c #FE4716",
"@(	c #FF5614",
"#(	c #FF6515",
"$(	c #FF791C",
"%(	c #FE9C35",
"&(	c #FEB141",
"*(	c #FCD44B",
"=(	c #E60101",
"-(	c #FC0502",
";(	c #FE0D00",
">(	c #FF0C00",
",(	c #F30301",
"'(	c #880002",
")(	c #FE190D",
"!(	c #FF664E",
"~(	c #FF7459",
"{(	c #FF3B23",
"](	c #F30700",
"^(	c #FF7C19",
"/(	c #FF5A11",
"((	c #FF5017",
"_(	c #FF4715",
":(	c #FF3918",
"<(	c #F6311F",
"[(	c #F4301C",
"}(	c #E7281C",
"|(	c #E72018",
"1(	c #EF2818",
"2(	c #F52B15",
"3(	c #FC3B13",
"4(	c #FD4914",
"5(	c #FF6716",
"6(	c #FF771D",
"7(	c #FF9D38",
"8(	c #FFA53C",
"9(	c #FFAF42",
"0(	c #FEA532",
"a(	c #DD0100",
"b(	c #FD0D01",
"c(	c #FC0B00",
"d(	c #EB0200",
"e(	c #FF0A04",
"f(	c #FE4935",
"g(	c #FF7D64",
"h(	c #FE7E67",
"i(	c #FF6145",
"j(	c #FB4124",
"k(	c #FF0200",
"l(	c #F70200",
"m(	c #FF400A",
"n(	c #FF5815",
"o(	c #F5311E",
"p(	c #F5321E",
"q(	c #FA381F",
"r(	c #ED291C",
"s(	c #E8271A",
"t(	c #F12918",
"u(	c #FE3613",
"v(	c #FF4215",
"w(	c #FE4B15",
"x(	c #FF5F12",
"y(	c #FF7219",
"z(	c #FF902D",
"A(	c #FF9C35",
"B(	c #FFA83C",
"C(	c #FFB742",
"D(	c #FF6715",
"E(	c #FE1400",
"F(	c #F80800",
"G(	c #960000",
"H(	c #AA0002",
"I(	c #CA0001",
"J(	c #FE3D25",
"K(	c #FF8B71",
"L(	c #FFAC93",
"M(	c #FF886E",
"N(	c #FF593E",
"O(	c #FF1307",
"P(	c #FF6E1C",
"Q(	c #FD4017",
"R(	c #F8331F",
"S(	c #EC2E1D",
"T(	c #E62519",
"U(	c #EE281B",
"V(	c #F83014",
"W(	c #FD3514",
"X(	c #FF5015",
"Y(	c #FF5616",
"Z(	c #FF5B11",
"`(	c #FF6915",
" _	c #FFA138",
"._	c #FFB442",
"+_	c #FFB53E",
"@_	c #F50200",
"#_	c #FF0A00",
"$_	c #FB0E00",
"%_	c #A60001",
"&_	c #E30101",
"*_	c #EC0001",
"=_	c #FF1C0F",
"-_	c #FF5E49",
";_	c #FF8E74",
">_	c #FFCCB6",
",_	c #FF8A71",
"'_	c #FF1B0E",
")_	c #FF0001",
"!_	c #FD0101",
"~_	c #FA1106",
"{_	c #FB391E",
"]_	c #E82A1C",
"^_	c #E9281A",
"/_	c #E72819",
"(_	c #FA381B",
"__	c #FE4116",
":_	c #FF3F12",
"<_	c #FF4712",
"[_	c #FE4D13",
"}_	c #FF5111",
"|_	c #FF9531",
"1_	c #FFA93E",
"2_	c #FFB346",
"3_	c #FFDD57",
"4_	c #FD1101",
"5_	c #FE0E01",
"6_	c #BF0001",
"7_	c #E50001",
"8_	c #FF4829",
"9_	c #FF7D5B",
"0_	c #FF9C80",
"a_	c #FF482F",
"b_	c #FF0503",
"c_	c #FF0103",
"d_	c #FA0402",
"e_	c #F51910",
"f_	c #F52F1B",
"g_	c #EE2816",
"h_	c #EF2A19",
"i_	c #FF4718",
"j_	c #FF6121",
"k_	c #FE4112",
"l_	c #FD3F12",
"m_	c #FF410F",
"n_	c #FF4A11",
"o_	c #FF6213",
"p_	c #FF781D",
"q_	c #FF8626",
"r_	c #FF9B34",
"s_	c #FFAB42",
"t_	c #FFB040",
"u_	c #FFC644",
"v_	c #F90700",
"w_	c #FE0E00",
"x_	c #FD0B00",
"y_	c #FF291C",
"z_	c #FF503D",
"A_	c #FD2515",
"B_	c #FF210F",
"C_	c #FF5034",
"D_	c #FF3B27",
"E_	c #FA0407",
"F_	c #EF0507",
"G_	c #EB2818",
"H_	c #E82318",
"I_	c #F72315",
"J_	c #F93113",
"K_	c #F52C18",
"L_	c #FA2F14",
"M_	c #FD3914",
"N_	c #FF470F",
"O_	c #FF5211",
"P_	c #FF6917",
"Q_	c #FF7C1B",
"R_	c #FF8E29",
"S_	c #FFA83B",
"T_	c #FFA93B",
"U_	c #FEC044",
"V_	c #F21201",
"W_	c #FA0600",
"X_	c #FB0C00",
"Y_	c #C50100",
"Z_	c #F50100",
"`_	c #FF0F04",
" :	c #FE4F33",
".:	c #FFD1B6",
"+:	c #FFF5E3",
"@:	c #FFF1E0",
"#:	c #FFCEB5",
"$:	c #FC3118",
"%:	c #FE0C06",
"&:	c #F20106",
"*:	c #ED0E12",
"=:	c #E2261D",
"-:	c #E0261A",
";:	c #DD201B",
">:	c #E4241D",
",:	c #E6271C",
"':	c #E0241C",
"):	c #E42419",
"!:	c #FB3414",
"~:	c #FF5012",
"{:	c #FF6318",
"]:	c #FF711C",
"^:	c #FF8726",
"/:	c #FF9231",
"(:	c #FF8F29",
"_:	c #FFA52C",
"::	c #FB2207",
"<:	c #BB0100",
"[:	c #FD1A00",
"}:	c #870001",
"|:	c #9E0001",
"1:	c #F80300",
"2:	c #FE3D26",
"3:	c #FF9879",
"4:	c #FF866F",
"5:	c #FF917C",
"6:	c #FDB49C",
"7:	c #FE7E55",
"8:	c #FD1707",
"9:	c #F90505",
"0:	c #D0080D",
"a:	c #E1271C",
"b:	c #D9231B",
"c:	c #DB251B",
"d:	c #D9241A",
"e:	c #D9201A",
"f:	c #DE2119",
"g:	c #F32B16",
"h:	c #FD3414",
"i:	c #FF5415",
"j:	c #FF6813",
"k:	c #FF7218",
"l:	c #FF7D22",
"m:	c #FF972A",
"n:	c #FE8F1F",
"o:	c #F51E02",
"p:	c #FA0800",
"q:	c #FD0900",
"r:	c #FB0700",
"s:	c #910001",
"t:	c #990001",
"u:	c #FB0400",
"v:	c #FC0602",
"w:	c #FC0A04",
"x:	c #E60202",
"y:	c #C10105",
"z:	c #E02C1E",
"A:	c #E0221A",
"B:	c #DA231E",
"C:	c #D4241E",
"D:	c #D3221D",
"E:	c #D41F1C",
"F:	c #D8221A",
"G:	c #EB2B18",
"H:	c #FA3815",
"I:	c #FF3A15",
"J:	c #FF3B15",
"K:	c #FF5C1B",
"L:	c #FF822B",
"M:	c #FF7E23",
"N:	c #FF7A1D",
"O:	c #FF5C11",
"P:	c #E60100",
"Q:	c #F60A00",
"R:	c #F10700",
"S:	c #CF0001",
"T:	c #900002",
"U:	c #9D0001",
"V:	c #BE0100",
"W:	c #AC0104",
"X:	c #950807",
"Y:	c #DD221A",
"Z:	c #DD211B",
"`:	c #DB241B",
" <	c #D6241C",
".<	c #D3201C",
"+<	c #D72019",
"@<	c #EB2518",
"#<	c #FE3513",
"$<	c #FF5914",
"%<	c #FF6A1B",
"&<	c #FF7919",
"*<	c #FF7317",
"=<	c #E50700",
"-<	c #FB0801",
";<	c #FD0A00",
"><	c #FD0E00",
",<	c #FF3304",
"'<	c #890001",
")<	c #800000",
"!<	c #810000",
"~<	c #820000",
"{<	c #8B0100",
"]<	c #870204",
"^<	c #E52A1E",
"/<	c #E0241E",
"(<	c #DC221D",
"_<	c #D5221C",
":<	c #D4231B",
"<<	c #DC1E1C",
"[<	c #D71E19",
"}<	c #E92419",
"|<	c #FC3116",
"1<	c #FF4A1B",
"2<	c #FF521C",
"3<	c #FF3514",
"4<	c #FF4613",
"5<	c #FF701B",
"6<	c #FF751C",
"7<	c #FE7217",
"8<	c #F01200",
"9<	c #F90900",
"0<	c #FD0C00",
"a<	c #FE2201",
"b<	c #FE3002",
"c<	c #820101",
"d<	c #7E0001",
"e<	c #7C0000",
"f<	c #7E0000",
"g<	c #840000",
"h<	c #820001",
"i<	c #7B0000",
"j<	c #780000",
"k<	c #760000",
"l<	c #730000",
"m<	c #720000",
"n<	c #880805",
"o<	c #D6271B",
"p<	c #E0261B",
"q<	c #E0271E",
"r<	c #E3261D",
"s<	c #DF231B",
"t<	c #DC211C",
"u<	c #E7211A",
"v<	c #F62618",
"w<	c #FF6021",
"x<	c #F92F15",
"y<	c #F32617",
"z<	c #F42A17",
"A<	c #FA2E16",
"B<	c #FA3315",
"C<	c #FC3C17",
"D<	c #FF4814",
"E<	c #FF5B14",
"F<	c #FF6116",
"G<	c #FF7017",
"H<	c #FF7818",
"I<	c #F22304",
"J<	c #FD0F01",
"K<	c #FF2000",
"L<	c #FE2E03",
"M<	c #F71100",
"N<	c #830000",
"O<	c #7D0000",
"P<	c #7A0000",
"Q<	c #740001",
"R<	c #710000",
"S<	c #700000",
"T<	c #770000",
"U<	c #750002",
"V<	c #E0291D",
"W<	c #DF261C",
"X<	c #E2261B",
"Y<	c #E0281D",
"Z<	c #E4291E",
"`<	c #EB281A",
" [	c #F43119",
".[	c #EC2517",
"+[	c #EA2417",
"@[	c #EC2617",
"#[	c #EF2B16",
"$[	c #F43117",
"%[	c #FC3B14",
"&[	c #FD4413",
"*[	c #FF6317",
"=[	c #FF7117",
"-[	c #FE7817",
";[	c #F11B02",
">[	c #AF0002",
",[	c #CD0200",
"'[	c #F30400",
")[	c #FB1101",
"![	c #FD1D00",
"~[	c #F91200",
"{[	c #E40200",
"][	c #B90001",
"^[	c #910100",
"/[	c #840402",
"([	c #E02D1F",
"_[	c #DD2A1B",
":[	c #E1261C",
"<[	c #E2271F",
"[[	c #E0281E",
"}[	c #DE241B",
"|[	c #DB231B",
"1[	c #DA211B",
"2[	c #DA2119",
"3[	c #E12619",
"4[	c #EA2C1C",
"5[	c #F62F19",
"6[	c #FD3415",
"7[	c #FC4314",
"8[	c #FF4A16",
"9[	c #FF5714",
"0[	c #FF6819",
"a[	c #FF711A",
"b[	c #FF771A",
"c[	c #FD3505",
"d[	c #B00100",
"e[	c #EB0001",
"f[	c #FC0800",
"g[	c #F80A01",
"h[	c #F30A00",
"i[	c #EA0200",
"j[	c #E30200",
"k[	c #E00200",
"l[	c #D30200",
"m[	c #D60001",
"n[	c #D10201",
"o[	c #C10300",
"p[	c #C60202",
"q[	c #C60303",
"r[	c #CF0400",
"s[	c #BC0203",
"t[	c #A20100",
"u[	c #7C0406",
"v[	c #9A100C",
"w[	c #E0281C",
"x[	c #E0291C",
"y[	c #DE261E",
"z[	c #E0241B",
"A[	c #D92019",
"B[	c #D6201B",
"C[	c #D8211A",
"D[	c #DA231B",
"E[	c #DF2419",
"F[	c #EF2A16",
"G[	c #F83315",
"H[	c #FE3814",
"I[	c #FF5B19",
"J[	c #FF7519",
"K[	c #FE7D18",
"L[	c #FF7113",
"M[	c #FB1D00",
"N[	c #A10100",
"O[	c #A20201",
"P[	c #F30B01",
"Q[	c #FC0C00",
"R[	c #FA0B00",
"S[	c #EF0400",
"T[	c #BA0202",
"U[	c #AF0201",
"V[	c #900200",
"W[	c #750001",
"X[	c #B1140F",
"Y[	c #E2291E",
"Z[	c #E5261B",
"`[	c #DD2019",
" }	c #DC2119",
".}	c #DC221B",
"+}	c #DB221A",
"@}	c #DF2219",
"#}	c #E62618",
"$}	c #F22A19",
"%}	c #F62C17",
"&}	c #FC3A15",
"*}	c #FF4C16",
"=}	c #FF5A18",
"-}	c #FF6E1E",
";}	c #FF701A",
">}	c #FF741A",
",}	c #FF791F",
"'}	c #FF7D1E",
")}	c #FF821F",
"!}	c #F8811D",
"~}	c #FF6212",
"{}	c #FB2404",
"]}	c #7F0201",
"^}	c #8E0002",
"/}	c #760001",
"(}	c #9B0504",
"_}	c #AD0A07",
":}	c #DD2B1E",
"<}	c #E12C1C",
"[}	c #E3231A",
"}}	c #D92219",
"|}	c #E1271B",
"1}	c #DF251B",
"2}	c #E5281A",
"3}	c #EA281A",
"4}	c #ED2B1A",
"5}	c #FC4016",
"6}	c #FE4813",
"7}	c #FF4F16",
"8}	c #FE5717",
"9}	c #FF691B",
"0}	c #FF6C1B",
"a}	c #FF6B1C",
"b}	c #FE6C19",
"c}	c #FE721B",
"d}	c #FF6C1D",
"e}	c #FF7320",
"f}	c #FB6B19",
"g}	c #FC5C15",
"h}	c #FD4F0E",
"i}	c #FD3F16",
"j}	c #FB3D17",
"k}	c #FA3B19",
"l}	c #EC2E15",
"m}	c #DC2617",
"n}	c #D72617",
"o}	c #D3281B",
"p}	c #E52919",
"q}	c #DF271B",
"r}	c #E2251A",
"s}	c #DF261A",
"t}	c #E2261A",
"u}	c #E5241B",
"v}	c #ED281B",
"w}	c #EA2819",
"x}	c #EE2917",
"y}	c #F42D18",
"z}	c #F93516",
"A}	c #FC3B18",
"B}	c #FE4418",
"C}	c #FF4A14",
"D}	c #FD4C14",
"E}	c #FF4F15",
"F}	c #FE5015",
"G}	c #FE4D16",
"H}	c #FD4B16",
"I}	c #FE4B14",
"J}	c #FC4615",
"K}	c #FD4A15",
"L}	c #FA4014",
"M}	c #F63715",
"N}	c #EF2F17",
"O}	c #E62A17",
"P}	c #E02615",
"Q}	c #DC2216",
"R}	c #DA2216",
"S}	c #D82719",
"T}	c #E32C1D",
"U}	c #E22C1D",
"V}	c #E02B1C",
"W}	c #EC2819",
"X}	c #E5261C",
"Y}	c #E8281B",
"Z}	c #EF2C1A",
"`}	c #F73217",
" |	c #FA3616",
".|	c #FC3F15",
"+|	c #FB3A15",
"@|	c #FA3914",
"#|	c #FB3516",
"$|	c #F83115",
"%|	c #DB261A",
"&|	c #DD2718",
"*|	c #DB2818",
"=|	c #DA291B",
"-|	c #EB2C1D",
";|	c #E5261D",
">|	c #E7291C",
",|	c #E6271B",
"'|	c #EB2618",
")|	c #F12A16",
"!|	c #EC291A",
"~|	c #F12B16",
"{|	c #F12E17",
"]|	c #F13017",
"^|	c #EE2F1A",
"/|	c #ED2B18",
"(|	c #EC2818",
"_|	c #EB2915",
":|	c #E92918",
"<|	c #E42819",
"[|	c #E22619",
"}|	c #DF2C1A",
"||	c #E72C1C",
"1|	c #E62919",
"2|	c #E8261E",
"3|	c #E9251B",
"4|	c #E5231A",
"5|	c #E82319",
"6|	c #E22319",
"7|	c #E4231C",
"8|	c #E42A1C",
"9|	c #E52A1D",
"0|	c #E8301E",
"a|	c #E32C1A",
"b|	c #E52C1C",
"c|	c #E72D1D",
"d|	c #E42C1C",
"e|	c #E32C1E",
"f|	c #E22C1C",
"g|	c #E42C1B",
"h|	c #E62E1C",
"i|	c #E22F1D",
"                                                                                                                                                                                    ",
"                                                                                                                                                                                    ",
"                                                                                                                                                                                    ",
"                                                                                                                                                                                    ",
"                                                                                                                                                                                    ",
"                                                                                                                                                                                    ",
"                                                                                                                                                                                    ",
"                                              . + @                                                                                                                                 ",
"                                              # $ % & *                                                                                                                             ",
"                                            = - ; > , ' ) !                                                                                                                         ",
"                                              ~ { ] ^ / ( _ :                                                                                                                       ",
"                                                < [ } | 1 2 3 4                                                                                                                     ",
"                                                    5 6 7 8 9 0 a                                                                                                                   ",
"                                                      b c d e f g                                                                                                                   ",
"                                                        h i j k l m                                                                                                                 ",
"                                          n         o p q r s t u v w                                                                                                               ",
"                                            x y   z A B C D E F G H I J K L M N O     P                                                                                             ",
"                                          Q R S T U V W X Y Z `  ...+.@.#.$.%.&.*.=.-.;.>.  ,.'.  ).                                                                                ",
"                                        !.~.{.].^./.(._.:.<.[.c }.|.1.2.3.4.5.6.7.8.9.0.a.b.c.d.e.f.                                                                                ",
"                                        g.h.i.j.k.l.m.j.n.o.p.q.r.s.t.u.v.w.x.y.z.A.B.C.D.E.F.G.H.I.J.                                                                              ",
"                                        K.L.M.N.O.P.Q.R.S.T.U.V.W.X.Y.Z.`. +.+++@+#+$+%+&+*+=+-+;+>+,+                                                                              ",
"                                '+  )+!+~+{+]+^+/+(+_+:+<+[+}+|+1+2+3+4+5+6+7+8+9+0+a+b+c+d+e+f+-+g+h+i+j+                                                                          ",
"                          k+l+m+n+o+p+q+r+s+t+u+8+v+w+x+y+z+A+B+C+D+E+F+G+H+I+J+K+L+M+N+O+P+Q+R+S+T+U+V+W+X+                                                                        ",
"                            Y+Z+`+ @.@+@@@#@$@%@&@*@=@-@;@>@,@'@)@!@~@{@]@^@/@(@_@:@<@[@}@|@1@2@3@4@5@6@7@8@9@                                                                      ",
"                            0@a@b@c@d@e@f@g@h@i@j@k@l@m@n@o@p@q@r@s@t@u@v@w@x@y@z@A@B@C@D@E@F@G@H@I@J@K@L@M@N@W+O@                                                                  ",
"                          P@Q@R@S@T@U@V@W@X@Y@Z@`@ #.#+#@###$#%#&#*#=#-#;#>#,#'#)#!#~#{#]#^#/#(#_#:#0+#+<#[#}#|#1#2#3#                                                              ",
"                          4#5#6#7#8#9#0#a#b#c#d#e#f#g#h#i#j#k#l#m#n#o#p#q#r#s#t#u#v#w#x#y#z#A#B#C#D#E#V@F#C.G#H#I#J#N@                                                              ",
"                          K#L#M#N#O#P#Q#R#S#T#U#V#W#X#Y#Z#`# $.$+$@$#$$$%$&$*$=$-$;$>$,$'$)$!$~${$]$^$P+/$($_$:$<$[$}$|$                                                            ",
"                        1$2$3$4$5$6$7$8$9$0$a$b$c$d$e$f$g$h$i$j$k$l$m$n$o$p$q$r$s$t$u$v$w$x$y$z$A$B$C$D$E$F$G$H$I$J$K$L$  M$                                                        ",
"                        N$4$O$P$Q$R$S$T$U$V$W$X$Y$Z$`$ %.%+%@%#%$%%%&%*%=%-%;%>%,%'%)%!%~%{%]%^%/%(%_%:%<%[%}%|%1%2%3%4%                                                            ",
"                        5%6%7%8%9%0%a%b%c%d%e%f%g%h%i%j%k%l%m%n%o%p%q%r%s%t%u%v%w%x%y%z%A%B%p%C%D%E%F%G%H%&@I%J%K%L%M%N%O%P%Q%R%                                                    ",
"                        U S%T%U%V%W%X%Y%Z%`% &.&+&@&#&$&%&m%&&*&E%p%=&-&;&>&,&'&)&!&~&{&]&^&B%^&/&(&_&:&<&[&}&|&-+1&2&3&4&5&6&7&    8&9&                                            ",
"                0&    a&b&c&d&e&f&g&h&i&j&k&l&m&n&o&p&q&r&s&t&u&v&w&x&y&z&A&B&C&D&E&F&G&q%H&I&J&E%>%K&L&M&N&O&P&#+Q&R&S&T&U&V&  W&X&Y&Z&                                            ",
"                  `& *.*+*@*#*$*%* +&***=*-*;*>*,*'*)*!*~*{*]*^*/*(*_*~%:*<*[*}*|*1*2*3*4*H&n%$%5*6*,$7*8*:&9*0*a*b*c*d*e*f*g*h*i*j*S@k*                                            ",
"                l*m*n*o*p*q*r*s*t*u*v*w*x*y*z*A*B*C*D*E*F*G*H*I*J*K*L*M*N*O*D&P*Q*R*S*T*U*v&%%V*5*W*X*A%Y*Z*`*M+ =.=+=@=#=$=%=&=*=  ==                                              ",
"                  -=;=>=,='=)=!=~=N+{=]=^=/=(=_=:=<=[=}=|=1=2=3=4=5=6=7=8=9=0=a=b=c=d=e=f=*$n%J&l$g=h=i=j=k=l=m=n=o=p=q=r=s=t=u=v=w=x=y=                                            ",
"                  z=A=B=C=D=E=F=G=H=I=J=K=L=M=N=O=P=Q=R=%&S=T=U=V=W=X=Y=Z=`=s% -.-+-@-#-r$$-H&l$l$g=q%%-&-*-=---;->-,-'-)-!-~-{-]-^-/-(-                                            ",
"                  _-:-<-[-}-|-1-2-3-4-5-6-7-8-9-0-a-b-c-d-e-f-g-h-i-j-k-l-m-n-o-p-q-r-s-t-/%B%J&l$u-n%v-w-x-y-z-M+A-B-C-D-E-F-G-H-  3#I-                                            ",
"                J-K-L-M-N-O-P-Q-R-S-T-U-V-W-X-Y-Z-`- ;.;c-$&s&+;@;#;$;v&%;&;*;=;-;;;>;,;';{%B%u-5*);J&!;~;{;];^;/;Q+(;_;:;<;[;};|;  1;                                              ",
"                2;3;4;5;6;Q$7;8;a#9;0;a;b;c;d;e;f;g;h;i;j;%&k;l;m;n;o;%%p;q;r;s;t;u;v;w;x;X*y;$%g=z;l$A;B;C;D;:%D$E;F;C-G;H;I;J;K;L;                                                ",
"                N$M;N;O;P;Q;H.R;S;T;U;V;W;X;Y;Z;f;`; >.>+>j$@>#>$>%>g=H&A%&>*>=>->;>>>,>H;'>y;)>!>{*5*~>{>]>^>^;/>(>_>:>s=<>[>}>|>                                                  ",
"              -=1>2>3>4>R@3.5>S+[%6>7>8>9>0>a>b>f;c>d>e>f>g>h>i>j>]*k>l>m>n>o>p>q>r>s>t>u>v>E%l$w>x>!>y>z>A>B>C>D>%+E>F>G>H>I>J>K>              L>                                  ",
"                M>N>O>F=P>Q>R>t$S>T>U>V>W>X>Y>Z>`>c> ,.,+,@,i;#,G*)>5*g=$,'$F-%,&,*,=,-,;,>,E%u-{*k$,,',),W*^>!,H=~,{,_>],^,/,(,_,:,                                                ",
"                <,[,},|,z.1,N.F$w+2,3,r&g>4,5,6,f;f;7,8,9,0,g>|=l%););g=J&a,b,c,d,e,u>f,g,h,A%J&G*S=x>i,j,k,l,m,n,o,p,q,r,s,t,u,v,w,                                                ",
"                  x,y,I@e+z,A,B,C,D,U>E,o&F,G,H,Z-`>I,O=J,K,L,M,#,,,g=#%g=H&N,O,P,Q,/&R,S,T,q%V*,,S=s&U,V,W,X,Y,Z,`, 'B..'+'@'#'$'                                                  ",
"                  O%%'&'*'='-';'I=>',''')'!'~'{']'^'`>/'('_'@,j$:'k$!>]*l$n%E%<'>%['}'|'1'2'<'v&!>3'4'5'6'7'8'9'0'a'b'c''-d'e'f'g'                                                  ",
"                  h'i'j'k'l'm'n'o'p'q'r's't'u'v'g%w'f;x'y'z't'j;A'e-B'C'D'J&(*E'>%F'G'H'I'J'K'^&g={*L's&M'N'O'P'Q'[%R'S'_>T'U'(,L;V'                                                ",
"                  W'X'Y'B,a'Z'`'I= ).)Y*+)@)#)$)%)&)*)Z-=)8,+&-);)@>>),)w>5*y;q%z%')))!)~){)]%])^)#%/)()_):)<)[)G%c%})F;|)1)2)3)4)5)6)7)                                            ",
"                  8)9)[$0)a)I%w*b)c)d)e)f)>)g) ;h)i)j)k)Z-l)m)n)o)A'p)q)k$,,n%r)K's)t)u)v)w)x)K'B%)>4'4'y)z)A)B)C)D)E)F)G)H)I)J)K)L)M)N)                                            ",
"                  O)P)Q)c@R)S)P+T)U)V)W)X)k;5-j;Y)('Z)`)`>y'O=J,+>M,k%r&L'k$g= !M*.!+!@!#!$!~&r$x&H&m%%!w>&!^&*!C)=!-!;!>!,!'!J))!!!~!{!                                            ",
"                ]!K-^!/!(!_!:!<![!d)}!|!1!2!3!j;j$0,4!*)^'=)5!6!_'7!U-@>8!l%w>)>r)9!<'])0!a!b!y$U*B%c!l%G*d!{>e!A#f!g!h!t*i!j!k!l!m!n!o!                                            ",
"              p!q!r!s!t!u!v!w!x!y!z!A!B!C!D!e-M,M,o)k)E!E!c>0-m)F!t'g>c-|=e-G*D'(*r)<'G!H!I!J!K!L!'$5*4'()J&M!N!O!P!Q!a#R!K%,!S!T!U!V!W!X!                                          ",
"              Y!Z!`! ~.~+~@~#~$~b'%~>'B!Y*&~*~=~;)k%f;E!4!-~;~y'm)6!K,+>h>r&L'G*>~^&,~'~)~!~~~{~]~^~H&m%1=D'/~(~_~:~<~P.[~.+}~|~1~2~3~4~5~                                          ",
"                6~7~8~9~0~a~b~c~d~R+e~f~g~6>h~i~|=|=('^'Z)+%`>j~0-5!k~n)+>h>l~i~l$B%x&z$m~n~o~p~q~r~,~$%s~5*t~p%u~];v~w~F$x~y~z~A~B~C~D~E~                                          ",
"                  F~G~H~C=I~J~K~L~M~N~O~P~Q~R~S~l~e-0,`>4!k)Z$Z$c>=)8,+&7!T~A'8!k>J&'$U~V~W~X~Y~Z~`~ {(*u-H&V*.{+{@{#{${%{&{*{={-{;{>{,{'{){                                        ",
"                  !{~{{{]{^{/{({_{:{F$<{[{}{|{1{q)2{%&3{Z)4!w'Z$Z-;~3{4{_'0,o)A'S=l$(*q%,~5{6{7{8{9{0{,~H&W*5*a{b{c{d{e{f{g{Q+h{i{!-j{k{l{m{                                        ",
"                  (!n{o{p{W%q=q{r{C &+w*s{t{u{v{{*l~L',*c>Z$E!Z$`>c>i)3{4{_'-)M,i~m%J&p%M*w{x{y{z{A{B{C{r)&~l$L*D{E{F{G{H{I{J{`,3*K{L{M{N{O{P{Q{                                    ",
"                  R{S{T{U{V{W{X{Y{Z{`{:# ].]_~+]@]e-S=A'O=&)*)Z)Z$f;#]i)F!J,$]T~r&S=g=y;E%%]]%&]*]=]-];]%]'$(*>],]'])]!]~]{]]]^]/](]_]_]:]<][]}]                                    ",
"                    |]T{1]2]3]4]5]6]7]8]9]0]a]b]y;V*B'/)+>=)`>Z)Z)`>`>j~c]d]$]7!V>i~m%$%e]M*M*K'f]g]h]i]j]]&p%H&k]H&l]m]n]o]6>p]'%q]r]s]d*t]u]v]                                    ",
"                      w]x]T%y]u!z]A]B]C]Q+9*D]m,E]*&S={*#%t';~4!4!k)w'k)F]B*G]H]j;r&L'x>#%v&a,p%I]J]K]L]M]T,M*/%N] !O]P]Q]P~R]9;S]T]B.U]V]W]X]Y]                                    ",
"                        Z]`]T{ ^.^)!F>+^@^#^$^%^&^J&k>)>,,k>O=`>w'E!*^*)k)=^-^g;;^|=q)l%G*l>J&y;x&>^,^'^)^!^~^{^H&1{]^^^9'L&/^=!(^_^:^<^r,[^}^|^                                    ",
"                        1^2^3^4^5^6^7^8^9^0^$^:%9'a^*&)>$%v&q)y'f;Z$b^c^Z)`>d^e^4{j$l~k;f^w>5*n%(*,~g^h^i^j^k^l^A%>~m^n^o^p^q^r^s^t^>-u^,-v^w^x^y^                                  ",
"                        z^A^T%>=B^C^N;D^E^1@F^[&G^H^m%J&p%I^J^0,l)j~K^*^E!Z)Z-L^m)7!k%#,8!S=m%5**&'$M^N^O^P^Q^R^])$-v&9!%%S^T^U>/;U^n=W@V^W^L%W^t*X^1;                              ",
"                          Y^Z]Z^`^ /./+/J%@/#/$/%/&/(^J&w&*/i=$%n)l)k)*)K^b^4!Z$l)=/n)j$-/i>4'w>V*a,q%;/>/,/'/)/u$])U*p%'$x&!/~/%/{/]/^/&'//(/_/:/</[/                              ",
"                          }/|/Z^1/M;y^2/3/4/5/6/7/8/9/w>0/{^w&a/*&,*0-b/c/c/b^c/k);~5!n&-)j%l~l%!>u-a,d/e/f/g/h/i/j/l^~%A%~%k/l/U>m/n/o/p/q/q]r/s/t/                                ",
"                          u/v/w/^!x/y/z/A/B/y!v+C/D/E/F/W,G/H//&C% !K,=)j~k)E!I/E!`>i)J/F!K,T~V>k;m%u->~p%/%C{K/L/M/N/K'K'~%*$])O/P/Q/R/S/T/o,U/O>V/W/                              ",
"                            X/Y/Z/&=`/ (<^.(+(@(#($(%(&(*(=(-(,~;(>(,(T~y'j~k)'(*^Z)`>=)l)H]K,5-V>e-G*{*s~%%(*<')(!(~({(z%K'<'A%,~b,](^(/(((_(1%:(<(  [(                            ",
"                              }(|(A^1(2(_$3(4(t^5(6(7(8(9(0(a(G&n>b(c(d(t'y';~k)I/c/4!f;Z-3{H]K,j$@>e-q)k$w>J&(*e(f(g(h(i(j(k(l^/%4*<'l(m(n(b+2%';o(p(    q(                        ",
"                                r(s(t(c@u(v(w(0*x(y(z(A(B(C(D(t~>({&E(F(3'4{O=G(Z$4!4!^'k)c>0-=/H(j;k%r&I(k$);*&'$.!J(K(L(M(N(O(K'K'K'<'%]H/P(}%Q(R(    S(                          ",
"                                  T(U(V(W(})X(Y(Z(`(**g~ _._+_y;@_#_j/$_r)#,%_3{G(Z$w'w'4!f;G(y'F!$]j;;)p)q)k$D'&_*_E'=_-_;_0=>_,_'_{&4*)_K'!_~_*{{_                                ",
"                                ]_^_/_(___:_<_[_}_/(T>k@|_1_2_3_E%r)4_5_b(B%6_F!j~=)j~f;w'Z$k)G(O=H];^t'j;k%i>l%s&g=7_^&U*f=8_9_7{0_a_b_k(K'K'c_d_e_                                ",
"                                f_g_h_i_j_o,k_l_m_n_o_p_q_r_s_t_u_v&]^v_w_x_'$i>=/5!i)&)k)w'4!k)G(3{H]=/n&+>A'8!:'k;4's&l$n%p%%]y_z_h/A_K'B_C_D_C{E_F_                              ",
"                                `]G_H_I_W^J_K_@@L_M_N_O_P_Q_R_S_T_U_V_()n%W_X_L!V*t'8,G(Z$k)k)Z$^'`>=)j~F]=/0,5-j;h>-/V>Y_i>4'w>o%Z_<'`_ :.:+:@:#:$:%:&:*:                          ",
"                                  =:-:;:>:,:':v!):2]!:B/~:{:]:^:/:(:_:::<:i>k]a/[:i=h>=/l)f;^'}:b^E!f;Z$&)G(i)|:(',*7!$]t'-)j;;)8!k$,,V*1:2:3:4:5:6:7:8:9:0:                        ",
"                                    a:{{':b:c:d:e:f:g:h:j'}%i:j:k:l:m:n:o:$]j%e-p:q:r:)>R==/=)k)c/4!Z)c/E!+%w's:&)G(t:5!5!5!O=('t'-)h>l~4'y;u:v:w:(&i=M*x:y:                        ",
"                                    z:A:c~B:C:D:E:F:G:H:I:J:a#E)K:}@L:M:N:O:0,t'g>P:a/Q:R:S:5-J,y'`>^'b^}:I/c/Z)c/4!Z)E!w'f;Z$`>T:G(U:F!0,j$|=L'k$i>V:+>W:X:                        ",
"                                      Y:Z:`: <.<+<F:@<U+q/#<(;F)o,u*$<%<=!&<*<=<;^$]/)-<;<><,<L';^=/&)w''<b^*^I/)<!<)<!<)<b^*^b^b^c/Z)^'k)Z-Z-f;k)I/~<{<]<                          ",
"                                      ^</<(<_<:<<<[<}<|<1<2<a*W^3<|&4<^]R/5<6<7<8<F!H]j;s&9<0<a<b<g=@&;^l)#]E!b^c<d<)<e<f<g<)<h<!<!<f<f<i<j<k<l<m<e<b^k)n<                          ",
"                                        o<p<q<r<s<t<u<v<1<w<x<y<z<A<B<C<D<^]E<F<G<H<I<@,4{K,5-s&J<K<L<M<k;@&J,O=l)c>^'N<!<)<)<O<P<j<Q<l<m<R<S<T<P<~<U<                              ",
"                                            V<W<X<8~Y<Z<`< [.[):+[@[#[$[%[&[2@^]*[`(=[-[;[>[K,K,5-,['[v$)[&>![~[{[3'][J,l)f;w'E!E!~<e<T<k<N<I/^[Z$/[                                ",
"                                                ([_[:[<[[[}[|[1[1[2[3[4[5[6[7[8[9[s^0[7/a[b[c[d[,*,*g>c!e[B%u:f[g[h[i[j[k[l[m[n[j$o[p[q[r[s[t[u[v[                                  ",
"                                                    w[x[y[z[A[a~B[C[D[E[D=F[G[H[P.I[`'`'{/a[J[K[L[M[g%N[O[@,i>)>P[Q[R[>$S[V*S~k$c!;)T[U[V[W[X[                                      ",
"                                                        Y[Z[H~`[e: }.}+}@}#}$}%}&}*}=}(#Z,-};}>},}'})}!}~}{}V>=)]}O<^}m)8,l)b^!</}I/(}_}                                            ",
"                                                          :}<}^_[}}}|}1}5$2}3}4}:{M.5}6}7}8}S>c#9}0}<@a}b}c}d}e}f}g}h}i}j}N.k}l}m}n}o}                                              ",
"                                                                p}q}r<r}s}t}u}v}w}x}y}z}A}B}C}4(D}E}a'F}G}H}I}J}K}L}M}N}O}P}Q}R}S}                                                  ",
"                                                                        T}U}V}u}W}X}Y}Z}`} |1,M_|,a%a%.|+|@|#|$|1-P#W %|&|*|=|                                                      ",
"                                                                              -|8);|>|,|'|)|!|3.~|P-{|]|^|/|(|_|:|<|[|}|                                                            ",
"                                                                                  ||1|>|2|3|4|(!5|K-`](!6|7|T(^!8|9|                                                                ",
"                                                                                            0|a|b|c|d|e|f|g|h|d|i|                                                                  ",
"                                                                                                                                                                                    ",
"                                                                                                                                                                                    ",
"                                                                                                                                                                                    ",
"                                                                                                                                                                                    ",
"                                                                                                                                                                                    ",
"                                                                                                                                                                                    ",
"                                                                                                                                                                                    ",
"                                                                                                                                                                                    ",
"                                                                                                                                                                                    ",
"                                                                                                                                                                                    ",
"                                                                                                                                                                                    "};
