/* XPM */
static char * chili_7_xpm[] = {
"90 100 2591 2",
"  	c None",
". 	c #F8DA31",
"+ 	c #CECD0D",
"@ 	c #E9D920",
"# 	c #DDCD1F",
"$ 	c #C1AC0E",
"% 	c #B48A22",
"& 	c #A37F1A",
"* 	c #D0C014",
"= 	c #D5C21B",
"- 	c #BCA81C",
"; 	c #5F570B",
"> 	c #7F6E12",
", 	c #DCCC16",
"' 	c #ADA40A",
") 	c #D4CB39",
"! 	c #807A0C",
"~ 	c #2F3501",
"{ 	c #2D2907",
"] 	c #92581B",
"^ 	c #A99F0A",
"/ 	c #BEB519",
"( 	c #BAB622",
"_ 	c #594E00",
": 	c #3A3A03",
"< 	c #202702",
"[ 	c #73530E",
"} 	c #888307",
"| 	c #A39F23",
"1 	c #B9BE27",
"2 	c #575A02",
"3 	c #323700",
"4 	c #0B2400",
"5 	c #EB331B",
"6 	c #FC461C",
"7 	c #EE4A20",
"8 	c #F03319",
"9 	c #EB3219",
"0 	c #704B0E",
"a 	c #7D740D",
"b 	c #656905",
"c 	c #B1B42D",
"d 	c #84850F",
"e 	c #464004",
"f 	c #222601",
"g 	c #EB3019",
"h 	c #EF331F",
"i 	c #F02F1B",
"j 	c #F13019",
"k 	c #F12D19",
"l 	c #F7321B",
"m 	c #F3311A",
"n 	c #F2311A",
"o 	c #EB3C1E",
"p 	c #6D430F",
"q 	c #524700",
"r 	c #534C03",
"s 	c #B9B73D",
"t 	c #8A8811",
"u 	c #3F3E03",
"v 	c #273405",
"w 	c #EE2E19",
"x 	c #F32919",
"y 	c #F12918",
"z 	c #F62D17",
"A 	c #FA2F16",
"B 	c #F62F18",
"C 	c #FD3217",
"D 	c #F52C12",
"E 	c #F52A13",
"F 	c #F53117",
"G 	c #F12E1A",
"H 	c #EF351A",
"I 	c #ED3B1D",
"J 	c #483D01",
"K 	c #5E600C",
"L 	c #686C0E",
"M 	c #888511",
"N 	c #524F02",
"O 	c #383102",
"P 	c #C5421E",
"Q 	c #E03119",
"R 	c #DF2F1A",
"S 	c #E42C1A",
"T 	c #E12919",
"U 	c #E32C1B",
"V 	c #DF331B",
"W 	c #EF311C",
"X 	c #F93019",
"Y 	c #F42F1B",
"Z 	c #F82D19",
"` 	c #F52E1B",
" .	c #FB3517",
"..	c #FC3514",
"+.	c #FC3315",
"@.	c #FF3B15",
"#.	c #FC3715",
"$.	c #FB3315",
"%.	c #FC3C17",
"&.	c #FA3C16",
"*.	c #F8441C",
"=.	c #EF3D17",
"-.	c #EF4922",
";.	c #263202",
">.	c #353100",
",.	c #545305",
"'.	c #ABB434",
").	c #5F5E08",
"!.	c #423B01",
"~.	c #292700",
"{.	c #E8321D",
"].	c #DA2812",
"^.	c #E02817",
"/.	c #DE2214",
"(.	c #E92619",
"_.	c #E1281B",
":.	c #E62B18",
"<.	c #E42E1B",
"[.	c #E62E1A",
"}.	c #F4301B",
"|.	c #FC3616",
"1.	c #F4311B",
"2.	c #F02E18",
"3.	c #F42C17",
"4.	c #F63118",
"5.	c #FB3D16",
"6.	c #FE3D15",
"7.	c #FF4117",
"8.	c #FF4918",
"9.	c #FF4C16",
"0.	c #FD4915",
"a.	c #FE4E16",
"b.	c #FE4A15",
"c.	c #FC521B",
"d.	c #FE4E1E",
"e.	c #442504",
"f.	c #443C02",
"g.	c #434106",
"h.	c #828424",
"i.	c #9EA021",
"j.	c #434002",
"k.	c #342F01",
"l.	c #2C2903",
"m.	c #E32D16",
"n.	c #D92411",
"o.	c #E62514",
"p.	c #E22515",
"q.	c #EA2716",
"r.	c #E52918",
"s.	c #E92918",
"t.	c #E62B1A",
"u.	c #EA2F1B",
"v.	c #E4331D",
"w.	c #EE2919",
"x.	c #EF291A",
"y.	c #FF3D11",
"z.	c #FF8635",
"A.	c #FB2E18",
"B.	c #EE301E",
"C.	c #EA2C1C",
"D.	c #F52B16",
"E.	c #F82D15",
"F.	c #FD3A15",
"G.	c #FF4715",
"H.	c #FF4D18",
"I.	c #FF4F17",
"J.	c #FF5A16",
"K.	c #FF6319",
"L.	c #FF681A",
"M.	c #FF5C17",
"N.	c #FF5F18",
"O.	c #F96B1B",
"P.	c #5F3B06",
"Q.	c #554309",
"R.	c #373300",
"S.	c #4F4F03",
"T.	c #8C912C",
"U.	c #6F730A",
"V.	c #3E3A02",
"W.	c #312B02",
"X.	c #533005",
"Y.	c #E52814",
"Z.	c #DD2214",
"`.	c #E02515",
" +	c #E92715",
".+	c #ED2816",
"++	c #E92817",
"@+	c #EC291A",
"#+	c #E42215",
"$+	c #EA2718",
"%+	c #E7331C",
"&+	c #EE2C1C",
"*+	c #F33019",
"=+	c #FF7A22",
"-+	c #FED068",
";+	c #FE2D0F",
">+	c #F4311A",
",+	c #EF2F1D",
"'+	c #E92616",
")+	c #F42B15",
"!+	c #F83118",
"~+	c #FE4017",
"{+	c #FF5417",
"]+	c #FF5916",
"^+	c #FF641A",
"/+	c #FF671B",
"(+	c #FF701B",
"_+	c #FF7820",
":+	c #FF6E1B",
"<+	c #FF6F1D",
"[+	c #F68C22",
"}+	c #61550A",
"|+	c #4E4904",
"1+	c #312F00",
"2+	c #505306",
"3+	c #B2B84A",
"4+	c #8A8D1F",
"5+	c #413F02",
"6+	c #2E2A01",
"7+	c #172400",
"8+	c #EB2D14",
"9+	c #E62613",
"0+	c #E62A14",
"a+	c #EF2E15",
"b+	c #F32F15",
"c+	c #F02A18",
"d+	c #F22C18",
"e+	c #E92618",
"f+	c #E8341F",
"g+	c #E62A1D",
"h+	c #E82B1C",
"i+	c #ED2A1E",
"j+	c #F22B19",
"k+	c #FF4910",
"l+	c #FF7924",
"m+	c #EE2615",
"n+	c #E62317",
"o+	c #E32418",
"p+	c #E92717",
"q+	c #F52E1A",
"r+	c #FC3D15",
"s+	c #FE6317",
"t+	c #FF6D1B",
"u+	c #FF791E",
"v+	c #FF7C1E",
"w+	c #FF7D1E",
"x+	c #FC8F22",
"y+	c #F09824",
"z+	c #8A680F",
"A+	c #62510A",
"B+	c #5E550A",
"C+	c #3F3A02",
"D+	c #525208",
"E+	c #8C9231",
"F+	c #CDD55E",
"G+	c #85861F",
"H+	c #3C3801",
"I+	c #312A00",
"J+	c #1E1700",
"K+	c #EC320D",
"L+	c #F02E0E",
"M+	c #F63112",
"N+	c #FC3713",
"O+	c #F93212",
"P+	c #F62E14",
"Q+	c #F22912",
"R+	c #FA3415",
"S+	c #F72B16",
"T+	c #E82C1B",
"U+	c #E4291B",
"V+	c #E62D1C",
"W+	c #E9291A",
"X+	c #EB291B",
"Y+	c #EC2A18",
"Z+	c #F52C19",
"`+	c #EF2715",
" @	c #EB2617",
".@	c #E12318",
"+@	c #E72618",
"@@	c #EF2D16",
"#@	c #F93516",
"$@	c #FF4B18",
"%@	c #FF631B",
"&@	c #FF761F",
"*@	c #FF7C20",
"=@	c #FF8120",
"-@	c #FD962D",
";@	c #9A5709",
">@	c #403A00",
",@	c #6D6112",
"'@	c #6F640E",
")@	c #585105",
"!@	c #585506",
"~@	c #3E3900",
"{@	c #515207",
"]@	c #979C36",
"^@	c #BECA53",
"/@	c #545603",
"(@	c #3A3500",
"_@	c #2E2A00",
":@	c #392E00",
"<@	c #FF4417",
"[@	c #F4340E",
"}@	c #FC3A13",
"|@	c #FD3B11",
"1@	c #FE3613",
"2@	c #FB3515",
"3@	c #FD3814",
"4@	c #FF4515",
"5@	c #FC4420",
"6@	c #ED2F1C",
"7@	c #E72B1C",
"8@	c #EC2A1C",
"9@	c #E9291E",
"0@	c #E9291B",
"a@	c #E2231B",
"b@	c #EA281C",
"c@	c #EB281B",
"d@	c #EE2717",
"e@	c #E92419",
"f@	c #F32C19",
"g@	c #F83418",
"h@	c #F73316",
"i@	c #FF4F14",
"j@	c #FF7021",
"k@	c #FF7F24",
"l@	c #FE841F",
"m@	c #ED932A",
"n@	c #583F08",
"o@	c #6D570D",
"p@	c #85711E",
"q@	c #574D08",
"r@	c #675810",
"s@	c #605B08",
"t@	c #555304",
"u@	c #393700",
"v@	c #505206",
"w@	c #BBC453",
"x@	c #A5AE36",
"y@	c #575B06",
"z@	c #3C3A00",
"A@	c #2D2900",
"B@	c #493800",
"C@	c #1B2200",
"D@	c #F53D0E",
"E@	c #FC3F13",
"F@	c #FE3D16",
"G@	c #FF3A15",
"H@	c #FF4316",
"I@	c #FE3D18",
"J@	c #FF5014",
"K@	c #EE2415",
"L@	c #EE2E1C",
"M@	c #EB301D",
"N@	c #E4301C",
"O@	c #E6281B",
"P@	c #EF2B19",
"Q@	c #E32717",
"R@	c #E52418",
"S@	c #EA2416",
"T@	c #E82618",
"U@	c #F12D17",
"V@	c #F22E16",
"W@	c #FB3715",
"X@	c #FF4314",
"Y@	c #FE4618",
"Z@	c #FF5A18",
"`@	c #FF671C",
" #	c #FE8420",
".#	c #F8821D",
"+#	c #321400",
"@#	c #6B5807",
"##	c #807218",
"$#	c #473C02",
"%#	c #544907",
"&#	c #6B620D",
"*#	c #494404",
"=#	c #948D18",
"-#	c #483A03",
";#	c #9A9D2A",
">#	c #858919",
",#	c #8D891B",
"'#	c #898B1A",
")#	c #777C13",
"!#	c #494A03",
"~#	c #323001",
"{#	c #544602",
"]#	c #2E3100",
"^#	c #FB4813",
"/#	c #FC4416",
"(#	c #FA4014",
"_#	c #FD3916",
":#	c #FD3817",
"<#	c #F32D1A",
"[#	c #EA2619",
"}#	c #E62717",
"|#	c #EC281A",
"1#	c #EA2C1B",
"2#	c #EC2A1B",
"3#	c #EF2E1B",
"4#	c #E72A1B",
"5#	c #ED2B19",
"6#	c #F22F19",
"7#	c #EF2619",
"8#	c #EF2916",
"9#	c #F32C17",
"0#	c #FB3717",
"a#	c #FE4315",
"b#	c #FF5217",
"c#	c #FF5616",
"d#	c #FF691B",
"e#	c #FF721E",
"f#	c #FEB12F",
"g#	c #E3554F",
"h#	c #F93639",
"i#	c #A60001",
"j#	c #3A0600",
"k#	c #4B0900",
"l#	c #380400",
"m#	c #471101",
"n#	c #421700",
"o#	c #6C1C00",
"p#	c #5F1300",
"q#	c #2E1100",
"r#	c #574E01",
"s#	c #6D6308",
"t#	c #5C5B02",
"u#	c #474401",
"v#	c #6B7709",
"w#	c #353200",
"x#	c #4C4003",
"y#	c #74660D",
"z#	c #5F4F02",
"A#	c #83390C",
"B#	c #FD4A14",
"C#	c #FC4414",
"D#	c #FE3C15",
"E#	c #F02B17",
"F#	c #ED2A1A",
"G#	c #E72717",
"H#	c #F02A1B",
"I#	c #F12C18",
"J#	c #F6311A",
"K#	c #F9351F",
"L#	c #E92A1D",
"M#	c #E3291B",
"N#	c #F33017",
"O#	c #EF2617",
"P#	c #F02817",
"Q#	c #F33118",
"R#	c #FB3415",
"S#	c #FD3D15",
"T#	c #FF4E16",
"U#	c #FF611B",
"V#	c #FF6B19",
"W#	c #FF791A",
"X#	c #FB670F",
"Y#	c #F57376",
"Z#	c #EE4C5D",
"`#	c #C40004",
" $	c #C90000",
".$	c #B80000",
"+$	c #CE0000",
"@$	c #D30000",
"#$	c #E60000",
"$$	c #CF0000",
"%$	c #CA0000",
"&$	c #B90000",
"*$	c #D40001",
"=$	c #D00000",
"-$	c #410A01",
";$	c #450B00",
">$	c #361800",
",$	c #351D00",
"'$	c #381300",
")$	c #321D00",
"!$	c #7D6F0E",
"~$	c #726303",
"{$	c #442D00",
"]$	c #FF7919",
"^$	c #F95B14",
"/$	c #FF4514",
"($	c #F83113",
"_$	c #F22A16",
":$	c #F12818",
"<$	c #FA3115",
"[$	c #FD3915",
"}$	c #FF3812",
"|$	c #F93517",
"1$	c #E7281C",
"2$	c #E7291C",
"3$	c #E6291C",
"4$	c #E6261A",
"5$	c #F83719",
"6$	c #F82B16",
"7$	c #F93514",
"8$	c #FF3C17",
"9$	c #FD4416",
"0$	c #FF5A19",
"a$	c #FF691C",
"b$	c #FC781D",
"c$	c #FB5F0F",
"d$	c #FF7D82",
"e$	c #F0626D",
"f$	c #DE1C31",
"g$	c #D90000",
"h$	c #DF0000",
"i$	c #F10000",
"j$	c #FC0100",
"k$	c #FF0000",
"l$	c #FC0700",
"m$	c #FE0400",
"n$	c #FD0200",
"o$	c #EB0000",
"p$	c #C30000",
"q$	c #7F0100",
"r$	c #800400",
"s$	c #640500",
"t$	c #570700",
"u$	c #352600",
"v$	c #442B00",
"w$	c #6A0500",
"x$	c #6D1300",
"y$	c #FA6316",
"z$	c #FE3B14",
"A$	c #FB3313",
"B$	c #FD3316",
"C$	c #FE3D14",
"D$	c #FF3815",
"E$	c #F82F18",
"F$	c #F43019",
"G$	c #FF631F",
"H$	c #E5221A",
"I$	c #E9261B",
"J$	c #E5271D",
"K$	c #E2261A",
"L$	c #E92819",
"M$	c #F83018",
"N$	c #FD3818",
"O$	c #FF4317",
"P$	c #FF4F19",
"Q$	c #FF681D",
"R$	c #FF7520",
"S$	c #FEA631",
"T$	c #FE6679",
"U$	c #F86269",
"V$	c #ED4B5E",
"W$	c #BC0000",
"X$	c #C60000",
"Y$	c #DA0000",
"Z$	c #E20000",
"`$	c #F40000",
" %	c #F70000",
".%	c #FE0000",
"+%	c #FF0200",
"@%	c #FF0D00",
"#%	c #FF4E2A",
"$%	c #FF5E30",
"%%	c #FF1100",
"&%	c #DE0000",
"*%	c #C70000",
"=%	c #B70000",
"-%	c #B90100",
";%	c #BD0001",
">%	c #9C0000",
",%	c #F00000",
"'%	c #A70503",
")%	c #FE9C28",
"!%	c #FF5A17",
"~%	c #FF4615",
"{%	c #FF3615",
"]%	c #F02C1A",
"^%	c #F6321E",
"/%	c #EF2B18",
"(%	c #FCA03E",
"_%	c #EC2D1D",
":%	c #E6251B",
"<%	c #E7261D",
"[%	c #DD261B",
"}%	c #D8221C",
"|%	c #E1241A",
"1%	c #F73019",
"2%	c #FB3314",
"3%	c #FE5016",
"4%	c #FF6418",
"5%	c #FF761D",
"6%	c #FF8721",
"7%	c #C20000",
"8%	c #F46162",
"9%	c #F3535A",
"0%	c #E51B34",
"a%	c #C50000",
"b%	c #CC0000",
"c%	c #DC0001",
"d%	c #F50000",
"e%	c #FF0300",
"f%	c #FF1605",
"g%	c #FF351B",
"h%	c #FF5139",
"i%	c #FF5435",
"j%	c #FF5637",
"k%	c #FF3D26",
"l%	c #EE0000",
"m%	c #D60000",
"n%	c #D10000",
"o%	c #CA0001",
"p%	c #FF2803",
"q%	c #FF2700",
"r%	c #EE0901",
"s%	c #BF3809",
"t%	c #FF6A18",
"u%	c #FF5615",
"v%	c #FF4312",
"w%	c #FC3312",
"x%	c #FB3016",
"y%	c #EA2517",
"z%	c #EB2E1D",
"A%	c #FC3618",
"B%	c #E5271A",
"C%	c #E4241A",
"D%	c #E4271B",
"E%	c #D92019",
"F%	c #E2251A",
"G%	c #F62A17",
"H%	c #FF3A17",
"I%	c #FF5C16",
"J%	c #FF701F",
"K%	c #F34410",
"L%	c #F87C77",
"M%	c #F45C63",
"N%	c #EE414F",
"O%	c #B30001",
"P%	c #D40000",
"Q%	c #E50000",
"R%	c #FC0500",
"S%	c #FF1402",
"T%	c #FF2A0B",
"U%	c #FF6042",
"V%	c #FFA082",
"W%	c #FFA98C",
"X%	c #FF9B7D",
"Y%	c #FF9F81",
"Z%	c #FF7A61",
"`%	c #FF1C0B",
" &	c #E70000",
".&	c #E30000",
"+&	c #C80001",
"@&	c #FF2400",
"#&	c #FF2F03",
"$&	c #FA1402",
"%&	c #590001",
"&&	c #FF7219",
"*&	c #FF5B13",
"=&	c #FF4713",
"-&	c #FF3415",
";&	c #F72E16",
">&	c #F62B18",
",&	c #EC2619",
"'&	c #EE2C1B",
")&	c #E3271A",
"!&	c #E6281C",
"~&	c #DB221A",
"{&	c #FF4116",
"]&	c #FF4A15",
"^&	c #FF6519",
"/&	c #FF7522",
"(&	c #FDA630",
"_&	c #D50A23",
":&	c #F15661",
"<&	c #EE4C56",
"[&	c #E1122B",
"}&	c #DC0000",
"|&	c #EA0000",
"1&	c #FD0802",
"2&	c #FF240A",
"3&	c #FF2507",
"4&	c #FF9272",
"5&	c #FFCFAE",
"6&	c #FFCCAD",
"7&	c #FFBCA2",
"8&	c #FFA080",
"9&	c #FF8365",
"0&	c #FF3E29",
"a&	c #F80000",
"b&	c #EB0301",
"c&	c #E10001",
"d&	c #CB0000",
"e&	c #FF1B00",
"f&	c #FF3201",
"g&	c #F71000",
"h&	c #BC0002",
"i&	c #FD9423",
"j&	c #FF6517",
"k&	c #FF4B14",
"l&	c #FD3413",
"m&	c #FB3218",
"n&	c #FA2C17",
"o&	c #F12A17",
"p&	c #E4271A",
"q&	c #EC2C1C",
"r&	c #E6261B",
"s&	c #F22D1A",
"t&	c #FF4614",
"u&	c #FF5316",
"v&	c #FF6E1A",
"w&	c #FF7A20",
"x&	c #D41100",
"y&	c #F2495D",
"z&	c #EE6064",
"A&	c #E33047",
"B&	c #BD0000",
"C&	c #EC0000",
"D&	c #FF0B00",
"E&	c #FF1C04",
"F&	c #FF2408",
"G&	c #FF9C7E",
"H&	c #FFC0A4",
"I&	c #FECBAF",
"J&	c #FEC3A5",
"K&	c #FF9C7F",
"L&	c #FF6E51",
"M&	c #FF462E",
"N&	c #FC0000",
"O&	c #ED0000",
"P&	c #DD0201",
"Q&	c #F20501",
"R&	c #E10100",
"S&	c #FE2102",
"T&	c #FF3603",
"U&	c #F90A00",
"V&	c #F90401",
"W&	c #FDA728",
"X&	c #FF7319",
"Y&	c #FF5514",
"Z&	c #FE3714",
"`&	c #FC3015",
" *	c #F42815",
".*	c #EE2819",
"+*	c #F52B1C",
"@*	c #F52F1D",
"#*	c #F12C1B",
"$*	c #E6281D",
"%*	c #E82A1A",
"&*	c #EC2D1A",
"**	c #E92A1A",
"=*	c #FF3D16",
"-*	c #FF4D14",
";*	c #FF5918",
">*	c #FF711D",
",*	c #FF7E22",
"'*	c #CC000C",
")*	c #EA4A5C",
"!*	c #EB535D",
"~*	c #D10F2A",
"{*	c #B60000",
"]*	c #BB0000",
"^*	c #ED0100",
"/*	c #FD0502",
"(*	c #FF1701",
"_*	c #FF4729",
":*	c #FFAF91",
"<*	c #FEC7A7",
"[*	c #FFCEB1",
"}*	c #FFC3A4",
"|*	c #FF9374",
"1*	c #FF6F53",
"2*	c #FF1A0A",
"3*	c #F90000",
"4*	c #E50100",
"5*	c #EC0301",
"6*	c #E10201",
"7*	c #CD0000",
"8*	c #FF1C00",
"9*	c #FF3302",
"0*	c #F40600",
"a*	c #FA0502",
"b*	c #FCA727",
"c*	c #FF7B1B",
"d*	c #FF3715",
"e*	c #FE2F16",
"f*	c #F72A17",
"g*	c #F42617",
"h*	c #F12C1A",
"i*	c #F32A1B",
"j*	c #EC2C1A",
"k*	c #DC281E",
"l*	c #DF291D",
"m*	c #E7291D",
"n*	c #EE2B1B",
"o*	c #F32F17",
"p*	c #FF4215",
"q*	c #FF5416",
"r*	c #FF621A",
"s*	c #FF751B",
"t*	c #FDA32F",
"u*	c #DE314C",
"v*	c #E14859",
"w*	c #E04750",
"x*	c #B5000B",
"y*	c #B70002",
"z*	c #C10000",
"A*	c #EF0000",
"B*	c #FF1E09",
"C*	c #FF5F39",
"D*	c #FFC6AC",
"E*	c #FEBFA2",
"F*	c #FFB495",
"G*	c #FF8B6E",
"H*	c #FF765A",
"I*	c #FF6C50",
"J*	c #FF1204",
"K*	c #E10000",
"L*	c #F91E00",
"M*	c #FD2300",
"N*	c #D60300",
"O*	c #E90700",
"P*	c #FE9C27",
"Q*	c #FF821B",
"R*	c #FF651B",
"S*	c #FF3F14",
"T*	c #FE3114",
"U*	c #F82C17",
"V*	c #F32818",
"W*	c #E92119",
"X*	c #EB2317",
"Y*	c #F02B19",
"Z*	c #E0281C",
"`*	c #E2281C",
" =	c #E62719",
".=	c #E7261A",
"+=	c #E42519",
"@=	c #EA2819",
"#=	c #F73118",
"$=	c #FF5715",
"%=	c #FF651A",
"&=	c #FF751A",
"*=	c #F0370A",
"==	c #D9374F",
"-=	c #DD4356",
";=	c #DC3648",
">=	c #AD0005",
",=	c #B30000",
"'=	c #C40000",
")=	c #D50000",
"!=	c #E40000",
"~=	c #FF250A",
"{=	c #FF4A23",
"]=	c #FF8265",
"^=	c #FF775B",
"/=	c #FF6643",
"(=	c #FF8062",
"_=	c #FF8D6F",
":=	c #FF553B",
"<=	c #FF1405",
"[=	c #F60000",
"}=	c #E80000",
"|=	c #BE0000",
"1=	c #F31200",
"2=	c #FA1100",
"3=	c #BA0000",
"4=	c #DC0200",
"5=	c #FD841D",
"6=	c #FF831D",
"7=	c #FF6318",
"8=	c #FF3D13",
"9=	c #FE3614",
"0=	c #F92B16",
"a=	c #EF2618",
"b=	c #EB2016",
"c=	c #FB3516",
"d=	c #EC2D1C",
"e=	c #E82D1E",
"f=	c #E8291D",
"g=	c #E92E1F",
"h=	c #F7311C",
"i=	c #EA2A1B",
"j=	c #E02017",
"k=	c #EB281A",
"l=	c #EC2719",
"m=	c #F83417",
"n=	c #FF4914",
"o=	c #FF5D19",
"p=	c #FF7A1A",
"q=	c #A30002",
"r=	c #D8364D",
"s=	c #DA3D52",
"t=	c #D3223D",
"u=	c #AD0003",
"v=	c #B20000",
"w=	c #D70000",
"x=	c #FD0000",
"y=	c #FF1203",
"z=	c #FF2508",
"A=	c #FF341C",
"B=	c #FF4323",
"C=	c #FF6143",
"D=	c #FF7E5D",
"E=	c #FF5C3B",
"F=	c #FF5539",
"G=	c #FF1406",
"H=	c #D80000",
"I=	c #BF0000",
"J=	c #F40C00",
"K=	c #F30700",
"L=	c #FE8B1F",
"M=	c #FF7F1C",
"N=	c #FF6218",
"O=	c #FF3F13",
"P=	c #FD3715",
"Q=	c #F92F16",
"R=	c #EE2617",
"S=	c #F42B18",
"T=	c #EC2D19",
"U=	c #E52E1D",
"V=	c #DF2B1D",
"W=	c #ED291B",
"X=	c #E8281B",
"Y=	c #E72619",
"Z=	c #FE421D",
"`=	c #F32B16",
" -	c #EC2417",
".-	c #EB2918",
"+-	c #ED2C1A",
"@-	c #FB3A14",
"#-	c #FF4E15",
"$-	c #FF6219",
"%-	c #FC9E26",
"&-	c #B4000C",
"*-	c #D63E52",
"=-	c #D33249",
"--	c #CE0F33",
";-	c #AB0000",
">-	c #AF0000",
",-	c #FB0100",
"'-	c #FF0E00",
")-	c #FE0E00",
"!-	c #FF0901",
"~-	c #FF200B",
"{-	c #FF4529",
"]-	c #FE6B4E",
"^-	c #FF5C3D",
"/-	c #FF4D2E",
"(-	c #FF0800",
"_-	c #D80001",
":-	c #F70401",
"<-	c #D90100",
"[-	c #FFA12B",
"}-	c #FE811D",
"|-	c #FF6417",
"1-	c #FF4613",
"2-	c #FC3B14",
"3-	c #F02A1A",
"4-	c #ED2618",
"5-	c #F52F1E",
"6-	c #E82D1A",
"7-	c #EA2B1A",
"8-	c #F22B1C",
"9-	c #E7271A",
"0-	c #E6271C",
"a-	c #E42A1E",
"b-	c #F02F1A",
"c-	c #EC2519",
"d-	c #F12915",
"e-	c #F62A18",
"f-	c #F22D17",
"g-	c #F53017",
"h-	c #FC4115",
"i-	c #FF5315",
"j-	c #FF661D",
"k-	c #FF721B",
"l-	c #FF7D17",
"m-	c #C50823",
"n-	c #D53A51",
"o-	c #CE2F48",
"p-	c #C80B2D",
"q-	c #AA0001",
"r-	c #FE0D00",
"s-	c #FF1201",
"t-	c #FF3116",
"u-	c #FF4C2F",
"v-	c #FF2B12",
"w-	c #FF4226",
"x-	c #FE4226",
"y-	c #FF3417",
"z-	c #FF0500",
"A-	c #D20000",
"B-	c #CB0100",
"C-	c #EF0301",
"D-	c #C80000",
"E-	c #FFAF2C",
"F-	c #FF801B",
"G-	c #FF6818",
"H-	c #FF4712",
"I-	c #FA3414",
"J-	c #F42818",
"K-	c #F02D1C",
"L-	c #ED2C1C",
"M-	c #EC2B1D",
"N-	c #E92816",
"O-	c #E12B1E",
"P-	c #F1281A",
"Q-	c #E4271E",
"R-	c #EC2917",
"S-	c #F02617",
"T-	c #F12A16",
"U-	c #F42C16",
"V-	c #F63116",
"W-	c #FD3E16",
"X-	c #FE4913",
"Y-	c #FF5819",
"Z-	c #FF6A1A",
"`-	c #FF711A",
" ;	c #BC0600",
".;	c #C2042F",
"+;	c #CE3149",
"@;	c #CC2B43",
"#;	c #BE0524",
"$;	c #A70000",
"%;	c #FE0300",
"&;	c #FE1703",
"*;	c #FF8768",
"=;	c #FF7D5E",
"-;	c #FE5F39",
";;	c #FE441C",
">;	c #FE2E0E",
",;	c #FF1404",
"';	c #D60001",
");	c #C90100",
"!;	c #FFB531",
"~;	c #FF791B",
"{;	c #FF6618",
"];	c #FF4413",
"^;	c #FD3514",
"/;	c #FA3317",
"(;	c #E72318",
"_;	c #EE291B",
":;	c #EA281A",
"<;	c #EE271A",
"[;	c #ED271A",
"};	c #F12E1C",
"|;	c #E32215",
"1;	c #F52D1A",
"2;	c #E02419",
"3;	c #E2281A",
"4;	c #F42C19",
"5;	c #EF2518",
"6;	c #F62B16",
"7;	c #F92F15",
"8;	c #FE3313",
"9;	c #FD4415",
"0;	c #FF4F16",
"a;	c #A20000",
"b;	c #C60935",
"c;	c #CB2C47",
"d;	c #CA2642",
"e;	c #B80421",
"f;	c #A90000",
"g;	c #FB0200",
"h;	c #FF270A",
"i;	c #FF7D5F",
"j;	c #FF6646",
"k;	c #FE5029",
"l;	c #FE2F11",
"m;	c #FD220A",
"n;	c #FE1001",
"o;	c #DB0000",
"p;	c #B50000",
"q;	c #FD9A27",
"r;	c #FF6616",
"s;	c #FC2F12",
"t;	c #FF3A16",
"u;	c #E32118",
"v;	c #EA2519",
"w;	c #EB2819",
"x;	c #EF2919",
"y;	c #F12718",
"z;	c #E52518",
"A;	c #E5241A",
"B;	c #E7251B",
"C;	c #E42A1D",
"D;	c #F12A19",
"E;	c #EB2517",
"F;	c #F72C17",
"G;	c #FB3416",
"H;	c #FE4514",
"I;	c #FF5D18",
"J;	c #FF6F1C",
"K;	c #A70004",
"L;	c #CD0C3B",
"M;	c #CD2C48",
"N;	c #CE2943",
"O;	c #B80022",
"P;	c #A40000",
"Q;	c #C40002",
"R;	c #E90000",
"S;	c #F20000",
"T;	c #FC0800",
"U;	c #FF3916",
"V;	c #FF210B",
"W;	c #FF1D08",
"X;	c #FF1D07",
"Y;	c #FF1B06",
"Z;	c #FD1804",
"`;	c #FD0400",
" >	c #AE0000",
".>	c #FE891D",
"+>	c #FF771C",
"@>	c #FF6617",
"#>	c #FF4014",
"$>	c #FC3115",
"%>	c #FD3E15",
"&>	c #EE2719",
"*>	c #ED2719",
"=>	c #EF2719",
"->	c #F52918",
";>	c #F42B16",
">>	c #E7271C",
",>	c #ED2717",
"'>	c #E5281B",
")>	c #E82719",
"!>	c #EA2919",
"~>	c #F93215",
"{>	c #FA3516",
"]>	c #FE3A17",
"^>	c #FD4313",
"/>	c #FD4F1A",
"(>	c #FF6119",
"_>	c #FF6F1A",
":>	c #FF7418",
"<>	c #B30100",
"[>	c #C30935",
"}>	c #D3364E",
"|>	c #CE2C45",
"1>	c #BD001F",
"2>	c #AD0000",
"3>	c #B40000",
"4>	c #FD1300",
"5>	c #FF1F06",
"6>	c #FF0F00",
"7>	c #FF1902",
"8>	c #FD1001",
"9>	c #C10001",
"0>	c #FF821E",
"a>	c #FF761C",
"b>	c #FF6015",
"c>	c #FF3D14",
"d>	c #F93116",
"e>	c #F62B14",
"f>	c #EC2816",
"g>	c #EB2516",
"h>	c #ED2516",
"i>	c #EB2217",
"j>	c #F72A16",
"k>	c #F42812",
"l>	c #E1281D",
"m>	c #E92218",
"n>	c #EE2918",
"o>	c #E3251B",
"p>	c #FC3916",
"q>	c #FE4016",
"r>	c #FF4D15",
"s>	c #FE5C1A",
"t>	c #FF661A",
"u>	c #FF701C",
"v>	c #FF7A18",
"w>	c #B90101",
"x>	c #B7022C",
"y>	c #D43C51",
"z>	c #C50023",
"A>	c #AC0000",
"B>	c #C60001",
"C>	c #E00000",
"D>	c #F30000",
"E>	c #FE0900",
"F>	c #FE0A00",
"G>	c #FD0900",
"H>	c #B00000",
"I>	c #E70800",
"J>	c #FF8522",
"K>	c #FF771B",
"L>	c #FF6016",
"M>	c #FB3D14",
"N>	c #F73116",
"O>	c #F22916",
"P>	c #EC2217",
"Q>	c #F02718",
"R>	c #F72E14",
"S>	c #FC2F19",
"T>	c #EA2717",
"U>	c #DF2419",
"V>	c #E32518",
"W>	c #ED2518",
"X>	c #FC3316",
"Y>	c #FB3817",
"Z>	c #FE4115",
"`>	c #FF4A14",
" ,	c #FF5D16",
".,	c #FF6C19",
"+,	c #FF731C",
"@,	c #FF7F1B",
"#,	c #BB0302",
"$,	c #B3001A",
"%,	c #D23C51",
"&,	c #D2364E",
"*,	c #C70428",
"=,	c #A60000",
"-,	c #C30002",
";,	c #FE1303",
">,	c #FE1C08",
",,	c #FE1200",
"',	c #FD0A00",
"),	c #FA0200",
"!,	c #C70001",
"~,	c #AA0000",
"{,	c #FB5B0E",
"],	c #FF8A21",
"^,	c #FF781B",
"/,	c #FF5913",
"(,	c #FF3C14",
"_,	c #FA3016",
":,	c #F12815",
"<,	c #F22815",
"[,	c #F52914",
"},	c #FF5016",
"|,	c #F72D15",
"1,	c #E02418",
"2,	c #F02818",
"3,	c #E92818",
"4,	c #E32419",
"5,	c #FC3915",
"6,	c #FE4214",
"7,	c #FE4C17",
"8,	c #FF7119",
"9,	c #FF8016",
"0,	c #B20201",
"a,	c #A40012",
"b,	c #D03A50",
"c,	c #CE2F4B",
"d,	c #CB1235",
"e,	c #FF280A",
"f,	c #FD1400",
"g,	c #FB0D00",
"h,	c #F90400",
"i,	c #CF0201",
"j,	c #FFA322",
"k,	c #FF8C23",
"l,	c #FF721C",
"m,	c #FF5F15",
"n,	c #FC3816",
"o,	c #F52C16",
"p,	c #F32E17",
"q,	c #F72B17",
"r,	c #F83014",
"s,	c #E4271C",
"t,	c #E72A1C",
"u,	c #DC241A",
"v,	c #EF2819",
"w,	c #EA2918",
"x,	c #F12B17",
"y,	c #FF4913",
"z,	c #FF581A",
"A,	c #FF6B1A",
"B,	c #FF7118",
"C,	c #FF8216",
"D,	c #B50201",
"E,	c #980006",
"F,	c #CD304A",
"G,	c #CE3049",
"H,	c #CF1538",
"I,	c #C00001",
"J,	c #FB0000",
"K,	c #FD1603",
"L,	c #FD1E05",
"M,	c #FC0E01",
"N,	c #FB0F00",
"O,	c #B20001",
"P,	c #C20001",
"Q,	c #BA0100",
"R,	c #D60500",
"S,	c #FDB229",
"T,	c #FF8A22",
"U,	c #FF751D",
"V,	c #FF6113",
"W,	c #FC3A14",
"X,	c #F93217",
"Y,	c #F32A17",
"Z,	c #F02A17",
"`,	c #E8291C",
" '	c #E7281B",
".'	c #E0251B",
"+'	c #F4291C",
"@'	c #F52D18",
"#'	c #F72E17",
"$'	c #FE3C13",
"%'	c #FF5617",
"&'	c #FF6A1C",
"*'	c #FF6C1D",
"='	c #FE731D",
"-'	c #FF701A",
";'	c #FF8B1D",
">'	c #BA0200",
",'	c #8E0003",
"''	c #C21A3A",
")'	c #CE2945",
"!'	c #C81132",
"~'	c #C30001",
"{'	c #F90300",
"]'	c #FF1001",
"^'	c #FF1A06",
"/'	c #FD1301",
"('	c #FA0601",
"_'	c #E80100",
":'	c #FCB02D",
"<'	c #FF9027",
"['	c #FF6416",
"}'	c #F83215",
"|'	c #F42918",
"1'	c #ED2617",
"2'	c #F62A1A",
"3'	c #E62B1D",
"4'	c #DD271C",
"5'	c #F22B1A",
"6'	c #FD4613",
"7'	c #FF611C",
"8'	c #FF7624",
"9'	c #FF7E27",
"0'	c #FF8024",
"a'	c #FF741B",
"b'	c #FF7217",
"c'	c #FF861C",
"d'	c #B90300",
"e'	c #8C0002",
"f'	c #B7072C",
"g'	c #C61D3C",
"h'	c #C80F2F",
"i'	c #FF1804",
"j'	c #FF1601",
"k'	c #FE0C00",
"l'	c #F00300",
"m'	c #FE9F2A",
"n'	c #FD8E25",
"o'	c #FE6217",
"p'	c #FF3B12",
"q'	c #EA2215",
"r'	c #ED2419",
"s'	c #E7271B",
"t'	c #E52B1B",
"u'	c #E8251A",
"v'	c #EF2816",
"w'	c #FC3414",
"x'	c #FE4A14",
"y'	c #FF5F19",
"z'	c #FF7422",
"A'	c #FD842C",
"B'	c #FF8B2D",
"C'	c #FF7C21",
"D'	c #FF791C",
"E'	c #FF811A",
"F'	c #BC0700",
"G'	c #890001",
"H'	c #B0011D",
"I'	c #C10E32",
"J'	c #C40829",
"K'	c #A20003",
"L'	c #FC1503",
"M'	c #FF3A1F",
"N'	c #FE3F20",
"O'	c #FD280F",
"P'	c #FE0C02",
"Q'	c #B10000",
"R'	c #FB2401",
"S'	c #FF9C2C",
"T'	c #FF9028",
"U'	c #FE7A21",
"V'	c #FF5E15",
"W'	c #FD3315",
"X'	c #F92B17",
"Y'	c #ED2517",
"Z'	c #F02819",
"`'	c #EB2919",
" )	c #E62A1B",
".)	c #E02C1F",
"+)	c #DE261C",
"@)	c #DF221A",
"#)	c #E5251B",
"$)	c #F52B17",
"%)	c #FE4213",
"&)	c #FD6316",
"*)	c #FF761E",
"=)	c #FD8B29",
"-)	c #FF9331",
";)	c #FF8827",
">)	c #FF7B1A",
",)	c #880001",
"')	c #A70017",
"))	c #B30020",
"!)	c #B9001B",
"~)	c #A60002",
"{)	c #BC0001",
"])	c #F80200",
"^)	c #FE290E",
"/)	c #FF5636",
"()	c #FF7451",
"_)	c #FF603E",
":)	c #EC0101",
"<)	c #FFA024",
"[)	c #FDA22E",
"})	c #FF922D",
"|)	c #FF711E",
"1)	c #FF5613",
"2)	c #FF3412",
"3)	c #FD3414",
"4)	c #FC3114",
"5)	c #FE4915",
"6)	c #F62E1C",
"7)	c #EC2A1A",
"8)	c #F0291A",
"9)	c #E32A1E",
"0)	c #E52A1C",
"a)	c #DD251D",
"b)	c #DB251C",
"c)	c #DA2019",
"d)	c #F02919",
"e)	c #FC3812",
"f)	c #FF6817",
"g)	c #FE8326",
"h)	c #FF9A3B",
"i)	c #FF9030",
"j)	c #FF771A",
"k)	c #8A0001",
"l)	c #A80015",
"m)	c #A9001A",
"n)	c #B6001A",
"o)	c #A40001",
"p)	c #A80000",
"q)	c #B80002",
"r)	c #FF5635",
"s)	c #FF815E",
"t)	c #FD4C2E",
"u)	c #F80100",
"v)	c #EA0400",
"w)	c #E50300",
"x)	c #EF0300",
"y)	c #FED94F",
"z)	c #FD9E2E",
"A)	c #FF8B29",
"B)	c #FF5614",
"C)	c #FE3C14",
"D)	c #FB3115",
"E)	c #FD3114",
"F)	c #FE3413",
"G)	c #F52B18",
"H)	c #E92316",
"I)	c #F62F1B",
"J)	c #EE2B19",
"K)	c #F02B1B",
"L)	c #EA2F1C",
"M)	c #E0291A",
"N)	c #E2271D",
"O)	c #DB271C",
"P)	c #D81F1C",
"Q)	c #E4221A",
"R)	c #F63015",
"S)	c #FD4014",
"T)	c #FF4D12",
"U)	c #FF5513",
"V)	c #FF731D",
"W)	c #FF9939",
"X)	c #FF8A2A",
"Y)	c #B10200",
"Z)	c #930000",
"`)	c #A50013",
" !	c #AB001A",
".!	c #B2001A",
"+!	c #A20006",
"@!	c #FF3016",
"#!	c #FF4427",
"$!	c #FF341A",
"%!	c #FD0F05",
"&!	c #F50500",
"*!	c #EE0801",
"=!	c #F40900",
"-!	c #EB0200",
";!	c #FFBC37",
">!	c #FF9B2D",
",!	c #FF8727",
"'!	c #FF741D",
")!	c #FF5012",
"!!	c #FE3414",
"~!	c #FC3416",
"{!	c #FA2B13",
"]!	c #FC3116",
"^!	c #F52815",
"/!	c #E82518",
"(!	c #F52E1C",
"_!	c #DD231A",
":!	c #D9241B",
"<!	c #DB2119",
"[!	c #D92319",
"}!	c #E1221A",
"|!	c #F42D19",
"1!	c #FE4717",
"2!	c #FB3F16",
"3!	c #FF5C1B",
"4!	c #FF822B",
"5!	c #FF872C",
"6!	c #A50000",
"7!	c #A00012",
"8!	c #AC001B",
"9!	c #B20020",
"0!	c #AA000E",
"a!	c #A00000",
"b!	c #AE0001",
"c!	c #FE1604",
"d!	c #FF2008",
"e!	c #FE1C03",
"f!	c #FC0400",
"g!	c #ED0400",
"h!	c #FB0700",
"i!	c #FF992A",
"j!	c #FF962A",
"k!	c #FE8B28",
"l!	c #FF731E",
"m!	c #FF5712",
"n!	c #FF3D12",
"o!	c #FB3514",
"p!	c #FB2D16",
"q!	c #FF6924",
"r!	c #FB2D13",
"s!	c #F32615",
"t!	c #F31F15",
"u!	c #F42814",
"v!	c #E22C1D",
"w!	c #E2261D",
"x!	c #DB221B",
"y!	c #DD221A",
"z!	c #DE251A",
"A!	c #DD221B",
"B!	c #FA3313",
"C!	c #FA3918",
"D!	c #FE4D18",
"E!	c #FF721D",
"F!	c #9D0000",
"G!	c #B00001",
"H!	c #9F000F",
"I!	c #AE0021",
"J!	c #BA052A",
"K!	c #B2011E",
"L!	c #FD1003",
"M!	c #FB1303",
"N!	c #FE0800",
"O!	c #EB0400",
"P!	c #FC0C00",
"Q!	c #FF9B2A",
"R!	c #FF9C34",
"S!	c #FF8928",
"T!	c #FE7421",
"U!	c #FD3F12",
"V!	c #FE3813",
"W!	c #FC3313",
"X!	c #FA3216",
"Y!	c #FC2D16",
"Z!	c #F92A14",
"`!	c #FF7218",
" ~	c #FF4418",
".~	c #E1261E",
"+~	c #E0251A",
"@~	c #E4251C",
"#~	c #E62516",
"$~	c #FD3E14",
"%~	c #F93817",
"&~	c #FD4B17",
"*~	c #FF6E1E",
"=~	c #FF8328",
"-~	c #FF7E1F",
";~	c #950009",
">~	c #B30425",
",~	c #BE0D2E",
"'~	c #BA0929",
")~	c #9D0004",
"!~	c #A10000",
"~~	c #FC0300",
"{~	c #FF1207",
"]~	c #FF2B17",
"^~	c #FF2310",
"/~	c #FE0801",
"(~	c #BB0001",
"_~	c #F00400",
":~	c #E20001",
"<~	c #FF1500",
"[~	c #F40500",
"}~	c #FFA230",
"|~	c #FEA030",
"1~	c #FF8C25",
"2~	c #FE7220",
"3~	c #FB3714",
"4~	c #FD3517",
"5~	c #F93214",
"6~	c #FA3517",
"7~	c #FF3313",
"8~	c #FB9227",
"9~	c #F92315",
"0~	c #E22A1C",
"a~	c #E5241B",
"b~	c #E02319",
"c~	c #D82119",
"d~	c #EB2717",
"e~	c #F82E16",
"f~	c #FF4617",
"g~	c #FA3615",
"h~	c #FC4215",
"i~	c #FF631A",
"j~	c #FF7C24",
"k~	c #FF7F1F",
"l~	c #D30700",
"m~	c #930004",
"n~	c #B10126",
"o~	c #BF0E32",
"p~	c #C10D2F",
"q~	c #A20107",
"r~	c #9F0001",
"s~	c #FA0400",
"t~	c #FF321B",
"u~	c #FF5137",
"v~	c #FF452F",
"w~	c #FE2413",
"x~	c #FF0600",
"y~	c #EC0400",
"z~	c #F60D00",
"A~	c #FE2906",
"B~	c #FFA433",
"C~	c #FE9B2E",
"D~	c #FF8824",
"E~	c #FF5115",
"F~	c #FE3A11",
"G~	c #FD3A14",
"H~	c #F92D16",
"I~	c #FF4015",
"J~	c #F62511",
"K~	c #F42B1D",
"L~	c #E02B1D",
"M~	c #EC2F19",
"N~	c #F62B19",
"O~	c #EC2617",
"P~	c #E32218",
"Q~	c #DC2019",
"R~	c #F93413",
"S~	c #F93B19",
"T~	c #FC4015",
"U~	c #FF5814",
"V~	c #FF7E20",
"W~	c #F03306",
"X~	c #8D0101",
"Y~	c #B10023",
"Z~	c #BE1132",
"`~	c #C11033",
" {	c #A5010C",
".{	c #9B0002",
"+{	c #B80001",
"@{	c #FA0C03",
"#{	c #FE3C28",
"${	c #FF8C6C",
"%{	c #FF6D51",
"&{	c #FF3925",
"*{	c #C00000",
"={	c #E60301",
"-{	c #F91800",
";{	c #FE1300",
">{	c #FF5714",
",{	c #FEA32F",
"'{	c #FF982E",
"){	c #FF8321",
"!{	c #FF6217",
"~{	c #FF3A12",
"{{	c #FF4415",
"]{	c #FF4917",
"^{	c #F92C13",
"/{	c #F92B15",
"({	c #F32312",
"_{	c #EF2E1D",
":{	c #E02218",
"<{	c #FA5019",
"[{	c #FE4818",
"}{	c #EC2117",
"|{	c #E72317",
"1{	c #E12017",
"2{	c #E42416",
"3{	c #EC2C19",
"4{	c #F73117",
"5{	c #FD3C15",
"6{	c #FF4B15",
"7{	c #FF6115",
"8{	c #FF711B",
"9{	c #FF5C0C",
"0{	c #870001",
"a{	c #A3001D",
"b{	c #B90D31",
"c{	c #BD1231",
"d{	c #AB0118",
"e{	c #A00002",
"f{	c #FC0B01",
"g{	c #FE4327",
"h{	c #FE9B83",
"i{	c #FF7D64",
"j{	c #FF583E",
"k{	c #FE200A",
"l{	c #DD0000",
"m{	c #C40001",
"n{	c #E30200",
"o{	c #FB1B00",
"p{	c #F91200",
"q{	c #FF8724",
"r{	c #FF9B2F",
"s{	c #FF952B",
"t{	c #FF8023",
"u{	c #FF5E18",
"v{	c #FF5214",
"w{	c #FF4912",
"x{	c #FF6421",
"y{	c #FB2F13",
"z{	c #EE2B1A",
"A{	c #EB2A1D",
"B{	c #E92212",
"C{	c #FB3C15",
"D{	c #F12615",
"E{	c #F12A14",
"F{	c #E72117",
"G{	c #EC2716",
"H{	c #FB3915",
"I{	c #FF4C15",
"J{	c #FF5A15",
"K{	c #FF6919",
"L{	c #AE0101",
"M{	c #880000",
"N{	c #8D000B",
"O{	c #B30729",
"P{	c #B90F2F",
"Q{	c #AB051F",
"R{	c #9E0003",
"S{	c #FE4629",
"T{	c #FF6E56",
"U{	c #FF735A",
"V{	c #FF644B",
"W{	c #FF2D15",
"X{	c #C70100",
"Y{	c #E00200",
"Z{	c #FB1100",
"`{	c #FF8623",
" ]	c #FF962D",
".]	c #FF8125",
"+]	c #FE6218",
"@]	c #FF5313",
"#]	c #FF5C18",
"$]	c #FE691F",
"%]	c #FF4315",
"&]	c #FA2B16",
"*]	c #F02F1E",
"=]	c #ED2B1C",
"-]	c #ED2C1E",
";]	c #F93118",
">]	c #F63218",
",]	c #F32817",
"']	c #ED2716",
")]	c #E72617",
"!]	c #E12418",
"~]	c #E82818",
"{]	c #F43216",
"]]	c #FF4D19",
"^]	c #FF5B17",
"/]	c #FF6619",
"(]	c #FF7917",
"_]	c #960002",
":]	c #940000",
"<]	c #840004",
"[]	c #A3011E",
"}]	c #B7072F",
"|]	c #B30527",
"1]	c #9A0006",
"2]	c #9E0100",
"3]	c #AC0001",
"4]	c #FF3219",
"5]	c #FE674C",
"6]	c #FF755C",
"7]	c #FE7B62",
"8]	c #FF4834",
"9]	c #FD170C",
"0]	c #FE1C00",
"a]	c #FA1D00",
"b]	c #FC6519",
"c]	c #FF9C2D",
"d]	c #FF9126",
"e]	c #FF8227",
"f]	c #FF5815",
"g]	c #FF6019",
"h]	c #FD6B23",
"i]	c #F82918",
"j]	c #EA261B",
"k]	c #DE241B",
"l]	c #EF2A1B",
"m]	c #F32B19",
"n]	c #EC2418",
"o]	c #E72417",
"p]	c #DE2417",
"q]	c #DF2318",
"r]	c #EE2B16",
"s]	c #FF7B17",
"t]	c #970000",
"u]	c #7E0001",
"v]	c #91000B",
"w]	c #A90125",
"x]	c #B4032B",
"y]	c #9D000E",
"z]	c #9B0001",
"A]	c #A90001",
"B]	c #FF583D",
"C]	c #FF816B",
"D]	c #FF876E",
"E]	c #FF6652",
"F]	c #FF3F2A",
"G]	c #FD1A00",
"H]	c #FB2B0B",
"I]	c #FF9023",
"J]	c #FF8D23",
"K]	c #FF7B24",
"L]	c #FF6017",
"M]	c #FF5E17",
"N]	c #FF3711",
"O]	c #F42816",
"P]	c #ED2C1B",
"Q]	c #E0281E",
"R]	c #DF251B",
"S]	c #E22219",
"T]	c #EF2718",
"U]	c #E02219",
"V]	c #FD4017",
"W]	c #FF5718",
"X]	c #FF7819",
"Y]	c #F42904",
"Z]	c #A30000",
"`]	c #850001",
" ^	c #850000",
".^	c #9A0019",
"+^	c #AC0124",
"@^	c #AB001D",
"#^	c #9A0002",
"$^	c #FE4B31",
"%^	c #FE7760",
"&^	c #FE8C75",
"*^	c #FF7561",
"=^	c #FF614B",
"-^	c #FE241A",
";^	c #FC0900",
">^	c #FF1400",
",^	c #FA0703",
"'^	c #FF8820",
")^	c #FF8723",
"!^	c #FF7921",
"~^	c #FF6118",
"{^	c #FF5112",
"]^	c #FD621A",
"^^	c #FF4612",
"/^	c #F92C16",
"(^	c #F5291A",
"_^	c #E9271A",
":^	c #EE2419",
"<^	c #F22817",
"[^	c #FE3919",
"}^	c #F62D1C",
"|^	c #DC291E",
"1^	c #DD281E",
"2^	c #E2261E",
"3^	c #F52D1B",
"4^	c #E42516",
"5^	c #DE241A",
"6^	c #E42618",
"7^	c #F93218",
"8^	c #FF5419",
"9^	c #FF5D17",
"0^	c #890000",
"a^	c #8A0000",
"b^	c #920010",
"c^	c #9C0016",
"d^	c #B30023",
"e^	c #9C0007",
"f^	c #9C0101",
"g^	c #E90002",
"h^	c #FD0A02",
"i^	c #FF331F",
"j^	c #FF725A",
"k^	c #FF7C62",
"l^	c #FF9780",
"m^	c #FF755F",
"n^	c #FE3922",
"o^	c #FA0000",
"p^	c #FF881E",
"q^	c #FF851B",
"r^	c #FF5B16",
"s^	c #FF6A1F",
"t^	c #FF5D1C",
"u^	c #FC3213",
"v^	c #EB2A18",
"w^	c #F0271A",
"x^	c #F72D12",
"y^	c #E5291C",
"z^	c #EA301C",
"A^	c #DC3221",
"B^	c #DD291E",
"C^	c #E2261B",
"D^	c #F72F19",
"E^	c #F22917",
"F^	c #EA2817",
"G^	c #E92617",
"H^	c #F22514",
"I^	c #FF4217",
"J^	c #FF5B1A",
"K^	c #FF731B",
"L^	c #FF9524",
"M^	c #9D0001",
"N^	c #8E0000",
"O^	c #8A0002",
"P^	c #96000E",
"Q^	c #A5001A",
"R^	c #A0000F",
"S^	c #FC2011",
"T^	c #FF614A",
"U^	c #FF7960",
"V^	c #FF7C64",
"W^	c #FF866D",
"X^	c #FE3625",
"Y^	c #F10102",
"Z^	c #FF811D",
"`^	c #FF821A",
" /	c #FF5213",
"./	c #FE681C",
"+/	c #FF6923",
"@/	c #FE4414",
"#/	c #F63017",
"$/	c #FC3219",
"%/	c #FF3717",
"&/	c #F12016",
"*/	c #E8281A",
"=/	c #EB2E1F",
"-/	c #F53919",
";/	c #F23720",
">/	c #E2241B",
",/	c #F3291A",
"'/	c #E82617",
")/	c #FD3415",
"!/	c #FF5415",
"~/	c #FF6917",
"{/	c #FF7E1C",
"]/	c #900000",
"^/	c #8B0007",
"//	c #92000C",
"(/	c #A30011",
"_/	c #A0000A",
":/	c #A30004",
"</	c #A90002",
"[/	c #D10001",
"}/	c #F40B06",
"|/	c #FF3A27",
"1/	c #FF5B42",
"2/	c #FF6D55",
"3/	c #FF6D52",
"4/	c #FE3D26",
"5/	c #FB0001",
"6/	c #E30100",
"7/	c #FD0600",
"8/	c #F70301",
"9/	c #FF8D20",
"0/	c #FF6216",
"a/	c #FF5413",
"b/	c #FF4A12",
"c/	c #FE601D",
"d/	c #FF6423",
"e/	c #FB3713",
"f/	c #FA3212",
"g/	c #FD3D18",
"h/	c #FA3116",
"i/	c #E72A1D",
"j/	c #F43B1B",
"k/	c #DE271C",
"l/	c #DC271D",
"m/	c #D9221A",
"n/	c #EA271B",
"o/	c #F02A19",
"p/	c #F02717",
"q/	c #F22A19",
"r/	c #F72915",
"s/	c #FD3113",
"t/	c #FF4E18",
"u/	c #FF6114",
"v/	c #EB0B01",
"w/	c #C90001",
"x/	c #870000",
"y/	c #8F0008",
"z/	c #9B0011",
"A/	c #A00013",
"B/	c #A10010",
"C/	c #A8000D",
"D/	c #A90003",
"E/	c #FC0600",
"F/	c #FF3518",
"G/	c #FF5440",
"H/	c #FE583F",
"I/	c #FF4D33",
"J/	c #FF210F",
"K/	c #FF0F05",
"L/	c #FE0302",
"M/	c #F40001",
"N/	c #F80300",
"O/	c #FC5909",
"P/	c #FF7517",
"Q/	c #FE7C22",
"R/	c #FF4113",
"S/	c #FD4311",
"T/	c #FF4810",
"U/	c #FF5516",
"V/	c #FF4114",
"W/	c #FF3714",
"X/	c #E02718",
"Y/	c #E0261C",
"Z/	c #DD2519",
"`/	c #DF2219",
" (	c #E32217",
".(	c #F12516",
"+(	c #F72814",
"@(	c #FF3813",
"#(	c #FF501A",
"$(	c #FD9629",
"%(	c #D50300",
"&(	c #FA0E00",
"*(	c #E70100",
"=(	c #990000",
"-(	c #8E0002",
";(	c #95000A",
">(	c #97000C",
",(	c #A60119",
"'(	c #AB0018",
")(	c #B00015",
"!(	c #B10002",
"~(	c #E60001",
"{(	c #F70700",
"](	c #FC1307",
"^(	c #FE2915",
"/(	c #FF533D",
"((	c #FF9A81",
"_(	c #FDC0A9",
":(	c #FE0101",
"<(	c #F90100",
"[(	c #F80302",
"}(	c #FD871C",
"|(	c #FF6D18",
"1(	c #FB3513",
"2(	c #FC3813",
"3(	c #FF4216",
"4(	c #FE3314",
"5(	c #E7291B",
"6(	c #E4261A",
"7(	c #E3271C",
"8(	c #DF231B",
"9(	c #D7241C",
"0(	c #EB2B1A",
"a(	c #FC3013",
"b(	c #FF3810",
"c(	c #FF6F18",
"d(	c #FF9F2D",
"e(	c #FF2500",
"f(	c #FF2000",
"g(	c #880003",
"h(	c #8D0006",
"i(	c #9B0012",
"j(	c #AD001E",
"k(	c #B1011F",
"l(	c #AD0014",
"m(	c #FE0500",
"n(	c #FF513C",
"o(	c #FED2B7",
"p(	c #FFC3B0",
"q(	c #FF6E53",
"r(	c #FF1206",
"s(	c #F50A01",
"t(	c #FE590F",
"u(	c #FF5912",
"v(	c #FF3E12",
"w(	c #FB3015",
"x(	c #FA2F13",
"y(	c #F72C14",
"z(	c #ED2E1B",
"A(	c #EC291B",
"B(	c #E4281B",
"C(	c #E2271B",
"D(	c #E7271D",
"E(	c #E3261A",
"F(	c #DC231A",
"G(	c #DB241A",
"H(	c #FF4211",
"I(	c #FF5716",
"J(	c #FF8C27",
"K(	c #FE2804",
"L(	c #FB1900",
"M(	c #FF1E00",
"N(	c #FC1700",
"O(	c #8C0000",
"P(	c #890006",
"Q(	c #A50017",
"R(	c #AD001F",
"S(	c #B40220",
"T(	c #B00008",
"U(	c #FC0405",
"V(	c #FF543D",
"W(	c #FD836D",
"X(	c #FF4A36",
"Y(	c #F60001",
"Z(	c #FC1F06",
"`(	c #FF5210",
" _	c #FF5A14",
"._	c #FE3D11",
"+_	c #F62815",
"@_	c #F82A19",
"#_	c #ED2D1B",
"$_	c #E4291C",
"%_	c #E12519",
"&_	c #E0231A",
"*_	c #DE2219",
"=_	c #E12117",
"-_	c #F32914",
";_	c #FF5C14",
">_	c #FDA12E",
",_	c #D90201",
"'_	c #910000",
")_	c #900005",
"!_	c #A60019",
"~_	c #B00122",
"{_	c #B30018",
"]_	c #B2000C",
"^_	c #AA0006",
"/_	c #AF0001",
"(_	c #FD0101",
"__	c #FE1C0D",
":_	c #FF3825",
"<_	c #FF2717",
"[_	c #FA0100",
"}_	c #FF3A0A",
"|_	c #FF430D",
"1_	c #FE3511",
"2_	c #FC2F16",
"3_	c #F42513",
"4_	c #ED2514",
"5_	c #E52A1D",
"6_	c #E5261B",
"7_	c #EE2217",
"8_	c #F22518",
"9_	c #E92116",
"0_	c #EE2315",
"a_	c #FF651C",
"b_	c #FF761A",
"c_	c #E90300",
"d_	c #FF2101",
"e_	c #FF1800",
"f_	c #FC1100",
"g_	c #90000B",
"h_	c #B60223",
"i_	c #AF031B",
"j_	c #AC0016",
"k_	c #B1000F",
"l_	c #B30009",
"m_	c #F70502",
"n_	c #FF432C",
"o_	c #FD553D",
"p_	c #FF523F",
"q_	c #FF190F",
"r_	c #FF0903",
"s_	c #FF0100",
"t_	c #FA0001",
"u_	c #F80101",
"v_	c #EF0202",
"w_	c #FA0D03",
"x_	c #FE2F0F",
"y_	c #F32513",
"z_	c #EE2817",
"A_	c #F12E1B",
"B_	c #E62A1C",
"C_	c #E9291C",
"D_	c #EF2616",
"E_	c #FB3816",
"F_	c #FF6221",
"G_	c #EC1E15",
"H_	c #ED2417",
"I_	c #FF621D",
"J_	c #FF7619",
"K_	c #FF8924",
"L_	c #FD9827",
"M_	c #E30800",
"N_	c #FF1300",
"O_	c #FE1B00",
"P_	c #95000D",
"Q_	c #AE0121",
"R_	c #B30222",
"S_	c #B20013",
"T_	c #B4000D",
"U_	c #B70005",
"V_	c #EA0002",
"W_	c #F90202",
"X_	c #FF1509",
"Y_	c #FF7A64",
"Z_	c #FF8E76",
"`_	c #FFC6A5",
" :	c #FF8D6A",
".:	c #FE0100",
"+:	c #FC0B06",
"@:	c #F42A17",
"#:	c #ED2615",
"$:	c #E42B1F",
"%:	c #FC2A14",
"&:	c #FD9E36",
"*:	c #FF3D0F",
"=:	c #FF2E11",
"-:	c #FF3311",
";:	c #FF4F11",
">:	c #FE6819",
",:	c #FF8026",
"':	c #FF9A2B",
"):	c #FE1502",
"!:	c #F70D00",
"~:	c #960001",
"{:	c #850002",
"]:	c #A90020",
"^:	c #A90120",
"/:	c #A8011B",
"(:	c #AF0016",
"_:	c #B40008",
"::	c #BD0104",
"<:	c #FF2F1E",
"[:	c #FF9E86",
"}:	c #FFBCA6",
"|:	c #FFC6AD",
"1:	c #FFB09A",
"2:	c #FF5741",
"3:	c #FF0101",
"4:	c #F60C04",
"5:	c #FA3110",
"6:	c #F32E19",
"7:	c #E7281E",
"8:	c #EE2019",
"9:	c #FFD17B",
"0:	c #FF4812",
"a:	c #FF4610",
"b:	c #FF5B10",
"c:	c #FF6C1A",
"d:	c #FF882A",
"e:	c #FD9024",
"f:	c #FFA72B",
"g:	c #F50B00",
"h:	c #F70B00",
"i:	c #860000",
"j:	c #840001",
"k:	c #8A0003",
"l:	c #9B0017",
"m:	c #A6001B",
"n:	c #A9011A",
"o:	c #B10015",
"p:	c #B20011",
"q:	c #B50009",
"r:	c #FF3529",
"s:	c #FFA485",
"t:	c #FFBAA3",
"u:	c #FFC2A9",
"v:	c #FFC3A5",
"w:	c #FF7E60",
"x:	c #FE0200",
"y:	c #FA0305",
"z:	c #DD0703",
"A:	c #F02713",
"B:	c #E32A20",
"C:	c #DD211C",
"D:	c #EB211D",
"E:	c #FF3F11",
"F:	c #FF4B13",
"G:	c #FF4B10",
"H:	c #FF5310",
"I:	c #FF6719",
"J:	c #FF761B",
"K:	c #FE851F",
"L:	c #FF8B1E",
"M:	c #FA1400",
"N:	c #EA0300",
"O:	c #920000",
"P:	c #8A0004",
"Q:	c #8C000C",
"R:	c #9B001A",
"S:	c #A1001B",
"T:	c #A5001C",
"U:	c #A50018",
"V:	c #AE0017",
"W:	c #B00014",
"X:	c #AF000E",
"Y:	c #B70006",
"Z:	c #C00002",
"`:	c #FC0402",
" <	c #FF3424",
".<	c #FF5E4C",
"+<	c #FD957C",
"@<	c #FFBFA0",
"#<	c #FD0402",
"$<	c #F90503",
"%<	c #F80403",
"&<	c #F0311A",
"*<	c #E62D21",
"=<	c #DF291E",
"-<	c #E72319",
";<	c #F93312",
"><	c #FF4512",
",<	c #FD5818",
"'<	c #FF4D0F",
")<	c #FF5D14",
"!<	c #FF6B17",
"~<	c #FF841F",
"{<	c #FF8C20",
"]<	c #D00100",
"^<	c #9E0000",
"/<	c #8D0000",
"(<	c #840000",
"_<	c #800000",
":<	c #7D0001",
"<<	c #860007",
"[<	c #91000F",
"}<	c #980016",
"|<	c #A2001B",
"1<	c #A1001C",
"2<	c #A10019",
"3<	c #A6001D",
"4<	c #AB0019",
"5<	c #AF0012",
"6<	c #AF0004",
"7<	c #B60002",
"8<	c #F13519",
"9<	c #F33518",
"0<	c #E22A1D",
"a<	c #E0291E",
"b<	c #EC261A",
"c<	c #FB3114",
"d<	c #FF480F",
"e<	c #FF5111",
"f<	c #FF5914",
"g<	c #FF6B14",
"h<	c #FF7D1D",
"i<	c #FB961F",
"j<	c #820000",
"k<	c #7C0000",
"l<	c #7D0002",
"m<	c #830005",
"n<	c #880008",
"o<	c #920013",
"p<	c #960015",
"q<	c #990017",
"r<	c #9D001B",
"s<	c #A3001A",
"t<	c #A30019",
"u<	c #9F000D",
"v<	c #9E0002",
"w<	c #9F0002",
"x<	c #A00001",
"y<	c #FF511A",
"z<	c #F63419",
"A<	c #E32A1D",
"B<	c #EB2117",
"C<	c #EA2417",
"D<	c #F92D14",
"E<	c #FE4112",
"F<	c #FE4C15",
"G<	c #FF5510",
"H<	c #FF5F12",
"I<	c #FF6B16",
"J<	c #FF7618",
"K<	c #FF4905",
"L<	c #950002",
"M<	c #8B0000",
"N<	c #7F0000",
"O<	c #7B0001",
"P<	c #800003",
"Q<	c #8A0007",
"R<	c #8A000B",
"S<	c #8D000A",
"T<	c #8C000B",
"U<	c #8E0004",
"V<	c #7E0100",
"W<	c #810000",
"X<	c #830001",
"Y<	c #840102",
"Z<	c #F75117",
"`<	c #EA2B19",
" [	c #DF241A",
".[	c #ED2A18",
"+[	c #FA3612",
"@[	c #FF4411",
"#[	c #FF5110",
"$[	c #FE6617",
"%[	c #FF560D",
"&[	c #7E0000",
"*[	c #780000",
"=[	c #7A0000",
"-[	c #760002",
";[	c #760004",
">[	c #750001",
",[	c #760000",
"'[	c #750100",
")[	c #720000",
"![	c #750000",
"~[	c #6C0000",
"{[	c #6E0000",
"][	c #740102",
"^[	c #FA4317",
"/[	c #E5291B",
"([	c #E5271C",
"_[	c #EB2A1B",
":[	c #F82914",
"<[	c #FD3314",
"[[	c #FD3411",
"}[	c #FF3B10",
"|[	c #FF4210",
"1[	c #FF4E13",
"2[	c #FF5D11",
"3[	c #FF6610",
"4[	c #9F0000",
"5[	c #7D0000",
"6[	c #720100",
"7[	c #740000",
"8[	c #730000",
"9[	c #730001",
"0[	c #6F0000",
"a[	c #6D0000",
"b[	c #F02F11",
"c[	c #F63714",
"d[	c #EC2C17",
"e[	c #E12D1D",
"f[	c #FC5020",
"g[	c #E32116",
"h[	c #E9281A",
"i[	c #F83016",
"j[	c #FA3914",
"k[	c #FF6C12",
"l[	c #960000",
"m[	c #7B0000",
"n[	c #8C0001",
"o[	c #900002",
"p[	c #960102",
"q[	c #FE491E",
"r[	c #F73319",
"s[	c #E82D1B",
"t[	c #FD351A",
"u[	c #E32219",
"v[	c #DE1F17",
"w[	c #DC2219",
"x[	c #E6231A",
"y[	c #ED2718",
"z[	c #F83315",
"A[	c #FD4512",
"B[	c #FE590E",
"C[	c #FF6012",
"D[	c #C10300",
"E[	c #980000",
"F[	c #9E0001",
"G[	c #9B0000",
"H[	c #DA0201",
"I[	c #F20900",
"J[	c #DD0100",
"K[	c #FA3F11",
"L[	c #F43113",
"M[	c #E82C12",
"N[	c #DA2918",
"O[	c #E93321",
"P[	c #E1271C",
"Q[	c #E5231B",
"R[	c #E52419",
"S[	c #EE2718",
"T[	c #F42A16",
"U[	c #F83011",
"V[	c #FB3913",
"W[	c #FD420F",
"X[	c #FF4710",
"Y[	c #FD4F11",
"Z[	c #FF5610",
"`[	c #FF781A",
" }	c #F62A02",
".}	c #CC0101",
"+}	c #C60200",
"@}	c #D10200",
"#}	c #D50301",
"$}	c #D90300",
"%}	c #BC0301",
"&}	c #DC1207",
"*}	c #FB4F13",
"=}	c #ED2A11",
"-}	c #E82B15",
";}	c #E52D1D",
">}	c #E6271A",
",}	c #F13119",
"'}	c #F43119",
")}	c #F53015",
"!}	c #F93614",
"~}	c #FD3C12",
"{}	c #FF4C12",
"]}	c #FE5413",
"^}	c #FD5010",
"/}	c #FE5B14",
"(}	c #FF6111",
"_}	c #F61A01",
":}	c #EB1300",
"<}	c #CE0500",
"[}	c #D10804",
"}}	c #D00703",
"|}	c #D20601",
"1}	c #E91A09",
"2}	c #FC360C",
"3}	c #FD5A17",
"4}	c #FC4814",
"5}	c #F83912",
"6}	c #E82D18",
"7}	c #DE2718",
"8}	c #DE2B19",
"9}	c #E52719",
"0}	c #E92A1B",
"a}	c #E62417",
"b}	c #F02A16",
"c}	c #F32E14",
"d}	c #F93714",
"e}	c #F63B12",
"f}	c #F9400F",
"g}	c #FE4411",
"h}	c #FF4C10",
"i}	c #FD5311",
"j}	c #FE5410",
"k}	c #FF5311",
"l}	c #FF4D13",
"m}	c #FE3E0F",
"n}	c #F93C14",
"o}	c #EC2A13",
"p}	c #DC2316",
"q}	c #DD2817",
"r}	c #E02D1E",
"s}	c #E0291B",
"t}	c #DD291D",
"u}	c #DF261B",
"v}	c #E0241A",
"w}	c #E42718",
"x}	c #E92B19",
"y}	c #E7281A",
"z}	c #EF3016",
"A}	c #F83714",
"B}	c #FC3C13",
"C}	c #FD4010",
"D}	c #FD4011",
"E}	c #FB3B14",
"F}	c #F63416",
"G}	c #F53115",
"H}	c #ED2C17",
"I}	c #E12819",
"J}	c #DE2919",
"K}	c #DB2919",
"L}	c #E22819",
"M}	c #E1281A",
"N}	c #E3281C",
"O}	c #E32619",
"P}	c #E42419",
"Q}	c #E82917",
"R}	c #ED2917",
"S}	c #F32B13",
"T}	c #F73213",
"U}	c #F73113",
"V}	c #EF2D17",
"W}	c #EB2916",
"X}	c #E32617",
"Y}	c #E02114",
"Z}	c #E02616",
"`}	c #DD2919",
" |	c #E1251A",
".|	c #E12417",
"+|	c #E82318",
"@|	c #F22A17",
"#|	c #F02917",
"$|	c #DE2518",
"%|	c #DE2D1C",
"&|	c #DD2E1B",
"*|	c #DF2C1B",
"=|	c #DF2B1A",
"-|	c #E12E1C",
";|	c #DD2A1B",
">|	c #DF2B1B",
",|	c #DA2A1B",
"'|	c #D92C1E",
"                                                                                                                                                                                    ",
"                                                                                                                                                                                    ",
"                                                                                                                                                                                    ",
"                                                                                                                                                                                    ",
"                                                                                                                                                                                    ",
"                                                                                                                . +                                                                 ",
"                                                                                                              @ # $ %                                                               ",
"                                                                                                          & * = - ; >                                                               ",
"                                                                                                          , ' ) ! ~ {                                                               ",
"                                                                                                      ] ^ / ( _ : <                                                                 ",
"                                                                                                    [ } | 1 2 3 4                       5 6 7                                       ",
"                                                                          8 9                     0 a b c d e f                           g                                         ",
"                                                                      h i j k l m n     o       p q r s t u v                                                                       ",
"                                                                  w x y z A B C D E F G H I     J K L M N O P Q R S T U       V                                                     ",
"                                                      W X         Y Z `  ...+.@.#.$.%.&.*.=.-.;.>.,.'.).!.~.{.].^./.(._.:.<.[.                                                      ",
"                                                      }.|.      1.2.3.4.5.6.7.8.9.0.a.b.c.d.e.f.g.h.i.j.k.l.m.n.o.p.q.r.s.t.u.v.                                                    ",
"                                                  w.x.y.z.A.B.C.w.D.E.F.G.H.I.J.K.L.M.N.O.P.Q.R.S.T.U.V.W.X.Y.Z.`. +.+++@+#+$+%+                                                    ",
"                                                  &+*+=+-+;+>+,+'+)+!+~+{+]+^+/+(+_+:+<+[+}+|+1+2+3+4+5+6+7+8+9+0+a+b+c+d+e+c+f+                                                    ",
"                                              g+h+i+j+k+l+m+n+o+p+q+r+{+s+t+u+v+w+x+y+z+A+B+C+D+E+F+G+H+I+J+K+L+M+N+O+P+Q+R+S+T+                                                    ",
"                                          U+V+g+W+X+Y+Z+`+ @.@+@@@#@$@%@&@*@=@-@;@>@,@'@)@!@~@{@]@^@/@(@_@:@<@[@}@|@1@2@3@4@5@6@                                                    ",
"                                          7@8@9@0@a@b@c@d@e@f@g@h@<@i@j@k@l@m@n@o@p@q@r@s@t@u@v@w@x@y@z@A@B@C@D@E@F@G@H@I@J@K@L@M@        N@                                        ",
"                                          O@X+P@Q@R@S@T@U@V@W@X@Y@Z@`@ #.#+#@###$#%#&#*#=#-#;#>#,#'#)#!#~#(@{#]#^#/#(#_#:#<#[#}#|#  1#2#3#                                          ",
"                                          4#8@5#6#7#8#9##@0#a#b#c#d#e#f#g#h#i#j#k#l#m#n#o#p#q#r#s#t#u#v#w#x#y#z#A#B#C#D#E#++F#G#H#I#J#K#                                            ",
"                                          L#M#}.N#O#P#Q#R#S#T#U#V#W#X#Y#Z#`# $.$+$@$#$$$%$&$*$=$-$;$>$,$'$)$!$~${$]$^$/$($_$:$<$[$}$|$                                              ",
"                                        1$2$3$4$5$3.6$7$8$9$0$a$b$c$d$e$f$ $$$g$h$i$j$k$l$m$n$k$o$p$q$r$s$t$u$v$w$x$y$T#z$A$B$C$D$E$                                                ",
"                                  F$G$  H$I$J$K$L$M$N$G@O$P$Q$R$S$T$U$V$W$X$Y$Z$`$ %.%+%@%#%$%%%`$&%*%=%-%;%>%=$,%'%)%!%X@~%1@{%A ]%^%                                              ",
"                                  /%(%_%:%<%[%}%|%1%2%S#3%4%5%6%7%8%9%0%a%b%c%d%e%@%f%g%h%i%j%k%+%l%m%=$n%#$o%p%q%r%s%t%u%v%w%x%D.y%z%                                              ",
"                                    A%B%  C%D%E%F%G%H%~%I%J%w+K%L%M%N%O%%$P%Q%R%S%T%U%V%W%X%Y%Z%`%`$ &P%.&.&+&@&#&$&%&&&*&=&-&;&>&,&  '&                                            ",
"                                    )&    !&K$~&e+;&{&]&^&/&(&_&:&<&[&=%%$}&|&1&2&3&4&5&6&7&8&9&0&a&l%g$b&c&d&e&f&g&h&i&j&k&l&m&n&o&                                                ",
"                                          p&q&r&s&[$t&u&v&w&x&y&z&A&O%B&+$c%C&D&E&F&G&H&I&J&K&L&M&N&O&P&Q&R&d&S&T&U&V&W&X&Y&Z&`& *.*+*@*#*                                          ",
"                                        $*%*&***F$=*-*;*>*,*'*)*!*~*{*]*=$}&^*/*(*_*:*<*[*}*|*1*2*3*O&4*5*6*7*8*9*0*a*b*c*M.d*e*f*g*h*i*w j*                                        ",
"                          k*l*            m*4$n*o*p*q*r*s*t*u*v*w*x*y*z*@$Q%A*N&B*C*D*E*F*G*H*I*J*3*C& &K*g$a%L*M*N*O*P*Q*R*S*T*U*V*W*X*Y*                                          ",
"                          Z*`*           =.=+=@=#=G.$=%=&=*===-=;=>=,='=)=!=l%N&~={=]=^=/=(=_=:=<=[=}=&%g$P%|=1=2=3=4=5=6=7=8=9=0=a=b=c=d=                                          ",
"                          e=f=    g=h=  i=j=k=l=m=n=o=L.p=q=r=s=t=u=v=*%w=.&l%x=y=z=A=B=C=D=E=F=G= %!=w=H==$I=J=K=|=)=L=M=N=O=P=Q=R=S=T=        U=                                  ",
"                        V=W=X=    Y=Z=`= -f@.-+-@-#-$-t+%-&-*-=---;->-*%w=#$O&,-'-)-!-~-{-]-^-/-(-C&!=_-+$+$z*:-Y$z*<-[-}-|-1-2-3-4-5-        6-7-                                  ",
"                          8-9-0-a-b-c-y%d-e-f-g-h-i-j-k-l-m-n-o-p-q-v=X$Y$!=l%3*r-s-t-u-v-w-x-y-z-|&&%A-B-d&p$C-X$D-Y$E-F-G-H-I-D.J-h+K-L-  M-N-                                    ",
"                        O-P-<#Q-g+R-S-T-U-R#V-W-X-Y-Z-`- ;.;+;@;#;$;>-a%g$#$O& %%;&;*;=;-;;;>;,;d%Q%}&+$ $p$';C&.$+$);!;~;{;];^;/;(;_;:;2#<;[;};                                    ",
"                          |;1;2;3;4;5;6;7;8;I-9;0;0$Z-`-a;b;c;d;e;f;,=a%g$!=o$`$g;h;i;j;k;l;m;n;,%K*g$D-p$7%o;m%p;b%.$q;W#r;X@s;t;u;v;w;w.x;y;                                      ",
"                          z;A;B;C;D;E;F;G;@.Z&H;q*I;J;&&K;L;M;N;O;P;v=Q;w=K*R;S;T;U;V;W;X;Y;Z;`;|&}&@$a%p$W$h$=%=%7* >.>+>@>#>$>%>&>*>&>=>->;>                                      ",
"                          >>R@,>'>)>!>~>{>]>^>/>J.(>_>:><>[>}>|>1>2>3>*%@$&%|&[=4>t;5>D&6>7>8>N& &w=$$9>]*B&}&3=3=%$7%0>a>b>c>d>e>f>g>h>i>j>k>                                      ",
"                          l>m>n>o>4$8#~>p>q>n=r>s>t>u>v>w>x>y>+;z>A>{*B>@$C>R;D>E>5>n;(-F>G>`; %h$m%%$I=&$]*w=H>]*d&I>J>K>L>M>N>O>P>Q>R>S>e-                                        ",
"                            $+T>U>V>W>X>Y>Z>`>a. ,.,+,@,#,$,%,&,*,=,p;-,n%o;o$D>x=z-;,>,,,',),A*}&n%!,W$3>B&7*~,W$+${,],^,/,(,_,:,<,[,},|,                                          ",
"                            1,2,3,4,T-~>5,6,7,c#M.Z-8,9,0,a,b,c,d,P;>-z*n%h$|&A* %j$e,z=f,g,h,,%g$n%B>&$p;p$W$P;{*i,j,k,l,m,n,R#o,p,q,r,s,t,                                        ",
"                            u,v,h*w,x,($n,y,z, ,N=A,B,C,D,E,F,G,H,P;2>I,$$o;}=C&[=J,K,L,M,N,h,i$H=+$a%p;O,P,,=~,Q,R,S,T,U,V,W,X,Y,P#Z,$+`, '                                        ",
"                              .'+'@'#'[$$'%'&'*'='-'&&;'>',''')'!'a; >~'+$g$.&C&d%{']'^'&;/'('`$Y$P%X$v=H>z*H>,='=_':'<'K>['(,}'|'1'2'[#F%3'                                        ",
"                              4':$5'D.z$6'7'8'9'0'a'b'c'd'e'f'g'h'q= >9>7*w=h$ &D>l$i'E&j'k'3*S;H=n%'=H>H>%$>-I=*%l'm'n'a>o'p'$>U*q'r'@=s't'                                        ",
"                              C;u'T-v'w'x'y'z'A'B'C'D'E'F'G'H'I'J'K' >I,b%A-}&Q%d%L'M'N'O'P' %i$H=b%3=Q',=A-v= $n%R'S'T'U'V'}$W'X'Y'Z'`'l= )**                                      ",
"                            .)  +)@)#)$)%)},&)*)=)-);)>)-%,)')))!)~);-{) $+$H=}=])^)/)()_);,a&A*P%*%]*Q'3>}=v=w=:)<)[)})|)1)2)3)4)5)T-e+6)7)8)                                      ",
"                            9)0)a)b)c)d)e)~%/,f)g)h)i)j)v=k)l)m)n)o)p)q)D-7*P%.&S;J*r)s)t)y=u),%m%%$B&3>{*v).$w)x)y)z)A)e#B)C)D)E)F)G)H)I)J)K)L)                                    ",
"                              M)N)O)P)Q)R)S)T)U)V)W)X)D'Y)Z)`) !.!+!$;3>a%%$P%Z$O&g;@!#!$!%!&!O&g$b%z*=%&$*!7%=!-!;!>!,!'!)!!!~!{!]!^!/!(!  2,                                      ",
"                                _!:!<![!}!|!1!2!3!4!5!:>6!6!7!8!9!0!a!b!|=X$n%Y$#$[=c!d!e!f! %l%&%A-*%p;]*g!'=h!,%i!j!k!l!m!n!o!p!q!r!s!t!u!                                        ",
"                              v!w!x!y!z!A!/!B!C!D!E!9'&=F!G!H!I!J!K!F!~,3=7%d&@$Z$A*R%L!M!N!a&S;h$P%X$&$W$O!$$P!D>Q!R!S!T!Y&U!V!W!X!Y!Z!`! ~                                        ",
"                              l*.~+~@~_!#~X>$~%~&~*~=~-~3>p;;~>~,~'~)~!~Q'W$*%@$K*C&~~{~]~^~/~d%C>+$D-]*(~_~:~<~[~}~|~1~2~B)n!3~4~5~6~7~8~9~                                        ",
"                              0~a~l=b~c~d~e~f~g~h~i~j~k~l~{*m~n~o~p~q~r~~,3=a%=$Y$l%s~t~u~v~w~x~R;@$a%|=I=y~z~,,A~B~C~D~V#E~F~G~%>H~S+I~J~K~                                        ",
"                          L~p&M~N~O~P~Q~`'3.R~S~T~U~J;V~W~Q,X~Y~Z~`~ {.{f;+{z*b%Y$|&@{#{${%{&{<=,%H=!,X$*{={-{;{>{,{'{){!{#-~{{{]{^{/{({_{                                          ",
"                            :{<{[{}{|{1{2{B 3{4{5{6{7{8{9{=%0{a{b{c{d{e{f;=%|=b%Y$}=f{g{h{i{j{k{ %l{*%D-m{n{o{p{q{r{s{t{u{v{w{x{]&y{x;z{A{                                          ",
"                            [%B{C{D{E{F{.-G{p&o*H{I{J{K{E'L{M{N{O{P{Q{R{6!H>]*D-)= &f{S{T{U{V{W{,-#$ $X{X{Y{o{Z{`{>! ].]+]@]#]$]%]&]7)w;*]=]-]                                      ",
"                                ;]>],]']E;)]!]~]{]]]^]/](]_]:]<][]}]|]1]2]3]=%a%@$Z$J,4]5]6]7]8]9]O&)=D-7*n%0]a]b]c]d]e]f]r>g]h]}$i]j]:;L@                                          ",
"                                k]l]m]:,n]o]p]q]r]]{u%^&s] >t]u]v]w]x]y]z]A]H>*{+$&%a&B*B]C]D]E]F]3*.&7*d&o%<~G]H]I]J]K]I%T)L]M]N]O]x y P]                                          ",
"                                Q]R]S]v'T]S-.@U]s.V]W]7=X]Y]Z]`] ^.^+^@^#^!~A>.$D-w=,%K,$^%^&^*^=^-^i$+$=$b%;^>^,^'^)^!^~^{^$-]^^^/^(^x,_^:^<^[^}^                                  ",
"                                |^1^2^3^D.G{4^5^6^7^8^9^~;.>;-0^a^b^c^d^e^f^i#H>]*7*g^h^i^j^k^l^m^n^o^o;@$m%~~6>i$p^q^V~L.U~r^s^t^u^v^o]w^y;x^F$y^  z^u.A^                          ",
"                                  B^C^k]D^E^F^)]G^H^I^J^K^L^.$M^N^O^P^Q^R^.{!~;-{*!,&%d%S^T^U^V^W^X^m$`$l{l{i$N!Y^Z^`^u+{;/, /./+/@/#/1'$/%/&/*/  =/-/;/                            ",
"                                    p&>/u',/T@e+'/e>)/!/~/{/a%>-A>]/^///(/_/:/</ >3=[/O&}/|/1/2/3/4/e%5/|&6/c&7/8/9/F-j)0/a/b/c/d/H.e/f/g/h/      i/j/                              ",
"                                    k/l/m/n/o/p/q/r/s/t/u/8,v/w/o;]/x/y/z/A/B/C/D/v=7%)=!=E/F/G/H/I/J/K/L/M/#$u)N/O/P/Q/(>)!R/S/T/U/V/W/A%_;                                        ",
"                                  X/    Y/Z/`/ (.(+(@(#(7=>*$(%(&(*(=(-(;(>(,('()(!(p;'=+$~({(](^(/(((_(]':(M/C&<([(}(|(g]v{}$1(2(C$3(6'                                            ",
"                                N~4(8)5(6(7(8(9(0(a(b(];{;c(d(c%e(f(P;t]g(h(i(j(k(l(O%3=|=n%&%i$m(n(o(p(q(r([=,%`$a&s(t(u(9^v(w(x(y(_,q/z(                                          ",
"                                    A(B(C(D(E(F(G()+4(H(I(/]J(K(L(M(N(=,0^O(P(Q(R(S(T(3>>-z*d&o;`$U(V(W(X(e%3*d%Y(Y( %Z(`( _._|,+_@_y #_                                            ",
"                                      $_r&C^%_&_*_=_-_N];*;_D~>_m{e(8*,_'_a^0^)_!_~_{_]_^_/_3=D-o;D>(___:_<_`;.%o^3*[_[=}_|_1_2_3_4_/!                                              ",
"                                        5_6_[#7_8_9_0_Y!a_|-b_J]c_d_e_f_t]O( ^,)g_@^h_i_j_k_l_O%z*g$O&m_n_o_p_q_r_s_t_u_v_w_x_1(y_z_A_                                              ",
"                                        B_C_D_E_F_G_H_X'I_L.J_K_L_M_N_O_6/>%x/ ^,)P_Q_R_@^j_S_T_U_P,@$V_W_X_Y_Z_`_ :k$,-D>.:+:5~@:#:                                                ",
"                                          $:I$%:&:*:=:-:;:>:,:i)':O%v)):!:~'~: ^ ^{:z/]:^:/:')(:k__:::P%}=`$<:[:}:|:1:2:J*3:e%4:5:6:                                                ",
"                                            7:8:q*9:0:v(a:b:c:d:e:f:!~g:h:^*|=Z)i:j:k:P_l:a{m:n:o:p:q:h&%$l{i$m(r:s:t:u:v:w:x:y:z:A:                                                ",
"                                            B:C:D:E:t&F:G:H:I:J:K:L:M:3>N:l{@$6!O:M{0{P:Q:R:S:T:U:V:W:X:Y:Z:b%}&[=`: <.<+<@<#<$<%<o!&<                                              ",
"                                              *<=<-<;<><,<'<)<!<X]~<{<Q' $]<d&W$^</<(<_<:<<<[<}<|<1<2<3<4<5<6<7<~'w=.&,%`$d%.& &*%8<9<                                              ",
"                                              0<a<P~b<c<d<e<f<^+g<s*h<i<a;]*7%*{ >=(M{j<k<l<m<n<o<p<q<r<s<t<u<v<w<x<f;Q'~,H>a!^<`]y<z<                                              ",
"                                                A<L$B<C<D<E<F<u&G<H<I<J<K<>-3>W$.$=,L<M<N<O<k<N<P<Q<g_R<S<T<U<O(M</<M<q$V<W<N<X<Y<Z<`<                                              ",
"                                                  C;y^ [.[d-+[@[^^G:#[$[f)%[~: >H>H>o)t](<&[k<*[*[=[*[-[;[-[>[,['[)[![~[~[{[*[][^[g-                                                ",
"                                                    /[([_[y;:[<[[[}[|[1[1)2[3[6!p){*p;A>4[x/N<5[*[,[,[6[7[8[9[8[8[)[,[0[a[&[W<b[c[d[                                                ",
"                                                      e[Z'f[g[h[.+@'i[j[v%@]m!k[a;l[*{ $p$ >l[j<&[=[&[m[&[5[O(N^n[o[>%p[N^{[q[r[s[                                                  ",
"                                                        2#t[u[v[w[x[y[d@z[._A[;:B[C[D[E[d&!=D-{*P;A>Z]F[G[a;H[I[J[.$!~j<K[L[M[N[                                                    ",
"                                                          O[  P[  Q[R[S[T[U[V[W[X[Y[Z[`[ }*[j<Z]W$b%.}+}@}#}$}%}P;^<&}*}=}-}                                                        ",
"                                                                  ;}O@>}k ,}'})}!}~}{}]}1[^}/}(}_}:}<}[}}}|}1}2}3}4}5}6}7}8}                                                        ",
"                                                                        y^9}0}a}.-b}c}d}e}f}g}h}i}j}k} /J@l}H-m}n}o}p}q}                                                            ",
"                                                                        r}s}t}u}8(v}w}x}y}z}{]A}B}C}D}E}H{F}G}H}I}J}K}                                                              ",
"                                                                              L}M}N}O}%_U>P}Q}R}S}T}U}V}W}X}Y}Z}`}                                                                  ",
"                                                                                    B( |v}o>.|a}+|@|#|.@!]$|3;                                                                      ",
"                                                                                        %|&|*|=|-|;|>|,|'|                                                                          ",
"                                                                                                                                                                                    ",
"                                                                                                                                                                                    ",
"                                                                                                                                                                                    ",
"                                                                                                                                                                                    ",
"                                                                                                                                                                                    ",
"                                                                                                                                                                                    ",
"                                                                                                                                                                                    ",
"                                                                                                                                                                                    ",
"                                                                                                                                                                                    ",
"                                                                                                                                                                                    ",
"                                                                                                                                                                                    ",
"                                                                                                                                                                                    ",
"                                                                                                                                                                                    "};
