/* XPM */
static char * chili_2_xpm[] = {
"90 100 2295 2",
"  	c None",
". 	c #AC8320",
"+ 	c #CABB1A",
"@ 	c #DCD916",
"# 	c #938902",
"$ 	c #8B8710",
"% 	c #A3B517",
"& 	c #C7C117",
"* 	c #807807",
"= 	c #80780A",
"- 	c #9C9D19",
"; 	c #BBB71F",
"> 	c #656605",
", 	c #4D5005",
"' 	c #758510",
") 	c #AAA719",
"! 	c #5B5A06",
"~ 	c #3F4D08",
"{ 	c #778013",
"] 	c #83840A",
"^ 	c #4D4C04",
"/ 	c #454C0A",
"( 	c #888E18",
"_ 	c #7A7E09",
": 	c #434403",
"< 	c #645313",
"[ 	c #DF3918",
"} 	c #E0391B",
"| 	c #B3A931",
"1 	c #4F5302",
"2 	c #3D3900",
"3 	c #E22B17",
"4 	c #E62716",
"5 	c #E92E17",
"6 	c #E52B16",
"7 	c #EE3019",
"8 	c #DE341A",
"9 	c #9B9B26",
"0 	c #424001",
"a 	c #353102",
"b 	c #EA2E18",
"c 	c #EB321A",
"d 	c #E9311B",
"e 	c #ED2B15",
"f 	c #F32D16",
"g 	c #EF2C19",
"h 	c #DE2212",
"i 	c #EC2817",
"j 	c #DC2B14",
"k 	c #D93319",
"l 	c #466505",
"m 	c #6A6D0C",
"n 	c #3A3700",
"o 	c #2C2C00",
"p 	c #D9381D",
"q 	c #D8341C",
"r 	c #ED2D19",
"s 	c #EA2714",
"t 	c #EF2D18",
"u 	c #F02918",
"v 	c #F12815",
"w 	c #F22C12",
"x 	c #F62F16",
"y 	c #EE2D14",
"z 	c #E72A16",
"A 	c #EA2715",
"B 	c #E82816",
"C 	c #6A7D0A",
"D 	c #646307",
"E 	c #363100",
"F 	c #333001",
"G 	c #E5311E",
"H 	c #DC2E18",
"I 	c #DA2B19",
"J 	c #DC2E1B",
"K 	c #EB2E18",
"L 	c #F02D16",
"M 	c #F12A17",
"N 	c #FA3219",
"O 	c #F32E16",
"P 	c #F52A16",
"Q 	c #F73115",
"R 	c #F72F18",
"S 	c #F63415",
"T 	c #F13513",
"U 	c #EC2717",
"V 	c #F02D15",
"W 	c #8C9715",
"X 	c #545303",
"Y 	c #393401",
"Z 	c #2B2C01",
"` 	c #E5301A",
" .	c #DE2B18",
"..	c #DF2C19",
"+.	c #D92C1A",
"@.	c #D9351C",
"#.	c #EC341C",
"$.	c #ED2F19",
"%.	c #EF3117",
"&.	c #F52F14",
"*.	c #F82C15",
"=.	c #F93517",
"-.	c #FA3116",
";.	c #F63116",
">.	c #FA3515",
",.	c #F33417",
"'.	c #E72C13",
").	c #EC2A13",
"!.	c #5D4604",
"~.	c #9DA629",
"{.	c #413D01",
"].	c #2F2C00",
"^.	c #1F2903",
"/.	c #E8311B",
"(.	c #E02A18",
"_.	c #E12E19",
":.	c #E32D1A",
"<.	c #DF2B17",
"[.	c #DF321B",
"}.	c #F02E18",
"|.	c #F02914",
"1.	c #F42D14",
"2.	c #FC3113",
"3.	c #FB3115",
"4.	c #FB3713",
"5.	c #FC3716",
"6.	c #FE3914",
"7.	c #FD3715",
"8.	c #F93114",
"9.	c #F73114",
"0.	c #ED2A13",
"a.	c #A74106",
"b.	c #64640F",
"c.	c #9DA72D",
"d.	c #2E2D00",
"e.	c #2E2B00",
"f.	c #1A2200",
"g.	c #EE3719",
"h.	c #F13916",
"i.	c #EF2D16",
"j.	c #F12A18",
"k.	c #E72718",
"l.	c #E72D1B",
"m.	c #E42A18",
"n.	c #E52D1B",
"o.	c #F12F19",
"p.	c #F52F17",
"q.	c #FC3917",
"r.	c #FF4016",
"s.	c #FF4A16",
"t.	c #FF4E18",
"u.	c #FF4B15",
"v.	c #FF4C17",
"w.	c #FF5018",
"x.	c #FF4E17",
"y.	c #FF4219",
"z.	c #FA3F12",
"A.	c #5E3104",
"B.	c #6C6A16",
"C.	c #8F932B",
"D.	c #5E6308",
"E.	c #2B2A00",
"F.	c #2E2900",
"G.	c #3E3803",
"H.	c #FD501E",
"I.	c #F74617",
"J.	c #FB3919",
"K.	c #FC3419",
"L.	c #F6301A",
"M.	c #EF2C18",
"N.	c #E32616",
"O.	c #E42A1A",
"P.	c #E52F1B",
"Q.	c #E92417",
"R.	c #EE2314",
"S.	c #FF4614",
"T.	c #FF4D16",
"U.	c #FF5619",
"V.	c #FF5A18",
"W.	c #FF5916",
"X.	c #FF6018",
"Y.	c #FD6218",
"Z.	c #FD6D19",
"`.	c #F77F1E",
" +	c #433800",
".+	c #5C5806",
"++	c #A19D3A",
"@+	c #D5D269",
"#+	c #444204",
"$+	c #3B3601",
"%+	c #342F00",
"&+	c #4E4302",
"*+	c #9C5914",
"=+	c #FD5211",
"-+	c #FE4617",
";+	c #FF3C17",
">+	c #FA3114",
",+	c #F13114",
"'+	c #F02A16",
")+	c #EF2D1B",
"!+	c #E72D1C",
"~+	c #ED3118",
"{+	c #F42A16",
"]+	c #F3321B",
"^+	c #EE2616",
"/+	c #F52B15",
"(+	c #FC3C12",
"_+	c #FF5417",
":+	c #FF5A17",
"<+	c #FF631A",
"[+	c #FF671D",
"}+	c #FF6C19",
"|+	c #FF7A1E",
"1+	c #B15E0C",
"2+	c #282900",
"3+	c #6C5B06",
"4+	c #6E6808",
"5+	c #444100",
"6+	c #93912F",
"7+	c #736F17",
"8+	c #464302",
"9+	c #393500",
"0+	c #4F4405",
"a+	c #4B4005",
"b+	c #F47C20",
"c+	c #FF521A",
"d+	c #FF4818",
"e+	c #FC3816",
"f+	c #F93716",
"g+	c #F83618",
"h+	c #F1311A",
"i+	c #EC2F1B",
"j+	c #E4301C",
"k+	c #F22F18",
"l+	c #F83113",
"m+	c #FB3013",
"n+	c #F7331A",
"o+	c #F5301A",
"p+	c #F93015",
"q+	c #FD3A15",
"r+	c #FF4813",
"s+	c #FF5F1B",
"t+	c #FF671A",
"u+	c #FF721C",
"v+	c #FF771D",
"w+	c #CD610E",
"x+	c #654E09",
"y+	c #755F09",
"z+	c #6D6509",
"A+	c #958D1D",
"B+	c #514C05",
"C+	c #767217",
"D+	c #A39E2F",
"E+	c #92942C",
"F+	c #8B8D2E",
"G+	c #4B4806",
"H+	c #323100",
"I+	c #352E00",
"J+	c #5D4D0A",
"K+	c #484107",
"L+	c #FF6820",
"M+	c #FF561C",
"N+	c #FD4319",
"O+	c #FD4516",
"P+	c #FB3B18",
"Q+	c #F43619",
"R+	c #EB301B",
"S+	c #E6301D",
"T+	c #F1351A",
"U+	c #F02F19",
"V+	c #FE3615",
"W+	c #FF5116",
"X+	c #FF2915",
"Y+	c #F82914",
"Z+	c #FF4315",
"`+	c #FF4E16",
" @	c #FF6A1B",
".@	c #FF731E",
"+@	c #FF8416",
"@@	c #090D00",
"#@	c #656002",
"$@	c #414200",
"%@	c #67600A",
"&@	c #6B6B0D",
"*@	c #655E09",
"=@	c #A69F31",
"-@	c #B5B144",
";@	c #AAA432",
">@	c #96982A",
",@	c #63650C",
"'@	c #5A5A0B",
")@	c #484601",
"!@	c #332F00",
"~@	c #423902",
"{@	c #65570A",
"]@	c #322903",
"^@	c #FF7125",
"/@	c #FF5119",
"(@	c #FF4A18",
"_@	c #FF4319",
":@	c #FA3818",
"<@	c #EB2B1A",
"[@	c #EC2D1A",
"}@	c #EA2C1B",
"|@	c #E22E1C",
"1@	c #F6331C",
"2@	c #F62F1A",
"3@	c #FF3716",
"4@	c #FD2E16",
"5@	c #F93413",
"6@	c #FF5317",
"7@	c #FF5C18",
"8@	c #FF6D1C",
"9@	c #FF791F",
"0@	c #FF8520",
"a@	c #530000",
"b@	c #FE1200",
"c@	c #B81005",
"d@	c #372600",
"e@	c #483600",
"f@	c #605C07",
"g@	c #B2A52F",
"h@	c #C8C048",
"i@	c #C6C249",
"j@	c #D0C443",
"k@	c #938E1A",
"l@	c #444900",
"m@	c #5B5C08",
"n@	c #4D4D00",
"o@	c #453F02",
"p@	c #574A03",
"q@	c #403500",
"r@	c #5D4205",
"s@	c #392E02",
"t@	c #FF5F21",
"u@	c #FF5418",
"v@	c #FB3A19",
"w@	c #F32D19",
"x@	c #ED2E17",
"y@	c #ED2E1C",
"z@	c #F6301C",
"A@	c #FC3216",
"B@	c #FE3815",
"C@	c #FF4215",
"D@	c #FF6C1E",
"E@	c #FF761E",
"F@	c #FE9225",
"G@	c #F10000",
"H@	c #FA0303",
"I@	c #E10002",
"J@	c #CA0103",
"K@	c #C90203",
"L@	c #AD0002",
"M@	c #5B0600",
"N@	c #6E4C03",
"O@	c #6D5C00",
"P@	c #A99619",
"Q@	c #A8981B",
"R@	c #786908",
"S@	c #878B14",
"T@	c #858711",
"U@	c #70700E",
"V@	c #4F4600",
"W@	c #352B01",
"X@	c #72660A",
"Y@	c #836517",
"Z@	c #6E5410",
"`@	c #F78327",
" #	c #FF5F1C",
".#	c #FF5017",
"+#	c #FB4119",
"@#	c #EF3018",
"##	c #ED2F1B",
"$#	c #E4301B",
"%#	c #EB2B1B",
"&#	c #EE2B1B",
"*#	c #EF2B1A",
"=#	c #F42D18",
"-#	c #F42715",
";#	c #FC3515",
">#	c #FF4615",
",#	c #FF6E1B",
"'#	c #FF8521",
")#	c #F40000",
"!#	c #FE0900",
"~#	c #EE0000",
"{#	c #EF0000",
"]#	c #F30100",
"^#	c #FC0200",
"/#	c #F90200",
"(#	c #FF0200",
"_#	c #F90000",
":#	c #750600",
"<#	c #581801",
"[#	c #6D2800",
"}#	c #562800",
"|#	c #A39019",
"1#	c #A4971D",
"2#	c #4B4300",
"3#	c #3C2A00",
"4#	c #615A0A",
"5#	c #63550F",
"6#	c #92832B",
"7#	c #231502",
"8#	c #FF6419",
"9#	c #FD4518",
"0#	c #F83A18",
"a#	c #F33018",
"b#	c #EC2B1C",
"c#	c #E82E1B",
"d#	c #E82D1E",
"e#	c #E62B1D",
"f#	c #DE291B",
"g#	c #E82D1B",
"h#	c #EE2D1C",
"i#	c #F02C1B",
"j#	c #F22B1A",
"k#	c #F2271B",
"l#	c #F62E17",
"m#	c #F42C17",
"n#	c #F82C16",
"o#	c #FF3C15",
"p#	c #FF6C1B",
"q#	c #FF7E20",
"r#	c #FF8625",
"s#	c #FC0700",
"t#	c #FF0900",
"u#	c #EA0002",
"v#	c #F00000",
"w#	c #FC0000",
"x#	c #FE0300",
"y#	c #FF1A00",
"z#	c #FF0C00",
"A#	c #FF0300",
"B#	c #FA0000",
"C#	c #E60000",
"D#	c #E70001",
"E#	c #DE0003",
"F#	c #D20000",
"G#	c #7C1C01",
"H#	c #675D00",
"I#	c #684E02",
"J#	c #3C1B00",
"K#	c #4E1300",
"L#	c #3B1101",
"M#	c #4B1600",
"N#	c #551801",
"O#	c #FE8624",
"P#	c #FE5F19",
"Q#	c #FF5319",
"R#	c #FA4016",
"S#	c #F73618",
"T#	c #F13018",
"U#	c #F02E1A",
"V#	c #EC2D1B",
"W#	c #EB2E1D",
"X#	c #E5281A",
"Y#	c #E22919",
"Z#	c #ED2E1A",
"`#	c #EE2918",
" $	c #F02A19",
".$	c #F22A1A",
"+$	c #F72A16",
"@$	c #F32614",
"#$	c #F92A15",
"$$	c #F62C14",
"%$	c #FB3415",
"&$	c #FF4C13",
"*$	c #FF6B1D",
"=$	c #FF7522",
"-$	c #FF8621",
";$	c #FFAB2F",
">$	c #F50200",
",$	c #E40000",
"'$	c #F50000",
")$	c #F30000",
"!$	c #FA0101",
"~$	c #FF2A0A",
"{$	c #FF3316",
"]$	c #FF2F13",
"^$	c #FF3218",
"/$	c #FF210B",
"($	c #FF0A03",
"_$	c #FF1907",
":$	c #F70401",
"<$	c #B70000",
"[$	c #8E0100",
"}$	c #980000",
"|$	c #8E0000",
"1$	c #A90000",
"2$	c #A30001",
"3$	c #A00000",
"4$	c #EF9C89",
"5$	c #630000",
"6$	c #FA9329",
"7$	c #FF5917",
"8$	c #FA4417",
"9$	c #FB3F17",
"0$	c #F73316",
"a$	c #F02B19",
"b$	c #EF2A18",
"c$	c #EA291A",
"d$	c #EC2B17",
"e$	c #E82418",
"f$	c #E42B1B",
"g$	c #F42B17",
"h$	c #F62916",
"i$	c #FB3019",
"j$	c #FB2C16",
"k$	c #FA2E14",
"l$	c #FF3114",
"m$	c #FE3F14",
"n$	c #FF5D17",
"o$	c #FF7421",
"p$	c #FF7F25",
"q$	c #FF8E25",
"r$	c #FC1904",
"s$	c #E20000",
"t$	c #E90000",
"u$	c #F70000",
"v$	c #F80000",
"w$	c #FE0301",
"x$	c #FF4120",
"y$	c #FF6B4D",
"z$	c #FF573D",
"A$	c #FF7C60",
"B$	c #FF4A2F",
"C$	c #FF2E18",
"D$	c #FF3D1F",
"E$	c #FF0A00",
"F$	c #ED0000",
"G$	c #DA0000",
"H$	c #D10000",
"I$	c #DA0001",
"J$	c #CE0000",
"K$	c #D80000",
"L$	c #C20004",
"M$	c #AF0002",
"N$	c #E85967",
"O$	c #D93B55",
"P$	c #E02C04",
"Q$	c #FF5F18",
"R$	c #FD4D17",
"S$	c #FC4016",
"T$	c #FA3418",
"U$	c #F32A19",
"V$	c #EF2918",
"W$	c #F32E18",
"X$	c #F72F17",
"Y$	c #ED2818",
"Z$	c #F22B18",
"`$	c #FD2E18",
" %	c #FC3014",
".%	c #FC2E16",
"+%	c #FB2E13",
"@%	c #FE3513",
"#%	c #FF691B",
"$%	c #FF7E26",
"%%	c #FF8729",
"&%	c #FEAF31",
"*%	c #FD0200",
"=%	c #FA0500",
"-%	c #E10000",
";%	c #F20000",
">%	c #FF0A02",
",%	c #FF3C20",
"'%	c #FF7959",
")%	c #FF6D50",
"!%	c #FF856D",
"~%	c #FF8569",
"{%	c #FF4831",
"]%	c #FF6142",
"^%	c #FF0D03",
"/%	c #E80000",
"(%	c #D60000",
"_%	c #D40000",
":%	c #D60001",
"<%	c #D20004",
"[%	c #BF0002",
"}%	c #B50003",
"|%	c #DF394A",
"1%	c #F46F7C",
"2%	c #970006",
"3%	c #FF5416",
"4%	c #FF4516",
"5%	c #FC3A16",
"6%	c #F42F17",
"7%	c #F02D18",
"8%	c #FA3415",
"9%	c #F92F16",
"0%	c #EB2918",
"a%	c #E4291A",
"b%	c #EF2919",
"c%	c #F42717",
"d%	c #F82A14",
"e%	c #F92A13",
"f%	c #FC2D13",
"g%	c #FD2C14",
"h%	c #FF3814",
"i%	c #FF5215",
"j%	c #FF741E",
"k%	c #FF882A",
"l%	c #FF922F",
"m%	c #FC6718",
"n%	c #FF0F00",
"o%	c #EA0000",
"p%	c #E50000",
"q%	c #FF0400",
"r%	c #FF4425",
"s%	c #FF7755",
"t%	c #FF8165",
"u%	c #FFBA9D",
"v%	c #FFC0A4",
"w%	c #FF8C6E",
"x%	c #FF8C71",
"y%	c #FF0F06",
"z%	c #DF0000",
"A%	c #DE0002",
"B%	c #DA000C",
"C%	c #D50011",
"D%	c #C50009",
"E%	c #CE1333",
"F%	c #EF767C",
"G%	c #CF1B3D",
"H%	c #FF8E27",
"I%	c #FF6119",
"J%	c #FF5315",
"K%	c #FF3D15",
"L%	c #FD3116",
"M%	c #FD3C13",
"N%	c #EC2417",
"O%	c #E72C1C",
"P%	c #F12919",
"Q%	c #F32918",
"R%	c #F52716",
"S%	c #FE3013",
"T%	c #FF2E14",
"U%	c #FF2F14",
"V%	c #FF4514",
"W%	c #FF5F19",
"X%	c #FF8226",
"Y%	c #FF8E2C",
"Z%	c #FF952F",
"`%	c #FA0300",
" &	c #FF0B00",
".&	c #E70000",
"+&	c #F60000",
"@&	c #FF0500",
"#&	c #FF492B",
"$&	c #FF7150",
"%&	c #FFB397",
"&&	c #FFC8B0",
"*&	c #FFCDB2",
"=&	c #FFA389",
"-&	c #FF8B71",
";&	c #FF0A01",
">&	c #F40001",
",&	c #EA0001",
"'&	c #DC0001",
")&	c #DC0118",
"!&	c #D5031B",
"~&	c #C8000E",
"{&	c #AC0001",
"]&	c #A40007",
"^&	c #EB6D75",
"/&	c #E24E65",
"(&	c #F44613",
"_&	c #FE6519",
":&	c #FF5717",
"<&	c #FD3516",
"[&	c #FC3215",
"}&	c #F72F16",
"|&	c #E6261A",
"1&	c #E62819",
"2&	c #F52818",
"3&	c #F62816",
"4&	c #FD2F16",
"5&	c #FD2E14",
"6&	c #FF3916",
"7&	c #FF2F16",
"8&	c #FF531B",
"9&	c #FF661B",
"0&	c #FF8327",
"a&	c #FF9130",
"b&	c #FF9631",
"c&	c #FD1100",
"d&	c #FB0700",
"e&	c #DE0000",
"f&	c #F20001",
"g&	c #FF5135",
"h&	c #FFA483",
"i&	c #FFCFB1",
"j&	c #FFB89C",
"k&	c #FF9C85",
"l&	c #FF866E",
"m&	c #FF7358",
"n&	c #FD0C06",
"o&	c #DA0218",
"p&	c #D50821",
"q&	c #C00015",
"r&	c #A80002",
"s&	c #8F0001",
"t&	c #E56773",
"u&	c #E56475",
"v&	c #B50000",
"w&	c #FE6619",
"x&	c #FF5B1A",
"y&	c #FF4517",
"z&	c #FD3C15",
"A&	c #FD3817",
"B&	c #EF2619",
"C&	c #E92C1D",
"D&	c #FB5B19",
"E&	c #EF3D16",
"F&	c #F12B1B",
"G&	c #F32617",
"H&	c #FB2B16",
"I&	c #FC2C17",
"J&	c #FE2E16",
"K&	c #FF3715",
"L&	c #FF3315",
"M&	c #FF5D1A",
"N&	c #FF701C",
"O&	c #FF8527",
"P&	c #FF9831",
"Q&	c #FFA235",
"R&	c #FE1800",
"S&	c #FF462C",
"T&	c #FFC3A7",
"U&	c #FFD7BB",
"V&	c #FFA98D",
"W&	c #FF6143",
"X&	c #FF5233",
"Y&	c #FF543D",
"Z&	c #FF0906",
"`&	c #EC0000",
" *	c #DA0002",
".*	c #DA081F",
"+*	c #DA0F2D",
"@*	c #BB001A",
"#*	c #A00002",
"$*	c #920000",
"%*	c #E35C6C",
"&*	c #E76C7B",
"**	c #B5000A",
"=*	c #FD741D",
"-*	c #FF621C",
";*	c #FF4915",
">*	c #FF4216",
",*	c #FD3417",
"'*	c #F52C18",
")*	c #E22118",
"!*	c #E52A1E",
"~*	c #ED2E1D",
"{*	c #F62B1B",
"]*	c #F82D17",
"^*	c #FA2815",
"/*	c #FC2E18",
"(*	c #FA2C16",
"_*	c #FF3414",
":*	c #FF4015",
"<*	c #FF7020",
"[*	c #FF7D24",
"}*	c #FF8929",
"|*	c #FF9C31",
"1*	c #FFB639",
"2*	c #EB0000",
"3*	c #FE0101",
"4*	c #FE4B34",
"5*	c #FFD6BD",
"6*	c #FFE6CC",
"7*	c #FFD9BE",
"8*	c #FFAC8B",
"9*	c #FF7C64",
"0*	c #FF1105",
"a*	c #FF0000",
"b*	c #D60923",
"c*	c #D91932",
"d*	c #B4001A",
"e*	c #860000",
"f*	c #E05263",
"g*	c #E66A75",
"h*	c #C9051E",
"i*	c #FF7C21",
"j*	c #FF661F",
"k*	c #FF5118",
"l*	c #FF4414",
"m*	c #FB3516",
"n*	c #F82F18",
"o*	c #E82417",
"p*	c #E8261B",
"q*	c #EB2D1E",
"r*	c #EE2C1E",
"s*	c #EF2B1C",
"t*	c #F12B1A",
"u*	c #F2281A",
"v*	c #FE3916",
"w*	c #FA2617",
"x*	c #F92916",
"y*	c #F82715",
"z*	c #FD2F13",
"A*	c #FF7E2B",
"B*	c #FF8B2E",
"C*	c #FF9633",
"D*	c #FF9B34",
"E*	c #FFC93E",
"F*	c #FF2F00",
"G*	c #F00100",
"H*	c #FF1B08",
"I*	c #FFA083",
"J*	c #FFD8BF",
"K*	c #FFDDC1",
"L*	c #FFEBD3",
"M*	c #FF472E",
"N*	c #FD0000",
"O*	c #D40001",
"P*	c #CD0A26",
"Q*	c #CE1432",
"R*	c #A60010",
"S*	c #8A0000",
"T*	c #7F0000",
"U*	c #DE505F",
"V*	c #E2606C",
"W*	c #C7021B",
"X*	c #FF9522",
"Y*	c #FF691C",
"Z*	c #FF5019",
"`*	c #FF4616",
" =	c #F52E1B",
".=	c #E72919",
"+=	c #EA291B",
"@=	c #F03822",
"#=	c #EF301D",
"$=	c #F2291A",
"%=	c #EE281A",
"&=	c #F22C1A",
"*=	c #F52619",
"==	c #FF3A12",
"-=	c #FF4017",
";=	c #FC2A15",
">=	c #F82513",
",=	c #FE3011",
"'=	c #FF5A1B",
")=	c #FF8430",
"!=	c #FF9132",
"~=	c #FF9B37",
"{=	c #FF962F",
"]=	c #FFB52F",
"^=	c #FF3001",
"/=	c #EB0001",
"(=	c #D90000",
"_=	c #E30000",
":=	c #FF1001",
"<=	c #FF4F2D",
"[=	c #FF694A",
"}=	c #FF9677",
"|=	c #FF795B",
"1=	c #FE301D",
"2=	c #CC0001",
"3=	c #CA0624",
"4=	c #CB122F",
"5=	c #A4000A",
"6=	c #800000",
"7=	c #D43D53",
"8=	c #DB4F62",
"9=	c #CB0016",
"0=	c #FF9622",
"a=	c #FF4718",
"b=	c #FA3419",
"c=	c #F22D18",
"d=	c #E72618",
"e=	c #E7291C",
"f=	c #EB2B1D",
"g=	c #FE5E33",
"h=	c #F52917",
"i=	c #FA2819",
"j=	c #E82017",
"k=	c #EE2018",
"l=	c #FF491A",
"m=	c #FC2713",
"n=	c #FD3013",
"o=	c #FF631E",
"p=	c #FF903A",
"q=	c #FF9739",
"r=	c #FF9B39",
"s=	c #FF9029",
"t=	c #FFA931",
"u=	c #FF2D00",
"v=	c #EE0300",
"w=	c #F40C03",
"x=	c #E30001",
"y=	c #FF1505",
"z=	c #FF5A3B",
"A=	c #FF5939",
"B=	c #FD5739",
"C=	c #FF0903",
"D=	c #D50000",
"E=	c #C00001",
"F=	c #CA0724",
"G=	c #D11030",
"H=	c #A30004",
"I=	c #810000",
"J=	c #CF324A",
"K=	c #D74354",
"L=	c #C60011",
"M=	c #FE7719",
"N=	c #FF6C1A",
"O=	c #F8321B",
"P=	c #F32C18",
"Q=	c #E62519",
"R=	c #E6241B",
"S=	c #E92C1C",
"T=	c #EB2F1E",
"U=	c #EF2615",
"V=	c #FA2B18",
"W=	c #E92117",
"X=	c #EE1F17",
"Y=	c #F92616",
"Z=	c #FE3714",
"`=	c #FD2913",
" -	c #FF3313",
".-	c #FF6B20",
"+-	c #FF9139",
"@-	c #FF9A39",
"#-	c #FF9E3C",
"$-	c #FF9429",
"%-	c #FFAF34",
"&-	c #FF2A00",
"*-	c #D30000",
"=-	c #F71305",
"--	c #E00000",
";-	c #FE1506",
">-	c #FF351A",
",-	c #FF4428",
"'-	c #FF3819",
")-	c #FF1004",
"!-	c #FF0101",
"~-	c #DD0000",
"{-	c #CA0622",
"]-	c #C90B28",
"^-	c #9A0000",
"/-	c #820000",
"(-	c #820001",
"_-	c #C82341",
":-	c #CA2642",
"<-	c #C5000C",
"[-	c #FF6E14",
"}-	c #FF711D",
"|-	c #FF631C",
"1-	c #FF4B18",
"2-	c #FB3817",
"3-	c #F82D18",
"4-	c #E4251B",
"5-	c #EC2B1E",
"6-	c #F72C19",
"7-	c #EE2316",
"8-	c #EE2416",
"9-	c #F42B16",
"0-	c #FA2C15",
"a-	c #FC2F15",
"b-	c #FE2D15",
"c-	c #FF3812",
"d-	c #FF7124",
"e-	c #FF943D",
"f-	c #FFA140",
"g-	c #FFA945",
"h-	c #FF9028",
"i-	c #FEAB31",
"j-	c #FF3300",
"k-	c #EF0600",
"l-	c #F81609",
"m-	c #FF0F03",
"n-	c #FF3117",
"o-	c #FF3E25",
"p-	c #FF2A12",
"q-	c #FF0600",
"r-	c #FE0000",
"s-	c #D70000",
"t-	c #CC0000",
"u-	c #BD0000",
"v-	c #C8041E",
"w-	c #BB0217",
"x-	c #910000",
"y-	c #890000",
"z-	c #C11537",
"A-	c #BE0E33",
"B-	c #CB0006",
"C-	c #FF7015",
"D-	c #FF751F",
"E-	c #FF681F",
"F-	c #FF4C18",
"G-	c #FB3B16",
"H-	c #F63017",
"I-	c #F22A18",
"J-	c #E7241B",
"K-	c #ED2B1E",
"L-	c #F52A18",
"M-	c #EE2318",
"N-	c #F42516",
"O-	c #EF2415",
"P-	c #F72A15",
"Q-	c #FB3016",
"R-	c #FF3213",
"S-	c #FE4715",
"T-	c #FF7329",
"U-	c #FEBE6A",
"V-	c #FFBA69",
"W-	c #FFAD53",
"X-	c #FF8F28",
"Y-	c #FFA42F",
"Z-	c #FF4805",
"`-	c #F90A00",
" ;	c #FA1B0A",
".;	c #FF472C",
"+;	c #FE2C13",
"@;	c #FD0500",
"#;	c #F90001",
"$;	c #CB0000",
"%;	c #C30003",
"&;	c #BF0010",
"*;	c #B10005",
"=;	c #8D0000",
"-;	c #850000",
";;	c #8B0000",
">;	c #BB0B2B",
",;	c #B30220",
"';	c #D70003",
");	c #FF8925",
"!;	c #FF7224",
"~;	c #FF5114",
"{;	c #FE4216",
"];	c #F93717",
"^;	c #E92419",
"/;	c #EA2819",
"(;	c #EF2A1B",
"_;	c #EF2519",
":;	c #F02616",
"<;	c #F02317",
"[;	c #F62A17",
"};	c #FC2F14",
"|;	c #FF4611",
"1;	c #FF7425",
"2;	c #FF852D",
"3;	c #FF9C43",
"4;	c #FF9135",
"5;	c #FF902A",
"6;	c #FF9C26",
"7;	c #FF4A06",
"8;	c #FD0F00",
"9;	c #FC2910",
"0;	c #FE0100",
"a;	c #FF4729",
"b;	c #FF220E",
"c;	c #BF0003",
"d;	c #B30003",
"e;	c #A40001",
"f;	c #840000",
"g;	c #900000",
"h;	c #B1041C",
"i;	c #A50007",
"j;	c #D60100",
"k;	c #FF982C",
"l;	c #FF7B2B",
"m;	c #FF5819",
"n;	c #FF4715",
"o;	c #FF3D17",
"p;	c #F83116",
"q;	c #EA2418",
"r;	c #F02C19",
"s;	c #EC2D1D",
"t;	c #EF291C",
"u;	c #E92317",
"v;	c #E62116",
"w;	c #FD2C13",
"x;	c #FE3414",
"y;	c #FF4F14",
"z;	c #FF6E1D",
"A;	c #FF8329",
"B;	c #FF8F30",
"C;	c #FF932F",
"D;	c #FF902B",
"E;	c #FF9427",
"F;	c #FF4E09",
"G;	c #FA1301",
"H;	c #DB0000",
"I;	c #FC2C0C",
"J;	c #EC0402",
"K;	c #FF230C",
"L;	c #FF4C2A",
"M;	c #C70000",
"N;	c #B90001",
"O;	c #AE0006",
"P;	c #9B0000",
"Q;	c #950001",
"R;	c #B00013",
"S;	c #AC0002",
"T;	c #FE9D28",
"U;	c #FF8B2B",
"V;	c #FF7D2C",
"W;	c #FF4716",
"X;	c #F93414",
"Y;	c #FA2D16",
"Z;	c #EC2718",
"`;	c #EC2A1C",
" >	c #EA2C1C",
".>	c #EA271B",
"+>	c #E72215",
"@>	c #E51F16",
"#>	c #F22517",
"$>	c #FB2C13",
"%>	c #FF3214",
"&>	c #FE3A13",
"*>	c #FF4C14",
"=>	c #FF7A21",
"->	c #FF8C2B",
";>	c #FF8F24",
">>	c #FE4B06",
",>	c #FB1400",
"'>	c #FC2708",
")>	c #EB0201",
"!>	c #FE290C",
"~>	c #C90000",
"{>	c #C50000",
"]>	c #B30000",
"^>	c #970000",
"/>	c #A00001",
"(>	c #A60004",
"_>	c #B10000",
":>	c #D60201",
"<>	c #FF9727",
"[>	c #FF8E2E",
"}>	c #FF7E2C",
"|>	c #FF5D18",
"1>	c #FF4C15",
"2>	c #FF3D13",
"3>	c #FC3313",
"4>	c #EE2718",
"5>	c #E02118",
"6>	c #E92719",
"7>	c #E9281C",
"8>	c #E62A1C",
"9>	c #EA2A1B",
"0>	c #EA261B",
"a>	c #EB2919",
"b>	c #EB2418",
"c>	c #E62017",
"d>	c #EC2318",
"e>	c #F82815",
"f>	c #FD2E13",
"g>	c #FF3B13",
"h>	c #FF4512",
"i>	c #FF6118",
"j>	c #FE8024",
"k>	c #FF8D2D",
"l>	c #FF8E28",
"m>	c #FF861E",
"n>	c #FF4B03",
"o>	c #FB1200",
"p>	c #D70100",
"q>	c #F91C09",
"r>	c #EC0403",
"s>	c #FD0600",
"t>	c #DB0001",
"u>	c #C20000",
"v>	c #C00000",
"w>	c #AF0000",
"x>	c #A10000",
"y>	c #940000",
"z>	c #9F0000",
"A>	c #BF0000",
"B>	c #D70302",
"C>	c #FE9227",
"D>	c #FF8D31",
"E>	c #FF8A36",
"F>	c #FF661E",
"G>	c #FD3515",
"H>	c #F62C16",
"I>	c #F52B17",
"J>	c #E5251A",
"K>	c #EC2A1D",
"L>	c #EB291C",
"M>	c #E52B1D",
"N>	c #EC281A",
"O>	c #E32119",
"P>	c #E42216",
"Q>	c #E42116",
"R>	c #E92215",
"S>	c #F62614",
"T>	c #FA2814",
"U>	c #FF3612",
"V>	c #FF4412",
"W>	c #FF5B12",
"X>	c #FF6B18",
"Y>	c #FE7B1D",
"Z>	c #FF8A29",
"`>	c #FF8722",
" ,	c #FF7F1C",
".,	c #FF1600",
"+,	c #FA1200",
"@,	c #EE0E02",
"#,	c #E50202",
"$,	c #BB0000",
"%,	c #9D0000",
"&,	c #8F0000",
"*,	c #AA0002",
"=,	c #9C0000",
"-,	c #CA0201",
";,	c #FF9128",
">,	c #FF8E2F",
",,	c #FF882E",
"',	c #FF6D20",
"),	c #FF4213",
"!,	c #FD3813",
"~,	c #F92D15",
"{,	c #FD2D15",
"],	c #EC2116",
"^,	c #ED2A19",
"/,	c #E92B1D",
"(,	c #EF291B",
"_,	c #F12519",
":,	c #E42018",
"<,	c #E32017",
"[,	c #E42015",
"},	c #EA2116",
"|,	c #ED2215",
"1,	c #F82B14",
"2,	c #FF3311",
"3,	c #FF5512",
"4,	c #FF6718",
"5,	c #FF7619",
"6,	c #FE8322",
"7,	c #FF851F",
"8,	c #FF8018",
"9,	c #FF1100",
"0,	c #FC1D00",
"a,	c #DF0100",
"b,	c #FB0100",
"c,	c #FD0300",
"d,	c #C40000",
"e,	c #B80000",
"f,	c #AA0000",
"g,	c #A90002",
"h,	c #CD0200",
"i,	c #D00000",
"j,	c #FE922C",
"k,	c #FF9030",
"l,	c #FF8A32",
"m,	c #FF6E22",
"n,	c #FF4914",
"o,	c #FF4115",
"p,	c #F83014",
"q,	c #F62B14",
"r,	c #FC2E17",
"s,	c #FD3D16",
"t,	c #FA4711",
"u,	c #F52C17",
"v,	c #F62818",
"w,	c #EA2417",
"x,	c #E11F18",
"y,	c #E62115",
"z,	c #E72415",
"A,	c #E82115",
"B,	c #EE2516",
"C,	c #FE2F12",
"D,	c #FF3B11",
"E,	c #FF5012",
"F,	c #FF6014",
"G,	c #FF6D18",
"H,	c #FF7A1D",
"I,	c #FF7E1D",
"J,	c #FF7A18",
"K,	c #FF3105",
"L,	c #FF2301",
"M,	c #D90100",
"N,	c #F90100",
"O,	c #FE1102",
"P,	c #FB0A00",
"Q,	c #B00000",
"R,	c #AE0000",
"S,	c #A20000",
"T,	c #960000",
"U,	c #A40000",
"V,	c #A80000",
"W,	c #CD0100",
"X,	c #E90B00",
"Y,	c #FF912F",
"Z,	c #FF9334",
"`,	c #FF8930",
" '	c #FF7726",
".'	c #FE4814",
"+'	c #FA3513",
"@'	c #F32916",
"#'	c #F22B17",
"$'	c #FD3916",
"%'	c #FF9640",
"&'	c #FE8D29",
"*'	c #F42410",
"='	c #F02F1D",
"-'	c #E4291C",
";'	c #F62517",
">'	c #E81E17",
",'	c #F32817",
"''	c #E72219",
")'	c #EB2216",
"!'	c #E52219",
"~'	c #EA2216",
"{'	c #F72614",
"]'	c #FF3411",
"^'	c #FF4711",
"/'	c #FF5613",
"('	c #FF6918",
"_'	c #FE731A",
":'	c #FF791D",
"<'	c #FF7C1D",
"['	c #FD7015",
"}'	c #FF1E00",
"|'	c #CD0000",
"1'	c #CF0000",
"2'	c #FA0601",
"3'	c #FD1001",
"4'	c #AC0000",
"5'	c #880000",
"6'	c #7D0000",
"7'	c #B20000",
"8'	c #D30401",
"9'	c #FC500B",
"0'	c #FF8E29",
"a'	c #FF9332",
"b'	c #FF8F33",
"c'	c #FE6D1E",
"d'	c #FC4816",
"e'	c #EB2619",
"f'	c #F02818",
"g'	c #FD4713",
"h'	c #FE7923",
"i'	c #F92B12",
"j'	c #EF2718",
"k'	c #E3271B",
"l'	c #F02816",
"m'	c #FC2F17",
"n'	c #FB3017",
"o'	c #F52615",
"p'	c #EA2515",
"q'	c #E62316",
"r'	c #EA2316",
"s'	c #F02313",
"t'	c #F92712",
"u'	c #FF3C11",
"v'	c #FF4B11",
"w'	c #FF5B13",
"x'	c #FF6C17",
"y'	c #FF7218",
"z'	c #FF781B",
"A'	c #FC7D17",
"B'	c #C30000",
"C'	c #C60000",
"D'	c #DC0000",
"E'	c #FC0A00",
"F'	c #FD2105",
"G'	c #F90400",
"H'	c #AB0000",
"I'	c #A50000",
"J'	c #8C0000",
"K'	c #850100",
"L'	c #930000",
"M'	c #B90000",
"N'	c #D20100",
"O'	c #FE911E",
"P'	c #FF8A2F",
"Q'	c #FF7C20",
"R'	c #FF5816",
"S'	c #FB3C13",
"T'	c #E72617",
"U'	c #F32A17",
"V'	c #FB3414",
"W'	c #E6231A",
"X'	c #E1231A",
"Y'	c #E72B1F",
"Z'	c #E92A1F",
"`'	c #FC3618",
" )	c #FF460E",
".)	c #FF3813",
"+)	c #E72115",
"@)	c #EC2215",
"#)	c #EC2413",
"$)	c #F32514",
"%)	c #F72912",
"&)	c #FF4410",
"*)	c #FF5312",
"=)	c #FF6113",
"-)	c #FF6E19",
";)	c #FF7719",
">)	c #FE851B",
",)	c #FF2100",
"')	c #FF1902",
"))	c #FD0100",
"!)	c #C10000",
"~)	c #9E0000",
"{)	c #990000",
"])	c #BC0100",
"^)	c #CE0200",
"/)	c #FF8B21",
"()	c #FE8326",
"_)	c #FF7E24",
":)	c #FF4714",
"<)	c #E92618",
"[)	c #EB2617",
"})	c #F82F15",
"|)	c #FB3213",
"1)	c #ED2618",
"2)	c #E8251A",
"3)	c #E72A1D",
"4)	c #EA241C",
"5)	c #EF2116",
"6)	c #FF4314",
"7)	c #FE3912",
"8)	c #EB2316",
"9)	c #E92115",
"0)	c #F32615",
"a)	c #F32413",
"b)	c #F62912",
"c)	c #FE3311",
"d)	c #FF4212",
"e)	c #FF6714",
"f)	c #FF7617",
"g)	c #FEA226",
"h)	c #FF1B00",
"i)	c #EE0101",
"j)	c #FE1B05",
"k)	c #FE1F04",
"l)	c #C80000",
"m)	c #BE0000",
"n)	c #8A0100",
"o)	c #810100",
"p)	c #BC0000",
"q)	c #FD7A23",
"r)	c #FF6F1C",
"s)	c #FF5419",
"t)	c #FF3B15",
"u)	c #EE2719",
"v)	c #E82519",
"w)	c #F72C15",
"x)	c #EE2517",
"y)	c #E2211A",
"z)	c #E9281A",
"A)	c #E6271D",
"B)	c #FB4921",
"C)	c #E9291D",
"D)	c #E4281C",
"E)	c #EA261A",
"F)	c #EA251A",
"G)	c #FE4316",
"H)	c #E01E16",
"I)	c #E82216",
"J)	c #F42515",
"K)	c #F62712",
"L)	c #F72913",
"M)	c #FE3112",
"N)	c #FF3F11",
"O)	c #FF4712",
"P)	c #FF6416",
"Q)	c #FF761C",
"R)	c #FAA129",
"S)	c #FF1300",
"T)	c #FB2D0F",
"U)	c #FD2307",
"V)	c #BA0001",
"W)	c #870000",
"X)	c #FF6418",
"Y)	c #FE4214",
"Z)	c #F73213",
"`)	c #EB2616",
" !	c #F02618",
".!	c #F22717",
"+!	c #E3221A",
"@!	c #E0231A",
"#!	c #E7271A",
"$!	c #E52A1C",
"%!	c #F53012",
"&!	c #F1381E",
"*!	c #E8291C",
"=!	c #E3261A",
"-!	c #E8251C",
";!	c #F02417",
">!	c #EA2115",
",!	c #EF2416",
"'!	c #FC3016",
")!	c #FC240F",
"!!	c #FE2D11",
"~!	c #FF3B0F",
"{!	c #FE3F13",
"]!	c #FF4E12",
"^!	c #FF7C1E",
"/!	c #FD9B21",
"(!	c #FE0C00",
"_!	c #FF3C1F",
":!	c #FE1907",
"<!	c #950000",
"[!	c #A70000",
"}!	c #BF0101",
"|!	c #ED1D01",
"1!	c #FF751E",
"2!	c #FF4F16",
"3!	c #FF3515",
"4!	c #F52D16",
"5!	c #E52417",
"6!	c #EE2818",
"7!	c #F62918",
"8!	c #F02617",
"9!	c #E0221A",
"0!	c #DD2119",
"a!	c #E5261C",
"b!	c #E4281D",
"c!	c #EA291E",
"d!	c #E5261B",
"e!	c #E5221B",
"f!	c #EB291D",
"g!	c #F42719",
"h!	c #F32719",
"i!	c #EC2317",
"j!	c #EB2116",
"k!	c #F52413",
"l!	c #FF2C0C",
"m!	c #FF5919",
"n!	c #FF4B13",
"o!	c #FF6117",
"p!	c #FD9620",
"q!	c #FF0901",
"r!	c #FE5437",
"s!	c #FE260F",
"t!	c #AD0000",
"u!	c #830000",
"v!	c #CC0100",
"w!	c #FF7516",
"x!	c #FF4F17",
"y!	c #FD3F14",
"z!	c #F82E16",
"A!	c #F22917",
"B!	c #E62319",
"C!	c #FB2E16",
"D!	c #F02716",
"E!	c #DF2018",
"F!	c #DA211C",
"G!	c #E5281C",
"H!	c #E6291D",
"I!	c #E22C1E",
"J!	c #EC271A",
"K!	c #DF2016",
"L!	c #EC2618",
"M!	c #E9261B",
"N!	c #F82916",
"O!	c #E82215",
"P!	c #F52514",
"Q!	c #FF2C0D",
"R!	c #FF7229",
"S!	c #FA2C12",
"T!	c #FC3013",
"U!	c #FE3D11",
"V!	c #FF811C",
"W!	c #FB9C25",
"X!	c #FC0500",
"Y!	c #FF200D",
"Z!	c #FF674D",
"`!	c #FF240D",
" ~	c #A30000",
".~	c #C60300",
"+~	c #FF631D",
"@~	c #FA2F14",
"#~	c #ED2817",
"$~	c #F52816",
"%~	c #FB2410",
"&~	c #FF611E",
"*~	c #FF3D14",
"=~	c #E1221A",
"-~	c #E2281C",
";~	c #E72B1E",
">~	c #E02E1F",
",~	c #EB2A1A",
"'~	c #F52918",
")~	c #EE2315",
"!~	c #E42217",
"~~	c #ED2415",
"{~	c #E71F16",
"]~	c #F72815",
"^~	c #FD2C0F",
"/~	c #FF3912",
"(~	c #FB2A11",
"_~	c #FD2E12",
":~	c #FF3C12",
"<~	c #FF4910",
"[~	c #FF6D17",
"}~	c #FF871F",
"|~	c #FD9E28",
"1~	c #FF311A",
"2~	c #FF886F",
"3~	c #FF3619",
"4~	c #930002",
"5~	c #DD0200",
"6~	c #FF5E19",
"7~	c #FE3D16",
"8~	c #F32915",
"9~	c #E92217",
"0~	c #F62914",
"a~	c #FF4710",
"b~	c #FF782A",
"c~	c #E51F18",
"d~	c #E4211A",
"e~	c #E3221C",
"f~	c #E1291D",
"g~	c #F22719",
"h~	c #F22617",
"i~	c #EA2318",
"j~	c #E92216",
"k~	c #EF2816",
"l~	c #E61E17",
"m~	c #FB2B11",
"n~	c #FE3612",
"o~	c #F92E12",
"p~	c #FC3112",
"q~	c #FE3913",
"r~	c #FF4A12",
"s~	c #FF731B",
"t~	c #FF8921",
"u~	c #FCA42C",
"v~	c #FA0400",
"w~	c #FF2A16",
"x~	c #FFA38B",
"y~	c #FF6645",
"z~	c #A60000",
"A~	c #950005",
"B~	c #BB0100",
"C~	c #FF761A",
"D~	c #F83216",
"E~	c #EF2717",
"F~	c #E32216",
"G~	c #F42513",
"H~	c #E42A1E",
"I~	c #E8291B",
"J~	c #EF271A",
"K~	c #F72A18",
"L~	c #EA2517",
"M~	c #E42218",
"N~	c #EF2818",
"O~	c #E42119",
"P~	c #EB2417",
"Q~	c #FC2D14",
"R~	c #FE3111",
"S~	c #FD2D11",
"T~	c #FE3810",
"U~	c #FF761B",
"V~	c #FF8E24",
"W~	c #FFA327",
"X~	c #FE1407",
"Y~	c #FF6C53",
"Z~	c #FF341F",
"`~	c #B40000",
" {	c #9A0001",
".{	c #9D000D",
"+{	c #910006",
"@{	c #920001",
"#{	c #C10300",
"${	c #FF7C1C",
"%{	c #F93115",
"&{	c #EF2517",
"*{	c #EB2318",
"={	c #FD2B11",
"-{	c #FE6621",
";{	c #FB3417",
">{	c #E0211A",
",{	c #E1251D",
"'{	c #E5281D",
"){	c #EF2A1D",
"!{	c #F32619",
"~{	c #F62A18",
"{{	c #DE2019",
"]{	c #E02019",
"^{	c #E52318",
"/{	c #E12219",
"({	c #E42118",
"_{	c #FE2F13",
":{	c #FF3413",
"<{	c #FF5A14",
"[{	c #FF9023",
"}{	c #FDAA2D",
"|{	c #E10200",
"1{	c #FF1107",
"2{	c #FF301F",
"3{	c #FB0400",
"4{	c #A30016",
"5{	c #8C0003",
"6{	c #AA0100",
"7{	c #FE6A15",
"8{	c #FF5B16",
"9{	c #F52D17",
"0{	c #ED2515",
"a{	c #FB3214",
"b{	c #FC441C",
"c{	c #EF2719",
"d{	c #E52419",
"e{	c #DA211B",
"f{	c #E3281C",
"g{	c #E6281F",
"h{	c #EB291A",
"i{	c #F72915",
"j{	c #F52216",
"k{	c #E11F16",
"l{	c #DD1F18",
"m{	c #E02117",
"n{	c #DE1F18",
"o{	c #E22017",
"p{	c #F12515",
"q{	c #F82B13",
"r{	c #FC2F12",
"s{	c #FD3712",
"t{	c #FF4313",
"u{	c #FF6517",
"v{	c #FF811F",
"w{	c #FF942A",
"x{	c #FAB52D",
"y{	c #CA0000",
"z{	c #FD1B05",
"A{	c #FC1404",
"B{	c #950004",
"C{	c #A60014",
"D{	c #F31E00",
"E{	c #FF691A",
"F{	c #FD3E13",
"G{	c #F02C18",
"H{	c #F02A17",
"I{	c #FB2F16",
"J{	c #F92B18",
"K{	c #DF221A",
"L{	c #E02319",
"M{	c #D82118",
"N{	c #DE251E",
"O{	c #E8281D",
"P{	c #FF3E17",
"Q{	c #FE260A",
"R{	c #EC2216",
"S{	c #E12018",
"T{	c #ED2416",
"U{	c #FA2D11",
"V{	c #FF3610",
"W{	c #FE3E11",
"X{	c #FE6917",
"Y{	c #FF8920",
"Z{	c #FF9227",
"`{	c #FAC02E",
" ]	c #F20100",
".]	c #FC2C10",
"+]	c #F70B01",
"@]	c #900001",
"#]	c #A3000E",
"$]	c #950007",
"%]	c #FF7214",
"&]	c #FA3714",
"*]	c #EF2D17",
"=]	c #F02917",
"-]	c #F82D16",
";]	c #FA3017",
">]	c #E72417",
",]	c #E42519",
"']	c #DD2219",
")]	c #DE291E",
"!]	c #EA2A1D",
"~]	c #F71D10",
"{]	c #FC953B",
"]]	c #F52415",
"^]	c #ED2317",
"/]	c #EA2416",
"(]	c #F22714",
"_]	c #FA2E13",
":]	c #FF3710",
"<]	c #FF3F12",
"[]	c #FF8620",
"}]	c #FC7F10",
"|]	c #EB0200",
"1]	c #FC1608",
"2]	c #FB3416",
"3]	c #F50A00",
"4]	c #B60000",
"5]	c #8E0001",
"6]	c #A40010",
"7]	c #AF0100",
"8]	c #F12D17",
"9]	c #EF2A17",
"0]	c #ED2718",
"a]	c #EB2719",
"b]	c #DC201A",
"c]	c #E12319",
"d]	c #DB2017",
"e]	c #DF281D",
"f]	c #E72D1E",
"g]	c #ED2719",
"h]	c #F72B12",
"i]	c #E52019",
"j]	c #EB2217",
"k]	c #FD3611",
"l]	c #FF420E",
"m]	c #F73318",
"n]	c #F62B15",
"o]	c #FF3712",
"p]	c #FE811D",
"q]	c #FF8F27",
"r]	c #FF9829",
"s]	c #F00400",
"t]	c #FE0401",
"u]	c #FE3E24",
"v]	c #FD4126",
"w]	c #9C0003",
"x]	c #9A000C",
"y]	c #FF741A",
"z]	c #FF5E18",
"A]	c #FB3117",
"B]	c #F42E16",
"C]	c #E52217",
"D]	c #E12218",
"E]	c #E2251B",
"F]	c #E22419",
"G]	c #EB291F",
"H]	c #F32919",
"I]	c #DD1D17",
"J]	c #EC2418",
"K]	c #FB2E11",
"L]	c #FF9537",
"M]	c #FD3716",
"N]	c #F72813",
"O]	c #F62A15",
"P]	c #F82C13",
"Q]	c #FF781D",
"R]	c #FF8B23",
"S]	c #FF2E17",
"T]	c #FF7659",
"U]	c #FF5336",
"V]	c #960001",
"W]	c #E60200",
"X]	c #F30800",
"Y]	c #D00100",
"Z]	c #B10001",
"`]	c #FF6C16",
" ^	c #FF701A",
".^	c #FF4D13",
"+^	c #FE3A15",
"@^	c #FB3215",
"#^	c #EA2618",
"$^	c #DA221D",
"%^	c #DC221A",
"&^	c #E2251A",
"*^	c #E0261D",
"=^	c #E3271D",
"-^	c #EA2518",
";^	c #F72514",
">^	c #F82712",
",^	c #FF2F12",
"'^	c #FF4C19",
")^	c #FF3E12",
"!^	c #FF4A15",
"~^	c #FF7A1A",
"{^	c #FDAD28",
"]^	c #F10300",
"^^	c #FA0100",
"/^	c #FF6D57",
"(^	c #FF9476",
"_^	c #FA1008",
":^	c #890001",
"<^	c #FD2A06",
"[^	c #F20300",
"}^	c #FE8A21",
"|^	c #FF6C1C",
"1^	c #FF4A14",
"2^	c #FE3E15",
"3^	c #FD3015",
"4^	c #E82718",
"5^	c #D9201B",
"6^	c #E1241B",
"7^	c #DC211B",
"8^	c #DD241A",
"9^	c #D8241C",
"0^	c #E82C1D",
"a^	c #E52119",
"b^	c #F62D18",
"c^	c #FFA048",
"d^	c #FF3A14",
"e^	c #F82C12",
"f^	c #FE4110",
"g^	c #FF6016",
"h^	c #FF7D19",
"i^	c #FE9F1F",
"j^	c #F80100",
"k^	c #FD0B02",
"l^	c #FF7B61",
"m^	c #FF4735",
"n^	c #BA0000",
"o^	c #8B0001",
"p^	c #F50900",
"q^	c #FF2E05",
"r^	c #E30100",
"s^	c #B50001",
"t^	c #FF5611",
"u^	c #FF7F1E",
"v^	c #FF4613",
"w^	c #FC3414",
"x^	c #E52518",
"y^	c #DC1F19",
"z^	c #E3261B",
"A^	c #DC261A",
"B^	c #DF271B",
"C^	c #E62B1C",
"D^	c #E5231A",
"E^	c #E32219",
"F^	c #F62B16",
"G^	c #FB3714",
"H^	c #F92D13",
"I^	c #FF3F10",
"J^	c #FF6115",
"K^	c #FE7316",
"L^	c #FC0302",
"M^	c #FD2917",
"N^	c #FF402A",
"O^	c #F90804",
"P^	c #FE3105",
"Q^	c #FF2004",
"R^	c #FF7B20",
"S^	c #FF5B14",
"T^	c #FF3D18",
"U^	c #FC3516",
"V^	c #F52E17",
"W^	c #DD211B",
"X^	c #DD241B",
"Y^	c #DE241B",
"Z^	c #DE271C",
"`^	c #E62E1D",
" /	c #E7291B",
"./	c #ED2C1C",
"+/	c #E62318",
"@/	c #E72319",
"#/	c #F42B19",
"$/	c #F82D12",
"%/	c #F92911",
"&/	c #FB3112",
"*/	c #FE4211",
"=/	c #FF4D12",
"-/	c #FF6516",
";/	c #FF7C15",
">/	c #FE0D05",
",/	c #FC331A",
"'/	c #FE0D02",
")/	c #F91300",
"!/	c #FE2103",
"~/	c #F00700",
"{/	c #E30900",
"]/	c #FF8221",
"^/	c #FD3D14",
"//	c #FF3F18",
"(/	c #DE241A",
"_/	c #DC231B",
":/	c #DB241C",
"</	c #DC251B",
"[/	c #EB2C1C",
"}/	c #E9261A",
"|/	c #F22916",
"1/	c #FC3413",
"2/	c #FF4F12",
"3/	c #FF6216",
"4/	c #FF5B0D",
"5/	c #F80200",
"6/	c #FC1205",
"7/	c #FB1A0B",
"8/	c #C60001",
"9/	c #FE1B03",
"0/	c #F91400",
"a/	c #FFA028",
"b/	c #FF6017",
"c/	c #FF4D15",
"d/	c #FE3F12",
"e/	c #FF4515",
"f/	c #FC3719",
"g/	c #DB231A",
"h/	c #E2251D",
"i/	c #E5281E",
"j/	c #E7251A",
"k/	c #E8231A",
"l/	c #FC3812",
"m/	c #FF5013",
"n/	c #FF5C13",
"o/	c #C30001",
"p/	c #F80600",
"q/	c #F90301",
"r/	c #EB0500",
"s/	c #FD0C00",
"t/	c #F31D00",
"u/	c #FF6D19",
"v/	c #FF5A16",
"w/	c #FF5016",
"x/	c #FD4119",
"y/	c #F02C1A",
"z/	c #EA2619",
"A/	c #E52319",
"B/	c #DD231A",
"C/	c #EA291C",
"D/	c #EA2519",
"E/	c #E92518",
"F/	c #F22A15",
"G/	c #FE3410",
"H/	c #FF4911",
"I/	c #FF5811",
"J/	c #FE821D",
"K/	c #FB0300",
"L/	c #FF3620",
"M/	c #FF0C04",
"N/	c #CD0001",
"O/	c #FB1000",
"P/	c #FF9322",
"Q/	c #FF7F1D",
"R/	c #FF4916",
"S/	c #F63414",
"T/	c #EF2715",
"U/	c #EC271B",
"V/	c #E42B1C",
"W/	c #EB2A1D",
"X/	c #EE2A1B",
"Y/	c #EC2719",
"Z/	c #EA2617",
"`/	c #FD3411",
" (	c #FF4B12",
".(	c #FF5A13",
"+(	c #EB0101",
"@(	c #FFAE89",
"#(	c #FFC4A6",
"$(	c #FF1D12",
"%(	c #8D0001",
"&(	c #B90100",
"*(	c #FE6C11",
"=(	c #FE4012",
"-(	c #F72F13",
";(	c #F92713",
">(	c #FF9C38",
",(	c #FE3413",
"'(	c #EA271C",
")(	c #ED2C1B",
"!(	c #E82819",
"~(	c #E82518",
"{(	c #F32B16",
"](	c #FD4C13",
"^(	c #FB6315",
"/(	c #FF1204",
"((	c #FDBA9D",
"_(	c #FF1D0F",
":(	c #8A0002",
"<(	c #C70001",
"[(	c #FF811B",
"}(	c #FF771E",
"|(	c #FF681A",
"1(	c #FF5713",
"2(	c #FE3B12",
"3(	c #FC3713",
"4(	c #F42915",
"5(	c #FB9B3F",
"6(	c #FE3610",
"7(	c #E62C1D",
"8(	c #EB2D1C",
"9(	c #FB3316",
"0(	c #FF5615",
"a(	c #FF0700",
"b(	c #FF5536",
"c(	c #FF0902",
"d(	c #FF8420",
"e(	c #FF721D",
"f(	c #FD3415",
"g(	c #FA2F13",
"h(	c #F62915",
"i(	c #FF6315",
"j(	c #FE350F",
"k(	c #EF2C1E",
"l(	c #ED2C1D",
"m(	c #ED2D1C",
"n(	c #EB0E02",
"o(	c #FF5239",
"p(	c #FF1E0F",
"q(	c #FB7614",
"r(	c #FF7B1B",
"s(	c #FF771A",
"t(	c #FF5E15",
"u(	c #FF5513",
"v(	c #FF4312",
"w(	c #FF3B12",
"x(	c #FB3116",
"y(	c #F82B15",
"z(	c #F52518",
"A(	c #EE1F1B",
"B(	c #EE2E1D",
"C(	c #F82C14",
"D(	c #FF6618",
"E(	c #EF0100",
"F(	c #FC0001",
"G(	c #FE3A1E",
"H(	c #FA2800",
"I(	c #FF7213",
"J(	c #FF731A",
"K(	c #FF5313",
"L(	c #FF4812",
"M(	c #FF3817",
"N(	c #FA3217",
"O(	c #E12318",
"P(	c #E6271E",
"Q(	c #E5271C",
"R(	c #E32E1E",
"S(	c #F93013",
"T(	c #FF7D20",
"U(	c #EE0200",
"V(	c #FA0302",
"W(	c #850001",
"X(	c #FF7313",
"Y(	c #FF6819",
"Z(	c #FE4611",
"`(	c #FC3D13",
" _	c #F22B19",
"._	c #E3231C",
"+_	c #E3241C",
"@_	c #EC2F1E",
"#_	c #FD5117",
"$_	c #FF7818",
"%_	c #EE0004",
"&_	c #C40002",
"*_	c #7B0000",
"=_	c #F92303",
"-_	c #FE841A",
";_	c #FF751A",
">_	c #FF6314",
",_	c #FF5812",
"'_	c #FA3414",
")_	c #EF2B18",
"!_	c #E1281D",
"~_	c #E3271C",
"{_	c #E42C1D",
"]_	c #E82E1E",
"^_	c #EE2819",
"/_	c #FF6114",
"(_	c #7C0001",
"__	c #7A0000",
":_	c #FF4605",
"<_	c #FD8017",
"[_	c #FF7F1A",
"}_	c #FF6E17",
"|_	c #FF5910",
"1_	c #F63015",
"2_	c #E92519",
"3_	c #E2221A",
"4_	c #E2271B",
"5_	c #E82A1E",
"6_	c #EC2816",
"7_	c #F73A15",
"8_	c #FB4B14",
"9_	c #FD4C10",
"0_	c #9E0001",
"a_	c #F50300",
"b_	c #E90100",
"c_	c #EB0300",
"d_	c #F02A00",
"e_	c #FE9D1F",
"f_	c #FF861A",
"g_	c #FF7E1B",
"h_	c #FF7819",
"i_	c #FF6816",
"j_	c #FF4D10",
"k_	c #FE3B15",
"l_	c #ED281A",
"m_	c #E72619",
"n_	c #F42917",
"o_	c #F8401A",
"p_	c #EB2B1C",
"q_	c #EA2D1E",
"r_	c #E62E1E",
"s_	c #EE2A18",
"t_	c #FB3818",
"u_	c #FE4A17",
"v_	c #FD4E11",
"w_	c #E00003",
"x_	c #FE1100",
"y_	c #FA0C01",
"z_	c #F60F02",
"A_	c #FF8A1D",
"B_	c #FF871E",
"C_	c #FF761D",
"D_	c #FF6E1C",
"E_	c #FF5918",
"F_	c #FD3B12",
"G_	c #FA3616",
"H_	c #EC2C1B",
"I_	c #E4291B",
"J_	c #F02E19",
"K_	c #F7351D",
"L_	c #E62A1A",
"M_	c #E52719",
"N_	c #F22919",
"O_	c #FB3315",
"P_	c #F83D14",
"Q_	c #FD5A16",
"R_	c #B90300",
"S_	c #930001",
"T_	c #AF0201",
"U_	c #D10200",
"V_	c #ED0900",
"W_	c #F50700",
"X_	c #F91402",
"Y_	c #C50002",
"Z_	c #FB6F16",
"`_	c #FDA228",
" :	c #FF9222",
".:	c #FF7E1F",
"+:	c #FF7B19",
"@:	c #FF5F17",
"#:	c #FF4815",
"$:	c #F73116",
"%:	c #F12C19",
"&:	c #E72719",
"*:	c #E22318",
"=:	c #E6271C",
"-:	c #E92B1A",
";:	c #E52E1B",
">:	c #EA2D1C",
",:	c #EF2B19",
"':	c #FD3F13",
"):	c #FD4C14",
"!:	c #FE3911",
"~:	c #FB260A",
"{:	c #F30E04",
"]:	c #F60B01",
"^:	c #FB0E03",
"/:	c #FF3508",
"(:	c #FF9025",
"_:	c #FE8420",
"::	c #FF7518",
"<:	c #FF6D1A",
"[:	c #FF6815",
"}:	c #FF5C15",
"|:	c #FF5714",
"1:	c #FF3D16",
"2:	c #FA3417",
"3:	c #F6311C",
"4:	c #E7271D",
"5:	c #E82F20",
"6:	c #E82F1D",
"7:	c #E72E1C",
"8:	c #E7281A",
"9:	c #EB2818",
"0:	c #F42B14",
"a:	c #F83312",
"b:	c #FC4212",
"c:	c #FF4713",
"d:	c #FE5614",
"e:	c #FC5B15",
"f:	c #FE5F17",
"g:	c #FF6214",
"h:	c #FF5A12",
"i:	c #FE5611",
"j:	c #FF5214",
"k:	c #FF4B14",
"l:	c #FF3B14",
"m:	c #F83019",
"n:	c #EC2619",
"o:	c #E7291D",
"p:	c #E5301F",
"q:	c #EA2E1D",
"r:	c #F62E15",
"s:	c #F93A10",
"t:	c #F83817",
"u:	c #F93312",
"v:	c #FB3D12",
"w:	c #FB3A11",
"x:	c #FB3314",
"y:	c #F73016",
"z:	c #F82B18",
"A:	c #ED2319",
"B:	c #E7221B",
"C:	c #E8241D",
"D:	c #E7271B",
"E:	c #E92A1D",
"F:	c #E82C1C",
"G:	c #E72E1B",
"H:	c #E82A1B",
"I:	c #E3291A",
"J:	c #E42719",
"K:	c #E7291A",
"L:	c #E62719",
"M:	c #E9291A",
"N:	c #ED2D18",
"O:	c #EB291B",
"P:	c #E9291C",
"Q:	c #E1261B",
"R:	c #EB2E1E",
"S:	c #E72E1F",
"T:	c #E72B1A",
"U:	c #E82B1A",
"V:	c #E72C1B",
"                                                                                                                                                                                    ",
"                                                                                                                                                                                    ",
"                                                                                                                                                                                    ",
"                                                                                                                                                                                    ",
"                                                                                                                                                                                    ",
"                                                                                                        . +                                                                         ",
"                                                                                                        @ # $                                                                       ",
"                                                                                                      % & * =                                                                       ",
"                                                                                                      - ; > ,                                                                       ",
"                                                                                                      ' ) ! ~                                                                       ",
"                                                                                                      { ] ^ /                                                                       ",
"                                                                                                      ( _ : <                                                                       ",
"                                                                                            [ }       | 1 2                                                                         ",
"                                                                                      3 4 5 6 7 8     9 0 a                                                                         ",
"                                                                                b c d e f g h i j k l m n o   p q                                                                   ",
"                                                                              r s t u v w x y z A B C D E F G H I J                                                                 ",
"                                                                            K L M N O P Q R S T U V W X Y Z `  ...+.        @.                                                      ",
"                                                                      #.  $.%.&.*.=.-.;.>.O ,.'.).!.~.{.].^./.(._.:.<.  [.                                                          ",
"                                                                        }.|.1.2.3.4.5.6.7.8.9.0.a.b.c.d.e.f.g.h.i.j.k.l.m.n.                                                        ",
"                                                                      o.p.q.r.s.t.u.v.w.x.y.z.A.B.C.D.E.F.G.H.I.J.K.L.M.N.O.P.                                                      ",
"                                                                    Q.R.Q S.T.U.V.W.X.Y.Z.`. +.+++@+#+$+%+&+*+=+-+;+>+,+'+)+!+                                                      ",
"                                                          ~+  {+  ]+^+/+(+_+:+<+[+}+|+1+2+3+4+5+6+7+8+9+n 0+a+b+c+d+e+f+g+h+i+j+                                                    ",
"                                                          k+l+m+n+o+p+q+r+s+t+u+v+w+x+y+z+A+B+C+D+E+F+G+H+I+J+K+L+M+N+O+P+Q+R+S+            T+                                      ",
"                                                          U+V+W+X+Y+Z+`+V. @.@+@@@#@$@%@&@*@=@-@;@>@,@'@)@!@~@{@]@^@/@(@_@:@<@[@}@          |@                                      ",
"                                                          1@2@3@4@5@6@7@8@9@0@a@b@c@d@e@f@g@h@i@j@k@l@m@n@o@p@q@r@s@t@u@s.v@w@x@y@                                                  ",
"                                                            z@A@B@C@V.D@E@F@G@H@I@J@K@L@M@N@O@P@Q@R@S@T@U@V@W@X@Y@Z@`@ #.#+#U+@###$#                                                ",
"                                                %#  &#*#w@=#-#;#>#W.,#|+'#)#!#~#{#]#^#/#(#~#_#:#<#[#}#|#1#2#3#4#5#6#7#8#:+9#0#a#b#<@c#d#e#  f#                                      ",
"                                            g#h#*#i#j#k#l#m#n#o#V.p#q#r#s#t#u#v#w#]#x#y#z#A#B#C#D#E#F#G#H#I#J#K#L#M#N#O#P#Q#R#S#T#U#V#W#  X#Y#                                      ",
"                                            Z#`# $.$+$@$#$$$%$&$*$=$-$;$!#>$,$'$)$!$~${$]$^$/$($_$:$C#<$[$}$|$1$2$3$4$5$6$7$8$9$0$a$b$c$d$e$f$                                      ",
"                                            <@g$h$i$*.j$k$l$m$n$o$p$q$r$t#s$t$u$v$w$x$y$z$A$B$C$D$E$F$G$H$I$J$K$L$M$N$O$P$Q$R$S$T$U$V$W$X$Y$                                        ",
"                                              Z$`$i$ %.%+%@%S.#%$%%%&%*%=%-%~#;%w#>%,%'%)%!%~%{%]%^%v$/%(%_%:%<%[%}%|%1%2%#%3%4%5%6%7%8%9%0%a%                                      ",
"                                              b%c%d%e%f%g%h%i%j%k%l%m%n%o%p%)$)#w#q%r%s%t%u%v%w%x%y%;%C#z%A%B%C%D%1$E%F%G%H%I%J%K%>.9%L%M%N%O%                                      ",
"                                              P%Q%R%S%T%U%V%W%X%Y%Z%`% &C#.&v#+&w#@&#&$&%&&&*&=&-&;&>&,&,$'&)&!&~&{&]&^&/&(&_&:&C@B@<&[&}&|&1&                                      ",
"                                              2&3&4&5&6&7&8&9&0&a&b&c&d&e&p%G@f&v$q%g&h&i&j&k&l&m&n&u${#,$G$o&p&q&r&s&t&u&v&w&x&y&z&A&h%p+B&C&                                      ",
"                              D&E&          F&G&H&I&J&K&L&M&N&O&P&Q&R&v$G$/%F$o%v$A#S&T&U&V&W&X&Y&Z&v$`&.& *.*+*@*#*$*%*&***=*-*;*>*q+,*'*)*!*                                      ",
"                                        ~*  {*]*^*/*(*_*:*<*[*}*|*1*y#~#G$/%2*2*'$3*4*5*6*7*8*9*0*a*u$2*/%K$b*c*d*}$e*f*g*h*i*j*k*l*m*n*o*p*q*                                      ",
"                                      r*s*t*u*v*w*x*y*z*6@A*B*C*D*E*F*G*G${#o%p%+&w#H*I*J*K*L*M*N*B#)$t$,$O*P*Q*R*S*T*U*V*W*X*Y*Z*`*=. =.=+=    @=                                  ",
"                                    #=$=%=&=*===-=;=>=,='=)=!=~={=]=^=/=(=;%.&_=)#w#:=<=[=}=|=1=N*)#G@p%z%2=3=4=5=e*6=7=8=9=0= @6@a=b=c=d=e=  f=g=                                  ",
"                                      h=i=j=k=5.l=J&m=n=o=p=q=r=s=t=u=v=F#w=s$x=~#+&y=S&z=A=B=C=B#)#~#e&D=E=F=G=H=e*I=J=K=L=M=N=s+a=O=P=Q=R=  S=T=                                  ",
"                                      U=V=W=X=Y=Z=4&`= -.-+-@-#-$-%-&-v=*-=---s$2*+&;->-,-'-)-!-+&G@o%~-F#[%{-]-^-/-(-_-:-<-[-}-|-1-2-3-Y$4-5-                                      ",
"                                        6-7-8-9-0-a-b-c-d-e-f-g-h-i-j-k-D=l-~-e&/%>&m-n-o-p-q-r-+&~#.&s-t-u-v-w-x-/-y-z-A-B-C-D-E-F-G-H-I-J-K-                                      ",
"                                        L-M-N-O-P-Q-R-S-T-U-V-W-X-Y-Z-`-G$ ;-%~-/%;%A#7&.;+;@;#;)$/%.&(%$;%;&;*;=;-;;;>;,;';);X%!;~;{;];P=^;/;                                      ",
"                                        (;_;:;<;[;};c-|;1;2;3;4;5;6;7;8;s$9;C#D=,$~#0;a;X&b;w#_#~#.&z%J$$;c;d;e;S*f;g;h;i;j;k;%%l;m;n;o;p;q;r;s;                                    ",
"                                        t;u;v;h$w;x;C@y;z;A;B;C;D;E;F;G;H;I;J;G$s$F$B#K;L;m-_#)$v#.&H;J$M;N;O;P;e*/-Q;R;S;:%T;U;V;m;W;q+X;Y;Z;%=`; >                                ",
"                                      Z;.>+>@>#>$>%>&>*>8#=>k%->5;;>>>,>H;'>)>K$z%/%'$@&!>N*_#G@`&_=s-~>{>]>1$^>f;/-/>(>_>:><>[>}>|>1>2>3>(*4>5>6>7>8>                              ",
"                                    9>0>a>b>c>d>e>f>g>h>i>u+j>k>l>m>n>o>p>q>r>_%e&C#+&N*s>_#'$/%.&t>H$u>v>w>x>y>I=/-e;z>A>B>C>D>E>F>*>m$G>H>I>J>K>L>M>                              ",
"                                    N>e$O>P>Q>R>S>T>U>V>W>X>Y>Z>`> ,.,+,(%@,#,'&s$t$B#w#r-B#'$2*p%K$$;u-$,w>%,&,T*T**,=,-,H;;,>,,,',6@),!,~,{,],&=^,/,                              ",
"                                    (,_,:,<,[,},|,1,2,),3,4,5,6,7,8,9,0,K$a,~-(%z%D#b,!#c,v$;%C#--D=d,e,v&f,}$|$T*I=g,x>h,i,j,k,l,m,n,o,p,q,r,s,t,u,                                ",
"                                    %=v,w,x,y,z,A,B,C,D,E,F,G,H,I,J,K,L,M,H$F#_%z%C#N,O,P,+&{#_=H;J$v>Q,R,S,T,;;T*/-U,V,W,X,Y,Z,`, '.'+'@'#'$'%'&'*'='                              ",
"                                    -';'>',''')'!'~'{']'^'/'('_':'<'['}'(=~>|'1'e&o%2'3'd&+&`&-%_%~>u-Q,4'%,$*5'6'f;=,7'8'9'0'a'b'c'd'X$e'f'g'h'i'j'k'                              ",
"                                      l'm'n'o'p'q'r's't'u'v'w'x'y'z'A'}'H;B'C'i,D'/%E'F'G'v#p%K$i,C'<$H'I'^>J'K'6'L'T,M'N'O'r#P'Q'R'S'/;T'U'l*V'W'X'Y'                              ",
"                                    Z'0>`' ).)+)@)#)$)%)2,&)*)=)-);)>),)z%{>B'F#z%`&8;')))`&s$s-|'!)7'U,~)L'=;-;6=z>{)])^)/)()_)8#:)=#<)[)})|)1)2)k'                                ",
"                                    3)4)5)6)7)8)9)0)a)b)c)d)E,w'e)f)g)h)e&{>d,H$_=i)j)k)u$F$-%D=l)m)H'3$^-&,n)o)f;3$z>p)N'|+q)r)s)t)u)v):;w)x)y)z)A)                                ",
"                    B)            C)D)E)F)x*G)H)I)J)K)L)M)N)O)/'P)Q)R)S)-%{>B'H$,$v#T)U)+&C#e&F#d,V)1$P;^>J'e*6=W)z>I'$,H$Q)z;X)Y)Z)`)Q. !.!+!@!#!$!                                ",
"                    %!&!          *!=!-!-!.!;!>!,!w)'!)!!!~!{!]!P)^!/!(!-%{>C'F#_=v$_!:!v$2*z%J$u-7'x>}$<!J'f;I=J'P;[!}!|!1!I%2!3!4!5!6!7!8!9!0!a!b!                                ",
"                                  c!d!e!f!g!h!i!j!k!l!m!$>U>g>n!o!I,p!!#--u>C'D=C#q!r!s!N,t$H;|'e,t!%,<!y>y-I=u!x-%,H'v!w!N=x!y!z!A!B!P-C!D!E!F!G!H!I!                              ",
"                                  J!K!L!M!9)N!O!R>P!Q!R!S!T!U!*>4,V!W!X!C#l)$;(=v#Y!Z!`!)$_=H$C'7' ~P;L'=;e*-;f;<!U,1$.~-$+~>#@~#~$~%~&~*~M-0!=~-~;~>~                              ",
"                                  ,~'~)~^;!~~~R>{~]~^~/~(~_~:~<~[~}~|~X!.&l)|'G$)#1~2~3~+&e&J$B'f,%,^>4~|$f;-;f;{)3$7'5~Q)6~7~8~9~0~a~b~+%c~d~e~f~                                  ",
"                                  9>g~h~i~u;j~k~l~~~m~n~o~p~q~r~s~t~u~v~F$$;i,D'+&w~x~y~)#K$l)e,z~}$Q;A~y-I=-;S* ~I'B~C~x's)D~E~F~G~g-M)'~-!''J>H~                                  ",
"                                  I~J~K~L~M~y)N~O~P~Q~R~S~ -T~]!U~V~W~)#p%~>K$--G@X~Y~Z~2*_%{>`~ {g;.{+{5'/-W)@{t!V,#{${P)`+%{&{*{={-{;{I->{,{'{                                    ",
"                                    ){!{~{{{]{^{/{({0~_{_~:{M%<{${[{}{G@|{$;D'--G@1{2{3{s$i,A>_><!=;4{5{/-/-S*U,_>6{l)7{8{Y)9{1)0{a{b{c{d{e{f{g{                                    ",
"                                    h{i{j{k{l{m{n{o{p{q{r{s{t{u{v{w{x{G@--y{-%.&;%z{A{p%|'B'<$z~$*B{C{5'T*I=@{u-f,R,D{E{:&F{G{H{=#I{J{K{L{M{N{                                      ",
"                                    O{P{Q{R{S{({S{({T{0~U{V{W{X{Y{Z{`{ ]--F#C#t$u$.]+]_%C'A>w>x>@]#]$]6=I=f;[!i,H'_>%]o!2!&]*]=]-];]>],]J>'])]                                      ",
"                                    !]~]{]]]D!^]E~/]+>(]_]:]<]G,[][{}]|]~-D'o%{#1]2]3]$;m)4]V,}$5]6]5'T*6=;;y{s-w>7]U~n$;*;.8]9]0]a]b]c]9!d]e]                                      ",
"                                    f]g]h]i]j]k]l]m]n]U=L)o]O)p]q]r]s])$(=z%;%t]u]v]F$C'4]4'3$y>w]x]e*I=-; ~_=(=M'A>y]z]l*A]B]Z$C]D]{{E]F]B!                                        ",
"                                      G]H]I]J]K]L]M]N]O]P]:~~;Q]<'R];%+&e&v#v$S]T]U]C#v>Q,U,}$x-V]J'-;5'x-W]X]Y]Z]`] ^.^+^@^m]#^{{F]$^%^&^*^                                        ",
"                                        =^-^B!;^>^,^'^7~$>)^!^('~^{^]^N,e&v#^^/^(^_^--m)R,3$x-:^S*:^;;g;z~<^[^m)B'}^|^1^2^3^9{4^5^6^7^8^9^                                          ",
"                                        0^#^a^>!b^[&c^d^e^f^n,g^h^i^G@v#,$j^k^l^m^;%*-n^H'P;&,;;o^y-L'{)p^q^r^s^t^u^u{v^o#w^=#x^y^8^z^A^B^                                          ",
"                                        C^|&D^E^i~F^P{G^H^I^.'J^K^s$'$t$+&L^M^N^O^-%~>7' ~<!;;y-J'|$^>m)P^Q^e,Q,/)R^S^{;T^U^V^c]W^X^Y^Z^                                            ",
"                                        `^ /./+/@/#/$/%/&/*/=/-/;/H$;%~#+&>/,/'/2*s-A>U,P;&,;;y-g;&,~))/!/~/4]{/]/N&y;{!^///^,(/_/:/</                                              ",
"                                            [/}/F)Y$@'|/1/^'2/3/4/s${#)#5/6/7/v#(%8/`~=,y>&,S*S*=;L'R,9/0/u-_>a/9@b/c/d/e/f/d{g/E]h/i/                                              ",
"                                              j/k/e'q;'+l/r~m/n/o/2*^^ &p/q/)$D'C'n^V,^>$*;;J'=;$*}$r/s/e&]>t/ ,u/v/w/v^x/y/D]z/A/B/                                                ",
"                                              C/D/#^E/F/G/H/I/J//%G@K/L/M/u$_=N/M'4'z>$*g;g;$*g;T,4]O/C#m)v&P/Q/4,:+c/R/S/O-T/;]U/V/                                                ",
"                                              W/X/Y/Z/F/`/ (.(+(+&+&@(#($(D'l)n^z~P;y>&,%(|$&,L']>/%D'v>&(*(~^s~b/W.*>=(-(;(>(,('(                                                  ",
"                                                )(!(~({(s{](^(v$r-/(((_(~#|'m)H'T,L'S*5':(5'|$I'K$p>$,p)<([(}(|(1(n!2(3(4(t^5(6(7(                                                  ",
"                                                  8('+9(F{0(p%B#a(b(c({#D=<$f,}$=;J'y-5'J'<! ~J$(%m)e,M;;/d(e(n$r~d/f(g(h(i(j(k(                                                    ",
"                                                l(m(9-=.:)n()$#;o(p(o%F#<$3$T,S*W)5'y-=;{)t!M;F#n^4]M'q(r(s(t(u(v(w(x(y([;z(A(                                                      ",
"                                                  B(C(U!D(E(F(G(B#/%$;Q,{)|$S*/-I=f;s&z>_>$;D=d,M'u>H(I(J(p#K(L(M(N(a$O(K{P(Q(R(                                                    ",
"                                                  /,S(w/T(U(B#V(*-M'4'^>y-W)W(6=u!|$S,`~M;H;$;d,C'~/X([-Y(8{Z(`(n* _k.c]._+_3)                                                      ",
"                                                  @_P=#_$_%_2*&_3$L'|$-;*_/-T*e*<!z~M'y{s-D=u>`~=_-_;_>_,_r+$''_)_,]+_!_~_{_                                                        ",
"                                                  ]_^_-+/_ {M;x>y-6=(___*_f;5'~)p)l)K$s$p%i,m):_<_[_}_|_T.5%1_=]2_3_z/4_5_                                                          ",
"                                                    6_7_8_9_g;0_g;J'5'e*;; ~u-e&a_b_b_c_M,d_e_f_g_h_i_j_k_n#l_m_!'n_o_p_q_r_                                                        ",
"                                                    m(s_t_u_v_*_}$g;y>^>[!C'|{w_x_y_z_e,%]A_B_g_C_D_E_F_G_H_|&j/I_J_K_                                                              ",
"                                                    L_M_N_O_P_Q_R_S_T_e,U_V_W_c&X_Y_Z_`_ :.:+:y]N=@:#:$:%:&:*:=:-:                                                                  ",
"                                                      ;:>:C&,:N(':):!:~:{:]:^:/:(:_:::<:[:>_}:|:1>1:2:3:(;4:5:6:                                                                    ",
"                                                          7:8:9:0:a:b:c:d:e:f:g:@:h:i:j:k:S.),l:m: _n:u;o:C)p:                                                                      ",
"                                                              q:m_r','r:s:t:u:v:w:8%x:%$y:z:h=A:B:C:D:E:F:                                                                          ",
"                                                                  G:H:I:J:K:L:M:O{7%N:0]O:P:/,Q:R:S:                                                                                ",
"                                                                          T:U:  V:W#  [/                                                                                            ",
"                                                                                                                                                                                    ",
"                                                                                                                                                                                    ",
"                                                                                                                                                                                    ",
"                                                                                                                                                                                    ",
"                                                                                                                                                                                    ",
"                                                                                                                                                                                    ",
"                                                                                                                                                                                    ",
"                                                                                                                                                                                    ",
"                                                                                                                                                                                    ",
"                                                                                                                                                                                    ",
"                                                                                                                                                                                    "};
