/* XPM */
static char * chili_5_xpm[] = {
"90 100 2295 2",
"  	c None",
". 	c #CABB1A",
"+ 	c #AC8320",
"@ 	c #8B8710",
"# 	c #938902",
"$ 	c #DCD916",
"% 	c #80780A",
"& 	c #807807",
"* 	c #C7C117",
"= 	c #A3B517",
"- 	c #4D5005",
"; 	c #656605",
"> 	c #BBB71F",
", 	c #9C9D19",
"' 	c #3F4D08",
") 	c #5B5A06",
"! 	c #AAA719",
"~ 	c #758510",
"{ 	c #454C0A",
"] 	c #4D4C04",
"^ 	c #83840A",
"/ 	c #778013",
"( 	c #645313",
"_ 	c #434403",
": 	c #7A7E09",
"< 	c #888E18",
"[ 	c #3D3900",
"} 	c #4F5302",
"| 	c #B3A931",
"1 	c #E0391B",
"2 	c #DF3918",
"3 	c #353102",
"4 	c #424001",
"5 	c #9B9B26",
"6 	c #DE341A",
"7 	c #EE3019",
"8 	c #E52B16",
"9 	c #E92E17",
"0 	c #E62716",
"a 	c #E22B17",
"b 	c #D8341C",
"c 	c #D9381D",
"d 	c #2C2C00",
"e 	c #3A3700",
"f 	c #6A6D0C",
"g 	c #466505",
"h 	c #D93319",
"i 	c #DC2B14",
"j 	c #EC2817",
"k 	c #DE2212",
"l 	c #EF2C19",
"m 	c #F32D16",
"n 	c #ED2B15",
"o 	c #E9311B",
"p 	c #EB321A",
"q 	c #EA2E18",
"r 	c #DC2E1B",
"s 	c #DA2B19",
"t 	c #DC2E18",
"u 	c #E5311E",
"v 	c #333001",
"w 	c #363100",
"x 	c #646307",
"y 	c #6A7D0A",
"z 	c #E82816",
"A 	c #EA2715",
"B 	c #E72A16",
"C 	c #EE2D14",
"D 	c #F62F16",
"E 	c #F22C12",
"F 	c #F12815",
"G 	c #F02918",
"H 	c #EF2D18",
"I 	c #EA2714",
"J 	c #ED2D19",
"K 	c #D9351C",
"L 	c #D92C1A",
"M 	c #DF2C19",
"N 	c #DE2B18",
"O 	c #E5301A",
"P 	c #2B2C01",
"Q 	c #393401",
"R 	c #545303",
"S 	c #8C9715",
"T 	c #F02D15",
"U 	c #EC2717",
"V 	c #F13513",
"W 	c #F63415",
"X 	c #F72F18",
"Y 	c #F73115",
"Z 	c #F52A16",
"` 	c #F32E16",
" .	c #FA3219",
"..	c #F12A17",
"+.	c #F02D16",
"@.	c #EB2E18",
"#.	c #DF321B",
"$.	c #DF2B17",
"%.	c #E32D1A",
"&.	c #E12E19",
"*.	c #E02A18",
"=.	c #E8311B",
"-.	c #1F2903",
";.	c #2F2C00",
">.	c #413D01",
",.	c #9DA629",
"'.	c #5D4604",
").	c #EC2A13",
"!.	c #E72C13",
"~.	c #F33417",
"{.	c #FA3515",
"].	c #F63116",
"^.	c #FA3116",
"/.	c #F93517",
"(.	c #F82C15",
"_.	c #F52F14",
":.	c #EF3117",
"<.	c #ED2F19",
"[.	c #EC341C",
"}.	c #E52D1B",
"|.	c #E42A18",
"1.	c #E72D1B",
"2.	c #E72718",
"3.	c #F12A18",
"4.	c #EF2D16",
"5.	c #F13916",
"6.	c #EE3719",
"7.	c #1A2200",
"8.	c #2E2B00",
"9.	c #2E2D00",
"0.	c #9DA72D",
"a.	c #64640F",
"b.	c #A74106",
"c.	c #ED2A13",
"d.	c #F73114",
"e.	c #F93114",
"f.	c #FD3715",
"g.	c #FE3914",
"h.	c #FC3716",
"i.	c #FB3713",
"j.	c #FB3115",
"k.	c #FC3113",
"l.	c #F42D14",
"m.	c #F02914",
"n.	c #F02E18",
"o.	c #E52F1B",
"p.	c #E42A1A",
"q.	c #E32616",
"r.	c #EF2C18",
"s.	c #F6301A",
"t.	c #FC3419",
"u.	c #FB3919",
"v.	c #F74617",
"w.	c #FD501E",
"x.	c #3E3803",
"y.	c #2E2900",
"z.	c #2B2A00",
"A.	c #5E6308",
"B.	c #8F932B",
"C.	c #6C6A16",
"D.	c #5E3104",
"E.	c #FA3F12",
"F.	c #FF4219",
"G.	c #FF4E17",
"H.	c #FF5018",
"I.	c #FF4C17",
"J.	c #FF4B15",
"K.	c #FF4E18",
"L.	c #FF4A16",
"M.	c #FF4016",
"N.	c #FC3917",
"O.	c #F52F17",
"P.	c #F12F19",
"Q.	c #E72D1C",
"R.	c #EF2D1B",
"S.	c #F02A16",
"T.	c #F13114",
"U.	c #FA3114",
"V.	c #FF3C17",
"W.	c #FE4617",
"X.	c #FD5211",
"Y.	c #9C5914",
"Z.	c #4E4302",
"`.	c #342F00",
" +	c #3B3601",
".+	c #444204",
"++	c #D5D269",
"@+	c #A19D3A",
"#+	c #5C5806",
"$+	c #433800",
"%+	c #F77F1E",
"&+	c #FD6D19",
"*+	c #FD6218",
"=+	c #FF6018",
"-+	c #FF5916",
";+	c #FF5A18",
">+	c #FF5619",
",+	c #FF4D16",
"'+	c #FF4614",
")+	c #EE2314",
"!+	c #E92417",
"~+	c #E4301C",
"{+	c #EC2F1B",
"]+	c #F1311A",
"^+	c #F83618",
"/+	c #F93716",
"(+	c #FC3816",
"_+	c #FF4818",
":+	c #FF521A",
"<+	c #F47C20",
"[+	c #4B4005",
"}+	c #4F4405",
"|+	c #393500",
"1+	c #464302",
"2+	c #736F17",
"3+	c #93912F",
"4+	c #444100",
"5+	c #6E6808",
"6+	c #6C5B06",
"7+	c #282900",
"8+	c #B15E0C",
"9+	c #FF7A1E",
"0+	c #FF6C19",
"a+	c #FF671D",
"b+	c #FF631A",
"c+	c #FF5A17",
"d+	c #FF5417",
"e+	c #FC3C12",
"f+	c #F52B15",
"g+	c #EE2616",
"h+	c #F3321B",
"i+	c #F42A16",
"j+	c #ED3118",
"k+	c #F1351A",
"l+	c #E6301D",
"m+	c #EB301B",
"n+	c #F43619",
"o+	c #FB3B18",
"p+	c #FD4516",
"q+	c #FD4319",
"r+	c #FF561C",
"s+	c #FF6820",
"t+	c #484107",
"u+	c #5D4D0A",
"v+	c #352E00",
"w+	c #323100",
"x+	c #4B4806",
"y+	c #8B8D2E",
"z+	c #92942C",
"A+	c #A39E2F",
"B+	c #767217",
"C+	c #514C05",
"D+	c #958D1D",
"E+	c #6D6509",
"F+	c #755F09",
"G+	c #654E09",
"H+	c #CD610E",
"I+	c #FF771D",
"J+	c #FF721C",
"K+	c #FF671A",
"L+	c #FF5F1B",
"M+	c #FF4813",
"N+	c #FD3A15",
"O+	c #F93015",
"P+	c #F5301A",
"Q+	c #F7331A",
"R+	c #FB3013",
"S+	c #F83113",
"T+	c #F22F18",
"U+	c #E22E1C",
"V+	c #EA2C1B",
"W+	c #EC2D1A",
"X+	c #EB2B1A",
"Y+	c #FA3818",
"Z+	c #FF4319",
"`+	c #FF4A18",
" @	c #FF5119",
".@	c #FF7125",
"+@	c #322903",
"@@	c #65570A",
"#@	c #423902",
"$@	c #332F00",
"%@	c #484601",
"&@	c #5A5A0B",
"*@	c #63650C",
"=@	c #96982A",
"-@	c #AAA432",
";@	c #B5B144",
">@	c #A69F31",
",@	c #655E09",
"'@	c #6B6B0D",
")@	c #67600A",
"!@	c #414200",
"~@	c #656002",
"{@	c #090D00",
"]@	c #FF8416",
"^@	c #FF731E",
"/@	c #FF6A1B",
"(@	c #FF4E16",
"_@	c #FF4315",
":@	c #F82914",
"<@	c #FF2915",
"[@	c #FF5116",
"}@	c #FE3615",
"|@	c #F02F19",
"1@	c #ED2E1C",
"2@	c #ED2E17",
"3@	c #F32D19",
"4@	c #FB3A19",
"5@	c #FF5418",
"6@	c #FF5F21",
"7@	c #392E02",
"8@	c #5D4205",
"9@	c #403500",
"0@	c #574A03",
"a@	c #453F02",
"b@	c #4D4D00",
"c@	c #5B5C08",
"d@	c #444900",
"e@	c #938E1A",
"f@	c #D0C443",
"g@	c #C6C249",
"h@	c #C8C048",
"i@	c #B2A52F",
"j@	c #605C07",
"k@	c #483600",
"l@	c #372600",
"m@	c #B81005",
"n@	c #FE1200",
"o@	c #530000",
"p@	c #FF8520",
"q@	c #FF791F",
"r@	c #FF6D1C",
"s@	c #FF5C18",
"t@	c #FF5317",
"u@	c #F93413",
"v@	c #FD2E16",
"w@	c #FF3716",
"x@	c #F62F1A",
"y@	c #F6331C",
"z@	c #E4301B",
"A@	c #ED2F1B",
"B@	c #EF3018",
"C@	c #FB4119",
"D@	c #FF5017",
"E@	c #FF5F1C",
"F@	c #F78327",
"G@	c #6E5410",
"H@	c #836517",
"I@	c #72660A",
"J@	c #352B01",
"K@	c #4F4600",
"L@	c #70700E",
"M@	c #858711",
"N@	c #878B14",
"O@	c #786908",
"P@	c #A8981B",
"Q@	c #A99619",
"R@	c #6D5C00",
"S@	c #6E4C03",
"T@	c #5B0600",
"U@	c #AD0002",
"V@	c #C90203",
"W@	c #CA0103",
"X@	c #E10002",
"Y@	c #FA0303",
"Z@	c #F10000",
"`@	c #FE9225",
" #	c #FF761E",
".#	c #FF6C1E",
"+#	c #FF4215",
"@#	c #FE3815",
"##	c #FC3216",
"$#	c #F6301C",
"%#	c #DE291B",
"&#	c #E62B1D",
"*#	c #E82D1E",
"=#	c #E82E1B",
"-#	c #EC2B1C",
";#	c #F33018",
">#	c #F83A18",
",#	c #FD4518",
"'#	c #FF6419",
")#	c #231502",
"!#	c #92832B",
"~#	c #63550F",
"{#	c #615A0A",
"]#	c #3C2A00",
"^#	c #4B4300",
"/#	c #A4971D",
"(#	c #A39019",
"_#	c #562800",
":#	c #6D2800",
"<#	c #581801",
"[#	c #750600",
"}#	c #F90000",
"|#	c #EE0000",
"1#	c #FF0200",
"2#	c #F90200",
"3#	c #FC0200",
"4#	c #F30100",
"5#	c #EF0000",
"6#	c #FE0900",
"7#	c #F40000",
"8#	c #FF8521",
"9#	c #FF6E1B",
"0#	c #FF4615",
"a#	c #FC3515",
"b#	c #F42715",
"c#	c #F42D18",
"d#	c #EF2B1A",
"e#	c #EE2B1B",
"f#	c #EB2B1B",
"g#	c #E22919",
"h#	c #E5281A",
"i#	c #EB2E1D",
"j#	c #EC2D1B",
"k#	c #F02E1A",
"l#	c #F13018",
"m#	c #F73618",
"n#	c #FA4016",
"o#	c #FF5319",
"p#	c #FE5F19",
"q#	c #FE8624",
"r#	c #551801",
"s#	c #4B1600",
"t#	c #3B1101",
"u#	c #4E1300",
"v#	c #3C1B00",
"w#	c #684E02",
"x#	c #675D00",
"y#	c #7C1C01",
"z#	c #D20000",
"A#	c #DE0003",
"B#	c #E70001",
"C#	c #E60000",
"D#	c #FA0000",
"E#	c #FF0300",
"F#	c #FF0C00",
"G#	c #FF1A00",
"H#	c #FE0300",
"I#	c #FC0000",
"J#	c #F00000",
"K#	c #EA0002",
"L#	c #FF0900",
"M#	c #FC0700",
"N#	c #FF8625",
"O#	c #FF7E20",
"P#	c #FF6C1B",
"Q#	c #FF3C15",
"R#	c #F82C16",
"S#	c #F42C17",
"T#	c #F62E17",
"U#	c #F2271B",
"V#	c #F22B1A",
"W#	c #F02C1B",
"X#	c #EE2D1C",
"Y#	c #E82D1B",
"Z#	c #E42B1B",
"`#	c #E82418",
" $	c #EC2B17",
".$	c #EA291A",
"+$	c #EF2A18",
"@$	c #F02B19",
"#$	c #F73316",
"$$	c #FB3F17",
"%$	c #FA4417",
"&$	c #FF5917",
"*$	c #FA9329",
"=$	c #630000",
"-$	c #EF9C89",
";$	c #A00000",
">$	c #A30001",
",$	c #A90000",
"'$	c #8E0000",
")$	c #980000",
"!$	c #8E0100",
"~$	c #B70000",
"{$	c #F70401",
"]$	c #FF1907",
"^$	c #FF0A03",
"/$	c #FF210B",
"($	c #FF3218",
"_$	c #FF2F13",
":$	c #FF3316",
"<$	c #FF2A0A",
"[$	c #FA0101",
"}$	c #F30000",
"|$	c #F50000",
"1$	c #E40000",
"2$	c #F50200",
"3$	c #FFAB2F",
"4$	c #FF8621",
"5$	c #FF7522",
"6$	c #FF6B1D",
"7$	c #FF4C13",
"8$	c #FB3415",
"9$	c #F62C14",
"0$	c #F92A15",
"a$	c #F32614",
"b$	c #F72A16",
"c$	c #F22A1A",
"d$	c #F02A19",
"e$	c #EE2918",
"f$	c #ED2E1A",
"g$	c #ED2818",
"h$	c #F72F17",
"i$	c #F32E18",
"j$	c #EF2918",
"k$	c #F32A19",
"l$	c #FA3418",
"m$	c #FC4016",
"n$	c #FD4D17",
"o$	c #FF5F18",
"p$	c #E02C04",
"q$	c #D93B55",
"r$	c #E85967",
"s$	c #AF0002",
"t$	c #C20004",
"u$	c #D80000",
"v$	c #CE0000",
"w$	c #DA0001",
"x$	c #D10000",
"y$	c #DA0000",
"z$	c #ED0000",
"A$	c #FF0A00",
"B$	c #FF3D1F",
"C$	c #FF2E18",
"D$	c #FF4A2F",
"E$	c #FF7C60",
"F$	c #FF573D",
"G$	c #FF6B4D",
"H$	c #FF4120",
"I$	c #FE0301",
"J$	c #F80000",
"K$	c #F70000",
"L$	c #E90000",
"M$	c #E20000",
"N$	c #FC1904",
"O$	c #FF8E25",
"P$	c #FF7F25",
"Q$	c #FF7421",
"R$	c #FF5D17",
"S$	c #FE3F14",
"T$	c #FF3114",
"U$	c #FA2E14",
"V$	c #FB2C16",
"W$	c #FB3019",
"X$	c #F62916",
"Y$	c #F42B17",
"Z$	c #E4291A",
"`$	c #EB2918",
" %	c #F92F16",
".%	c #FA3415",
"+%	c #F02D18",
"@%	c #F42F17",
"#%	c #FC3A16",
"$%	c #FF4516",
"%%	c #FF5416",
"&%	c #FF691B",
"*%	c #970006",
"=%	c #F46F7C",
"-%	c #DF394A",
";%	c #B50003",
">%	c #BF0002",
",%	c #D20004",
"'%	c #D60001",
")%	c #D40000",
"!%	c #D60000",
"~%	c #E80000",
"{%	c #FF0D03",
"]%	c #FF6142",
"^%	c #FF4831",
"/%	c #FF8569",
"(%	c #FF856D",
"_%	c #FF6D50",
":%	c #FF7959",
"<%	c #FF3C20",
"[%	c #FF0A02",
"}%	c #F20000",
"|%	c #E10000",
"1%	c #FA0500",
"2%	c #FD0200",
"3%	c #FEAF31",
"4%	c #FF8729",
"5%	c #FF7E26",
"6%	c #FE3513",
"7%	c #FB2E13",
"8%	c #FC2E16",
"9%	c #FC3014",
"0%	c #FD2E18",
"a%	c #F22B18",
"b%	c #E72C1C",
"c%	c #EC2417",
"d%	c #FD3C13",
"e%	c #FD3116",
"f%	c #FF3D15",
"g%	c #FF5315",
"h%	c #FF6119",
"i%	c #FF8E27",
"j%	c #CF1B3D",
"k%	c #EF767C",
"l%	c #CE1333",
"m%	c #C50009",
"n%	c #D50011",
"o%	c #DA000C",
"p%	c #DE0002",
"q%	c #DF0000",
"r%	c #FF0F06",
"s%	c #FF8C71",
"t%	c #FF8C6E",
"u%	c #FFC0A4",
"v%	c #FFBA9D",
"w%	c #FF8165",
"x%	c #FF7755",
"y%	c #FF4425",
"z%	c #FF0400",
"A%	c #E50000",
"B%	c #EA0000",
"C%	c #FF0F00",
"D%	c #FC6718",
"E%	c #FF922F",
"F%	c #FF882A",
"G%	c #FF741E",
"H%	c #FF5215",
"I%	c #FF3814",
"J%	c #FD2C14",
"K%	c #FC2D13",
"L%	c #F92A13",
"M%	c #F82A14",
"N%	c #F42717",
"O%	c #EF2919",
"P%	c #E62819",
"Q%	c #E6261A",
"R%	c #F72F16",
"S%	c #FC3215",
"T%	c #FD3516",
"U%	c #FF5717",
"V%	c #FE6519",
"W%	c #F44613",
"X%	c #E24E65",
"Y%	c #EB6D75",
"Z%	c #A40007",
"`%	c #AC0001",
" &	c #C8000E",
".&	c #D5031B",
"+&	c #DC0118",
"@&	c #DC0001",
"#&	c #EA0001",
"$&	c #F40001",
"%&	c #FF0A01",
"&&	c #FF8B71",
"*&	c #FFA389",
"=&	c #FFCDB2",
"-&	c #FFC8B0",
";&	c #FFB397",
">&	c #FF7150",
",&	c #FF492B",
"'&	c #FF0500",
")&	c #F60000",
"!&	c #E70000",
"~&	c #FF0B00",
"{&	c #FA0300",
"]&	c #FF952F",
"^&	c #FF8E2C",
"/&	c #FF8226",
"(&	c #FF5F19",
"_&	c #FF4514",
":&	c #FF2F14",
"<&	c #FF2E14",
"[&	c #FE3013",
"}&	c #F52716",
"|&	c #F32918",
"1&	c #F12919",
"2&	c #E92C1D",
"3&	c #EF2619",
"4&	c #FD3817",
"5&	c #FD3C15",
"6&	c #FF4517",
"7&	c #FF5B1A",
"8&	c #FE6619",
"9&	c #B50000",
"0&	c #E56475",
"a&	c #E56773",
"b&	c #8F0001",
"c&	c #A80002",
"d&	c #C00015",
"e&	c #D50821",
"f&	c #DA0218",
"g&	c #FD0C06",
"h&	c #FF7358",
"i&	c #FF866E",
"j&	c #FF9C85",
"k&	c #FFB89C",
"l&	c #FFCFB1",
"m&	c #FFA483",
"n&	c #FF5135",
"o&	c #F20001",
"p&	c #DE0000",
"q&	c #FB0700",
"r&	c #FD1100",
"s&	c #FF9631",
"t&	c #FF9130",
"u&	c #FF8327",
"v&	c #FF661B",
"w&	c #FF531B",
"x&	c #FF2F16",
"y&	c #FF3916",
"z&	c #FD2E14",
"A&	c #FD2F16",
"B&	c #F62816",
"C&	c #F52818",
"D&	c #E52A1E",
"E&	c #E22118",
"F&	c #F52C18",
"G&	c #FD3417",
"H&	c #FF4216",
"I&	c #FF4915",
"J&	c #FF621C",
"K&	c #FD741D",
"L&	c #B5000A",
"M&	c #E76C7B",
"N&	c #E35C6C",
"O&	c #920000",
"P&	c #A00002",
"Q&	c #BB001A",
"R&	c #DA0F2D",
"S&	c #DA081F",
"T&	c #DA0002",
"U&	c #EC0000",
"V&	c #FF0906",
"W&	c #FF543D",
"X&	c #FF5233",
"Y&	c #FF6143",
"Z&	c #FFA98D",
"`&	c #FFD7BB",
" *	c #FFC3A7",
".*	c #FF462C",
"+*	c #FE1800",
"@*	c #FFA235",
"#*	c #FF9831",
"$*	c #FF8527",
"%*	c #FF701C",
"&*	c #FF5D1A",
"**	c #FF3315",
"=*	c #FF3715",
"-*	c #FE2E16",
";*	c #FC2C17",
">*	c #FB2B16",
",*	c #F32617",
"'*	c #F12B1B",
")*	c #EF3D16",
"!*	c #FB5B19",
"~*	c #EB2D1E",
"{*	c #E8261B",
"]*	c #E82417",
"^*	c #F82F18",
"/*	c #FB3516",
"(*	c #FF4414",
"_*	c #FF5118",
":*	c #FF661F",
"<*	c #FF7C21",
"[*	c #C9051E",
"}*	c #E66A75",
"|*	c #E05263",
"1*	c #860000",
"2*	c #B4001A",
"3*	c #D91932",
"4*	c #D60923",
"5*	c #EB0000",
"6*	c #FF0000",
"7*	c #FF1105",
"8*	c #FF7C64",
"9*	c #FFAC8B",
"0*	c #FFD9BE",
"a*	c #FFE6CC",
"b*	c #FFD6BD",
"c*	c #FE4B34",
"d*	c #FE0101",
"e*	c #FFB639",
"f*	c #FF9C31",
"g*	c #FF8929",
"h*	c #FF7D24",
"i*	c #FF7020",
"j*	c #FF4015",
"k*	c #FF3414",
"l*	c #FA2C16",
"m*	c #FC2E18",
"n*	c #FA2815",
"o*	c #F82D17",
"p*	c #F62B1B",
"q*	c #ED2E1D",
"r*	c #F03822",
"s*	c #EA291B",
"t*	c #E72919",
"u*	c #F52E1B",
"v*	c #FF4616",
"w*	c #FF5019",
"x*	c #FF691C",
"y*	c #FF9522",
"z*	c #C7021B",
"A*	c #E2606C",
"B*	c #DE505F",
"C*	c #7F0000",
"D*	c #8A0000",
"E*	c #A60010",
"F*	c #CE1432",
"G*	c #CD0A26",
"H*	c #D40001",
"I*	c #FD0000",
"J*	c #FF472E",
"K*	c #FFEBD3",
"L*	c #FFDDC1",
"M*	c #FFD8BF",
"N*	c #FFA083",
"O*	c #FF1B08",
"P*	c #F00100",
"Q*	c #FF2F00",
"R*	c #FFC93E",
"S*	c #FF9B34",
"T*	c #FF9633",
"U*	c #FF8B2E",
"V*	c #FF7E2B",
"W*	c #FD2F13",
"X*	c #F82715",
"Y*	c #F92916",
"Z*	c #FA2617",
"`*	c #FE3916",
" =	c #F2281A",
".=	c #F12B1A",
"+=	c #EF2B1C",
"@=	c #EE2C1E",
"#=	c #FE5E33",
"$=	c #EB2B1D",
"%=	c #E7291C",
"&=	c #E72618",
"*=	c #F22D18",
"==	c #FA3419",
"-=	c #FF4718",
";=	c #FF9622",
">=	c #CB0016",
",=	c #DB4F62",
"'=	c #D43D53",
")=	c #800000",
"!=	c #A4000A",
"~=	c #CB122F",
"{=	c #CA0624",
"]=	c #CC0001",
"^=	c #FE301D",
"/=	c #FF795B",
"(=	c #FF9677",
"_=	c #FF694A",
":=	c #FF4F2D",
"<=	c #FF1001",
"[=	c #E30000",
"}=	c #D90000",
"|=	c #EB0001",
"1=	c #FF3001",
"2=	c #FFB52F",
"3=	c #FF962F",
"4=	c #FF9B37",
"5=	c #FF9132",
"6=	c #FF8430",
"7=	c #FF5A1B",
"8=	c #FE3011",
"9=	c #F82513",
"0=	c #FC2A15",
"a=	c #FF4017",
"b=	c #FF3A12",
"c=	c #F52619",
"d=	c #F22C1A",
"e=	c #EE281A",
"f=	c #F2291A",
"g=	c #EF301D",
"h=	c #EB2F1E",
"i=	c #E92C1C",
"j=	c #E6241B",
"k=	c #E62519",
"l=	c #F32C18",
"m=	c #F8321B",
"n=	c #FF6C1A",
"o=	c #FE7719",
"p=	c #C60011",
"q=	c #D74354",
"r=	c #CF324A",
"s=	c #810000",
"t=	c #A30004",
"u=	c #D11030",
"v=	c #CA0724",
"w=	c #C00001",
"x=	c #D50000",
"y=	c #FF0903",
"z=	c #FD5739",
"A=	c #FF5939",
"B=	c #FF5A3B",
"C=	c #FF1505",
"D=	c #E30001",
"E=	c #F40C03",
"F=	c #EE0300",
"G=	c #FF2D00",
"H=	c #FFA931",
"I=	c #FF9029",
"J=	c #FF9B39",
"K=	c #FF9739",
"L=	c #FF903A",
"M=	c #FF631E",
"N=	c #FD3013",
"O=	c #FC2713",
"P=	c #FF491A",
"Q=	c #EE2018",
"R=	c #E82017",
"S=	c #FA2819",
"T=	c #F52917",
"U=	c #EC2B1E",
"V=	c #E4251B",
"W=	c #F82D18",
"X=	c #FB3817",
"Y=	c #FF4B18",
"Z=	c #FF631C",
"`=	c #FF711D",
" -	c #FF6E14",
".-	c #C5000C",
"+-	c #CA2642",
"@-	c #C82341",
"#-	c #820001",
"$-	c #820000",
"%-	c #9A0000",
"&-	c #C90B28",
"*-	c #CA0622",
"=-	c #DD0000",
"--	c #FF0101",
";-	c #FF1004",
">-	c #FF3819",
",-	c #FF4428",
"'-	c #FF351A",
")-	c #FE1506",
"!-	c #E00000",
"~-	c #F71305",
"{-	c #D30000",
"]-	c #FF2A00",
"^-	c #FFAF34",
"/-	c #FF9429",
"(-	c #FF9E3C",
"_-	c #FF9A39",
":-	c #FF9139",
"<-	c #FF6B20",
"[-	c #FF3313",
"}-	c #FD2913",
"|-	c #FE3714",
"1-	c #F92616",
"2-	c #EE1F17",
"3-	c #E92117",
"4-	c #FA2B18",
"5-	c #EF2615",
"6-	c #ED2B1E",
"7-	c #E7241B",
"8-	c #F22A18",
"9-	c #F63017",
"0-	c #FB3B16",
"a-	c #FF4C18",
"b-	c #FF681F",
"c-	c #FF751F",
"d-	c #FF7015",
"e-	c #CB0006",
"f-	c #BE0E33",
"g-	c #C11537",
"h-	c #890000",
"i-	c #910000",
"j-	c #BB0217",
"k-	c #C8041E",
"l-	c #BD0000",
"m-	c #CC0000",
"n-	c #D70000",
"o-	c #FE0000",
"p-	c #FF0600",
"q-	c #FF2A12",
"r-	c #FF3E25",
"s-	c #FF3117",
"t-	c #FF0F03",
"u-	c #F81609",
"v-	c #EF0600",
"w-	c #FF3300",
"x-	c #FEAB31",
"y-	c #FF9028",
"z-	c #FFA945",
"A-	c #FFA140",
"B-	c #FF943D",
"C-	c #FF7124",
"D-	c #FF3812",
"E-	c #FE2D15",
"F-	c #FC2F15",
"G-	c #FA2C15",
"H-	c #F42B16",
"I-	c #EE2416",
"J-	c #EE2316",
"K-	c #F72C19",
"L-	c #EA2819",
"M-	c #E92419",
"N-	c #F93717",
"O-	c #FE4216",
"P-	c #FF5114",
"Q-	c #FF7224",
"R-	c #FF8925",
"S-	c #D70003",
"T-	c #B30220",
"U-	c #BB0B2B",
"V-	c #8B0000",
"W-	c #850000",
"X-	c #8D0000",
"Y-	c #B10005",
"Z-	c #BF0010",
"`-	c #C30003",
" ;	c #CB0000",
".;	c #F90001",
"+;	c #FD0500",
"@;	c #FE2C13",
"#;	c #FF472C",
"$;	c #FA1B0A",
"%;	c #F90A00",
"&;	c #FF4805",
"*;	c #FFA42F",
"=;	c #FF8F28",
"-;	c #FFAD53",
";;	c #FFBA69",
">;	c #FEBE6A",
",;	c #FF7329",
"';	c #FE4715",
");	c #FF3213",
"!;	c #FB3016",
"~;	c #F72A15",
"{;	c #EF2415",
"];	c #F42516",
"^;	c #EE2318",
"/;	c #F52A18",
"(;	c #EC2D1D",
"_;	c #F02C19",
":;	c #EA2418",
"<;	c #F83116",
"[;	c #FF3D17",
"};	c #FF4715",
"|;	c #FF5819",
"1;	c #FF7B2B",
"2;	c #FF982C",
"3;	c #D60100",
"4;	c #A50007",
"5;	c #B1041C",
"6;	c #900000",
"7;	c #840000",
"8;	c #A40001",
"9;	c #B30003",
"0;	c #BF0003",
"a;	c #FF220E",
"b;	c #FF4729",
"c;	c #FE0100",
"d;	c #FC2910",
"e;	c #FD0F00",
"f;	c #FF4A06",
"g;	c #FF9C26",
"h;	c #FF902A",
"i;	c #FF9135",
"j;	c #FF9C43",
"k;	c #FF852D",
"l;	c #FF7425",
"m;	c #FF4611",
"n;	c #FC2F14",
"o;	c #F62A17",
"p;	c #F02317",
"q;	c #F02616",
"r;	c #EF2519",
"s;	c #EF2A1B",
"t;	c #EA2C1C",
"u;	c #EC2A1C",
"v;	c #EC2718",
"w;	c #FA2D16",
"x;	c #F93414",
"y;	c #FF4716",
"z;	c #FF7D2C",
"A;	c #FF8B2B",
"B;	c #FE9D28",
"C;	c #AC0002",
"D;	c #B00013",
"E;	c #950001",
"F;	c #9B0000",
"G;	c #AE0006",
"H;	c #B90001",
"I;	c #C70000",
"J;	c #DB0000",
"K;	c #FF4C2A",
"L;	c #FF230C",
"M;	c #EC0402",
"N;	c #FC2C0C",
"O;	c #FA1301",
"P;	c #FF4E09",
"Q;	c #FF9427",
"R;	c #FF902B",
"S;	c #FF932F",
"T;	c #FF8F30",
"U;	c #FF8329",
"V;	c #FF6E1D",
"W;	c #FF4F14",
"X;	c #FE3414",
"Y;	c #FD2C13",
"Z;	c #E62116",
"`;	c #E92317",
" >	c #EF291C",
".>	c #E62A1C",
"+>	c #E9281C",
"@>	c #E92719",
"#>	c #E02118",
"$>	c #EE2718",
"%>	c #FC3313",
"&>	c #FF3D13",
"*>	c #FF4C15",
"=>	c #FF5D18",
"->	c #FF7E2C",
";>	c #FF8E2E",
">>	c #FF9727",
",>	c #D60201",
"'>	c #B10000",
")>	c #A60004",
"!>	c #A00001",
"~>	c #970000",
"{>	c #B30000",
"]>	c #C50000",
"^>	c #C90000",
"/>	c #FE290C",
"(>	c #EB0201",
"_>	c #FC2708",
":>	c #FB1400",
"<>	c #FE4B06",
"[>	c #FF8F24",
"}>	c #FF8C2B",
"|>	c #FF7A21",
"1>	c #FF4C14",
"2>	c #FE3A13",
"3>	c #FF3214",
"4>	c #FB2C13",
"5>	c #F22517",
"6>	c #E51F16",
"7>	c #E72215",
"8>	c #EA271B",
"9>	c #E52B1D",
"0>	c #EB291C",
"a>	c #EC2A1D",
"b>	c #E5251A",
"c>	c #F52B17",
"d>	c #F62C16",
"e>	c #FD3515",
"f>	c #FF661E",
"g>	c #FF8A36",
"h>	c #FF8D31",
"i>	c #FE9227",
"j>	c #D70302",
"k>	c #BF0000",
"l>	c #9F0000",
"m>	c #940000",
"n>	c #A10000",
"o>	c #AF0000",
"p>	c #C00000",
"q>	c #C20000",
"r>	c #DB0001",
"s>	c #FD0600",
"t>	c #EC0403",
"u>	c #F91C09",
"v>	c #D70100",
"w>	c #FB1200",
"x>	c #FF4B03",
"y>	c #FF861E",
"z>	c #FF8E28",
"A>	c #FF8D2D",
"B>	c #FE8024",
"C>	c #FF6118",
"D>	c #FF4512",
"E>	c #FF3B13",
"F>	c #FD2E13",
"G>	c #F82815",
"H>	c #EC2318",
"I>	c #E62017",
"J>	c #EB2418",
"K>	c #EB2919",
"L>	c #EA261B",
"M>	c #EA2A1B",
"N>	c #E92B1D",
"O>	c #ED2A19",
"P>	c #EC2116",
"Q>	c #FD2D15",
"R>	c #F92D15",
"S>	c #FD3813",
"T>	c #FF4213",
"U>	c #FF6D20",
"V>	c #FF882E",
"W>	c #FF8E2F",
"X>	c #FF9128",
"Y>	c #CA0201",
"Z>	c #9C0000",
"`>	c #AA0002",
" ,	c #8F0000",
".,	c #9D0000",
"+,	c #BB0000",
"@,	c #E50202",
"#,	c #EE0E02",
"$,	c #FA1200",
"%,	c #FF1600",
"&,	c #FF7F1C",
"*,	c #FF8722",
"=,	c #FF8A29",
"-,	c #FE7B1D",
";,	c #FF6B18",
">,	c #FF5B12",
",,	c #FF4412",
"',	c #FF3612",
"),	c #FA2814",
"!,	c #F62614",
"~,	c #E92215",
"{,	c #E42116",
"],	c #E42216",
"^,	c #E32119",
"/,	c #EC281A",
"(,	c #F52C17",
"_,	c #FA4711",
":,	c #FD3D16",
"<,	c #FC2E17",
"[,	c #F62B14",
"},	c #F83014",
"|,	c #FF4115",
"1,	c #FF4914",
"2,	c #FF6E22",
"3,	c #FF8A32",
"4,	c #FF9030",
"5,	c #FE922C",
"6,	c #D00000",
"7,	c #CD0200",
"8,	c #A90002",
"9,	c #AA0000",
"0,	c #B80000",
"a,	c #C40000",
"b,	c #FD0300",
"c,	c #FB0100",
"d,	c #DF0100",
"e,	c #FC1D00",
"f,	c #FF1100",
"g,	c #FF8018",
"h,	c #FF851F",
"i,	c #FE8322",
"j,	c #FF7619",
"k,	c #FF6718",
"l,	c #FF5512",
"m,	c #FF3311",
"n,	c #F82B14",
"o,	c #ED2215",
"p,	c #EA2116",
"q,	c #E42015",
"r,	c #E32017",
"s,	c #E42018",
"t,	c #F12519",
"u,	c #EF291B",
"v,	c #F02F1D",
"w,	c #F42410",
"x,	c #FE8D29",
"y,	c #FF9640",
"z,	c #FD3916",
"A,	c #F22B17",
"B,	c #F32916",
"C,	c #FA3513",
"D,	c #FE4814",
"E,	c #FF7726",
"F,	c #FF8930",
"G,	c #FF9334",
"H,	c #FF912F",
"I,	c #E90B00",
"J,	c #CD0100",
"K,	c #A80000",
"L,	c #A40000",
"M,	c #960000",
"N,	c #A20000",
"O,	c #AE0000",
"P,	c #B00000",
"Q,	c #FB0A00",
"R,	c #FE1102",
"S,	c #F90100",
"T,	c #D90100",
"U,	c #FF2301",
"V,	c #FF3105",
"W,	c #FF7A18",
"X,	c #FF7E1D",
"Y,	c #FF7A1D",
"Z,	c #FF6D18",
"`,	c #FF6014",
" '	c #FF5012",
".'	c #FF3B11",
"+'	c #FE2F12",
"@'	c #EE2516",
"#'	c #E82115",
"$'	c #E72415",
"%'	c #E62115",
"&'	c #E11F18",
"*'	c #EA2417",
"='	c #F62818",
"-'	c #E3271B",
";'	c #EF2718",
">'	c #F92B12",
",'	c #FE7923",
"''	c #FD4713",
")'	c #F02818",
"!'	c #EB2619",
"~'	c #FC4816",
"{'	c #FE6D1E",
"]'	c #FF8F33",
"^'	c #FF9332",
"/'	c #FF8E29",
"('	c #FC500B",
"_'	c #D30401",
":'	c #B20000",
"<'	c #7D0000",
"['	c #880000",
"}'	c #AC0000",
"|'	c #FD1001",
"1'	c #FA0601",
"2'	c #CF0000",
"3'	c #CD0000",
"4'	c #FF1E00",
"5'	c #FD7015",
"6'	c #FF7C1D",
"7'	c #FF791D",
"8'	c #FE731A",
"9'	c #FF6918",
"0'	c #FF5613",
"a'	c #FF4711",
"b'	c #FF3411",
"c'	c #F72614",
"d'	c #EA2216",
"e'	c #E52219",
"f'	c #EB2216",
"g'	c #E72219",
"h'	c #F32817",
"i'	c #E81E17",
"j'	c #F62517",
"k'	c #E4291C",
"l'	c #E72B1F",
"m'	c #E1231A",
"n'	c #E6231A",
"o'	c #FB3414",
"p'	c #F32A17",
"q'	c #E72617",
"r'	c #FB3C13",
"s'	c #FF5816",
"t'	c #FF7C20",
"u'	c #FF8A2F",
"v'	c #FE911E",
"w'	c #D20100",
"x'	c #B90000",
"y'	c #930000",
"z'	c #850100",
"A'	c #8C0000",
"B'	c #A50000",
"C'	c #AB0000",
"D'	c #C60000",
"E'	c #F90400",
"F'	c #FD2105",
"G'	c #FC0A00",
"H'	c #DC0000",
"I'	c #C30000",
"J'	c #FC7D17",
"K'	c #FF781B",
"L'	c #FF7218",
"M'	c #FF6C17",
"N'	c #FF5B13",
"O'	c #FF4B11",
"P'	c #FF3C11",
"Q'	c #F92712",
"R'	c #F02313",
"S'	c #EA2316",
"T'	c #E62316",
"U'	c #EA2515",
"V'	c #F52615",
"W'	c #FB3017",
"X'	c #FC2F17",
"Y'	c #F02816",
"Z'	c #E8251A",
"`'	c #ED2618",
" )	c #FB3213",
".)	c #F82F15",
"+)	c #EB2617",
"@)	c #E92618",
"#)	c #FF4714",
"$)	c #FF7E24",
"%)	c #FE8326",
"&)	c #FF8B21",
"*)	c #CE0200",
"=)	c #BC0100",
"-)	c #990000",
";)	c #9E0000",
">)	c #C10000",
",)	c #FD0100",
"')	c #FF1902",
"))	c #FF2100",
"!)	c #FE851B",
"~)	c #FF7719",
"{)	c #FF6E19",
"])	c #FF6113",
"^)	c #FF5312",
"/)	c #FF4410",
"()	c #F72912",
"_)	c #F32514",
":)	c #EC2413",
"<)	c #EC2215",
"[)	c #E72115",
"})	c #FF3813",
"|)	c #FF460E",
"1)	c #FC3618",
"2)	c #E92A1F",
"3)	c #E6271D",
"4)	c #E9281A",
"5)	c #E2211A",
"6)	c #EE2517",
"7)	c #F72C15",
"8)	c #E82519",
"9)	c #EE2719",
"0)	c #FF3B15",
"a)	c #FF5419",
"b)	c #FF6F1C",
"c)	c #FD7A23",
"d)	c #BC0000",
"e)	c #810100",
"f)	c #8A0100",
"g)	c #BE0000",
"h)	c #C80000",
"i)	c #FE1F04",
"j)	c #FE1B05",
"k)	c #EE0101",
"l)	c #FF1B00",
"m)	c #FEA226",
"n)	c #FF7617",
"o)	c #FF6714",
"p)	c #FF4212",
"q)	c #FE3311",
"r)	c #F62912",
"s)	c #F32413",
"t)	c #F32615",
"u)	c #E92115",
"v)	c #EB2316",
"w)	c #FE3912",
"x)	c #FF4314",
"y)	c #EF2116",
"z)	c #EA241C",
"A)	c #E72A1D",
"B)	c #E52A1C",
"C)	c #E7271A",
"D)	c #E0231A",
"E)	c #E3221A",
"F)	c #F22717",
"G)	c #F02618",
"H)	c #EB2616",
"I)	c #F73213",
"J)	c #FE4214",
"K)	c #FF6418",
"L)	c #FF761C",
"M)	c #870000",
"N)	c #BA0001",
"O)	c #FD2307",
"P)	c #FB2D0F",
"Q)	c #FF1300",
"R)	c #FAA129",
"S)	c #FF6416",
"T)	c #FF4712",
"U)	c #FF3F11",
"V)	c #FE3112",
"W)	c #F72913",
"X)	c #F62712",
"Y)	c #F42515",
"Z)	c #E82216",
"`)	c #E01E16",
" !	c #FE4316",
".!	c #EA251A",
"+!	c #EA261A",
"@!	c #E4281C",
"#!	c #E9291D",
"$!	c #FB4921",
"%!	c #E4281D",
"&!	c #E5261C",
"*!	c #DD2119",
"=!	c #E0221A",
"-!	c #F02617",
";!	c #F62918",
">!	c #EE2818",
",!	c #E52417",
"'!	c #F52D16",
")!	c #FF3515",
"!!	c #FF4F16",
"~!	c #FF751E",
"{!	c #ED1D01",
"]!	c #BF0101",
"^!	c #A70000",
"/!	c #950000",
"(!	c #FE1907",
"_!	c #FF3C1F",
":!	c #FE0C00",
"<!	c #FD9B21",
"[!	c #FF7C1E",
"}!	c #FF4E12",
"|!	c #FE3F13",
"1!	c #FF3B0F",
"2!	c #FE2D11",
"3!	c #FC240F",
"4!	c #FC3016",
"5!	c #EF2416",
"6!	c #EA2115",
"7!	c #F02417",
"8!	c #E8251C",
"9!	c #E3261A",
"0!	c #E8291C",
"a!	c #F1381E",
"b!	c #F53012",
"c!	c #E22C1E",
"d!	c #E6291D",
"e!	c #E5281C",
"f!	c #DA211C",
"g!	c #DF2018",
"h!	c #F02716",
"i!	c #FB2E16",
"j!	c #E62319",
"k!	c #F22917",
"l!	c #F82E16",
"m!	c #FD3F14",
"n!	c #FF4F17",
"o!	c #FF7516",
"p!	c #CC0100",
"q!	c #830000",
"r!	c #AD0000",
"s!	c #FE260F",
"t!	c #FE5437",
"u!	c #FF0901",
"v!	c #FD9620",
"w!	c #FF6117",
"x!	c #FF4B13",
"y!	c #FF5919",
"z!	c #FF2C0C",
"A!	c #F52413",
"B!	c #EB2116",
"C!	c #EC2317",
"D!	c #F32719",
"E!	c #F42719",
"F!	c #EB291D",
"G!	c #E5221B",
"H!	c #E5261B",
"I!	c #EA291E",
"J!	c #E02E1F",
"K!	c #E72B1E",
"L!	c #E2281C",
"M!	c #E1221A",
"N!	c #FF3D14",
"O!	c #FF611E",
"P!	c #FB2410",
"Q!	c #F52816",
"R!	c #ED2817",
"S!	c #FA2F14",
"T!	c #FF631D",
"U!	c #C60300",
"V!	c #A30000",
"W!	c #FF240D",
"X!	c #FF674D",
"Y!	c #FF200D",
"Z!	c #FC0500",
"`!	c #FB9C25",
" ~	c #FF811C",
".~	c #FE3D11",
"+~	c #FC3013",
"@~	c #FA2C12",
"#~	c #FF7229",
"$~	c #FF2C0D",
"%~	c #F52514",
"&~	c #E82215",
"*~	c #F82916",
"=~	c #E9261B",
"-~	c #EC2618",
";~	c #DF2016",
">~	c #EC271A",
",~	c #E1291D",
"'~	c #E3221C",
")~	c #E4211A",
"!~	c #E51F18",
"~~	c #FF782A",
"{~	c #FF4710",
"]~	c #F62914",
"^~	c #E92217",
"/~	c #F32915",
"(~	c #FE3D16",
"_~	c #FF5E19",
":~	c #DD0200",
"<~	c #930002",
"[~	c #FF3619",
"}~	c #FF886F",
"|~	c #FF311A",
"1~	c #FD9E28",
"2~	c #FF871F",
"3~	c #FF6D17",
"4~	c #FF4910",
"5~	c #FF3C12",
"6~	c #FD2E12",
"7~	c #FB2A11",
"8~	c #FF3912",
"9~	c #FD2C0F",
"0~	c #F72815",
"a~	c #E71F16",
"b~	c #ED2415",
"c~	c #E42217",
"d~	c #EE2315",
"e~	c #F52918",
"f~	c #EB2A1A",
"g~	c #E42A1E",
"h~	c #F42513",
"i~	c #E32216",
"j~	c #EF2717",
"k~	c #F83216",
"l~	c #FF761A",
"m~	c #BB0100",
"n~	c #950005",
"o~	c #A60000",
"p~	c #FF6645",
"q~	c #FFA38B",
"r~	c #FF2A16",
"s~	c #FA0400",
"t~	c #FCA42C",
"u~	c #FF8921",
"v~	c #FF731B",
"w~	c #FF4A12",
"x~	c #FE3913",
"y~	c #FC3112",
"z~	c #F92E12",
"A~	c #FE3612",
"B~	c #FB2B11",
"C~	c #E61E17",
"D~	c #EF2816",
"E~	c #E92216",
"F~	c #EA2318",
"G~	c #F22617",
"H~	c #F22719",
"I~	c #E5281D",
"J~	c #E1251D",
"K~	c #E0211A",
"L~	c #FB3417",
"M~	c #FE6621",
"N~	c #FD2B11",
"O~	c #EB2318",
"P~	c #EF2517",
"Q~	c #F93115",
"R~	c #FF7C1C",
"S~	c #C10300",
"T~	c #920001",
"U~	c #910006",
"V~	c #9D000D",
"W~	c #9A0001",
"X~	c #B40000",
"Y~	c #FF341F",
"Z~	c #FF6C53",
"`~	c #FE1407",
" {	c #FFA327",
".{	c #FF8E24",
"+{	c #FF761B",
"@{	c #FE3810",
"#{	c #FD2D11",
"${	c #FE3111",
"%{	c #FC2D14",
"&{	c #EB2417",
"*{	c #E42119",
"={	c #EF2818",
"-{	c #E42218",
";{	c #EA2517",
">{	c #F72A18",
",{	c #EF271A",
"'{	c #E8291B",
"){	c #E6281F",
"!{	c #E3281C",
"~{	c #DA211B",
"{{	c #E52419",
"]{	c #EF2719",
"^{	c #FC441C",
"/{	c #FB3214",
"({	c #ED2515",
"_{	c #F52D17",
":{	c #FF5B16",
"<{	c #FE6A15",
"[{	c #AA0100",
"}{	c #8C0003",
"|{	c #A30016",
"1{	c #FB0400",
"2{	c #FF301F",
"3{	c #FF1107",
"4{	c #E10200",
"5{	c #FDAA2D",
"6{	c #FF9023",
"7{	c #FF5A14",
"8{	c #FF3413",
"9{	c #FE2F13",
"0{	c #E42118",
"a{	c #E12219",
"b{	c #E52318",
"c{	c #E02019",
"d{	c #DE2019",
"e{	c #F62A18",
"f{	c #F32619",
"g{	c #EF2A1D",
"h{	c #DE251E",
"i{	c #D82118",
"j{	c #E02319",
"k{	c #DF221A",
"l{	c #F92B18",
"m{	c #FB2F16",
"n{	c #F02A17",
"o{	c #F02C18",
"p{	c #FD3E13",
"q{	c #FF691A",
"r{	c #F31E00",
"s{	c #A60014",
"t{	c #950004",
"u{	c #FC1404",
"v{	c #FD1B05",
"w{	c #CA0000",
"x{	c #FAB52D",
"y{	c #FF942A",
"z{	c #FF811F",
"A{	c #FF6517",
"B{	c #FF4313",
"C{	c #FD3712",
"D{	c #FC2F12",
"E{	c #F82B13",
"F{	c #F12515",
"G{	c #E22017",
"H{	c #DE1F18",
"I{	c #E02117",
"J{	c #DD1F18",
"K{	c #E11F16",
"L{	c #F52216",
"M{	c #F72915",
"N{	c #EB291A",
"O{	c #DE291E",
"P{	c #DD2219",
"Q{	c #E42519",
"R{	c #E72417",
"S{	c #FA3017",
"T{	c #F82D16",
"U{	c #F02917",
"V{	c #EF2D17",
"W{	c #FA3714",
"X{	c #FF7214",
"Y{	c #950007",
"Z{	c #A3000E",
"`{	c #900001",
" ]	c #F70B01",
".]	c #FC2C10",
"+]	c #F20100",
"@]	c #FAC02E",
"#]	c #FF9227",
"$]	c #FF8920",
"%]	c #FE6917",
"&]	c #FE3E11",
"*]	c #FF3610",
"=]	c #FA2D11",
"-]	c #ED2416",
";]	c #E12018",
">]	c #EC2216",
",]	c #FE260A",
"']	c #FF3E17",
")]	c #E8281D",
"!]	c #DF281D",
"~]	c #DB2017",
"{]	c #E12319",
"]]	c #DC201A",
"^]	c #EB2719",
"/]	c #ED2718",
"(]	c #EF2A17",
"_]	c #F12D17",
":]	c #AF0100",
"<]	c #A40010",
"[]	c #8E0001",
"}]	c #B60000",
"|]	c #F50A00",
"1]	c #FB3416",
"2]	c #FC1608",
"3]	c #EB0200",
"4]	c #FC7F10",
"5]	c #FF8620",
"6]	c #FF3F12",
"7]	c #FF3710",
"8]	c #FA2E13",
"9]	c #F22714",
"0]	c #EA2416",
"a]	c #ED2317",
"b]	c #F52415",
"c]	c #FC953B",
"d]	c #F71D10",
"e]	c #EA2A1D",
"f]	c #E22419",
"g]	c #E2251B",
"h]	c #E12218",
"i]	c #E52217",
"j]	c #F42E16",
"k]	c #FB3117",
"l]	c #FF5E18",
"m]	c #FF741A",
"n]	c #9A000C",
"o]	c #9C0003",
"p]	c #FD4126",
"q]	c #FE3E24",
"r]	c #FE0401",
"s]	c #F00400",
"t]	c #FF9829",
"u]	c #FF8F27",
"v]	c #FE811D",
"w]	c #FF3712",
"x]	c #F62B15",
"y]	c #F73318",
"z]	c #FF420E",
"A]	c #FD3611",
"B]	c #EB2217",
"C]	c #E52019",
"D]	c #F72B12",
"E]	c #ED2719",
"F]	c #E72D1E",
"G]	c #E0261D",
"H]	c #E2251A",
"I]	c #DC221A",
"J]	c #DA221D",
"K]	c #EA2618",
"L]	c #FB3215",
"M]	c #FE3A15",
"N]	c #FF4D13",
"O]	c #FF701A",
"P]	c #FF6C16",
"Q]	c #B10001",
"R]	c #D00100",
"S]	c #F30800",
"T]	c #E60200",
"U]	c #960001",
"V]	c #FF5336",
"W]	c #FF7659",
"X]	c #FF2E17",
"Y]	c #FF8B23",
"Z]	c #FF781D",
"`]	c #F82C13",
" ^	c #F62A15",
".^	c #F72813",
"+^	c #FD3716",
"@^	c #FF9537",
"#^	c #FB2E11",
"$^	c #EC2418",
"%^	c #DD1D17",
"&^	c #F32919",
"*^	c #EB291F",
"=^	c #D8241C",
"-^	c #DD241A",
";^	c #DC211B",
">^	c #E1241B",
",^	c #D9201B",
"'^	c #E82718",
")^	c #FD3015",
"!^	c #FE3E15",
"~^	c #FF4A14",
"{^	c #FF6C1C",
"]^	c #FE8A21",
"^^	c #F20300",
"/^	c #FD2A06",
"(^	c #890001",
"_^	c #FA1008",
":^	c #FF9476",
"<^	c #FF6D57",
"[^	c #FA0100",
"}^	c #F10300",
"|^	c #FDAD28",
"1^	c #FF7A1A",
"2^	c #FF4A15",
"3^	c #FF3E12",
"4^	c #FF4C19",
"5^	c #FF2F12",
"6^	c #F82712",
"7^	c #F72514",
"8^	c #EA2518",
"9^	c #E3271D",
"0^	c #DF271B",
"a^	c #DC261A",
"b^	c #E3261B",
"c^	c #DC1F19",
"d^	c #E52518",
"e^	c #FC3414",
"f^	c #FF4613",
"g^	c #FF7F1E",
"h^	c #FF5611",
"i^	c #B50001",
"j^	c #E30100",
"k^	c #FF2E05",
"l^	c #F50900",
"m^	c #8B0001",
"n^	c #BA0000",
"o^	c #FF4735",
"p^	c #FF7B61",
"q^	c #FD0B02",
"r^	c #F80100",
"s^	c #FE9F1F",
"t^	c #FF7D19",
"u^	c #FF6016",
"v^	c #FE4110",
"w^	c #F82C12",
"x^	c #FF3A14",
"y^	c #FFA048",
"z^	c #F62D18",
"A^	c #E52119",
"B^	c #E82C1D",
"C^	c #DE271C",
"D^	c #DE241B",
"E^	c #DD241B",
"F^	c #DD211B",
"G^	c #F52E17",
"H^	c #FC3516",
"I^	c #FF3D18",
"J^	c #FF5B14",
"K^	c #FF7B20",
"L^	c #FF2004",
"M^	c #FE3105",
"N^	c #F90804",
"O^	c #FF402A",
"P^	c #FD2917",
"Q^	c #FC0302",
"R^	c #FE7316",
"S^	c #FF6115",
"T^	c #FF3F10",
"U^	c #F92D13",
"V^	c #FB3714",
"W^	c #F62B16",
"X^	c #E32219",
"Y^	c #E5231A",
"Z^	c #E62B1C",
"`^	c #DC251B",
" /	c #DB241C",
"./	c #DC231B",
"+/	c #DE241A",
"@/	c #FF3F18",
"#/	c #FD3D14",
"$/	c #FF8221",
"%/	c #E30900",
"&/	c #F00700",
"*/	c #FE2103",
"=/	c #F91300",
"-/	c #FE0D02",
";/	c #FC331A",
">/	c #FE0D05",
",/	c #FF7C15",
"'/	c #FF6516",
")/	c #FF4D12",
"!/	c #FE4211",
"~/	c #FB3112",
"{/	c #F92911",
"]/	c #F82D12",
"^/	c #F42B19",
"//	c #E72319",
"(/	c #E62318",
"_/	c #ED2C1C",
":/	c #E7291B",
"</	c #E62E1D",
"[/	c #E5281E",
"}/	c #E2251D",
"|/	c #DB231A",
"1/	c #FC3719",
"2/	c #FF4515",
"3/	c #FE3F12",
"4/	c #FF4D15",
"5/	c #FF6017",
"6/	c #FFA028",
"7/	c #F91400",
"8/	c #FE1B03",
"9/	c #C60001",
"0/	c #FB1A0B",
"a/	c #FC1205",
"b/	c #F80200",
"c/	c #FF5B0D",
"d/	c #FF6216",
"e/	c #FF4F12",
"f/	c #FC3413",
"g/	c #F22916",
"h/	c #E9261A",
"i/	c #EB2C1C",
"j/	c #DD231A",
"k/	c #E52319",
"l/	c #EA2619",
"m/	c #F02C1A",
"n/	c #FD4119",
"o/	c #FF5016",
"p/	c #FF5A16",
"q/	c #FF6D19",
"r/	c #F31D00",
"s/	c #FD0C00",
"t/	c #EB0500",
"u/	c #F90301",
"v/	c #F80600",
"w/	c #C30001",
"x/	c #FF5C13",
"y/	c #FF5013",
"z/	c #FC3812",
"A/	c #E8231A",
"B/	c #E7251A",
"C/	c #E42B1C",
"D/	c #EC271B",
"E/	c #EF2715",
"F/	c #F63414",
"G/	c #FF4916",
"H/	c #FF7F1D",
"I/	c #FF9322",
"J/	c #FB1000",
"K/	c #CD0001",
"L/	c #FF0C04",
"M/	c #FF3620",
"N/	c #FB0300",
"O/	c #FE821D",
"P/	c #FF5811",
"Q/	c #FF4911",
"R/	c #FE3410",
"S/	c #F22A15",
"T/	c #E92518",
"U/	c #EA2519",
"V/	c #EA291C",
"W/	c #EA271C",
"X/	c #FE3413",
"Y/	c #FF9C38",
"Z/	c #F92713",
"`/	c #F72F13",
" (	c #FE4012",
".(	c #FE6C11",
"+(	c #B90100",
"@(	c #8D0001",
"#(	c #FF1D12",
"$(	c #FFC4A6",
"%(	c #FFAE89",
"&(	c #EB0101",
"*(	c #FF5A13",
"=(	c #FF4B12",
"-(	c #FD3411",
";(	c #EA2617",
">(	c #EC2719",
",(	c #EE2A1B",
"'(	c #EB2A1D",
")(	c #E62C1D",
"!(	c #FE3610",
"~(	c #FB9B3F",
"{(	c #F42915",
"](	c #FC3713",
"^(	c #FE3B12",
"/(	c #FF5713",
"((	c #FF681A",
"_(	c #FF771E",
":(	c #FF811B",
"<(	c #C70001",
"[(	c #8A0002",
"}(	c #FF1D0F",
"|(	c #FDBA9D",
"1(	c #FF1204",
"2(	c #FB6315",
"3(	c #FD4C13",
"4(	c #F32B16",
"5(	c #E82518",
"6(	c #E82819",
"7(	c #ED2C1B",
"8(	c #EF2C1E",
"9(	c #FE350F",
"0(	c #FF6315",
"a(	c #F62915",
"b(	c #FA2F13",
"c(	c #FD3415",
"d(	c #FF721D",
"e(	c #FF8420",
"f(	c #FF0902",
"g(	c #FF5536",
"h(	c #FF0700",
"i(	c #FF5615",
"j(	c #FB3316",
"k(	c #EB2D1C",
"l(	c #EE1F1B",
"m(	c #F52518",
"n(	c #F82B15",
"o(	c #FB3116",
"p(	c #FF3B12",
"q(	c #FF4312",
"r(	c #FF5513",
"s(	c #FF5E15",
"t(	c #FF771A",
"u(	c #FF7B1B",
"v(	c #FB7614",
"w(	c #FF1E0F",
"x(	c #FF5239",
"y(	c #EB0E02",
"z(	c #ED2D1C",
"A(	c #ED2C1D",
"B(	c #E32E1E",
"C(	c #E5271C",
"D(	c #E6271E",
"E(	c #E12318",
"F(	c #FA3217",
"G(	c #FF3817",
"H(	c #FF4812",
"I(	c #FF5313",
"J(	c #FF731A",
"K(	c #FF7213",
"L(	c #FA2800",
"M(	c #FE3A1E",
"N(	c #FC0001",
"O(	c #EF0100",
"P(	c #FF6618",
"Q(	c #F82C14",
"R(	c #EE2E1D",
"S(	c #E3241C",
"T(	c #E3231C",
"U(	c #F22B19",
"V(	c #FC3D13",
"W(	c #FE4611",
"X(	c #FF6819",
"Y(	c #FF7313",
"Z(	c #850001",
"`(	c #FA0302",
" _	c #EE0200",
"._	c #FF7D20",
"+_	c #F93013",
"@_	c #E42C1D",
"#_	c #E3271C",
"$_	c #E1281D",
"%_	c #EF2B18",
"&_	c #FA3414",
"*_	c #FF5812",
"=_	c #FF6314",
"-_	c #FF751A",
";_	c #FE841A",
">_	c #F92303",
",_	c #7B0000",
"'_	c #C40002",
")_	c #EE0004",
"!_	c #FF7818",
"~_	c #FD5117",
"{_	c #EC2F1E",
"]_	c #E82A1E",
"^_	c #E2271B",
"/_	c #E2221A",
"(_	c #E92519",
"__	c #F63015",
":_	c #FF5910",
"<_	c #FF6E17",
"[_	c #FF7F1A",
"}_	c #FD8017",
"|_	c #FF4605",
"1_	c #7A0000",
"2_	c #7C0001",
"3_	c #FF6114",
"4_	c #EE2819",
"5_	c #E82E1E",
"6_	c #E62E1E",
"7_	c #EA2D1E",
"8_	c #EB2B1C",
"9_	c #F8401A",
"0_	c #F42917",
"a_	c #E72619",
"b_	c #ED281A",
"c_	c #FE3B15",
"d_	c #FF4D10",
"e_	c #FF6816",
"f_	c #FF7819",
"g_	c #FF7E1B",
"h_	c #FF861A",
"i_	c #FE9D1F",
"j_	c #F02A00",
"k_	c #EB0300",
"l_	c #E90100",
"m_	c #F50300",
"n_	c #9E0001",
"o_	c #FD4C10",
"p_	c #FB4B14",
"q_	c #F73A15",
"r_	c #EC2816",
"s_	c #F7351D",
"t_	c #F02E19",
"u_	c #E4291B",
"v_	c #EC2C1B",
"w_	c #FA3616",
"x_	c #FD3B12",
"y_	c #FF5918",
"z_	c #FF6E1C",
"A_	c #FF761D",
"B_	c #FF871E",
"C_	c #FF8A1D",
"D_	c #F60F02",
"E_	c #FA0C01",
"F_	c #FE1100",
"G_	c #E00003",
"H_	c #FD4E11",
"I_	c #FE4A17",
"J_	c #FB3818",
"K_	c #EE2A18",
"L_	c #E92B1A",
"M_	c #E6271C",
"N_	c #E22318",
"O_	c #E72719",
"P_	c #F12C19",
"Q_	c #F73116",
"R_	c #FF4815",
"S_	c #FF5F17",
"T_	c #FF7B19",
"U_	c #FF7E1F",
"V_	c #FF9222",
"W_	c #FDA228",
"X_	c #FB6F16",
"Y_	c #C50002",
"Z_	c #F91402",
"`_	c #F50700",
" :	c #ED0900",
".:	c #D10200",
"+:	c #AF0201",
"@:	c #930001",
"#:	c #B90300",
"$:	c #FD5A16",
"%:	c #F83D14",
"&:	c #FB3315",
"*:	c #F22919",
"=:	c #E52719",
"-:	c #E62A1A",
";:	c #E82F1D",
">:	c #E82F20",
",:	c #E7271D",
"':	c #F6311C",
"):	c #FA3417",
"!:	c #FF3D16",
"~:	c #FF5714",
"{:	c #FF5C15",
"]:	c #FF6815",
"^:	c #FF6D1A",
"/:	c #FF7518",
"(:	c #FE8420",
"_:	c #FF9025",
"::	c #FF3508",
"<:	c #FB0E03",
"[:	c #F60B01",
"}:	c #F30E04",
"|:	c #FB260A",
"1:	c #FE3911",
"2:	c #FD4C14",
"3:	c #FD3F13",
"4:	c #EF2B19",
"5:	c #EA2D1C",
"6:	c #E52E1B",
"7:	c #E5301F",
"8:	c #E7291D",
"9:	c #EC2619",
"0:	c #F83019",
"a:	c #FF3B14",
"b:	c #FF4B14",
"c:	c #FF5214",
"d:	c #FE5611",
"e:	c #FF5A12",
"f:	c #FF6214",
"g:	c #FE5F17",
"h:	c #FC5B15",
"i:	c #FE5614",
"j:	c #FF4713",
"k:	c #FC4212",
"l:	c #F83312",
"m:	c #F42B14",
"n:	c #EB2818",
"o:	c #E7281A",
"p:	c #E72E1C",
"q:	c #E82C1C",
"r:	c #E92A1D",
"s:	c #E7271B",
"t:	c #E8241D",
"u:	c #E7221B",
"v:	c #ED2319",
"w:	c #F82B18",
"x:	c #F73016",
"y:	c #FB3314",
"z:	c #FB3A11",
"A:	c #FB3D12",
"B:	c #F93312",
"C:	c #F83817",
"D:	c #F93A10",
"E:	c #F62E15",
"F:	c #EA2E1D",
"G:	c #E72E1F",
"H:	c #EB2E1E",
"I:	c #E1261B",
"J:	c #E9291C",
"K:	c #EB291B",
"L:	c #ED2D18",
"M:	c #E9291A",
"N:	c #E62719",
"O:	c #E7291A",
"P:	c #E42719",
"Q:	c #E3291A",
"R:	c #E82A1B",
"S:	c #E72E1B",
"T:	c #E72C1B",
"U:	c #E82B1A",
"V:	c #E72B1A",
"                                                                                                                                                                                    ",
"                                                                                                                                                                                    ",
"                                                                                                                                                                                    ",
"                                                                                                                                                                                    ",
"                                                                                                                                                                                    ",
"                                                                        . +                                                                                                         ",
"                                                                      @ # $                                                                                                         ",
"                                                                      % & * =                                                                                                       ",
"                                                                      - ; > ,                                                                                                       ",
"                                                                      ' ) ! ~                                                                                                       ",
"                                                                      { ] ^ /                                                                                                       ",
"                                                                      ( _ : <                                                                                                       ",
"                                                                        [ } |       1 2                                                                                             ",
"                                                                        3 4 5     6 7 8 9 0 a                                                                                       ",
"                                                                  b c   d e f g h i j k l m n o p q                                                                                 ",
"                                                                r s t u v w x y z A B C D E F G H I J                                                                               ",
"                                                      K         L M N O P Q R S T U V W X Y Z `  ...+.@.                                                                            ",
"                                                          #.  $.%.&.*.=.-.;.>.,.'.).!.~.` {.].^./.(._.:.<.  [.                                                                      ",
"                                                        }.|.1.2.3.4.5.6.7.8.9.0.a.b.c.d.e.f.g.h.i.j.k.l.m.n.                                                                        ",
"                                                      o.p.q.r.s.t.u.v.w.x.y.z.A.B.C.D.E.F.G.H.I.J.K.L.M.N.O.P.                                                                      ",
"                                                      Q.R.S.T.U.V.W.X.Y.Z.`. +.+++@+#+$+%+&+*+=+-+;+>+,+'+Y )+!+                                                                    ",
"                                                    ~+{+]+^+/+(+_+:+<+[+}+e |+1+2+3+4+5+6+7+8+9+0+a+b+c+d+e+f+g+h+  i+  j+                                                          ",
"                                      k+            l+m+n+o+p+q+r+s+t+u+v+w+x+y+z+A+B+C+D+E+F+G+H+I+J+K+L+M+N+O+P+Q+R+S+T+                                                          ",
"                                      U+          V+W+X+Y+Z+`+ @.@+@@@#@$@%@&@*@=@-@;@>@,@'@)@!@~@{@]@^@/@;+(@_@:@<@[@}@|@                                                          ",
"                                                  1@2@3@4@L.5@6@7@8@9@0@a@b@c@d@e@f@g@h@i@j@k@l@m@n@o@p@q@r@s@t@u@v@w@x@y@                                                          ",
"                                                z@A@B@|@C@D@E@F@G@H@I@J@K@L@M@N@O@P@Q@R@S@T@U@V@W@X@Y@Z@`@ #.#;++#@###$#                                                            ",
"                                      %#  &#*#=#X+-#;#>#,#c+'#)#!#~#{#]#^#/#(#_#:#<#[#}#|#1#2#3#4#5#|#6#7#8#9+9#-+0#a#b#c#3@d#e#  f#                                                ",
"                                      g#h#  i#j#k#l#m#n#o#p#q#r#s#t#u#v#w#x#y#z#A#B#C#D#E#F#G#H#4#I#J#K#L#M#N#O#P#;+Q#R#S#T#U#V#W#d#X#Y#                                            ",
"                                      Z#`# $.$+$@$#$$$%$&$*$=$-$;$>$,$'$)$!$~$C#{$]$^$/$($_$:$<$[$}$|$1$2$6#3$4$5$6$7$8$9$0$a$b$c$d$e$f$                                            ",
"                                        g$h$i$j$k$l$m$n$o$p$q$r$s$t$u$v$w$x$y$z$A$B$C$D$E$F$G$H$I$J$K$L$M$L#N$O$P$Q$R$S$T$U$V$(.W$X$Y$X+                                            ",
"                                      Z$`$ %.%+%@%#%$%%%&%*%=%-%;%>%,%'%)%!%~%J${%]%^%/%(%_%:%<%[%I#}%|#|%1%2%3%4%5%&%'+6%7%8%9%W$0%a%                                              ",
"                                      b%c%d%e% %{.f%g%h%i%j%k%l%,$m%n%o%p%q%C#}%r%s%t%u%v%w%x%y%z%I#7#}$A%B%C%D%E%F%G%H%I%J%K%L%M%N%O%                                              ",
"                                      P%Q%R%S%T%@#+#U%V%W%X%Y%Z%`% &.&+&@&1$#&$&%&&&*&=&-&;&>&,&'&I#)&J#!&C#~&{&]&^&/&(&_&:&<&[&}&|&1&                                              ",
"                                      2&3&O+I%4&5&6&7&8&9&0&a&b&c&d&e&f&y$1$5#K$g&h&i&j&k&l&m&n&z%J$o&Z@A%p&q&r&s&t&u&v&w&x&y&z&A&B&C&                                              ",
"                                      D&E&F&G&N+H&I&J&K&L&M&N&O&P&Q&R&S&T&!&U&J$V&W&X&Y&Z&`& *.*E#J$B%z$~%y$J$+*@*#*$*%*&***=*-*;*>*,*'*          )*!*                              ",
"                                      ~*{*]*^*/*(*_*:*<*[*}*|*1*)$2*3*4*u$~%5*K$6*7*8*9*0*a*b*c*d*|$5*5*~%y$|#G#e*f*g*h*i*j*k*l*m*n*o*p*  q*                                        ",
"                                  r*    s*t*u*/.v*w*x*y*z*A*B*C*D*E*F*G*H*1$L$}$D#I*J*K*L*M*N*O*I#)&A%B%5#y$P*Q*R*S*T*U*V*t@W*X*Y*Z*`* =.=+=@=                                      ",
"                                  #=$=  %=&=*===-=t@/@;=>=,='=)=1*!=~={=]=q%A%Z@7#I*^=/=(=_=:=<=I#7#[=!&}%}=|=1=2=3=4=5=6=7=8=9=0=a=b=c=d=e=f=g=                                    ",
"                                  h=i=  j=k=l=m=-=L+n=o=p=q=r=s=1*t=u=v=w=x=p&|#7#D#y=z=A=B=.*C=)&|#D=M$E=z#F=G=H=I=J=K=L=M=N=O=-*P=h.Q=R=S=T=                                      ",
"                                      U=V=g$W=X=Y=Z=`= -.-+-@-#-$-%-&-*->%z#=-B%Z@)&--;->-,-'-)-)&5*M$!-~-{-F=]-^-/-(-_-:-<-[-}-A&|-1-2-3-4-5-                                      ",
"                                      6-7-8-9-0-a-b-c-d-e-f-g-h-$-i-j-k-l-m-n-!&|#)&o-p-q-r-s-t-$&~%p&=-u-x=v-w-x-y-z-A-B-C-D-E-F-G-H-I-J-K-                                        ",
"                                      L-M-l=N-O-P-Q-/&R-S-T-U-V-W-X-Y-Z-`- ;!%!&~%}$.;+;@;#;x&E#}%~%=-|%$;y$%;&;*;=;-;;;>;,;';);!;~;{;];^;/;                                        ",
"                                    (;_;:;<;[;};|;1;4%2;3;4;5;6;7;D*8;9;0; ;v$q%!&|#}#I#a;X&b;c;|#1$x=C#d;M$e;f;g;h;i;j;k;l;m;D-n;o;p;q;r;s;                                        ",
"                                t;u;e=v;w;x;N+y;|;z;A;B;'%C;D;E;$-1*F;G;H;I;v$J;!&J#}$}#t-K;L;D#z$M$y$M;N;J;O;P;Q;R;S;T;U;V;W;+#X;Y;X$Z;`; >                                        ",
"                              .>+>@>#>$>l*%>&>*>=>->;>>>,>'>)>!>$-7;~>,${>]>^>n-[=U&Z@}#I*/>'&|$~%q%u$(>_>J;:><>[>h;}>F%|>'#1>2>3>4>5>6>7>8>v;                                      ",
"                              9>0>a>b>c>d>e>S$1>f>g>h>i>j>k>l>8;$-s=m>n>o>p>q>x$r>!&~%|$}#s>I*)&C#p&)%t>u>v>w>x>y>z>A>B>J+C>D>E>F>G>H>I>J>K>L>M>                                    ",
"                              N>O>d=P>Q>R>S>T>t@U>V>W>X>J;Y>Z>`>C*C* ,.,o>+,l- ;u$A%5*|$D#o-I#D#L$M$@&@,#,!%$,%,&,*,=,-,;,>,,,',),!,~,{,],^,`#/,                                    ",
"                                (,_,:,<,[,},|,1,2,3,4,5,6,7,n>8,s=C*'$)$9,9&0,a,x=!-C#}%J$b,6#c,B#q%!%=-d,u$e,f,g,h,i,j,k,l,T>m,n,o,p,q,r,s,t,u,                                    ",
"                              v,w,x,y,z,A,B,C,D,E,F,G,H,I,J,K,L,$-C*V-M,N,O,P,p>v$J;[=5#)&Q,R,S,C#q%)%z#x$T,U,V,W,X,Y,Z,`, '.'+'@'#'$'%'&'*'='e=                                    ",
"                              -';'>',''')'!'h$~'{']'^'/'('_':'Z>7;<'['O&.,}'P,l-^>)%|%U&)&q&|'1'B%p&2'3'^>}=4'5'6'7'8'9'0'a'b'c'd'e'f'g'h'i'j'k'                                    ",
"                              l'm'n'o'(*p'q'L-r's't'u'N#v'w'x'M,y'<'z'A'~>B'C'~$D'6,u$A%J#E'F'G'~%H'6,D'I'J;4'J'K'L'M'N'O'P'Q'R'S'T'U'V'W'X'Y'                                      ",
"                                -'Z'`' ).)+)@)c##)'#$)%)&)*)=)-)l>)=W-X-y';)L,:'>)3'n-M$U&,)')e;U&q%z#I']>q%))!)~){)])^)/)m,()_):)<)[)})|)1)L>2)                                    ",
"                                3)4)5)6)7)q;8)9)0)a)b)c)9+w'd)l>;$7;e)f) ,%-;$C'g)h)x=|%z$K$i)j)k)[=x$a,]>p&l)m)n)o)N' 'p)q)r)s)t)u)v)w)x)y)z)A)                                    ",
"                                B)C)D)E)F)G)!+H)I)J)K)V;L)x$+,B'l>M))=1*A'~>F;,$N)a,z#p&C#)&O)P)J#1$x$I']>|%Q)R)L)S)0'T)U)V)W)X)Y)Z)`) !Y*.!+!@!#!            $!                    ",
"                                %!&!*!=!-!;!>!,!'!)!!!h%~!{!]!^!F;A's=7;A'/!)$n>:'l-v$q%5*J$(!_!J$[=z#D']>|%:!<![!S)}!|!1!2!3!4!7)5!6!7!F)8!8!9!0!          a!b!                    ",
"                              c!d!e!f!g!h!i!~;j!k!l!m!n!n=o!p!C'.,i-q!s=h-m>/!.,r!0,3'J;L$S,s!t!u!C#x=D'q>!-6#v!X,w!x!E>',4>y!z!A!B!C!D!E!F!G!H!I!                                  ",
"                              J!K!L!M!*!^;N!O!P!Q!R!S!0#T!4$U!,$L,/!7;W-1*X-y'F;V!:'D'x$[=}$W!X!Y!J#}= ;h)C#Z!`! ~k,1>.~+~@~#~$~%~~,&~*~u)=~-~;~>~                                  ",
"                                  ,~'~)~!~7%~~{~]~^~/~(~_~L):~:';$-)7;W-7;'$<~~>.,9,I'v$p&)&[~}~|~7#y$3'h)!&Z!1~2~3~4~5~6~7~8~9~0~a~~,b~c~M-d~e~f~                                  ",
"                                  g~b>g'8!e~V)z-h~i~j~k~a)M'l~m~B'V!D*W-s=h-n~E;)$o~0,h)u$7#p~q~r~)&H'6, ;z$s~t~u~v~w~x~y~z~A~B~b~C~D~E~`;F~G~H~M>                                  ",
"                                    I~J~K~8-L~M~N~O~P~Q~(@S)R~S~K,r!T~M)$-['U~V~6;W~X~]>)%5*Y~Z~`~Z@!-u$^>A%7# {.{+{}!@{[-#{${%{&{*{={5)-{;{>{,{'{                                  ",
"                                    ){!{~{{{]{^{/{({`'_{J):{<{h)[{'>L,D*$-$-}{|{X-/!'>k>6,M$1{2{3{Z@!-H' ;4{Z@5{6{R~7{d%8{6~9{]~0{a{b{c{d{e{f{g{                                    ",
"                                      h{i{j{k{l{m{c#n{o{p{U%q{r{O,9,l-T~s=C*['s{t{O&o~~$I'3'A%u{v{}%!&|%w{!-Z@x{y{z{A{B{C{D{E{F{G{H{I{J{K{L{M{N{                                    ",
"                                      O{P{b>Q{R{S{T{U{V{W{!!w!X{'>C'6,^!7;s=)=Y{Z{`{n>o>k>D')% ].]K$L$C#z#!-+]@]#]$]%]&]*]=]]~-]0{;]0{;]>],]'])]                                    ",
"                                      !]~]=!{]]]^]/](]_]].I&R$+{:]o>n-w{V-)=C*['<][])$K,}]g) ;|]1]2]5#B%H'=-3]4]6{5]Z,6]7]8]9]7>0]j~a]h!b]c]d]e]                                    ",
"                                        j!f]g]d{h]i]a%j]k](*l]m]k>x'}=[=V!W-s=1*n]o]m>;$}'}]D'z$p]q]r]}%q%}=}$s]t]u]v]T)w]W)5-x]y]z]A]B]C]D]E]F]                                    ",
"                                        G]H]I]J]f]d{K]y]L]M]N]O]P]Q]R]S]T]i-['W-A'U]i-)$L,P,p>C#V]W]X]J$J#p&)&}%Y]6'Z]P-5~`] ^.^+^@^#^$^%^&^*^                                      ",
"                                          =^-^;^>^,^'^_{)^!^~^{^]^I'g)^^/^o~6;V-(^D*(^i-;$O,g)!-_^:^<^[^J#p&S,}^|^1^9'2^3^4>(~4^5^6^7^j!8^9^                                        ",
"                                          0^a^b^-^c^d^c#e^Q#f^A{g^h^i^j^k^l^-)y'h-m^V- ,F;C'n^{-}%o^p^q^r^1$J#Z@s^t^u^1,v^w^x^y^S%z^6!A^K]B^                                        ",
"                                            C^D^E^F^{]G^H^I^O-J^K^&)P,0,L^M^g)~>'$A'h-V-/!V!:'^>|%N^O^P^Q^)&L$|$M$R^S^D,T^U^V^']W^F~X^Y^Q%Z^                                        ",
"                                              `^ /./+/O>@/#/|!W;%*$/%/}]&/*/=/;) ,6;h-V- ,F;L,k>n-5*-/;/>/)&|#}%x$,/'/)/!/~/{/]/^///(/_/:/</                                        ",
"                                              [/}/g]|/{{1/2/3/4/5/q@6/'>l-7/8/O,y'X-D*D* ,m>Z>X~9/!%J#0/a/b/7#5#M$c/d/e/a'f/g/B,g$.!h/i/                                            ",
"                                                j/k/l/h]m/n/f^o/p/q/&,r/{>p&s/t/)$O&X-A'V-O&~>K,n^D'H'}$u/v/~&[^5*w/x/y/w~z/S.:;!'A/B/                                              ",
"                                                C/D/S{E/{;F/G/4/c+k,H/I/9&g)C#J/}]M,6;O&6;6;O&l>}'x'K/[=K$L/M/N/Z@~%O/P/Q/R/S/T/K]U/V/                                              ",
"                                                  W/X/Y/Z/`/ (1>-+5/v~1^.(+(p>H'~%{>y' ,'$@( ,m>F;o~n^h)H'#($(%()&)&&(*(=(-(S/;(>(,('(                                              ",
"                                                  )(!(~(h^{(](^(x!/(((_(:(<(d)+,v>u$B''$['[(['D*y'M,C'g)3'|#}(|(1(o-J$2(3(C{4(5(6(7(                                                ",
"                                                    8(9(0(a(b(c(3/w~R$d(e(,/I;0,g)!%v$V!/!A'['h-A'X-)$9,~$x=5#f(g(h(D#A%i(p{j(S.k(                                                  ",
"                                                      l(m(o;n(o(p(q(r(s(t(u(v(x'}]n^z#I;r!-)X-h-['M)D*M,;$~$z#B%w(x(.;}$y(#)/.H-z(A(                                                ",
"                                                    B(C(D(k{E(@$F(G(H(I(P#J(K(L(q>x'a,x= ;'>l>b&7;s=$-D*'$-)P, ;~%D#M(N(O(P(.~Q(R(                                                  ",
"                                                      A)S(T({]2.U(^*V(W(:{X( -Y(&/D'a, ;J;I;X~N,'$q!)=Z(M)h-~>}'x'{-`(D# _._o/+_N>                                                  ",
"                                                        @_#_$_S(Q{%_&_z,M+*_=_-_;_>_X~q>x=n-w{x'o~/!1*C*$-,_W-'$y';$'_5*)_!_~_l={_                                                  ",
"                                                          ]_^_l//_(_U{__#%,+:_<_[_}_|_g)6,A%M$u$h)d);)['7;,_1_2_)=h-n>I;W~3_W.4_5_                                                  ",
"                                                        6_7_8_9_0_e'a_b_R#c_d_e_f_g_h_i_j_T,k_l_l_m_p&l-V!V-1*['A'6;n_6;o_p_q_r_                                                    ",
"                                                              s_t_u_B/Q%v_w_x_y_z_A_g_B_C_X{0,D_E_F_G_4{D'^!~>m>6;)$,_H_I_J_K_z(                                                    ",
"                                                                  L_M_N_O_P_Q_R_S_n=m]T_U_V_W_X_Y_Z_r&`_ :.:0,+:@:#:$:%:&:*:=:-:                                                    ",
"                                                                    ;:>:,:s;':):!:*>~:{:=_]:^:/:(:_:::<:[:}:|:1:2:3:F(4:2&5:6:                                                      ",
"                                                                      7:#!8:`;9:U(0:a:T>'+b:c:d:e:S_f:g:h:i:j:k:l:m:n:o:p:                                                          ",
"                                                                          q:r:s:t:u:v:T=w:x:8$y:.%z:A:B:C:D:E:h'S'a_F:                                                              ",
"                                                                                G:H:I:N>J:K:/]L:+%)]M:N:O:P:Q:R:S:                                                                  ",
"                                                                                            i/  i#T:  U:V:                                                                          ",
"                                                                                                                                                                                    ",
"                                                                                                                                                                                    ",
"                                                                                                                                                                                    ",
"                                                                                                                                                                                    ",
"                                                                                                                                                                                    ",
"                                                                                                                                                                                    ",
"                                                                                                                                                                                    ",
"                                                                                                                                                                                    ",
"                                                                                                                                                                                    ",
"                                                                                                                                                                                    ",
"                                                                                                                                                                                    "};
