/* XPM */
static char * ene_3_xpm[] = {
"79 130 4267 2",
"  	c None",
". 	c #0B0505",
"+ 	c #110807",
"@ 	c #100605",
"# 	c #0D0404",
"$ 	c #140908",
"% 	c #0E0606",
"& 	c #1D0D0C",
"* 	c #1E1110",
"= 	c #180C0A",
"- 	c #32211C",
"; 	c #18110F",
"> 	c #28120E",
", 	c #3D1E17",
"' 	c #321612",
") 	c #381F19",
"! 	c #412620",
"~ 	c #341D1A",
"{ 	c #311B18",
"] 	c #3C221D",
"^ 	c #2A1612",
"/ 	c #3C2822",
"( 	c #50362D",
"_ 	c #251713",
": 	c #170F0D",
"< 	c #140D0C",
"[ 	c #1D1411",
"} 	c #211715",
"| 	c #241916",
"1 	c #1D1310",
"2 	c #3D1E16",
"3 	c #603429",
"4 	c #522B23",
"5 	c #643227",
"6 	c #6D392D",
"7 	c #7C4334",
"8 	c #774435",
"9 	c #7C4D3C",
"0 	c #512B22",
"a 	c #251311",
"b 	c #271613",
"c 	c #2F1C17",
"d 	c #180E0C",
"e 	c #0C0606",
"f 	c #271C1A",
"g 	c #2C211D",
"h 	c #201512",
"i 	c #19110F",
"j 	c #1F1311",
"k 	c #2C1510",
"l 	c #6C3C2D",
"m 	c #8E5644",
"n 	c #845142",
"o 	c #91513F",
"p 	c #AE6D55",
"q 	c #B37761",
"r 	c #B97B64",
"s 	c #B77E66",
"t 	c #976351",
"u 	c #61362B",
"v 	c #4E2B24",
"w 	c #22110E",
"x 	c #1A0E0B",
"y 	c #211310",
"z 	c #1C110F",
"A 	c #150E0C",
"B 	c #130E0C",
"C 	c #1C1513",
"D 	c #2B221F",
"E 	c #29201E",
"F 	c #191211",
"G 	c #170D0D",
"H 	c #311A15",
"I 	c #5C2A1E",
"J 	c #954E38",
"K 	c #B36E58",
"L 	c #B37663",
"M 	c #B6715A",
"N 	c #CC8E74",
"O 	c #C8927D",
"P 	c #CF9B87",
"Q 	c #D9AA92",
"R 	c #C6947D",
"S 	c #AD6850",
"T 	c #793E2E",
"U 	c #321913",
"V 	c #190D0B",
"W 	c #261613",
"X 	c #241714",
"Y 	c #281C18",
"Z 	c #150F0C",
"` 	c #0F0A0A",
" .	c #1F1715",
"..	c #322723",
"+.	c #3A2D28",
"@.	c #2E2521",
"#.	c #191212",
"$.	c #180F0E",
"%.	c #2C0D0A",
"&.	c #562318",
"*.	c #7E3A28",
"=.	c #A95A40",
"-.	c #C8876C",
";.	c #C48A74",
">.	c #D7A38A",
",.	c #C4866E",
"'.	c #C78569",
").	c #DCAB92",
"!.	c #D9B09B",
"~.	c #B78672",
"{.	c #A95F47",
"].	c #884F3E",
"^.	c #522E24",
"/.	c #341712",
"(.	c #20110E",
"_.	c #211513",
":.	c #231917",
"<.	c #271E1B",
"[.	c #251C19",
"}.	c #191210",
"|.	c #271F1D",
"1.	c #3E332E",
"2.	c #2E2522",
"3.	c #2A1E1C",
"4.	c #271411",
"5.	c #58180C",
"6.	c #672013",
"7.	c #813F2D",
"8.	c #A45C42",
"9.	c #CB896A",
"0.	c #D39B81",
"a.	c #E3C4B0",
"b.	c #DBB8A6",
"c.	c #CFA490",
"d.	c #D7A58C",
"e.	c #D09E83",
"f.	c #B07058",
"g.	c #A15941",
"h.	c #884832",
"i.	c #6C3524",
"j.	c #492218",
"k.	c #402921",
"l.	c #412D27",
"m.	c #2D211D",
"n.	c #281E1B",
"o.	c #2D221D",
"p.	c #120D0B",
"q.	c #140F0E",
"r.	c #312723",
"s.	c #281F1B",
"t.	c #1F1513",
"u.	c #220A07",
"v.	c #4B150B",
"w.	c #632013",
"x.	c #7E3825",
"y.	c #A95439",
"z.	c #CA7558",
"A.	c #CC997E",
"B.	c #D1B09D",
"C.	c #E6CDBD",
"D.	c #DDBAA4",
"E.	c #CC856B",
"F.	c #C57453",
"G.	c #AC5D3F",
"H.	c #88462F",
"I.	c #673122",
"J.	c #703627",
"K.	c #512B20",
"L.	c #3C211B",
"M.	c #3D2A24",
"N.	c #372A25",
"O.	c #1B1512",
"P.	c #1B1411",
"Q.	c #0E0A09",
"R.	c #0D0A09",
"S.	c #100D0B",
"T.	c #1B1311",
"U.	c #2B1F1B",
"V.	c #0F0605",
"W.	c #1B0604",
"X.	c #3A0E07",
"Y.	c #50160B",
"Z.	c #60180B",
"`.	c #8B321E",
" +	c #A45E47",
".+	c #A27359",
"++	c #B79276",
"@+	c #C88366",
"#+	c #CD8E6B",
"$+	c #BE7758",
"%+	c #B66545",
"&+	c #965035",
"*+	c #773B27",
"=+	c #592115",
"-+	c #5E2D21",
";+	c #552E24",
">+	c #2B1713",
",+	c #3C2A24",
"'+	c #42312A",
")+	c #2A211E",
"!+	c #1E1816",
"~+	c #110E0D",
"{+	c #120D0C",
"]+	c #271D18",
"^+	c #251B17",
"/+	c #31241F",
"(+	c #0F0909",
"_+	c #100606",
":+	c #150604",
"<+	c #250F0C",
"[+	c #382825",
"}+	c #4A4647",
"|+	c #4C4448",
"1+	c #755744",
"2+	c #8C5C42",
"3+	c #A0664A",
"4+	c #A95E40",
"5+	c #BB5733",
"6+	c #974A2F",
"7+	c #632B1D",
"8+	c #773026",
"9+	c #864031",
"0+	c #813424",
"a+	c #6B2B1D",
"b+	c #50261D",
"c+	c #190F0D",
"d+	c #291E1B",
"e+	c #281F1D",
"f+	c #211A19",
"g+	c #141110",
"h+	c #403027",
"i+	c #251C17",
"j+	c #37271F",
"k+	c #160E0C",
"l+	c #0B0506",
"m+	c #0B0605",
"n+	c #2F302D",
"o+	c #4A5556",
"p+	c #62747D",
"q+	c #74838B",
"r+	c #525B62",
"s+	c #4E3B35",
"t+	c #6D4E3A",
"u+	c #7A4F38",
"v+	c #83311C",
"w+	c #652C23",
"x+	c #876F62",
"y+	c #99776C",
"z+	c #997B6B",
"A+	c #813B2F",
"B+	c #63362C",
"C+	c #6A493D",
"D+	c #2A1913",
"E+	c #000101",
"F+	c #0D0909",
"G+	c #211918",
"H+	c #342724",
"I+	c #191312",
"J+	c #0D0807",
"K+	c #100A08",
"L+	c #1C120E",
"M+	c #5B3F31",
"N+	c #261913",
"O+	c #180F0D",
"P+	c #1C1310",
"Q+	c #33322E",
"R+	c #495151",
"S+	c #55636B",
"T+	c #617486",
"U+	c #606F7A",
"V+	c #797F78",
"W+	c #585954",
"X+	c #493123",
"Y+	c #2C1710",
"Z+	c #4E2A22",
"`+	c #A36A58",
" @	c #79463C",
".@	c #60312A",
"+@	c #5D1614",
"@@	c #5C3932",
"#@	c #785F51",
"$@	c #4C332A",
"%@	c #020001",
"&@	c #020203",
"*@	c #070506",
"=@	c #39241C",
"-@	c #20130F",
";@	c #332119",
">@	c #35231C",
",@	c #38352F",
"'@	c #53544E",
")@	c #515E61",
"!@	c #707D83",
"~@	c #7E8A8C",
"{@	c #6C716C",
"]@	c #52585E",
"^@	c #543F30",
"/@	c #493A2B",
"(@	c #3A1613",
"_@	c #842E25",
":@	c #68110D",
"<@	c #580908",
"[@	c #4F0A09",
"}@	c #561210",
"|@	c #6E5246",
"1@	c #62463A",
"2@	c #0B0303",
"3@	c #040204",
"4@	c #090607",
"5@	c #20130E",
"6@	c #190E0B",
"7@	c #47271C",
"8@	c #40281E",
"9@	c #34352D",
"0@	c #585544",
"a@	c #4F5548",
"b@	c #64695E",
"c@	c #7B8376",
"d@	c #65685E",
"e@	c #4C4B47",
"f@	c #694B32",
"g@	c #775738",
"h@	c #301B11",
"i@	c #783122",
"j@	c #993E2C",
"k@	c #8C382C",
"l@	c #601A14",
"m@	c #5F2118",
"n@	c #743F32",
"o@	c #492E25",
"p@	c #0C0505",
"q@	c #0E0708",
"r@	c #160A09",
"s@	c #6F3420",
"t@	c #6D3B26",
"u@	c #292820",
"v@	c #424434",
"w@	c #4C513D",
"x@	c #4C5042",
"y@	c #45463A",
"z@	c #42372C",
"A@	c #72492D",
"B@	c #AB633B",
"C@	c #AC703B",
"D@	c #6B4F29",
"E@	c #2D150D",
"F@	c #6A3327",
"G@	c #994F3A",
"H@	c #8A3E2C",
"I@	c #813B2B",
"J@	c #49221A",
"K@	c #150B09",
"L@	c #231511",
"M@	c #372722",
"N@	c #0D0908",
"O@	c #692E1A",
"P@	c #914124",
"Q@	c #4A2013",
"R@	c #261C14",
"S@	c #26241B",
"T@	c #312519",
"U@	c #4B2214",
"V@	c #7E3A1D",
"W@	c #7A411C",
"X@	c #AC662C",
"Y@	c #B47536",
"Z@	c #8B5C2D",
"`@	c #59341A",
" #	c #2E150B",
".#	c #3F1B12",
"+#	c #4B1F13",
"@#	c #6E3221",
"##	c #391A13",
"$#	c #0B0707",
"%#	c #1E1512",
"&#	c #421A0D",
"*#	c #903C23",
"=#	c #702D19",
"-#	c #683219",
";#	c #442411",
">#	c #74481D",
",#	c #62341C",
"'#	c #703D1C",
")#	c #875524",
"!#	c #9E5827",
"~#	c #99512B",
"{#	c #8E572D",
"]#	c #814B28",
"^#	c #744123",
"/#	c #501E11",
"(#	c #79301A",
"_#	c #6E301C",
":#	c #2E1A15",
"<#	c #13100E",
"[#	c #25110B",
"}#	c #4A2014",
"|#	c #3F160A",
"1#	c #6B2E17",
"2#	c #6B341B",
"3#	c #5D371F",
"4#	c #56311C",
"5#	c #743E1F",
"6#	c #754520",
"7#	c #72381E",
"8#	c #643019",
"9#	c #623E1E",
"0#	c #572F1A",
"a#	c #422010",
"b#	c #522311",
"c#	c #73361E",
"d#	c #32150C",
"e#	c #1B110E",
"f#	c #140C0B",
"g#	c #352F2B",
"h#	c #5D534C",
"i#	c #150A07",
"j#	c #140604",
"k#	c #692F17",
"l#	c #7E3D1C",
"m#	c #421A0F",
"n#	c #4F2115",
"o#	c #29110C",
"p#	c #2B120D",
"q#	c #452721",
"r#	c #231110",
"s#	c #130706",
"t#	c #140707",
"u#	c #1A0604",
"v#	c #4B2211",
"w#	c #4D2513",
"x#	c #31150D",
"y#	c #1F100D",
"z#	c #17100F",
"A#	c #403833",
"B#	c #887A6F",
"C#	c #908376",
"D#	c #584E48",
"E#	c #75675E",
"F#	c #5D4E47",
"G#	c #2F2723",
"H#	c #0B0808",
"I#	c #0B0606",
"J#	c #110B0B",
"K#	c #914921",
"L#	c #6A2E15",
"M#	c #611F11",
"N#	c #51150A",
"O#	c #35130E",
"P#	c #592B25",
"Q#	c #491B15",
"R#	c #1D0504",
"S#	c #0F0302",
"T#	c #390F07",
"U#	c #552412",
"V#	c #432011",
"W#	c #5E3120",
"X#	c #2E1812",
"Y#	c #0A0505",
"Z#	c #49413C",
"`#	c #A29487",
" $	c #AB9C8D",
".$	c #A79B8F",
"+$	c #69635D",
"@$	c #49403C",
"#$	c #5C5149",
"$$	c #665850",
"%$	c #827064",
"&$	c #756358",
"*$	c #3B312C",
"=$	c #100C0B",
"-$	c #120C0C",
";$	c #1C0C09",
">$	c #632F18",
",$	c #994420",
"'$	c #9B371A",
")$	c #954725",
"!$	c #6D3C24",
"~$	c #92543D",
"{$	c #944A31",
"]$	c #37130B",
"^$	c #150302",
"/$	c #300E07",
"($	c #40160D",
"_$	c #43261E",
":$	c #251511",
"<$	c #000001",
"[$	c #514943",
"}$	c #B0A294",
"|$	c #B4A495",
"1$	c #BBAC9F",
"2$	c #A5998F",
"3$	c #817870",
"4$	c #766E67",
"5$	c #6C625A",
"6$	c #635850",
"7$	c #514742",
"8$	c #6D6058",
"9$	c #89786C",
"0$	c #9C8675",
"a$	c #957D6D",
"b$	c #56483F",
"c$	c #100B0B",
"d$	c #1D1514",
"e$	c #140E0D",
"f$	c #090505",
"g$	c #2A1008",
"h$	c #70341A",
"i$	c #9B4622",
"j$	c #B86B37",
"k$	c #B77042",
"l$	c #C68C64",
"m$	c #AB5F3D",
"n$	c #83381F",
"o$	c #5F2314",
"p$	c #6F2D18",
"q$	c #823119",
"r$	c #42150B",
"s$	c #1E120F",
"t$	c #130C0B",
"u$	c #010001",
"v$	c #645B53",
"w$	c #B7A99C",
"x$	c #B2A597",
"y$	c #B8AB9D",
"z$	c #B3A597",
"A$	c #A89A8D",
"B$	c #AA9D92",
"C$	c #897E75",
"D$	c #7B716A",
"E$	c #716962",
"F$	c #898075",
"G$	c #A79B8C",
"H$	c #8E8175",
"I$	c #625750",
"J$	c #5B514B",
"K$	c #8E8277",
"L$	c #B1A192",
"M$	c #A8917F",
"N$	c #957E6D",
"O$	c #55483E",
"P$	c #120C0B",
"Q$	c #150E0D",
"R$	c #030304",
"S$	c #301509",
"T$	c #6B2D14",
"U$	c #9D5424",
"V$	c #B96E39",
"W$	c #B6764C",
"X$	c #BB7347",
"Y$	c #AC5F36",
"Z$	c #AA522C",
"`$	c #AF5830",
" %	c #854B28",
".%	c #2A140A",
"+%	c #140E0C",
"@%	c #151211",
"#%	c #887E74",
"$%	c #B9ADA1",
"%%	c #A7998C",
"&%	c #A09386",
"*%	c #AD9D8E",
"=%	c #9D8E82",
"-%	c #AC9D90",
";%	c #A6998D",
">%	c #A2968B",
",%	c #B3A99D",
"'%	c #ABA399",
")%	c #89817A",
"!%	c #706861",
"~%	c #8D8881",
"{%	c #A8A197",
"]%	c #B5ADA3",
"^%	c #BBB2A6",
"/%	c #A3978C",
"(%	c #5A514C",
"_%	c #8A7F76",
":%	c #C5BCAF",
"<%	c #C5B9A9",
"[%	c #AF9C8A",
"}%	c #A38D7A",
"|%	c #65554B",
"1%	c #120F0E",
"2%	c #0E0908",
"3%	c #160D0B",
"4%	c #120908",
"5%	c #010000",
"6%	c #381606",
"7%	c #5E2F14",
"8%	c #603622",
"9%	c #885134",
"0%	c #A65932",
"a%	c #B95F33",
"b%	c #9F6439",
"c%	c #604325",
"d%	c #1A110D",
"e%	c #0F0908",
"f%	c #050404",
"g%	c #120E0E",
"h%	c #7A736C",
"i%	c #A89E94",
"j%	c #A29081",
"k%	c #AE9C8D",
"l%	c #C2B4A5",
"m%	c #C9BDAF",
"n%	c #C9BFB1",
"o%	c #BCB1A3",
"p%	c #978D82",
"q%	c #CBC2B6",
"r%	c #D3CBBF",
"s%	c #BEB4A8",
"t%	c #B2A79B",
"u%	c #A4998D",
"v%	c #8A8279",
"w%	c #8C8276",
"x%	c #B0A89D",
"y%	c #B7ADA1",
"z%	c #AFA498",
"A%	c #CEC6BB",
"B%	c #D4CBBE",
"C%	c #CAC2B7",
"D%	c #A69F96",
"E%	c #BAAFA2",
"F%	c #D7CCBC",
"G%	c #CFC3B3",
"H%	c #B3A493",
"I%	c #A6917F",
"J%	c #7A6A5E",
"K%	c #27211D",
"L%	c #110C0B",
"M%	c #1D1410",
"N%	c #21130F",
"O%	c #20120F",
"P%	c #030101",
"Q%	c #020100",
"R%	c #170603",
"S%	c #130403",
"T%	c #220E06",
"U%	c #462513",
"V%	c #431C0C",
"W%	c #211108",
"X%	c #180D0C",
"Y%	c #2D1E1A",
"Z%	c #1C120F",
"`%	c #0A0707",
" &	c #282323",
".&	c #9B958F",
"+&	c #B0A59B",
"@&	c #958477",
"#&	c #C3B5A5",
"$&	c #DACFBF",
"%&	c #DCD0C1",
"&&	c #D9CFC2",
"*&	c #C2BBB0",
"=&	c #A29A8F",
"-&	c #D0C8BB",
";&	c #D2CABC",
">&	c #D1C7B8",
",&	c #DBD0C1",
"'&	c #BFB3A4",
")&	c #9F958A",
"!&	c #9E958B",
"~&	c #867D74",
"{&	c #A2978B",
"]&	c #B5AEA4",
"^&	c #BDB1A2",
"/&	c #C9BCAC",
"(&	c #D2C7B8",
"_&	c #E1D8CB",
":&	c #CAC3B9",
"<&	c #837A73",
"[&	c #9C9188",
"}&	c #B0A194",
"|&	c #C4B8A9",
"1&	c #BEB2A3",
"2&	c #C0B09F",
"3&	c #A79686",
"4&	c #564B43",
"5&	c #3D241B",
"6&	c #321B14",
"7&	c #1D0C08",
"8&	c #160704",
"9&	c #020000",
"0&	c #040101",
"a&	c #000000",
"b&	c #0C0504",
"c&	c #2E1C15",
"d&	c #38231C",
"e&	c #2D1F1A",
"f&	c #1A1210",
"g&	c #46403B",
"h&	c #877E76",
"i&	c #82756C",
"j&	c #8F7E74",
"k&	c #BBAB9F",
"l&	c #C9BFB2",
"m&	c #A29990",
"n&	c #5F5751",
"o&	c #6F6760",
"p&	c #A5998D",
"q&	c #CCC1B1",
"r&	c #D7CCBD",
"s&	c #DCD3C4",
"t&	c #B7AB9C",
"u&	c #9F9386",
"v&	c #B9AEA0",
"w&	c #ADA397",
"x&	c #7F766E",
"y&	c #978D83",
"z&	c #CDC0B1",
"A&	c #DAD0C2",
"B&	c #D4CABD",
"C&	c #C8BDB2",
"D&	c #A2978C",
"E&	c #544C47",
"F&	c #554D48",
"G&	c #766E65",
"H&	c #978F86",
"I&	c #C6B9AA",
"J&	c #84786D",
"K&	c #201715",
"L&	c #1D100D",
"M&	c #361F17",
"N&	c #47261B",
"O&	c #3F1E13",
"P&	c #32140C",
"Q&	c #090101",
"R&	c #040100",
"S&	c #040000",
"T&	c #250D07",
"U&	c #290F09",
"V&	c #210B06",
"W&	c #2C1812",
"X&	c #4A2E22",
"Y&	c #3D271E",
"Z&	c #31211B",
"`&	c #736962",
" *	c #A2958B",
".*	c #B5A193",
"+*	c #846256",
"@*	c #7E554B",
"#*	c #83685D",
"$*	c #5B4E4A",
"%*	c #503F3B",
"&*	c #473832",
"**	c #94897F",
"=*	c #C3B8AA",
"-*	c #D8CEBE",
";*	c #DAD0C1",
">*	c #CBC2B4",
",*	c #A89C8F",
"'*	c #ACA093",
")*	c #C6BCAE",
"!*	c #B4A99B",
"~*	c #847A6E",
"{*	c #59544E",
"]*	c #756D66",
"^*	c #9F978D",
"/*	c #978D84",
"(*	c #A5988B",
"_*	c #C6BAAA",
":*	c #D6CCBF",
"<*	c #D4C9BA",
"[*	c #A99C91",
"}*	c #514843",
"|*	c #554F4A",
"1*	c #A2988E",
"2*	c #C6BCAD",
"3*	c #DFD2BF",
"4*	c #D9CDBC",
"5*	c #ADA297",
"6*	c #2C2623",
"7*	c #301B14",
"8*	c #482418",
"9*	c #4E2214",
"0*	c #310F07",
"a*	c #150201",
"b*	c #0D0101",
"c*	c #190503",
"d*	c #5F2919",
"e*	c #5A2515",
"f*	c #69301B",
"g*	c #492315",
"h*	c #563020",
"i*	c #523326",
"j*	c #2F1E18",
"k*	c #191311",
"l*	c #72625A",
"m*	c #A09185",
"n*	c #C4AB9B",
"o*	c #C28976",
"p*	c #AB5948",
"q*	c #AD7E6E",
"r*	c #89443A",
"s*	c #876056",
"t*	c #B8A495",
"u*	c #C1B4A5",
"v*	c #CFC4B4",
"w*	c #D9CEBD",
"x*	c #AEA498",
"y*	c #B2A799",
"z*	c #C7BAA8",
"A*	c #A99683",
"B*	c #49433F",
"C*	c #79716A",
"D*	c #90867D",
"E*	c #8B8076",
"F*	c #BCB1A4",
"G*	c #C8BDB1",
"H*	c #E5DBCE",
"I*	c #E6DDCF",
"J*	c #CDC3B7",
"K*	c #A89D93",
"L*	c #BCB4A9",
"M*	c #E5DDD0",
"N*	c #E0D5C4",
"O*	c #DBCEBC",
"P*	c #D9CCBB",
"Q*	c #C6BAAB",
"R*	c #5E554C",
"S*	c #241A16",
"T*	c #28140D",
"U*	c #61311E",
"V*	c #6D2913",
"W*	c #672612",
"X*	c #411509",
"Y*	c #330D05",
"Z*	c #310B04",
"`*	c #5E2513",
" =	c #8B4525",
".=	c #8E4928",
"+=	c #753D23",
"@=	c #714029",
"#=	c #543121",
"$=	c #291811",
"%=	c #241E1D",
"&=	c #685A54",
"*=	c #89766B",
"==	c #A69285",
"-=	c #D1A28C",
";=	c #C88A78",
">=	c #C2A598",
",=	c #9D645A",
"'=	c #B5978A",
")=	c #BFB0A1",
"!=	c #BBAD9E",
"~=	c #C8BCAB",
"{=	c #D0C4B3",
"]=	c #CAC0B1",
"^=	c #A0968A",
"/=	c #988E82",
"(=	c #C4B9AA",
"_=	c #CABFAF",
":=	c #C7B9A6",
"<=	c #B09D89",
"[=	c #8C7463",
"}=	c #4A4540",
"|=	c #877E75",
"1=	c #B4AA9E",
"2=	c #A2968A",
"3=	c #84766C",
"4=	c #A49485",
"5=	c #C8B9A8",
"6=	c #DACDBD",
"7=	c #E2D8C9",
"8=	c #B9B0A6",
"9=	c #C6BDB2",
"0=	c #E3DBCC",
"a=	c #E4D9C8",
"b=	c #DACDBB",
"c=	c #CDBFAE",
"d=	c #9F8C7C",
"e=	c #5C4A40",
"f=	c #120806",
"g=	c #421E11",
"h=	c #5E2614",
"i=	c #7B442A",
"j=	c #9A6541",
"k=	c #8F6543",
"l=	c #874D2C",
"m=	c #814426",
"n=	c #954A25",
"o=	c #924C26",
"p=	c #894C2A",
"q=	c #753C23",
"r=	c #6D3B24",
"s=	c #25120A",
"t=	c #4A3E37",
"u=	c #92847A",
"v=	c #C0AB9C",
"w=	c #CFB8A6",
"x=	c #CB8E7C",
"y=	c #C37969",
"z=	c #BD8C7E",
"A=	c #A47669",
"B=	c #C0AFA2",
"C=	c #99897C",
"D=	c #B6A796",
"E=	c #C5B8A6",
"F=	c #CAC0AF",
"G=	c #C7BEAE",
"H=	c #9E9386",
"I=	c #A39686",
"J=	c #BEB2A2",
"K=	c #C3B8A9",
"L=	c #CFC4B5",
"M=	c #B7A695",
"N=	c #786354",
"O=	c #504B47",
"P=	c #56514C",
"Q=	c #A89F95",
"R=	c #94887E",
"S=	c #7A6E66",
"T=	c #AD9D90",
"U=	c #CCBDAC",
"V=	c #D7CAB9",
"W=	c #D6CABA",
"X=	c #A89C90",
"Y=	c #68625D",
"Z=	c #A6A097",
"`=	c #DED4C5",
" -	c #D8CDBC",
".-	c #DFD5C4",
"+-	c #CDBFAF",
"@-	c #C9BAA8",
"#-	c #B6A695",
"$-	c #8B796A",
"%-	c #2F2821",
"&-	c #080101",
"*-	c #30130A",
"=-	c #61311C",
"--	c #A46037",
";-	c #BF7747",
">-	c #C36B37",
",-	c #BC6733",
"'-	c #A75429",
")-	c #904521",
"!-	c #7E4526",
"~-	c #713E24",
"{-	c #34180D",
"]-	c #110A09",
"^-	c #81695C",
"/-	c #C1A899",
"(-	c #DFC1B2",
"_-	c #D6A28F",
":-	c #D08876",
"<-	c #A93527",
"[-	c #873F35",
"}-	c #68322B",
"|-	c #7C5E53",
"1-	c #A78E7E",
"2-	c #B0A190",
"3-	c #C0B4A4",
"4-	c #BBB1A1",
"5-	c #B3A99C",
"6-	c #887F73",
"7-	c #AA9E8F",
"8-	c #C4B7A7",
"9-	c #D0C5B6",
"0-	c #CABEAF",
"a-	c #9A8073",
"b-	c #6A4A3C",
"c-	c #40451A",
"d-	c #58544F",
"e-	c #6B655F",
"f-	c #726C67",
"g-	c #938D86",
"h-	c #877F78",
"i-	c #82776F",
"j-	c #B8AA9D",
"k-	c #DCCEBC",
"l-	c #D2C3B1",
"m-	c #C6B8A7",
"n-	c #BAAD9E",
"o-	c #887C72",
"p-	c #89827A",
"q-	c #C9C0B3",
"r-	c #D3C8BA",
"s-	c #E5DCCC",
"t-	c #D5C9BA",
"u-	c #B5A594",
"v-	c #AF9E8A",
"w-	c #6C6154",
"x-	c #31190F",
"y-	c #542A16",
"z-	c #7F3D19",
"A-	c #A65121",
"B-	c #BC642D",
"C-	c #BA6F34",
"D-	c #AF6634",
"E-	c #844B28",
"F-	c #54311A",
"G-	c #2C190D",
"H-	c #5A4B42",
"I-	c #B19B8C",
"J-	c #DAC0B1",
"K-	c #E38D79",
"L-	c #CE6751",
"M-	c #A5493A",
"N-	c #882014",
"O-	c #64160F",
"P-	c #6B3A2D",
"Q-	c #7D5D50",
"R-	c #AB9E8F",
"S-	c #BEB3A3",
"T-	c #AAA296",
"U-	c #766F67",
"V-	c #645C55",
"W-	c #9F9488",
"X-	c #B7AA9B",
"Y-	c #C2B6A6",
"Z-	c #D6C9B9",
"`-	c #B68F80",
" ;	c #8B6553",
".;	c #4F3C33",
"+;	c #50551F",
"@;	c #7A746E",
"#;	c #66625E",
"$;	c #807B77",
"%;	c #857F79",
"&;	c #6D645D",
"*;	c #998B7F",
"=;	c #D0C4B5",
"-;	c #C4B4A3",
";;	c #BEAF9F",
">;	c #B5A899",
",;	c #A39486",
"';	c #978779",
");	c #8A8179",
"!;	c #B4ABA0",
"~;	c #D9CEBF",
"{;	c #DBCFC0",
"];	c #C0B1A2",
"^;	c #C0B2A1",
"/;	c #B3A695",
"(;	c #3A352F",
"_;	c #110705",
":;	c #27120A",
"<;	c #532512",
"[;	c #6C2F13",
"};	c #823F1C",
"|;	c #75401D",
"1;	c #61351B",
"2;	c #33180B",
"3;	c #0A0402",
"4;	c #382F2A",
"5;	c #AD9587",
"6;	c #D9B29E",
"7;	c #D8A693",
"8;	c #D47158",
"9;	c #9B3E2E",
"0;	c #881B11",
"a;	c #93251A",
"b;	c #7C4E44",
"c;	c #9A7E6F",
"d;	c #A49182",
"e;	c #A49588",
"f;	c #AA9C8E",
"g;	c #B4A899",
"h;	c #ACA498",
"i;	c #746D67",
"j;	c #6A635C",
"k;	c #998F84",
"l;	c #A4978A",
"m;	c #D0C5B5",
"n;	c #DED2C1",
"o;	c #C4A794",
"p;	c #996E5A",
"q;	c #5C4136",
"r;	c #686D26",
"s;	c #71762C",
"t;	c #423D38",
"u;	c #67615B",
"v;	c #868079",
"w;	c #77726D",
"x;	c #6C6965",
"y;	c #7F7974",
"z;	c #625A55",
"A;	c #74665D",
"B;	c #A49487",
"C;	c #C0AF9D",
"D;	c #B8AB9C",
"E;	c #C0B5A6",
"F;	c #A39588",
"G;	c #B3A393",
"H;	c #978A7F",
"I;	c #867A73",
"J;	c #9C9287",
"K;	c #C7BBAB",
"L;	c #D9CAB7",
"M;	c #B8A796",
"N;	c #C3B2A0",
"O;	c #6A655B",
"P;	c #160A07",
"Q;	c #24110C",
"R;	c #1A0A07",
"S;	c #3C190F",
"T;	c #503225",
"U;	c #44271A",
"V;	c #190A06",
"W;	c #0E0403",
"X;	c #2A231E",
"Y;	c #978375",
"Z;	c #CC9C8A",
"`;	c #D27F68",
" >	c #C35644",
".>	c #B33B2A",
"+>	c #8F241A",
"@>	c #862319",
"#>	c #5F1811",
"$>	c #75564E",
"%>	c #826E63",
"&>	c #887A6E",
"*>	c #95867A",
"=>	c #AA9D8F",
"->	c #ACA092",
";>	c #B6AEA0",
">>	c #776F68",
",>	c #777168",
"'>	c #7B7268",
")>	c #BAAD9F",
"!>	c #DED3C3",
"~>	c #D9CCB9",
"{>	c #B99583",
"]>	c #A56351",
"^>	c #79463B",
"/>	c #61692A",
"(>	c #889432",
"_>	c #818E2F",
":>	c #484440",
"<>	c #6B6560",
"[>	c #837D76",
"}>	c #8E8983",
"|>	c #4B4947",
"1>	c #6B6764",
"2>	c #605D5A",
"3>	c #4B4441",
"4>	c #80736B",
"5>	c #A39385",
"6>	c #AA9D91",
"7>	c #BBAE9E",
"8>	c #A89B8E",
"9>	c #B0A295",
"0>	c #AF9F8F",
"a>	c #8C7F75",
"b>	c #8B837C",
"c>	c #ABA194",
"d>	c #E0D6C6",
"e>	c #E2D6C5",
"f>	c #C0B09E",
"g>	c #AE9E8F",
"h>	c #86786D",
"i>	c #3C312B",
"j>	c #120B0A",
"k>	c #140907",
"l>	c #2B160F",
"m>	c #533721",
"n>	c #83613E",
"o>	c #4C2E1B",
"p>	c #1C0C07",
"q>	c #050000",
"r>	c #766B61",
"s>	c #C9B3A3",
"t>	c #C78D7B",
"u>	c #B74B3A",
"v>	c #9A291E",
"w>	c #7E1D15",
"x>	c #621A14",
"y>	c #4B221C",
"z>	c #522C27",
"A>	c #6B3B33",
"B>	c #6D463E",
"C>	c #62473F",
"D>	c #938478",
"E>	c #A7998B",
"F>	c #A99D8F",
"G>	c #9C9387",
"H>	c #686059",
"I>	c #6E665F",
"J>	c #8D8276",
"K>	c #C4B6A5",
"L>	c #D7CAB8",
"M>	c #D5C0AB",
"N>	c #B67B66",
"O>	c #AC6754",
"P>	c #6F362B",
"Q>	c #59641F",
"R>	c #788C24",
"S>	c #8EA237",
"T>	c #7B873F",
"U>	c #3D3935",
"V>	c #645F5A",
"W>	c #7E7872",
"X>	c #807A74",
"Y>	c #89857F",
"Z>	c #514F4C",
"`>	c #5D5B59",
" ,	c #787672",
".,	c #363433",
"+,	c #615B57",
"@,	c #827870",
"#,	c #8A7E75",
"$,	c #B2A495",
"%,	c #A89688",
"&,	c #AD9B8D",
"*,	c #BEA998",
"=,	c #C3AB99",
"-,	c #9D867A",
";,	c #937F75",
">,	c #ABA298",
",,	c #D6CABD",
"',	c #C3AF9E",
"),	c #AB907F",
"!,	c #B49F8F",
"~,	c #897C72",
"{,	c #2B231F",
"],	c #200F0A",
"^,	c #4E2C1E",
"/,	c #542F1C",
"(,	c #72492A",
"_,	c #452613",
":,	c #090000",
"<,	c #43403D",
"[,	c #B5AAA0",
"},	c #C8B0A1",
"|,	c #C79281",
"1,	c #A74034",
"2,	c #7E2F27",
"3,	c #581A15",
"4,	c #551B16",
"5,	c #693C33",
"6,	c #694039",
"7,	c #694A43",
"8,	c #77554C",
"9,	c #72574E",
"0,	c #988A7D",
"a,	c #A29688",
"b,	c #8F8377",
"c,	c #5A524C",
"d,	c #9E9285",
"e,	c #CFC1AE",
"f,	c #D9CCBA",
"g,	c #B88A77",
"h,	c #A37E6B",
"i,	c #4C2F26",
"j,	c #657328",
"k,	c #728724",
"l,	c #A0B54C",
"m,	c #BBCA78",
"n,	c #898E61",
"o,	c #807A73",
"p,	c #87817A",
"q,	c #88827B",
"r,	c #8E8981",
"s,	c #6C6864",
"t,	c #3D3C3C",
"u,	c #63625F",
"v,	c #323130",
"w,	c #4F4B48",
"x,	c #7D7770",
"y,	c #A49789",
"z,	c #A29183",
"A,	c #AB9383",
"B,	c #A78775",
"C,	c #C09F8A",
"D,	c #9D7763",
"E,	c #785F55",
"F,	c #4D3F3A",
"G,	c #7F6D63",
"H,	c #9F8677",
"I,	c #BFA392",
"J,	c #D1BEAC",
"K,	c #C0B5A8",
"L,	c #403933",
"M,	c #2B1710",
"N,	c #2B120B",
"O,	c #32160C",
"P,	c #170704",
"Q,	c #100B0A",
"R,	c #857871",
"S,	c #BEA397",
"T,	c #BA9888",
"U,	c #B46A58",
"V,	c #A54032",
"W,	c #692F27",
"X,	c #4D2E29",
"Y,	c #735851",
"Z,	c #704941",
"`,	c #A67C6E",
" '	c #C5B4A5",
".'	c #CAB8A9",
"+'	c #C8B8AB",
"@'	c #A49082",
"#'	c #9C8E80",
"$'	c #7C7268",
"%'	c #797067",
"&'	c #48423E",
"*'	c #655D55",
"='	c #BAAFA0",
"-'	c #C2B2A1",
";'	c #CABAA9",
">'	c #C9B09D",
",'	c #C48E79",
"''	c #9F695A",
")'	c #612C23",
"!'	c #546120",
"~'	c #768E28",
"{'	c #9AB240",
"]'	c #B3C563",
"^'	c #A2A955",
"/'	c #3A3734",
"('	c #68635D",
"_'	c #837D77",
":'	c #8A847E",
"<'	c #585451",
"['	c #333131",
"}'	c #4C4A48",
"|'	c #363535",
"1'	c #383634",
"2'	c #6B6762",
"3'	c #625B56",
"4'	c #A89382",
"5'	c #906D5B",
"6'	c #976F5D",
"7'	c #BB8B75",
"8'	c #B1795F",
"9'	c #976A56",
"0'	c #693F35",
"a'	c #5F473E",
"b'	c #987C6F",
"c'	c #CAB8AA",
"d'	c #DFD1C0",
"e'	c #D3C8B7",
"f'	c #706A62",
"g'	c #0C0303",
"h'	c #1E120D",
"i'	c #100706",
"j'	c #030001",
"k'	c #3D3734",
"l'	c #91857E",
"m'	c #B7A095",
"n'	c #B4988A",
"o'	c #AA6A59",
"p'	c #692B21",
"q'	c #70564D",
"r'	c #A89285",
"s'	c #B6AB9F",
"t'	c #705B54",
"u'	c #C3AD9E",
"v'	c #DDD0C0",
"w'	c #D0C1B1",
"x'	c #AD9687",
"y'	c #91786B",
"z'	c #98897B",
"A'	c #93897E",
"B'	c #68615A",
"C'	c #322D2B",
"D'	c #6D635A",
"E'	c #96897B",
"F'	c #9A8A7C",
"G'	c #A99789",
"H'	c #B49785",
"I'	c #C07764",
"J'	c #AA5D4E",
"K'	c #703D36",
"L'	c #503530",
"M'	c #5B701B",
"N'	c #9BB438",
"O'	c #ACC445",
"P'	c #909A4C",
"Q'	c #4F4E3D",
"R'	c #312E2B",
"S'	c #635D57",
"T'	c #6F6963",
"U'	c #7B736C",
"V'	c #827A72",
"W'	c #7F7A74",
"X'	c #494644",
"Y'	c #3B3939",
"Z'	c #292828",
"`'	c #282728",
" )	c #211F1F",
".)	c #4D4946",
"+)	c #564F4B",
"@)	c #918579",
"#)	c #A18776",
"$)	c #8B5847",
"%)	c #6C2F23",
"&)	c #7F4335",
"*)	c #9C5642",
"=)	c #965F4D",
"-)	c #7A5346",
";)	c #60362E",
">)	c #502B23",
",)	c #7F6A5F",
"')	c #B8AA9B",
"))	c #C9BAAA",
"!)	c #ACA297",
"~)	c #382A24",
"{)	c #110908",
"])	c #170B08",
"^)	c #090303",
"/)	c #5C524B",
"()	c #948980",
"_)	c #BDAFA3",
":)	c #A18F85",
"<)	c #736059",
"[)	c #432E2A",
"})	c #988073",
"|)	c #D1BCA9",
"1)	c #C5BAAC",
"2)	c #826960",
"3)	c #B8A698",
"4)	c #C9BAAB",
"5)	c #BCA796",
"6)	c #BCA38F",
"7)	c #987E6F",
"8)	c #7C6D61",
"9)	c #968C81",
"0)	c #514B47",
"a)	c #221F1E",
"b)	c #453E3A",
"c)	c #7D736A",
"d)	c #BBB0A2",
"e)	c #BAA797",
"f)	c #A8897D",
"g)	c #86675F",
"h)	c #5E4540",
"i)	c #645853",
"j)	c #384410",
"k)	c #677F1B",
"l)	c #95AE34",
"m)	c #A8B267",
"n)	c #A59E96",
"o)	c #58524E",
"p)	c #5B544E",
"q)	c #655C56",
"r)	c #867F78",
"s)	c #55504D",
"t)	c #3F3D3D",
"u)	c #2C2B2B",
"v)	c #141314",
"w)	c #0B0B0C",
"x)	c #312E2D",
"y)	c #46403D",
"z)	c #7F746C",
"A)	c #A4887A",
"B)	c #9D5647",
"C)	c #732016",
"D)	c #5C180F",
"E)	c #74291C",
"F)	c #73372B",
"G)	c #885D4D",
"H)	c #75382C",
"I)	c #69241C",
"J)	c #8B5144",
"K)	c #8C6E61",
"L)	c #877468",
"M)	c #AFA398",
"N)	c #6B6058",
"O)	c #110706",
"P)	c #302723",
"Q)	c #6A615B",
"R)	c #B0A49A",
"S)	c #A79B91",
"T)	c #817772",
"U)	c #715A51",
"V)	c #694D45",
"W)	c #967A6E",
"X)	c #C2AB98",
"Y)	c #C0B4A5",
"Z)	c #7E6B63",
"`)	c #B5A295",
" !	c #A8887B",
".!	c #9F7869",
"+!	c #957465",
"@!	c #8C6355",
"#!	c #675950",
"$!	c #776D64",
"%!	c #2D2927",
"&!	c #151415",
"*!	c #413C3A",
"=!	c #898178",
"-!	c #AA9E91",
";!	c #ADA091",
">!	c #C1B6A7",
",!	c #D0C8BA",
"'!	c #AAA198",
")!	c #6E564D",
"!!	c #7F6F66",
"~!	c #645852",
"{!	c #2B370B",
"]!	c #41550E",
"^!	c #8DA035",
"/!	c #AEB957",
"(!	c #A29E7F",
"_!	c #8C8478",
":!	c #89837D",
"<!	c #605B57",
"[!	c #4E4743",
"}!	c #605853",
"|!	c #6B645E",
"1!	c #6E6761",
"2!	c #5B5754",
"3!	c #040507",
"4!	c #060607",
"5!	c #2D2929",
"6!	c #423C3A",
"7!	c #706660",
"8!	c #988175",
"9!	c #965D4F",
"0!	c #731E13",
"a!	c #56140C",
"b!	c #5D170F",
"c!	c #621D13",
"d!	c #73392C",
"e!	c #72291D",
"f!	c #6A170E",
"g!	c #8E4E3E",
"h!	c #B38A75",
"i!	c #8D7667",
"j!	c #87766A",
"k!	c #9B8B7F",
"l!	c #402F27",
"m!	c #060304",
"n!	c #796F69",
"o!	c #A7A098",
"p!	c #ADA197",
"q!	c #655B55",
"r!	c #9B897D",
"s!	c #A99484",
"t!	c #8C796D",
"u!	c #B09C8F",
"v!	c #B5A394",
"w!	c #B4ABA2",
"x!	c #968275",
"y!	c #BEAA9B",
"z!	c #A38879",
"A!	c #826659",
"B!	c #997F6F",
"C!	c #9D8778",
"D!	c #7D7269",
"E!	c #70665D",
"F!	c #272321",
"G!	c #171516",
"H!	c #4D4742",
"I!	c #625A53",
"J!	c #8B8074",
"K!	c #9C8F81",
"L!	c #A49689",
"M!	c #C3B8A7",
"N!	c #7E6D61",
"O!	c #9D8C7F",
"P!	c #615750",
"Q!	c #1A1B07",
"R!	c #232C05",
"S!	c #505B14",
"T!	c #707527",
"U!	c #645F44",
"V!	c #746C64",
"W!	c #76716D",
"X!	c #6B605B",
"Y!	c #4C3F3A",
"Z!	c #4F4743",
"`!	c #3C3735",
" ~	c #4A4543",
".~	c #55524F",
"+~	c #3D3B39",
"@~	c #111111",
"#~	c #090809",
"$~	c #2D2A29",
"%~	c #3B3634",
"&~	c #6B605A",
"*~	c #918075",
"=~	c #886457",
"-~	c #732A1D",
";~	c #510E07",
">~	c #5F1910",
",~	c #5F180F",
"'~	c #68251B",
")~	c #76261C",
"!~	c #67130B",
"~~	c #854738",
"{~	c #BA866E",
"]~	c #C0A490",
"^~	c #927D6F",
"/~	c #8A6A5C",
"(~	c #7F6052",
"_~	c #0D0403",
":~	c #66605A",
"<~	c #BBB4AD",
"[~	c #948C84",
"}~	c #5E5753",
"|~	c #8E867E",
"1~	c #BDAD9F",
"2~	c #B39E8E",
"3~	c #BCAC9D",
"4~	c #B6A596",
"5~	c #B1A294",
"6~	c #ACA198",
"7~	c #80675D",
"8~	c #A38878",
"9~	c #A79080",
"0~	c #958375",
"a~	c #9B8A7B",
"b~	c #AEA294",
"c~	c #887D74",
"d~	c #615851",
"e~	c #221E1C",
"f~	c #1B1918",
"g~	c #514842",
"h~	c #7F7469",
"i~	c #8F8376",
"j~	c #908477",
"k~	c #ACA091",
"l~	c #988D81",
"m~	c #8A7F75",
"n~	c #A19487",
"o~	c #988C81",
"p~	c #29150A",
"q~	c #230F06",
"r~	c #261307",
"s~	c #42180C",
"t~	c #32150E",
"u~	c #392C27",
"v~	c #523732",
"w~	c #644139",
"x~	c #633A32",
"y~	c #69524A",
"z~	c #544843",
"A~	c #463D39",
"B~	c #47423F",
"C~	c #353130",
"D~	c #292523",
"E~	c #070607",
"F~	c #111011",
"G~	c #2C2827",
"H~	c #71655D",
"I~	c #846E63",
"J~	c #886659",
"K~	c #6B3125",
"L~	c #65170D",
"M~	c #701E13",
"N~	c #66170E",
"O~	c #7A281D",
"P~	c #71261C",
"Q~	c #500F09",
"R~	c #813023",
"S~	c #AA624F",
"T~	c #CAAB98",
"U~	c #BAAB9C",
"V~	c #7C6A60",
"W~	c #494440",
"X~	c #B5ACA1",
"Y~	c #96887E",
"Z~	c #4D403B",
"`~	c #83746A",
" {	c #AB9B8E",
".{	c #B2A193",
"+{	c #9E8374",
"@{	c #8E786B",
"#{	c #9D8C7E",
"${	c #B4A699",
"%{	c #B3AAA2",
"&{	c #715A52",
"*{	c #947B6D",
"={	c #A18A79",
"-{	c #A18878",
";{	c #8D7A6C",
">{	c #897B6F",
",{	c #766A61",
"'{	c #403A35",
"){	c #080809",
"!{	c #1B1919",
"~{	c #4D4843",
"{{	c #675E57",
"]{	c #887E72",
"^{	c #7B7167",
"/{	c #796E64",
"({	c #897D71",
"_{	c #897D72",
":{	c #96887C",
"<{	c #8A7D73",
"[{	c #7A6E64",
"}{	c #1B0B06",
"|{	c #310805",
"1{	c #61160E",
"2{	c #71170E",
"3{	c #871812",
"4{	c #871D15",
"5{	c #4C1B15",
"6{	c #8A3731",
"7{	c #84352E",
"8{	c #822018",
"9{	c #6D2722",
"0{	c #433531",
"a{	c #5F514B",
"b{	c #5C534E",
"c{	c #4E4844",
"d{	c #272422",
"e{	c #161415",
"f{	c #826B60",
"g{	c #906456",
"h{	c #5B231A",
"i{	c #65180E",
"j{	c #581008",
"k{	c #6B1D13",
"l{	c #46100A",
"m{	c #420A06",
"n{	c #6C1B11",
"o{	c #9F4532",
"p{	c #BF8774",
"q{	c #D0B6A4",
"r{	c #B3907E",
"s{	c #52403A",
"t{	c #898079",
"u{	c #CCC1B5",
"v{	c #6C6057",
"w{	c #7C695E",
"x{	c #A99486",
"y{	c #C5B6A7",
"z{	c #A69A8D",
"A{	c #756056",
"B{	c #6A544B",
"C{	c #78665D",
"D{	c #AC9588",
"E{	c #A8968B",
"F{	c #5B443D",
"G{	c #886F63",
"H{	c #6E554B",
"I{	c #88685A",
"J{	c #6B574C",
"K{	c #70645A",
"L{	c #6A615A",
"M{	c #2B2825",
"N{	c #010103",
"O{	c #1A1918",
"P{	c #4E4A45",
"Q{	c #5A544F",
"R{	c #766D64",
"S{	c #786F65",
"T{	c #746A60",
"U{	c #7C746C",
"V{	c #988D82",
"W{	c #8E8278",
"X{	c #6E625A",
"Y{	c #78685E",
"Z{	c #645850",
"`{	c #47110B",
" ]	c #55150E",
".]	c #7D251C",
"+]	c #922A21",
"@]	c #66120D",
"#]	c #5C2118",
"$]	c #481E15",
"%]	c #480E0C",
"&]	c #5C120D",
"*]	c #8B2215",
"=]	c #941C11",
"-]	c #370C0B",
";]	c #362F2D",
">]	c #5E5855",
",]	c #6A6460",
"']	c #322F2E",
")]	c #040406",
"!]	c #161515",
"~]	c #443B38",
"{]	c #7F685F",
"]]	c #966B5D",
"^]	c #653128",
"/]	c #5D130A",
"(]	c #66150B",
"_]	c #58110A",
":]	c #310603",
"<]	c #380703",
"[]	c #630E08",
"}]	c #7A2519",
"|]	c #9F6050",
"1]	c #BF9A88",
"2]	c #AB9181",
"3]	c #60534C",
"4]	c #ADA49D",
"5]	c #A79D94",
"6]	c #8C7A6F",
"7]	c #AA9283",
"8]	c #B19C8E",
"9]	c #BCB4A7",
"0]	c #847268",
"a]	c #593831",
"b]	c #6B342C",
"c]	c #843A31",
"d]	c #A26355",
"e]	c #AB8C7C",
"f]	c #6C4840",
"g]	c #694C42",
"h]	c #68473D",
"i]	c #8A6758",
"j]	c #725E54",
"k]	c #675851",
"l]	c #594E48",
"m]	c #08080A",
"n]	c #2B2725",
"o]	c #443F3B",
"p]	c #4C4743",
"q]	c #6C655D",
"r]	c #877E74",
"s]	c #A59B91",
"t]	c #B0A79C",
"u]	c #A49D93",
"v]	c #72675F",
"w]	c #746A61",
"x]	c #544E48",
"y]	c #230C06",
"z]	c #842419",
"A]	c #A23525",
"B]	c #701913",
"C]	c #8E231A",
"D]	c #7F1911",
"E]	c #571811",
"F]	c #6C261B",
"G]	c #250B09",
"H]	c #430D09",
"I]	c #B12B1A",
"J]	c #B52417",
"K]	c #68120D",
"L]	c #150809",
"M]	c #2E2A2A",
"N]	c #494543",
"O]	c #292727",
"P]	c #171415",
"Q]	c #2F2926",
"R]	c #6B554C",
"S]	c #835E51",
"T]	c #51271F",
"U]	c #51140E",
"V]	c #591108",
"W]	c #570F08",
"X]	c #430A05",
"Y]	c #1C0201",
"Z]	c #320502",
"`]	c #530D07",
" ^	c #761F15",
".^	c #984F40",
"+^	c #BD9481",
"@^	c #B39A8A",
"#^	c #705F57",
"$^	c #927F76",
"%^	c #AE988C",
"&^	c #B59D8F",
"*^	c #A68E81",
"=^	c #B2A092",
"-^	c #938177",
";^	c #803E35",
">^	c #7E2018",
",^	c #871811",
"'^	c #9C382D",
")^	c #B56859",
"!^	c #B39285",
"~^	c #6B4942",
"{^	c #533029",
"]^	c #704338",
"^^	c #7A5D51",
"/^	c #685C54",
"(^	c #4D413B",
"_^	c #504641",
":^	c #1C1818",
"<^	c #08090B",
"[^	c #2A2623",
"}^	c #393330",
"|^	c #48423D",
"1^	c #73685F",
"2^	c #81756B",
"3^	c #95897D",
"4^	c #A79B8E",
"5^	c #A79A8E",
"6^	c #BFB7AC",
"7^	c #B6AFA4",
"8^	c #9D9389",
"9^	c #8A8076",
"0^	c #776E66",
"a^	c #150603",
"b^	c #6D190F",
"c^	c #861B11",
"d^	c #720A08",
"e^	c #7A130C",
"f^	c #66120C",
"g^	c #49120E",
"h^	c #571912",
"i^	c #1A0504",
"j^	c #230404",
"k^	c #6D100A",
"l^	c #971D16",
"m^	c #751811",
"n^	c #180707",
"o^	c #171212",
"p^	c #282422",
"q^	c #0B0909",
"r^	c #030303",
"s^	c #1F1B1B",
"t^	c #2B2523",
"u^	c #634F45",
"v^	c #7C5649",
"w^	c #4B1C15",
"x^	c #521912",
"y^	c #701C12",
"z^	c #611109",
"A^	c #3F0502",
"B^	c #260201",
"C^	c #370502",
"D^	c #3B0704",
"E^	c #4A0E09",
"F^	c #6A281D",
"G^	c #8F574A",
"H^	c #7F635A",
"I^	c #675049",
"J^	c #9D7F72",
"K^	c #B9A194",
"L^	c #B2998D",
"M^	c #A2897C",
"N^	c #86594E",
"O^	c #B35F52",
"P^	c #BB5648",
"Q^	c #C65140",
"R^	c #A13A2D",
"S^	c #A14D3F",
"T^	c #BA7C68",
"U^	c #A47061",
"V^	c #865E51",
"W^	c #805B4D",
"X^	c #785B4F",
"Y^	c #846F61",
"Z^	c #706259",
"`^	c #574B44",
" /	c #433D39",
"./	c #131212",
"+/	c #010102",
"@/	c #1F1B1A",
"#/	c #403935",
"$/	c #5E564F",
"%/	c #81776E",
"&/	c #877D74",
"*/	c #998D81",
"=/	c #A99B8D",
"-/	c #B1A395",
";/	c #C3B7A8",
">/	c #BAAD9D",
",/	c #A59B8F",
"'/	c #9B9185",
")/	c #7B7168",
"!/	c #4D433D",
"~/	c #280503",
"{/	c #670B06",
"]/	c #6C0C07",
"^/	c #4F0705",
"//	c #510806",
"(/	c #5F0D0B",
"_/	c #370A09",
":/	c #0D0102",
"</	c #380D07",
"[/	c #4A150D",
"}/	c #2E0605",
"|/	c #420C09",
"1/	c #260605",
"2/	c #1A1413",
"3/	c #483E38",
"4/	c #050405",
"5/	c #262120",
"6/	c #503D36",
"7/	c #5C382F",
"8/	c #562921",
"9/	c #753227",
"0/	c #7B281B",
"a/	c #5F1109",
"b/	c #470704",
"c/	c #360503",
"d/	c #440A06",
"e/	c #58120B",
"f/	c #5A130C",
"g/	c #5E2B22",
"h/	c #8F675A",
"i/	c #A69187",
"j/	c #6D5B54",
"k/	c #B7A295",
"l/	c #D1BDAC",
"m/	c #BDA291",
"n/	c #BC9B89",
"o/	c #B8594A",
"p/	c #D45A47",
"q/	c #CE6A57",
"r/	c #C55040",
"s/	c #A13D30",
"t/	c #945145",
"u/	c #B27060",
"v/	c #9E6051",
"w/	c #885548",
"x/	c #896657",
"y/	c #836A5B",
"z/	c #68554B",
"A/	c #463B36",
"B/	c #63584F",
"C/	c #342F2C",
"D/	c #030203",
"E/	c #1C1919",
"F/	c #413A36",
"G/	c #564E48",
"H/	c #5A514A",
"I/	c #534943",
"J/	c #5C5049",
"K/	c #7A6B60",
"L/	c #948376",
"M/	c #B5A597",
"N/	c #AC9C8F",
"O/	c #B5A99C",
"P/	c #B7AA9A",
"Q/	c #9E8F81",
"R/	c #817165",
"S/	c #230403",
"T/	c #5B0805",
"U/	c #6B0C09",
"V/	c #560907",
"W/	c #500A08",
"X/	c #590F0D",
"Y/	c #5F1210",
"Z/	c #2C0706",
"`/	c #43110C",
" (	c #55160E",
".(	c #220704",
"+(	c #1C0404",
"@(	c #100202",
"#(	c #050001",
"$(	c #040203",
"%(	c #2B2624",
"&(	c #060506",
"*(	c #0B0A0A",
"=(	c #332D2A",
"-(	c #252120",
";(	c #3D2F2B",
">(	c #7B5548",
",(	c #865244",
"'(	c #65241A",
")(	c #751E13",
"!(	c #6F140C",
"~(	c #3F0603",
"{(	c #430905",
"](	c #460904",
"^(	c #5F140D",
"/(	c #7A3127",
"((	c #935F52",
"_(	c #C89C88",
":(	c #D3C2B1",
"<(	c #92857C",
"[(	c #D1C1B3",
"}(	c #E3D4C5",
"|(	c #CCB2A2",
"1(	c #B48B7D",
"2(	c #B16152",
"3(	c #C25343",
"4(	c #B54A3B",
"5(	c #A12A1F",
"6(	c #7B1910",
"7(	c #6E1E17",
"8(	c #752019",
"9(	c #732F25",
"0(	c #6B392E",
"a(	c #815F51",
"b(	c #897363",
"c(	c #52433A",
"d(	c #372F2B",
"e(	c #5A4E45",
"f(	c #241E1B",
"g(	c #0E0C0C",
"h(	c #1E1B1B",
"i(	c #3C3632",
"j(	c #4D443F",
"k(	c #5D4F48",
"l(	c #63534B",
"m(	c #7C6E64",
"n(	c #8D8076",
"o(	c #907E72",
"p(	c #B8A494",
"q(	c #C4B6A6",
"r(	c #D0C3B3",
"s(	c #CABCAC",
"t(	c #988778",
"u(	c #240503",
"v(	c #6D160E",
"w(	c #8A1A14",
"x(	c #6D100B",
"y(	c #590D0A",
"z(	c #6A1510",
"A(	c #831E17",
"B(	c #4D100C",
"C(	c #2B0F0C",
"D(	c #2F0D0B",
"E(	c #090404",
"F(	c #050202",
"G(	c #332C28",
"H(	c #161312",
"I(	c #020202",
"J(	c #3C3531",
"K(	c #3A2E2A",
"L(	c #70483D",
"M(	c #996353",
"N(	c #7C362A",
"O(	c #963729",
"P(	c #751910",
"Q(	c #450905",
"R(	c #340603",
"S(	c #52120B",
"T(	c #651C12",
"U(	c #8A5245",
"V(	c #B88F7E",
"W(	c #BC9F8E",
"X(	c #CABDAF",
"Y(	c #9E948D",
"Z(	c #C4B4A8",
"`(	c #E6DACB",
" _	c #E0CDBB",
"._	c #C0A293",
"+_	c #BA9787",
"@_	c #BB7F70",
"#_	c #B65E4E",
"$_	c #86362C",
"%_	c #5F1610",
"&_	c #6C231C",
"*_	c #862018",
"=_	c #701C14",
"-_	c #69392E",
";_	c #6A4B3F",
">_	c #5A453C",
",_	c #3D302B",
"'_	c #3B332E",
")_	c #574B43",
"!_	c #2A2421",
"~_	c #181514",
"{_	c #161213",
"]_	c #24201F",
"^_	c #3F3733",
"/_	c #5B4C44",
"(_	c #705F54",
"__	c #7D6B60",
":_	c #6C5E55",
"<_	c #6C5851",
"[_	c #A08376",
"}_	c #C6B0A0",
"|_	c #D6C9B8",
"1_	c #CFC2B0",
"2_	c #9C8C7C",
"3_	c #695C53",
"4_	c #1D0705",
"5_	c #440D09",
"6_	c #5A0E0A",
"7_	c #610D09",
"8_	c #5F0C08",
"9_	c #75130E",
"0_	c #7A1D16",
"a_	c #47120E",
"b_	c #34100C",
"c_	c #32130F",
"d_	c #2A2320",
"e_	c #191414",
"f_	c #090606",
"g_	c #29201D",
"h_	c #463931",
"i_	c #130E0B",
"j_	c #251F1D",
"k_	c #27211F",
"l_	c #3C312C",
"m_	c #4C3730",
"n_	c #8E6C5D",
"o_	c #7D3F35",
"p_	c #701C13",
"q_	c #681A11",
"r_	c #4F100A",
"s_	c #320C08",
"t_	c #5B2C23",
"u_	c #5E2E25",
"v_	c #7C4134",
"w_	c #9F6654",
"x_	c #BFA090",
"y_	c #C2AFA1",
"z_	c #95877E",
"A_	c #D1C0AF",
"B_	c #E5D7C4",
"C_	c #E0D2C1",
"D_	c #C0AD9D",
"E_	c #CAB8A7",
"F_	c #CAB2A1",
"G_	c #AD7867",
"H_	c #A56554",
"I_	c #77372D",
"J_	c #73332A",
"K_	c #75342A",
"L_	c #77362B",
"M_	c #754E43",
"N_	c #49362F",
"O_	c #332723",
"P_	c #2B2320",
"Q_	c #39312D",
"R_	c #3E3834",
"S_	c #201D1C",
"T_	c #151212",
"U_	c #352E2A",
"V_	c #594A42",
"W_	c #705E54",
"X_	c #7D675B",
"Y_	c #866C5E",
"Z_	c #8E7464",
"`_	c #AB9284",
" :	c #B49F91",
".:	c #B7A394",
"+:	c #C5B7A9",
"@:	c #B3A89B",
"#:	c #948679",
"$:	c #230604",
"%:	c #3E0805",
"&:	c #530C07",
"*:	c #600F09",
"=:	c #6D110C",
"-:	c #771A14",
";:	c #440F0C",
">:	c #351410",
",:	c #30110E",
"':	c #2C221E",
"):	c #2C211C",
"!:	c #1D1715",
"~:	c #1C1614",
"{:	c #120C0A",
"]:	c #090707",
"^:	c #191515",
"/:	c #211C1B",
"(:	c #372D2A",
"_:	c #2B1C19",
"::	c #553830",
"<:	c #6A3A2F",
"[:	c #753226",
"}:	c #6B241A",
"|:	c #61271D",
"1:	c #441C16",
"2:	c #4D3129",
"3:	c #664439",
"4:	c #673E34",
"5:	c #7C5448",
"6:	c #AD9080",
"7:	c #C2B2A5",
"8:	c #998E84",
"9:	c #D5C8B8",
"0:	c #DBCBB9",
"a:	c #CEBFAE",
"b:	c #CDBCAB",
"c:	c #CAB6A5",
"d:	c #B99784",
"e:	c #B69280",
"f:	c #9D6F60",
"g:	c #8C6759",
"h:	c #78564A",
"i:	c #6F453A",
"j:	c #816456",
"k:	c #59463E",
"l:	c #382D28",
"m:	c #2F2623",
"n:	c #362F2C",
"o:	c #686159",
"p:	c #695F56",
"q:	c #282320",
"r:	c #1F1A17",
"s:	c #241E1C",
"t:	c #594A43",
"u:	c #53443E",
"v:	c #654F45",
"w:	c #A0816F",
"x:	c #8C6F61",
"y:	c #634E46",
"z:	c #5D504A",
"A:	c #6C5B51",
"B:	c #726860",
"C:	c #5E5651",
"D:	c #5E5048",
"E:	c #413832",
"F:	c #270503",
"G:	c #340704",
"H:	c #360604",
"I:	c #3A0706",
"J:	c #160606",
"K:	c #3A2823",
"L:	c #33221D",
"M:	c #352621",
"N:	c #2B201C",
"O:	c #27201C",
"P:	c #241D1A",
"Q:	c #0A0606",
"R:	c #040202",
"S:	c #040303",
"T:	c #0A0909",
"U:	c #26211F",
"V:	c #372D29",
"W:	c #351A15",
"X:	c #734C3E",
"Y:	c #915F4D",
"Z:	c #653C31",
"`:	c #59382F",
" <	c #46211C",
".<	c #412C26",
"+<	c #583B32",
"@<	c #7A5E52",
"#<	c #7A6257",
"$<	c #897569",
"%<	c #968F86",
"&<	c #D6CCBE",
"*<	c #DBCEBD",
"=<	c #CEC2B3",
"-<	c #CEBCAA",
";<	c #C0A996",
"><	c #A58E7E",
",<	c #8A6458",
"'<	c #826457",
")<	c #744F44",
"!<	c #784F42",
"~<	c #795E52",
"{<	c #3C2D27",
"]<	c #3D312C",
"^<	c #463C35",
"/<	c #675C54",
"(<	c #978F85",
"_<	c #736960",
":<	c #251F1C",
"<<	c #0E0909",
"[<	c #140F10",
"}<	c #2F221E",
"|<	c #36221D",
"1<	c #5E453A",
"2<	c #775D50",
"3<	c #593A32",
"4<	c #663225",
"5<	c #773627",
"6<	c #6D2B1E",
"7<	c #300502",
"8<	c #130404",
"9<	c #0E0807",
"0<	c #1B0705",
"a<	c #1C0F0C",
"b<	c #2A201C",
"c<	c #2A1D1A",
"d<	c #291B18",
"e<	c #44362D",
"f<	c #56463B",
"g<	c #0A0706",
"h<	c #030202",
"i<	c #0D0B0C",
"j<	c #211C1A",
"k<	c #433832",
"l<	c #4B2C26",
"m<	c #442921",
"n<	c #765344",
"o<	c #6C4F42",
"p<	c #786255",
"q<	c #4D3C34",
"r<	c #5B4B43",
"s<	c #50423B",
"t<	c #6D5E55",
"u<	c #8A7C6F",
"v<	c #827469",
"w<	c #877A70",
"x<	c #7E756D",
"y<	c #D4CBBD",
"z<	c #CEC6B9",
"A<	c #B2A598",
"B<	c #B8A798",
"C<	c #C8B8A8",
"D<	c #B7A595",
"E<	c #AF9C8B",
"F<	c #9A8375",
"G<	c #A79181",
"H<	c #857063",
"I<	c #786154",
"J<	c #493831",
"K<	c #2B1F1C",
"L<	c #3F352F",
"M<	c #6A5E54",
"N<	c #7A6D62",
"O<	c #5D524B",
"P<	c #382F2B",
"Q<	c #100C0C",
"R<	c #1F1412",
"S<	c #36231E",
"T<	c #4F261E",
"U<	c #964735",
"V<	c #C26F54",
"W<	c #C56E52",
"X<	c #AC5A42",
"Y<	c #793625",
"Z<	c #3C1711",
"`<	c #120505",
" [	c #070202",
".[	c #1A0E0C",
"+[	c #382B27",
"@[	c #43352E",
"#[	c #362B25",
"$[	c #493C32",
"%[	c #4F4137",
"&[	c #1E1714",
"*[	c #110F0E",
"=[	c #1D1918",
"-[	c #181515",
";[	c #433934",
">[	c #594B43",
",[	c #503830",
"'[	c #351D18",
")[	c #543D33",
"![	c #503C34",
"~[	c #7E6B5F",
"{[	c #66564C",
"][	c #675B52",
"^[	c #71665D",
"/[	c #675A52",
"([	c #6A5E56",
"_[	c #8A7E72",
":[	c #6F625A",
"<[	c #574C46",
"[[	c #AB9F95",
"}[	c #998D84",
"|[	c #9B8A7E",
"1[	c #B6A89A",
"2[	c #B8A999",
"3[	c #998A7D",
"4[	c #928477",
"5[	c #827468",
"6[	c #71645A",
"7[	c #2B221E",
"8[	c #241C19",
"9[	c #544A42",
"0[	c #786B60",
"a[	c #83786D",
"b[	c #958C82",
"c[	c #58504A",
"d[	c #2C2724",
"e[	c #080607",
"f[	c #130A09",
"g[	c #211210",
"h[	c #230D0A",
"i[	c #6F2416",
"j[	c #B64F37",
"k[	c #CA664A",
"l[	c #C76748",
"m[	c #A74F34",
"n[	c #8C482F",
"o[	c #623021",
"p[	c #250E0B",
"q[	c #070303",
"r[	c #523F36",
"s[	c #3C2F26",
"t[	c #070405",
"u[	c #080707",
"v[	c #161414",
"w[	c #3D3530",
"x[	c #5C4F46",
"y[	c #53322A",
"z[	c #51251D",
"A[	c #3C2720",
"B[	c #3E302B",
"C[	c #716258",
"D[	c #665950",
"E[	c #7B7067",
"F[	c #8F867C",
"G[	c #6F655D",
"H[	c #6E655D",
"I[	c #766B62",
"J[	c #685E57",
"K[	c #A49B92",
"L[	c #CAC1B4",
"M[	c #BAADA1",
"N[	c #C5BAAB",
"O[	c #9E9083",
"P[	c #6A5C53",
"Q[	c #6C5D53",
"R[	c #73665C",
"S[	c #5C5047",
"T[	c #443731",
"U[	c #463C36",
"V[	c #655B53",
"W[	c #685E55",
"X[	c #675E56",
"Y[	c #322C29",
"Z[	c #0E0D0D",
"`[	c #090708",
" }	c #160807",
".}	c #3C0A05",
"+}	c #9A2F1D",
"@}	c #B44931",
"#}	c #C35238",
"$}	c #B24B31",
"%}	c #832D1B",
"&}	c #681D10",
"*}	c #411A0F",
"=}	c #140705",
"-}	c #160D0A",
";}	c #291C18",
">}	c #1D1512",
",}	c #0F0D0E",
"'}	c #191717",
")}	c #12100F",
"!}	c #312C2A",
"~}	c #342E2A",
"{}	c #443933",
"]}	c #4C2922",
"^}	c #834335",
"/}	c #47221A",
"(}	c #251917",
"_}	c #59473F",
":}	c #5F524B",
"<}	c #8B8077",
"[}	c #AEA397",
"}}	c #A69B90",
"|}	c #A1988D",
"1}	c #776F67",
"2}	c #776B64",
"3}	c #7C7168",
"4}	c #B4AB9F",
"5}	c #B6ACA0",
"6}	c #958B82",
"7}	c #D1C8BD",
"8}	c #C9C1B6",
"9}	c #CBC0B1",
"0}	c #9B8F84",
"a}	c #8D8176",
"b}	c #8B7E72",
"c}	c #97887B",
"d}	c #A19383",
"e}	c #9B8979",
"f}	c #604F45",
"g}	c #483B35",
"h}	c #403630",
"i}	c #5D554E",
"j}	c #504741",
"k}	c #4F4640",
"l}	c #201D1B",
"m}	c #130302",
"n}	c #3D0603",
"o}	c #811C0E",
"p}	c #A93620",
"q}	c #C6452A",
"r}	c #AE3C26",
"s}	c #962B1A",
"t}	c #8B2416",
"u}	c #380905",
"v}	c #141212",
"w}	c #1C1918",
"x}	c #493D37",
"y}	c #554139",
"z}	c #6C473C",
"A}	c #955849",
"B}	c #754B3E",
"C}	c #37231E",
"D}	c #352420",
"E}	c #60524B",
"F}	c #82766D",
"G}	c #A1968B",
"H}	c #A49B91",
"I}	c #ACA49B",
"J}	c #A69E94",
"K}	c #6E645E",
"L}	c #9A948D",
"M}	c #BCB4AB",
"N}	c #B2AAA1",
"O}	c #CDC4B9",
"P}	c #CAC0B2",
"Q}	c #C2B7A9",
"R}	c #C8BEAF",
"S}	c #C7BAAB",
"T}	c #C2B4A4",
"U}	c #AB9C8C",
"V}	c #9C8B7C",
"W}	c #67584E",
"X}	c #3B302C",
"Y}	c #433631",
"Z}	c #544941",
"`}	c #584E46",
" |	c #5E544C",
".|	c #443C37",
"+|	c #191615",
"@|	c #080404",
"#|	c #0F0202",
"$|	c #330503",
"%|	c #6F1209",
"&|	c #9B2415",
"*|	c #B33822",
"=|	c #A43320",
"-|	c #832819",
";|	c #731C12",
">|	c #400A07",
",|	c #0C0B0A",
"'|	c #0E0D0E",
")|	c #100F0F",
"!|	c #221D1C",
"~|	c #493B35",
"{|	c #775549",
"]|	c #8C6B5D",
"^|	c #A3887A",
"/|	c #886155",
"(|	c #573B33",
"_|	c #4C342E",
":|	c #695951",
"<|	c #877B71",
"[|	c #8F847A",
"}|	c #A9A096",
"||	c #BDB6AC",
"1|	c #B6AEA4",
"2|	c #988E85",
"3|	c #594F4A",
"4|	c #6E6B67",
"5|	c #ABA59F",
"6|	c #BBB4AC",
"7|	c #C7BCAE",
"8|	c #C2B5A6",
"9|	c #B3A799",
"0|	c #AEA092",
"a|	c #A59789",
"b|	c #9D8D7F",
"c|	c #6C5A50",
"d|	c #675349",
"e|	c #604A41",
"f|	c #705D52",
"g|	c #827266",
"h|	c #776B61",
"i|	c #695E55",
"j|	c #4D443E",
"k|	c #2E2926",
"l|	c #120D0D",
"m|	c #220404",
"n|	c #460604",
"o|	c #89170D",
"p|	c #B82D1D",
"q|	c #C13D26",
"r|	c #BA3722",
"s|	c #922C1E",
"t|	c #61110C",
"u|	c #490A07",
"v|	c #1A0302",
"w|	c #0A090A",
"x|	c #121111",
"y|	c #131111",
"z|	c #524741",
"A|	c #8D7D70",
"B|	c #B4907E",
"C|	c #B38E7B",
"D|	c #C6B1A0",
"E|	c #9E8779",
"F|	c #866456",
"G|	c #55322B",
"H|	c #78675E",
"I|	c #7E6F66",
"J|	c #90847A",
"K|	c #988E84",
"L|	c #A29C93",
"M|	c #B9B2A8",
"N|	c #BAB3A9",
"O|	c #958F88",
"P|	c #514E4B",
"Q|	c #B6B2AD",
"R|	c #D4CDC2",
"S|	c #D7CFC2",
"T|	c #D8CEBF",
"U|	c #D3C9BB",
"V|	c #B9AA9B",
"W|	c #9F887B",
"X|	c #806A60",
"Y|	c #6B483E",
"Z|	c #66453C",
"`|	c #4C322B",
" 1	c #684D44",
".1	c #948477",
"+1	c #8F8174",
"@1	c #6B5F55",
"#1	c #4B423C",
"$1	c #4C433E",
"%1	c #4A0906",
"&1	c #570A06",
"*1	c #7C160E",
"=1	c #9B2115",
"-1	c #B02D1A",
";1	c #AF2E1B",
">1	c #862315",
",1	c #5F0D08",
"'1	c #670F0A",
")1	c #4B0905",
"!1	c #0B0A0B",
"~1	c #1D1B1A",
"{1	c #35302C",
"]1	c #7E7268",
"^1	c #817369",
"/1	c #867468",
"(1	c #AD8D7B",
"_1	c #B89885",
":1	c #C7AE9C",
"<1	c #BFAA9B",
"[1	c #A58171",
"}1	c #783D32",
"|1	c #8F7C73",
"11	c #746159",
"21	c #6F635B",
"31	c #90867C",
"41	c #BAB2A7",
"51	c #C9C1B5",
"61	c #B2A99E",
"71	c #B8B2A9",
"81	c #68645F",
"91	c #A5A09A",
"01	c #DAD3C8",
"a1	c #E0D7C9",
"b1	c #CEC4B6",
"c1	c #D2C8B9",
"d1	c #C5B9AC",
"e1	c #AF9F90",
"f1	c #A89787",
"g1	c #826359",
"h1	c #441711",
"i1	c #460F0A",
"j1	c #55241C",
"k1	c #4E231C",
"l1	c #886D62",
"m1	c #968A7F",
"n1	c #948578",
"o1	c #8C7F72",
"p1	c #706459",
"q1	c #594F47",
"r1	c #514741",
"s1	c #6D0D06",
"t1	c #670A05",
"u1	c #4E0705",
"v1	c #530805",
"w1	c #861A0E",
"x1	c #C3321E",
"y1	c #B12E1D",
"z1	c #7F140D",
"A1	c #7F0F0A",
"B1	c #680D07",
"C1	c #0E0E0F",
"D1	c #2A2624",
"E1	c #463E3A",
"F1	c #665A52",
"G1	c #6F5E54",
"H1	c #836255",
"I1	c #997767",
"J1	c #BBA797",
"K1	c #BCADA1",
"L1	c #A48579",
"M1	c #6E382D",
"N1	c #6B4D44",
"O1	c #68564E",
"P1	c #766B63",
"Q1	c #7D7167",
"R1	c #A0988F",
"S1	c #BCB4A8",
"T1	c #A49B90",
"U1	c #A29B92",
"V1	c #67635E",
"W1	c #A7A5A2",
"X1	c #CEC6BC",
"Y1	c #E0D7CB",
"Z1	c #CDC6BB",
"`1	c #BFB4A7",
" 2	c #BBAEA0",
".2	c #A28F81",
"+2	c #A88F7F",
"@2	c #A18275",
"#2	c #4F1A15",
"$2	c #642C21",
"%2	c #52140D",
"&2	c #79564B",
"*2	c #A58F7F",
"=2	c #9C8D7E",
"-2	c #A29384",
";2	c #8C7D70",
">2	c #786A5F",
",2	c #6C5E54",
"'2	c #28211D",
")2	c #6A150D",
"!2	c #5C0704",
"~2	c #690C07",
"{2	c #81120D",
"]2	c #88120A",
"^2	c #7F170D",
"/2	c #720F08",
"(2	c #510704",
"_2	c #420704",
":2	c #100F10",
"<2	c #2B2726",
"[2	c #4D4540",
"}2	c #504742",
"|2	c #504640",
"12	c #6D5C53",
"22	c #7B6459",
"32	c #8D7264",
"42	c #B1998A",
"52	c #C5B6A8",
"62	c #BCAA99",
"72	c #937C6E",
"82	c #634B44",
"92	c #7F7067",
"02	c #675D57",
"a2	c #746961",
"b2	c #8A8178",
"c2	c #928A81",
"d2	c #8F887F",
"e2	c #857F77",
"f2	c #5D5852",
"g2	c #84817E",
"h2	c #B6B0A9",
"i2	c #DBD4C8",
"j2	c #C8BDAF",
"k2	c #BDB1A1",
"l2	c #B7A796",
"m2	c #9B8474",
"n2	c #856C5F",
"o2	c #784D44",
"p2	c #660B06",
"q2	c #590906",
"r2	c #570F0A",
"s2	c #69150F",
"t2	c #602D25",
"u2	c #7E5D51",
"v2	c #978274",
"w2	c #A99889",
"x2	c #948375",
"y2	c #918275",
"z2	c #7E7064",
"A2	c #302924",
"B2	c #C42E1F",
"C2	c #A42119",
"D2	c #6D0E08",
"E2	c #98150F",
"F2	c #9D1711",
"G2	c #96170F",
"H2	c #8C130C",
"I2	c #700D08",
"J2	c #480503",
"K2	c #280201",
"L2	c #544A44",
"M2	c #4E443F",
"N2	c #5F534C",
"O2	c #8D796C",
"P2	c #9D8A7D",
"Q2	c #A9988C",
"R2	c #AD9A8C",
"S2	c #AD9A8B",
"T2	c #766156",
"U2	c #78685F",
"V2	c #8A7D72",
"W2	c #988C80",
"X2	c #80776E",
"Y2	c #837A72",
"Z2	c #756C65",
"`2	c #59504B",
" 3	c #636160",
".3	c #AFADA9",
"+3	c #D6CBBE",
"@3	c #C7B8A7",
"#3	c #B9A895",
"$3	c #A28E7D",
"%3	c #826759",
"&3	c #744339",
"*3	c #65150F",
"=3	c #4A0905",
"-3	c #68100A",
";3	c #62100B",
">3	c #5E1814",
",3	c #583630",
"'3	c #958275",
")3	c #AE9E8E",
"!3	c #968677",
"~3	c #8E7F71",
"{3	c #4A413B",
"]3	c #150A09",
"^3	c #87140D",
"/3	c #B51C13",
"(3	c #A4140E",
"_3	c #7C0C07",
":3	c #810C09",
"<3	c #771810",
"[3	c #A63B28",
"}3	c #87160E",
"|3	c #790E08",
"13	c #650A06",
"23	c #410603",
"33	c #151312",
"43	c #2A2724",
"53	c #37312D",
"63	c #4D413C",
"73	c #62544D",
"83	c #8C7C71",
"93	c #AD9D8F",
"03	c #BCAFA0",
"a3	c #B0A196",
"b3	c #C2B8AF",
"c3	c #9A8679",
"d3	c #7F695E",
"e3	c #5D473E",
"f3	c #6F6157",
"g3	c #918477",
"h3	c #9A9087",
"i3	c #898076",
"j3	c #857C73",
"k3	c #57514C",
"l3	c #181616",
"m3	c #6B6A67",
"n3	c #C2BCB1",
"o3	c #C4B5A3",
"p3	c #AE9D8B",
"q3	c #A18D7C",
"r3	c #886F60",
"s3	c #6C4036",
"t3	c #5A120C",
"u3	c #580C07",
"v3	c #520B07",
"w3	c #81221C",
"x3	c #682520",
"y3	c #8E766A",
"z3	c #B3A290",
"A3	c #A89887",
"B3	c #837468",
"C3	c #48403A",
"D3	c #23100D",
"E3	c #650A09",
"F3	c #8D100C",
"G3	c #860D09",
"H3	c #700805",
"I3	c #640705",
"J3	c #560C07",
"K3	c #922217",
"L3	c #821811",
"M3	c #6D1510",
"N3	c #6D0D08",
"O3	c #620F08",
"P3	c #262321",
"Q3	c #413935",
"R3	c #4C423D",
"S3	c #473B35",
"T3	c #5C4E47",
"U3	c #8D7C70",
"V3	c #AA9483",
"W3	c #B79F8D",
"X3	c #A28879",
"Y3	c #C8BAAB",
"Z3	c #BEB0A1",
"`3	c #9C8F82",
" 4	c #66554E",
".4	c #5B4D47",
"+4	c #93857A",
"@4	c #A3998F",
"#4	c #988F86",
"$4	c #A49C93",
"%4	c #8F8881",
"&4	c #817C76",
"*4	c #413D3A",
"=4	c #22201F",
"-4	c #A39C93",
";4	c #B19F8E",
">4	c #9D8877",
",4	c #A6907E",
"'4	c #997D6E",
")4	c #672C24",
"!4	c #5E160E",
"~4	c #62251C",
"{4	c #573932",
"]4	c #6B3830",
"^4	c #621915",
"/4	c #72463E",
"(4	c #866F62",
"_4	c #948172",
":4	c #65564D",
"<4	c #716359",
"[4	c #3A322D",
"}4	c #180907",
"|4	c #240C09",
"14	c #570806",
"24	c #600B09",
"34	c #4C0705",
"44	c #490604",
"54	c #350403",
"64	c #4F0906",
"74	c #7B130E",
"84	c #5B0F0B",
"94	c #681410",
"04	c #550705",
"a4	c #0C0B0B",
"b4	c #1E1B1A",
"c4	c #584D45",
"d4	c #68584F",
"e4	c #726055",
"f4	c #917869",
"g4	c #A08372",
"h4	c #B7A393",
"i4	c #D5C7B6",
"j4	c #D6C8B6",
"k4	c #B3A99E",
"l4	c #8D7A72",
"m4	c #87776D",
"n4	c #C6C0B7",
"o4	c #B1AAA1",
"p4	c #A19A92",
"q4	c #9C968F",
"r4	c #201F1D",
"s4	c #1F1E1D",
"t4	c #A6A199",
"u4	c #D2C7B7",
"v4	c #C0B19E",
"w4	c #AE9A88",
"x4	c #A28C7B",
"y4	c #B3A08E",
"z4	c #826C60",
"A4	c #5E352D",
"B4	c #68352B",
"C4	c #6C3D32",
"D4	c #9E8D83",
"E4	c #AA9183",
"F4	c #684B43",
"G4	c #806056",
"H4	c #563F37",
"I4	c #625147",
"J4	c #655247",
"K4	c #7B6B5F",
"L4	c #38302A",
"M4	c #150B08",
"N4	c #240D09",
"O4	c #450B08",
"P4	c #85241E",
"Q4	c #44100B",
"R4	c #120202",
"S4	c #640E0A",
"T4	c #640C08",
"U4	c #75100C",
"V4	c #530605",
"W4	c #450402",
"X4	c #201D1D",
"Y4	c #2F2A28",
"Z4	c #554A44",
"`4	c #5D4840",
" 5	c #502F28",
".5	c #765C52",
"+5	c #756155",
"@5	c #937261",
"#5	c #9E887B",
"$5	c #CDC0B2",
"%5	c #C6B3A2",
"&5	c #AD9183",
"*5	c #B19B8E",
"=5	c #D2C9BD",
"-5	c #BDB1A4",
";5	c #C3BAAD",
">5	c #A39A8F",
",5	c #8A827A",
"'5	c #7E7770",
")5	c #252321",
"!5	c #908A83",
"~5	c #AFA090",
"{5	c #A39282",
"]5	c #B2A08F",
"^5	c #B4A08D",
"/5	c #A6907F",
"(5	c #AD9888",
"_5	c #A88C7A",
":5	c #835F51",
"<5	c #B29C8C",
"[5	c #AD9384",
"}5	c #8D7669",
"|5	c #9C8778",
"15	c #857367",
"25	c #6F6259",
"35	c #665145",
"45	c #6A564B",
"55	c #342723",
"65	c #38120F",
"75	c #43100D",
"85	c #4A120E",
"95	c #300503",
"05	c #78110D",
"a5	c #750F0C",
"b5	c #8D1310",
"c5	c #770D0A",
"d5	c #4E0604",
"e5	c #2D0403",
"f5	c #181716",
"g5	c #4D1E18",
"h5	c #552A23",
"i5	c #5E352B",
"j5	c #7F5547",
"k5	c #885E51",
"l5	c #B5A293",
"m5	c #AF9384",
"n5	c #9E7D70",
"o5	c #CEBCAD",
"p5	c #E5DBCB",
"q5	c #D7C9B8",
"r5	c #CBBFB0",
"s5	c #B7AC9F",
"t5	c #9B9187",
"u5	c #262421",
"v5	c #6B665F",
"w5	c #B9AEA1",
"x5	c #A79888",
"y5	c #A89889",
"z5	c #B5A593",
"A5	c #B6A391",
"B5	c #B9A794",
"C5	c #BCAB9A",
"D5	c #B6A091",
"E5	c #A48271",
"F5	c #B49684",
"G5	c #AE9382",
"H5	c #998172",
"I5	c #A28B7B",
"J5	c #8B7A6D",
"K5	c #8A7B6F",
"L5	c #8E7B6C",
"M5	c #6A5B50",
"N5	c #2C1F1C",
"O5	c #211411",
"P5	c #391613",
"Q5	c #3C1311",
"R5	c #480906",
"S5	c #8A170F",
"T5	c #650C07",
"U5	c #640907",
"V5	c #510705",
"W5	c #3D0605",
"X5	c #231F1D",
"Y5	c #403732",
"Z5	c #3D2C27",
"`5	c #320D09",
" 6	c #4A231D",
".6	c #76382B",
"+6	c #752E21",
"@6	c #8E5B4C",
"#6	c #C0A18E",
"$6	c #96675A",
"%6	c #A88476",
"&6	c #DACBBC",
"*6	c #E9DDCD",
"=6	c #BFB2A4",
"-6	c #CFC1B0",
";6	c #C3B6A6",
">6	c #B5A99B",
",6	c #8D867C",
"'6	c #100F0D",
")6	c #5F5953",
"!6	c #AC9C8D",
"~6	c #B3A392",
"{6	c #BBAB9A",
"]6	c #AF9B8A",
"^6	c #9A8273",
"/6	c #A38A7B",
"(6	c #927464",
"_6	c #A78A79",
":6	c #A88A79",
"<6	c #A07F6F",
"[6	c #AA9080",
"}6	c #B1A08F",
"|6	c #9C897A",
"16	c #9D8B7B",
"26	c #62534A",
"36	c #2E201B",
"46	c #0B0403",
"56	c #1D0F0D",
"66	c #110101",
"76	c #470503",
"86	c #610805",
"96	c #480402",
"06	c #560503",
"a6	c #4A0604",
"b6	c #370503",
"c6	c #060606",
"d6	c #171414",
"e6	c #1F1A19",
"f6	c #4B3E38",
"g6	c #4C3B34",
"h6	c #47231C",
"i6	c #795146",
"j6	c #936859",
"k6	c #6D362B",
"l6	c #A27C6A",
"m6	c #CCA58F",
"n6	c #874135",
"o6	c #977267",
"p6	c #E2D5C7",
"q6	c #E8DDCD",
"r6	c #E3D9CB",
"s6	c #CBBEAF",
"t6	c #D8CAB9",
"u6	c #CEC1B2",
"v6	c #B8AEA1",
"w6	c #726D65",
"x6	c #5D5B56",
"y6	c #C6BEB2",
"z6	c #BEAD9C",
"A6	c #B4A393",
"B6	c #B0A090",
"C6	c #A08B7B",
"D6	c #9F8576",
"E6	c #B49F8E",
"F6	c #876F61",
"G6	c #917263",
"H6	c #A68372",
"I6	c #A67F6E",
"J6	c #A08576",
"K6	c #A59385",
"L6	c #988577",
"M6	c #948476",
"N6	c #6D5E54",
"O6	c #4E3D36",
"P6	c #17110F",
"Q6	c #1F0201",
"R6	c #630805",
"S6	c #5E0604",
"T6	c #3E0302",
"U6	c #770E08",
"V6	c #3D0503",
"W6	c #171312",
"X6	c #282321",
"Y6	c #6C5951",
"Z6	c #947F70",
"`6	c #7C6357",
" 7	c #967B6C",
".7	c #906253",
"+7	c #915344",
"@7	c #B27B69",
"#7	c #BF8F7C",
"$7	c #87352A",
"%7	c #7F3F35",
"&7	c #C1A597",
"*7	c #D3C5B6",
"=7	c #E9DFD0",
"-7	c #C3BCB2",
";7	c #42403D",
">7	c #2B2A2A",
",7	c #ACA69F",
"'7	c #B2A292",
")7	c #9C8B7D",
"!7	c #8A7A6E",
"~7	c #A18979",
"{7	c #A68B7B",
"]7	c #B19C8C",
"^7	c #8E7668",
"/7	c #A59082",
"(7	c #AE9B8D",
"_7	c #998273",
":7	c #AA9383",
"<7	c #B7A494",
"[7	c #968072",
"}7	c #938376",
"|7	c #7F7268",
"17	c #453B36",
"27	c #100302",
"37	c #4E0504",
"47	c #7A0A06",
"57	c #510402",
"67	c #200303",
"77	c #3E0704",
"87	c #1C1816",
"97	c #38302C",
"07	c #6D625A",
"a7	c #8B7C71",
"b7	c #9F8D7F",
"c7	c #9F8B7C",
"d7	c #83685C",
"e7	c #A88572",
"f7	c #BD917C",
"g7	c #D2A28B",
"h7	c #BD7966",
"i7	c #8F3123",
"j7	c #A0483C",
"k7	c #D0AC9C",
"l7	c #D2C2B2",
"m7	c #E7DCCC",
"n7	c #D0C1AF",
"o7	c #B2A89D",
"p7	c #272522",
"q7	c #615D58",
"r7	c #938980",
"s7	c #A8998C",
"t7	c #98897C",
"u7	c #8D7B6E",
"v7	c #A48A79",
"w7	c #B3A091",
"x7	c #A39185",
"y7	c #AC9A8C",
"z7	c #B7A290",
"A7	c #BAA695",
"B7	c #857266",
"C7	c #968679",
"D7	c #84786C",
"E7	c #5C5249",
"F7	c #26211E",
"G7	c #350303",
"H7	c #450302",
"I7	c #1C0101",
"J7	c #2D2724",
"K7	c #3C342F",
"L7	c #483F39",
"M7	c #5F554E",
"N7	c #786C62",
"O7	c #8C7769",
"P7	c #785F52",
"Q7	c #AF907D",
"R7	c #CCAF9B",
"S7	c #C8A18E",
"T7	c #D09E8A",
"U7	c #BB7563",
"V7	c #B16051",
"W7	c #BDA092",
"X7	c #C3B0A0",
"Y7	c #DFD2C0",
"Z7	c #D2C2AF",
"`7	c #C1AF9D",
" 8	c #C7B8A9",
".8	c #9D938A",
"+8	c #13100F",
"@8	c #020102",
"#8	c #0A0807",
"$8	c #48433E",
"%8	c #A3978A",
"&8	c #817368",
"*8	c #8E7F72",
"=8	c #A49282",
"-8	c #AB9787",
";8	c #B7A798",
">8	c #988A80",
",8	c #817065",
"'8	c #C2B2A2",
")8	c #B6A190",
"!8	c #B7A493",
"~8	c #B1A090",
"{8	c #766257",
"]8	c #75665B",
"^8	c #817468",
"/8	c #6F6258",
"(8	c #493F38",
"_8	c #2C2421",
":8	c #221D1B",
"<8	c #423934",
"[8	c #4D433E",
"}8	c #6E6258",
"|8	c #776358",
"18	c #AF9B8C",
"28	c #D6C4B4",
"38	c #CBAF9D",
"48	c #C59581",
"58	c #CC9984",
"68	c #CBA18E",
"78	c #C4A797",
"88	c #C7B4A4",
"98	c #DBCCBA",
"08	c #D0BDAB",
"a8	c #B3A090",
"b8	c #B1A79D",
"c8	c #736E6A",
"d8	c #171211",
"e8	c #262220",
"f8	c #95897E",
"g8	c #928275",
"h8	c #A69688",
"i8	c #97877A",
"j8	c #B6A493",
"k8	c #B8A797",
"l8	c #7D655B",
"m8	c #745549",
"n8	c #6A584E",
"o8	c #7B6558",
"p8	c #79665B",
"q8	c #79665C",
"r8	c #796257",
"s8	c #65544B",
"t8	c #76675C",
"u8	c #473C36",
"v8	c #28211E",
"w8	c #28221F",
"x8	c #39312C",
"y8	c #2F2925",
"z8	c #4D423B",
"A8	c #5F534B",
"B8	c #806D62",
"C8	c #817166",
"D8	c #988679",
"E8	c #B19D8C",
"F8	c #C5B5A4",
"G8	c #B59281",
"H8	c #975041",
"I8	c #C4917F",
"J8	c #DAC6B6",
"K8	c #CAB4A4",
"L8	c #CBB7A6",
"M8	c #D3C1AF",
"N8	c #A99686",
"O8	c #645A53",
"P8	c #352F2D",
"Q8	c #221D1A",
"R8	c #9E8B7C",
"S8	c #A49383",
"T8	c #99887B",
"U8	c #A9998A",
"V8	c #B9AB9D",
"W8	c #7E695E",
"X8	c #624339",
"Y8	c #47251F",
"Z8	c #7F6457",
"`8	c #A08D7E",
" 9	c #978171",
".9	c #665347",
"+9	c #827062",
"@9	c #5E4F46",
"#9	c #53473F",
"$9	c #4A3F38",
"%9	c #302926",
"&9	c #2B2421",
"*9	c #362E29",
"=9	c #534840",
"-9	c #594D45",
";9	c #6D5B51",
">9	c #5A4C43",
",9	c #A79383",
"'9	c #AC9788",
")9	c #72554C",
"!9	c #C3A291",
"~9	c #DDCEBE",
"{9	c #CEB9A8",
"]9	c #D5C4B3",
"^9	c #DACBB9",
"/9	c #A19588",
"(9	c #1A1616",
"_9	c #010101",
":9	c #554B43",
"<9	c #978677",
"[9	c #AD9C8C",
"}9	c #9B8A7D",
"|9	c #87756A",
"19	c #9E8E81",
"29	c #AE9C8E",
"39	c #746258",
"49	c #71544B",
"59	c #A68E7E",
"69	c #A49080",
"79	c #B5A291",
"89	c #A38F7E",
"99	c #635045",
"09	c #776457",
"a9	c #726155",
"b9	c #66594F",
"c9	c #52463D",
"d9	c #241F1C",
"e9	c #27211E",
"f9	c #695C52",
"g9	c #6B5B51",
"h9	c #61524A",
"i9	c #9A877A",
"j9	c #BEAFA0",
"k9	c #91877F",
"l9	c #4B342E",
"m9	c #B6A090",
"n9	c #DFCFBB",
"o9	c #C9B4A0",
"p9	c #BCA594",
"q9	c #CEBDAC",
"r9	c #CBBCAD",
"s9	c #1C1616",
"t9	c #1B1817",
"u9	c #040304",
"v9	c #1F1A18",
"w9	c #7B6C61",
"x9	c #998476",
"y9	c #A08F81",
"z9	c #C0B1A1",
"A9	c #A79788",
"B9	c #7A6459",
"C9	c #A58D7D",
"D9	c #9A8678",
"E9	c #8C7667",
"F9	c #877667",
"G9	c #53443B",
"H9	c #57473E",
"I9	c #4D3F36",
"J9	c #534941",
"K9	c #63574D",
"L9	c #413831",
"M9	c #0D0A0A",
"N9	c #141111",
"O9	c #2D2622",
"P9	c #53483F",
"Q9	c #594C43",
"R9	c #605148",
"S9	c #6E5E54",
"T9	c #8E7B6F",
"U9	c #9E8D7F",
"V9	c #514944",
"W9	c #1F1817",
"X9	c #AA9F94",
"Y9	c #E9DCCB",
"Z9	c #CFBEAC",
"`9	c #C0AA99",
" 0	c #CEBEAE",
".0	c #BDB2A7",
"+0	c #4A433F",
"@0	c #201C1B",
"#0	c #151313",
"$0	c #060507",
"%0	c #110C0C",
"&0	c #63544D",
"*0	c #947E70",
"=0	c #927E70",
"-0	c #AE9D8E",
";0	c #B3A495",
">0	c #BBAC9C",
",0	c #B4A392",
"'0	c #908075",
")0	c #958277",
"!0	c #7E675B",
"~0	c #8D7869",
"{0	c #918172",
"]0	c #574940",
"^0	c #59493F",
"/0	c #54443A",
"(0	c #493E37",
"_0	c #64574D",
":0	c #483E36",
"<0	c #131110",
"[0	c #292421",
"}0	c #3E3631",
"|0	c #3F3631",
"10	c #3A322E",
"20	c #483D35",
"30	c #71635A",
"40	c #8E8176",
"50	c #675C55",
"60	c #25201E",
"70	c #7A7269",
"80	c #DACDBC",
"90	c #D3C7B6",
"00	c #D3C4B3",
"a0	c #D4C6B6",
"b0	c #93867B",
"c0	c #2E2723",
"d0	c #2F2825",
"e0	c #1C1917",
"f0	c #241D1B",
"g0	c #66534B",
"h0	c #957C6D",
"i0	c #907C6E",
"j0	c #9B897B",
"k0	c #AC9A8B",
"l0	c #B5A596",
"m0	c #B19E8F",
"n0	c #9A887B",
"o0	c #A3968C",
"p0	c #6D584E",
"q0	c #917E6F",
"r0	c #716257",
"s0	c #45352F",
"t0	c #4D3C33",
"u0	c #675347",
"v0	c #50443B",
"w0	c #706256",
"x0	c #1A1716",
"y0	c #322B28",
"z0	c #3E3530",
"A0	c #5E5148",
"B0	c #4C413B",
"C0	c #201A18",
"D0	c #746B64",
"E0	c #8D857D",
"F0	c #2C2926",
"G0	c #0C0A0C",
"H0	c #0C090A",
"I0	c #3B3733",
"J0	c #D2C7B9",
"K0	c #DBCEBF",
"L0	c #CFC6BA",
"M0	c #685F58",
"N0	c #312925",
"O0	c #453A34",
"P0	c #3C322D",
"Q0	c #26201E",
"R0	c #110F10",
"S0	c #5B4F47",
"T0	c #998375",
"U0	c #A49081",
"V0	c #8C7D71",
"W0	c #A49283",
"X0	c #AD9887",
"Y0	c #8A7163",
"Z0	c #7F685D",
"`0	c #6C564C",
" a	c #786256",
".a	c #6E5D51",
"+a	c #5E4C42",
"@a	c #4D3D35",
"#a	c #756152",
"$a	c #5C4D43",
"%a	c #63554A",
"&a	c #5F5146",
"*a	c #110F0F",
"=a	c #362F2A",
"-a	c #352D28",
";a	c #211B1A",
">a	c #131010",
",a	c #2E2A29",
"'a	c #302D2B",
")a	c #060407",
"!a	c #181414",
"~a	c #1F1918",
"{a	c #221816",
"]a	c #68564B",
"^a	c #C8BAAC",
"/a	c #D7CEC3",
"(a	c #B3ABA5",
"_a	c #5B4E48",
":a	c #463A35",
"<a	c #443934",
"[a	c #413731",
"}a	c #2F2724",
"|a	c #9F8F83",
"1a	c #9F8A7B",
"2a	c #75655B",
"3a	c #907B6D",
"4a	c #9A8373",
"5a	c #7B5D4F",
"6a	c #76584C",
"7a	c #60493F",
"8a	c #846B5C",
"9a	c #816B5D",
"0a	c #6D5A4F",
"aa	c #463731",
"ba	c #655449",
"ca	c #4E4139",
"da	c #50433A",
"ea	c #64554A",
"fa	c #231E1C",
"ga	c #1D1817",
"ha	c #1B1614",
"ia	c #27201F",
"ja	c #2A2321",
"ka	c #2E2623",
"la	c #312824",
"ma	c #644E42",
"na	c #89786E",
"oa	c #877E7A",
"pa	c #81675F",
"qa	c #4A3932",
"ra	c #40332D",
"sa	c #433731",
"ta	c #332A26",
"ua	c #050505",
"va	c #403D39",
"wa	c #B0A498",
"xa	c #9E8C7F",
"ya	c #504844",
"za	c #392A25",
"Aa	c #68544A",
"Ba	c #685046",
"Ca	c #805C4D",
"Da	c #69453A",
"Ea	c #6F4E41",
"Fa	c #896F5E",
"Ga	c #655348",
"Ha	c #463831",
"Ia	c #382B25",
"Ja	c #58493F",
"Ka	c #443830",
"La	c #382D27",
"Ma	c #55483D",
"Na	c #5B4D42",
"Oa	c #120F0F",
"Pa	c #181413",
"Qa	c #0F0C0D",
"Ra	c #161311",
"Sa	c #1C1715",
"Ta	c #453932",
"Ua	c #493C35",
"Va	c #493B34",
"Wa	c #675045",
"Xa	c #774D3D",
"Ya	c #724737",
"Za	c #503229",
"`a	c #4E362D",
" b	c #45322B",
".b	c #3B2C26",
"+b	c #42352E",
"@b	c #2D2521",
"#b	c #020101",
"$b	c #000100",
"%b	c #1D1917",
"&b	c #282322",
"*b	c #1A1312",
"=b	c #492F27",
"-b	c #7D4132",
";b	c #703A2C",
">b	c #764A3B",
",b	c #6B5244",
"'b	c #322620",
")b	c #181311",
"!b	c #29201C",
"~b	c #483931",
"{b	c #514238",
"]b	c #382E27",
"^b	c #312822",
"/b	c #53463C",
"(b	c #1F1917",
"_b	c #0F0C0C",
":b	c #090706",
"<b	c #1A1514",
"[b	c #382E29",
"}b	c #4B3D36",
"|b	c #533C33",
"1b	c #7A4838",
"2b	c #AE5F46",
"3b	c #A95C43",
"4b	c #5F2D22",
"5b	c #5E382E",
"6b	c #594137",
"7b	c #49352E",
"8b	c #3D2F29",
"9b	c #0D0A0B",
"0b	c #372822",
"ab	c #2D2420",
"bb	c #251D1A",
"cb	c #48342B",
"db	c #844431",
"eb	c #8F442E",
"fb	c #8C604D",
"gb	c #7E6452",
"hb	c #463A34",
"ib	c #3E342F",
"jb	c #211B18",
"kb	c #322821",
"lb	c #45382F",
"mb	c #362C25",
"nb	c #342922",
"ob	c #3F352C",
"pb	c #3E342B",
"qb	c #100D0D",
"rb	c #1C1817",
"sb	c #070606",
"tb	c #402722",
"ub	c #743223",
"vb	c #B25138",
"wb	c #C25F43",
"xb	c #893C29",
"yb	c #6D3426",
"zb	c #5C3A2F",
"Ab	c #4E372F",
"Bb	c #412F28",
"Cb	c #2A1F1C",
"Db	c #0E0B0C",
"Eb	c #040305",
"Fb	c #000102",
"Gb	c #2F2420",
"Hb	c #29211E",
"Ib	c #302623",
"Jb	c #5E3527",
"Kb	c #9E5034",
"Lb	c #93513A",
"Mb	c #513C33",
"Nb	c #716157",
"Ob	c #403733",
"Pb	c #1A1513",
"Qb	c #2A221E",
"Rb	c #261F1C",
"Sb	c #15110F",
"Tb	c #2D241E",
"Ub	c #100E0F",
"Vb	c #0B090A",
"Wb	c #27201D",
"Xb	c #332925",
"Yb	c #301D19",
"Zb	c #4D231C",
"`b	c #872E1E",
" c	c #AE442C",
".c	c #A33E28",
"+c	c #7F2E1D",
"@c	c #5A2C20",
"#c	c #3B2721",
"$c	c #32241E",
"%c	c #211816",
"&c	c #120E0D",
"*c	c #1B1615",
"=c	c #1D1816",
"-c	c #191513",
";c	c #231D1A",
">c	c #2D221E",
",c	c #563E32",
"'c	c #6B3C2C",
")c	c #734332",
"!c	c #583D31",
"~c	c #5D4A3F",
"{c	c #201917",
"]c	c #201816",
"^c	c #332924",
"/c	c #100D0C",
"(c	c #070505",
"_c	c #050403",
":c	c #0F0E0F",
"<c	c #191514",
"[c	c #251815",
"}c	c #40201A",
"|c	c #7B301F",
"1c	c #AA472C",
"2c	c #B24629",
"3c	c #702013",
"4c	c #3A1C17",
"5c	c #35251F",
"6c	c #261B17",
"7c	c #1D1614",
"8c	c #060505",
"9c	c #181412",
"0c	c #201B18",
"ac	c #261F1B",
"bc	c #271F1C",
"cc	c #42322B",
"dc	c #45332C",
"ec	c #5C4135",
"fc	c #442E25",
"gc	c #291D19",
"hc	c #1E1613",
"ic	c #080605",
"jc	c #211B19",
"kc	c #211815",
"lc	c #311F19",
"mc	c #441F17",
"nc	c #6B2618",
"oc	c #662619",
"pc	c #4A1F17",
"qc	c #291915",
"rc	c #3A2922",
"sc	c #2B1F1A",
"tc	c #14100E",
"uc	c #2F2722",
"vc	c #211C19",
"wc	c #1F1816",
"xc	c #251B18",
"yc	c #271C18",
"zc	c #231C19",
"Ac	c #1B1513",
"Bc	c #040404",
"Cc	c #0C0A0B",
"Dc	c #28201C",
"Ec	c #271E19",
"Fc	c #33221C",
"Gc	c #47251D",
"Hc	c #442820",
"Ic	c #3B2822",
"Jc	c #271E1A",
"Kc	c #261D1A",
"Lc	c #342721",
"Mc	c #372A23",
"Nc	c #221B16",
"Oc	c #080708",
"Pc	c #171413",
"Qc	c #211D1B",
"Rc	c #1E1A18",
"Sc	c #151111",
"Tc	c #0C0B0C",
"Uc	c #251E1B",
"Vc	c #141211",
"Wc	c #43372F",
"Xc	c #3F322B",
"Yc	c #4A3831",
"Zc	c #40271F",
"`c	c #452C24",
" d	c #402E26",
".d	c #322622",
"+d	c #332824",
"@d	c #362C26",
"#d	c #2A211D",
"$d	c #16110E",
"%d	c #231E1B",
"&d	c #161211",
"*d	c #191413",
"=d	c #0E0C0D",
"-d	c #1D1A19",
";d	c #201C1A",
">d	c #151210",
",d	c #3B302A",
"'d	c #473931",
")d	c #2B1E1A",
"!d	c #402820",
"~d	c #33241F",
"{d	c #2C231F",
"]d	c #120F0C",
"^d	c #030204",
"/d	c #171412",
"(d	c #29221E",
"_d	c #322925",
":d	c #342A26",
"<d	c #2E2622",
"[d	c #2F2620",
"}d	c #4F3F35",
"|d	c #221915",
"1d	c #4B342B",
"2d	c #49332B",
"3d	c #221916",
"4d	c #211A17",
"5d	c #3F3229",
"6d	c #1D1815",
"7d	c #191614",
"8d	c #2B2420",
"9d	c #2F2621",
"0d	c #1E1916",
"ad	c #0A090B",
"bd	c #070709",
"cd	c #1A1512",
"dd	c #43352D",
"ed	c #2C221D",
"fd	c #4E3B32",
"gd	c #45342C",
"hd	c #201916",
"id	c #211916",
"jd	c #372B24",
"kd	c #1D1714",
"ld	c #020204",
"md	c #0A0808",
"nd	c #070708",
"od	c #09080A",
"pd	c #030405",
"qd	c #040405",
"rd	c #100E0E",
"sd	c #3D342E",
"td	c #302722",
"ud	c #362C27",
"vd	c #4F4037",
"wd	c #42342E",
"xd	c #342923",
"yd	c #382C26",
"zd	c #31251F",
"Ad	c #3B2D25",
"Bd	c #1F1915",
"Cd	c #010100",
"Dd	c #141011",
"Ed	c #0B080A",
"Fd	c #0C090B",
"Gd	c #100D0E",
"Hd	c #201B19",
"Id	c #342B27",
"Jd	c #3D322B",
"Kd	c #463932",
"Ld	c #41342D",
"Md	c #3B2F28",
"Nd	c #4B3B32",
"Od	c #3D3028",
"Pd	c #16120F",
"Qd	c #030302",
"Rd	c #050506",
"Sd	c #181312",
"Td	c #0F0B0C",
"Ud	c #332923",
"Vd	c #3F332C",
"Wd	c #372D26",
"Xd	c #1A1412",
"Yd	c #473930",
"Zd	c #40342C",
"`d	c #44372F",
" e	c #342B25",
".e	c #3A2F27",
"+e	c #241D19",
"@e	c #1A1613",
"#e	c #120F10",
"$e	c #080606",
"%e	c #050303",
"&e	c #140F0D",
"*e	c #291F1B",
"=e	c #3B2D26",
"-e	c #332A25",
";e	c #42342B",
">e	c #473830",
",e	c #2D241F",
"'e	c #302621",
")e	c #1B1613",
"!e	c #0A0809",
"~e	c #0C0A0A",
"{e	c #161110",
"]e	c #2B221D",
"^e	c #322822",
"/e	c #28201B",
"(e	c #463930",
"_e	c #312721",
":e	c #4B3B31",
"<e	c #3A2D26",
"[e	c #352A23",
"}e	c #3F322A",
"|e	c #251F1B",
"1e	c #1F1916",
"2e	c #080706",
"3e	c #0D0C0C",
"4e	c #110E0E",
"5e	c #110D0D",
"6e	c #0F0B0B",
"7e	c #070605",
"8e	c #040302",
"9e	c #0B0908",
"0e	c #201815",
"ae	c #241D18",
"be	c #2D231E",
"ce	c #4B3A30",
"de	c #3A2E26",
"ee	c #342A24",
"fe	c #493B32",
"ge	c #0A0908",
"he	c #15100F",
"ie	c #151010",
"je	c #040403",
"ke	c #060405",
"le	c #0F0C0B",
"me	c #110E0C",
"ne	c #3F3028",
"oe	c #3E332C",
"pe	c #3C3029",
"qe	c #271F1B",
"re	c #191512",
"se	c #181110",
"te	c #020201",
"ue	c #0C0808",
"ve	c #352720",
"we	c #43332A",
"xe	c #372C26",
"ye	c #40352E",
"ze	c #43362F",
"Ae	c #1F1A16",
"Be	c #14110F",
"Ce	c #060404",
"De	c #0B0807",
"Ee	c #14100F",
"Fe	c #211915",
"Ge	c #1F1613",
"He	c #1F1512",
"Ie	c #2E211B",
"Je	c #46342B",
"Ke	c #4E3A2F",
"Le	c #45362E",
"Me	c #655245",
"Ne	c #201A17",
"Oe	c #0E0B0B",
"Pe	c #090808",
"Qe	c #221A17",
"Re	c #201814",
"Se	c #18110E",
"Te	c #2A1C16",
"Ue	c #33231D",
"Ve	c #4B382D",
"We	c #48372E",
"Xe	c #504036",
"Ye	c #40332C",
"Ze	c #4D3D33",
"`e	c #312720",
" f	c #0F0A0B",
".f	c #231914",
"+f	c #37251D",
"@f	c #5C3D2E",
"#f	c #573B2E",
"$f	c #52392D",
"%f	c #5D4334",
"&f	c #574236",
"*f	c #48382E",
"=f	c #362A24",
"-f	c #3E3129",
";f	c #382D26",
">f	c #100C0A",
",f	c #080505",
"'f	c #0E0907",
")f	c #291C16",
"!f	c #462E24",
"~f	c #644332",
"{f	c #704E3C",
"]f	c #745341",
"^f	c #795743",
"/f	c #6C4F3F",
"(f	c #5B4236",
"_f	c #49362C",
":f	c #4E3E34",
"<f	c #41342C",
"[f	c #251E1A",
"}f	c #0C0A09",
"|f	c #120B0B",
"1f	c #130908",
"2f	c #190D0C",
"3f	c #211512",
"4f	c #1A0F0C",
"5f	c #0B0404",
"6f	c #0D0705",
"7f	c #3E281F",
"8f	c #5A392B",
"9f	c #623F2F",
"0f	c #7D5641",
"af	c #845A45",
"bf	c #885F4A",
"cf	c #775341",
"df	c #674A3B",
"ef	c #4E382D",
"ff	c #3A2E27",
"gf	c #332822",
"hf	c #221B17",
"if	c #130909",
"jf	c #190907",
"kf	c #2D0F0A",
"lf	c #31120D",
"mf	c #361B15",
"nf	c #361812",
"of	c #29110E",
"pf	c #0A0504",
"qf	c #1A100D",
"rf	c #1A110F",
"sf	c #35221C",
"tf	c #523528",
"uf	c #5D3C2D",
"vf	c #704835",
"wf	c #89573F",
"xf	c #7E5642",
"yf	c #7B5542",
"zf	c #765543",
"Af	c #6A4D3D",
"Bf	c #4C392F",
"Cf	c #18120E",
"Df	c #040201",
"Ef	c #060201",
"Ff	c #170605",
"Gf	c #270906",
"Hf	c #3D130C",
"If	c #4A1810",
"Jf	c #36140E",
"Kf	c #280F0C",
"Lf	c #040102",
"Mf	c #1B1412",
"Nf	c #1E1614",
"Of	c #362621",
"Pf	c #4C342A",
"Qf	c #56382A",
"Rf	c #623D2C",
"Sf	c #3C271E",
"Tf	c #3B2B23",
"Uf	c #372720",
"Vf	c #413028",
"Wf	c #0B0706",
"Xf	c #050304",
"Yf	c #0E0302",
"Zf	c #130504",
"`f	c #1C0503",
" g	c #310B08",
".g	c #340D08",
"+g	c #42120B",
"@g	c #2A0B07",
"#g	c #260B08",
"$g	c #1B0908",
"%g	c #0B0809",
"&g	c #1A1311",
"*g	c #281D19",
"=g	c #302520",
"-g	c #221C19",
";g	c #1A1310",
">g	c #181210",
",g	c #1F1713",
"'g	c #0F0A08",
")g	c #030102",
"!g	c #090202",
"~g	c #0B0202",
"{g	c #1D0704",
"]g	c #2B0C07",
"^g	c #300C07",
"/g	c #38100B",
"(g	c #3B1510",
"_g	c #250C09",
":g	c #0E0B0A",
"<g	c #2D211C",
"[g	c #47352C",
"}g	c #574136",
"|g	c #5F4A3F",
"1g	c #544238",
"2g	c #3A2E29",
"3g	c #3F322C",
"4g	c #29211D",
"5g	c #090605",
"6g	c #120302",
"7g	c #1E0604",
"8g	c #240A07",
"9g	c #2B100C",
"0g	c #180807",
"ag	c #070302",
"bg	c #2D211B",
"cg	c #2A201B",
"dg	c #372A24",
"eg	c #322722",
"fg	c #2B211D",
"gg	c #1C1514",
"hg	c #050201",
"ig	c #030100",
"jg	c #130D0B",
"kg	c #301E18",
"lg	c #50362C",
"mg	c #4B3028",
"ng	c #36241E",
"og	c #221713",
"pg	c #1C100C",
"qg	c #371E17",
"rg	c #583423",
"sg	c #794E39",
"tg	c #704A3B",
"ug	c #5C372D",
"vg	c #462F27",
"wg	c #3C2A23",
"xg	c #2B1C18",
"yg	c #221714",
"zg	c #0E0809",
"Ag	c #070404",
"Bg	c #160A08",
"Cg	c #3B221B",
"Dg	c #713B29",
"Eg	c #925136",
"Fg	c #8D6147",
"Gg	c #885B45",
"Hg	c #85513C",
"Ig	c #4F271C",
"Jg	c #3C1D17",
"Kg	c #341C17",
"Lg	c #1B0E0B",
"Mg	c #120707",
"Ng	c #050203",
"Og	c #060303",
"Pg	c #180A08",
"Qg	c #402018",
"Rg	c #6E3A28",
"Sg	c #A46141",
"Tg	c #B3744F",
"Ug	c #B47150",
"Vg	c #A85B40",
"Wg	c #974831",
"Xg	c #66281B",
"Yg	c #3B150E",
"Zg	c #30130E",
"`g	c #250C08",
" h	c #0F0404",
".h	c #060202",
"+h	c #160906",
"@h	c #301711",
"#h	c #462118",
"$h	c #5F2D1F",
"%h	c #934930",
"&h	c #A55D3B",
"*h	c #AC6844",
"=h	c #9E4F33",
"-h	c #88442F",
";h	c #4A1C13",
">h	c #2A100B",
",h	c #230C08",
"'h	c #160504",
")h	c #27130F",
"!h	c #3D1F17",
"~h	c #3E1E17",
"{h	c #4F2319",
"]h	c #58271C",
"^h	c #562216",
"/h	c #653020",
"(h	c #672E1E",
"_h	c #522217",
":h	c #481C12",
"<h	c #31140E",
"[h	c #2C120D",
"}h	c #130605",
"|h	c #080202",
"1h	c #150605",
"2h	c #0F0708",
"3h	c #190B0B",
"4h	c #240F0C",
"5h	c #1D0C09",
"6h	c #150705",
"                                                                                                                                                              ",
"                                                                                                                                                              ",
"                                                                                                                                                              ",
"                                                                                                                                                              ",
"                                                                                                                                                              ",
"                                                                                  . +                                                                         ",
"                                                                            @ # $ % & * =     -                                                               ",
"                                                              ;           > , ' ) ! ~ { ] ^ / ( _                                                             ",
"                                                            : < [ } | 1 2 3 4 5 6 7 8 9 0 a b c d e                                                           ",
"                                                            f g h i j k l m n o p q r s t u v w x y z A B                                                     ",
"                                                        C C D E F G H I J K L M N O P Q R S T U V W X Y Z                                                     ",
"                                                    `  ...+.@.#.$.%.&.*.=.-.;.>.,.'.).!.~.{.].^./.(._.:.<.g [.                                                ",
"                                                      }.|.1.2.3.4.5.6.7.8.9.0.a.b.c.d.e.f.g.h.i.j.k.l.m.n.o.                                                  ",
"                                                      p.q.r.s.t.u.v.w.x.y.z.A.B.C.D.E.F.G.H.I.J.K.L.M.N.O.P.}.                                                ",
"                                                  Q.R.S.T.U.A V.W.X.Y.Z.`. +.+++@+#+$+%+&+*+=+-+;+>+,+'+)+!+~+{+                                              ",
"                                                      ]+^+/+(+_+:+<+[+}+|+1+2+3+4+5+6+7+8+9+0+a+b+<+c+d+e+f+g+                                                ",
"                                                      h+i+j+k+l+m+n+o+p+q+r+s+t+u+v+w+x+y+z+A+B+C+D+E+F+G+H+I+                                                ",
"                                                    J+K+L+M+N+O+P+Q+R+S+T+U+V+W+X+Y+Z+`+ @.@+@@@#@$@%@&@*@                                                    ",
"                                                          =@-@;@>@,@'@)@!@~@{@]@^@/@(@_@:@<@[@}@|@1@2@3@4@                                                    ",
"                                                          5@6@7@8@9@0@a@b@c@d@e@f@g@h@i@j@k@l@m@n@o@p@q@                                                      ",
"                                                            r@s@t@u@v@w@x@y@z@A@B@C@D@E@F@G@H@I@J@K@L@M@                                                      ",
"                                                            N@O@P@Q@R@S@T@U@V@W@X@Y@Z@`@ #.#+#@###$#%#                                                        ",
"                                                              &#*#=#-#;#>#,#'#)#!#~#{#]#^#/#(#_#:#k+<#                                                        ",
"                                                              [#}#|#1#2#3#4#5#6#7#8#9#0#a#b#c#d#e#f#g#h#                                                      ",
"                                                            O.i#[#j#k#l#m#n#o#p#q#r#s#t#u#v#w#x#y#z#A#B#C#                                                    ",
"                                                      D#E#F#G#H#I#J#a#K#L#M#N#O#P#Q#R#S#T#U#V#W#X#Y#Z#`# $.$+$                                                ",
"                                                  @$#$$$%$&$*$=$-$F+;$>$,$'$)$!$~${$]$^$/$($o#_$:$<$[$}$|$1$2$3$4$                                            ",
"                                              5$6$7$8$9$0$a$b$c$d$e$f$g$h$i$j$k$l$m$n$o$p$q$r$s$t$u$v$w$x$y$z$A$B$C$D$E$                                      ",
"                                          F$G$H$I$J$K$L$M$N$O$P$C {+Q$R$S$T$U$V$W$X$Y$Z$`$ %.%+%N@@%#%$%%%&%*%=%-%;%>%,%'%)%!%                                ",
"                                      ~%{%]%^%/%(%_%:%<%[%}%|%1%=$2%3%4%<$5%6%7%8%9%0%a%b%c%d%e%f%g%h%i%j%k%l%m%n%o%p%q%r%s%t%u%v%                            ",
"                                  w%x%y%z%A%B%C%D%E%F%G%H%I%J%K%L%M%N%O%V.P%Q%R%S%T%U%V%W%X%Y%Z%`% &.&+&@&#&$&%&&&*&=&-&;&>&,&'&)&!&                          ",
"                                ~&{&]&^&/&(&_&:&<&[&}&|&1&2&3&4&< :$5&6&7&8&5%9&0&0&9&a&b&c&d&e&f&g&h&i&F#j&k&l&m&n&o&p&q&r&s&t&u&v&w&                        ",
"                                x&y&!&^&z&A&B&C&D&E&F&G&H&(&I&J&K&L&M&N&O&P&Q&R&S&T&U&V&W&X&Y&Z&Y#`& *.*+*@*#*$*%*&***=*-*;*>*,*'*)*!*~*                      ",
"                              {*]*^*/*(*_*:*_&<*[*}*|*1*2*3*4*5*6*3%7*8*9*0*a*b*c*d*e*f*g*h*i*j*k*l*m*n*o*p*q*r*s*t*u*v*w*>&x***y*q&z*A*                      ",
"                              B*C*^*D*E*F*G*H*I*J*K*L*M*N*O*P*Q*R*S*T*U*V*W*X*Y*Z*`* =.=+=@=#=$=%=&=*===-=;=>=,='=)=!=~={=]=^=/=(=_=:=<=[=                    ",
"                              }=|=1=2=3=4=5=6=7=y%8=9=0=a=b=c=c=d=e=f=g=h=i=j=k=l=m=n=o=p=q=r=s=t=u=v=w=x=y=z=A=B=C=D=E=F=G=H=I=J=K=L=M=N=                    ",
"                            O=P=C*Q=R=S=T=U=V=W=X=Y=Z=`= -.-+-@-#-$-%-&-*-=---;->-,-'-)-!-~-{-]-^-/-(-_-:-<-[-}-|-1-2-3-4-5-6-7-8-9-0-a-b-                    ",
"          c-                d-e-f-g-h-i-j-k-l-m-n-o-p-q-r-s-,&t-u-v-w-9&x-y-z-A-B-C-D-E-F-G-a&H-I-J-K-L-M-N-O-P-Q-%%R-S-T-U-V-W-X-Y-Z-`- ;.;                  ",
"          +;                Y=@;#;$;%;&;*;=;-;;;>;,;';);!;~;4*{;];^;/;(;_;:;<;[;};|;1;2;3;a&4;5;6;7;8;9;0;a;b;c;d;e;f;g;h;i;j;k;l;m;n;o;p;q;                  ",
"          r;s;            t;u;v;w;x;y;z;A;B;C;D;E;F;G;H;I;J;K;L;l-M;N;O;a&P;Q;R;S;T;U;V;W;X;Y;Z;`; >.>+>@>#>$>%>&>*>=>->;>>>,>'>)>!>~>{>]>^>                  ",
"          />(>_>          :><>[>}>|>1>2>3>4>5>6>7>8>9>0>a>b>c>d>e>f>g>h>i>j>k>l>m>n>o>p>q>r>s>t>u>v>w>x>y>z>A>B>C>D>E>F>G>H>I>J>K>L>M>N>O>P>                  ",
"          Q>R>S>T>      U>V>W>X>Y>Z>`> ,.,+,@,#,$,%,&,*,=,-,;,>,,,',),!,~,{,],^,/,(,_,:,<,[,},|,1,2,3,4,5,6,7,8,9,0,a,b,'>c,n&d,e,f,L;g,h,i,                  ",
"          j,k,l,m,n,    d-o,p,q,r,s,t,u,v,w,x,`&y,z,A,B,C,D,E,F,G,H,I,J,K,L,k>M,N,O,P,Q,R,S,T,U,V,W,X,Y,Z,`, '.'+'@'#'$'%'&'*'='-';'>',''')'                  ",
"          !'~'{']'^'  /'('_':'[>@;<'['}'|'1'2'3'd,4'5'6'7'8'9'0'a'b'c'd'e'f'g'h'P;i'j'k'l'm'n'o'p'q'r's't'u'v'w'x'y'z'A'B'C'D'E'F'G'H'I'J'K'L'                ",
"            M'N'O'P'Q'R'S'T'U'V'W'X'Y'Z'`' ).)+)@)#)$)%)&)*)=)-);)>),)')))!)~){)])^)1%/)()_):)<)[)})|)1)2)3)4)5)6)7)8)9)0)a)b)c)d)q&e)f)g)h)i)                ",
"            j)k)l)m)n)o)f'p)q)]*r)s)t)u)v)w)x)y)z)A)B)C)D)E)F)G)H)I)J)K)L)M)N)2@O)9&P)Q)R)S)T)U)V)W)X)Y)Z)`) !.!+!@!#!$!%!&!*!=!-!;!>!,!'!)!!!~!              ",
"            {!]!^!/!(!_!:!<![!}!|!1!2!u)3!4!5!6!7!8!9!0!a!b!c!d!e!f!g!h!i!j!k!l!m!k*n!o!p!q!r!s!t!u!v!w!x!y!z!A!B!C!D!E!F!G!H!I!J!K!L!M!u&N!O!P!              ",
"            Q!R!S!T!U!V!W!X!Y!Z!`! ~.~+~@~#~$~%~&~*~=~-~;~>~,~'~)~!~~~{~]~^~/~(~_~:~<~[~}~|~1~2~3~4~5~6~7~8~9~0~a~b~c~d~e~f~H!g~h~i~j~k~l~m~n~o~              ",
"            p~q~r~s~t~u~v~w~x~y~z~A~B~C~D~E~F~G~H~I~J~K~L~M~N~O~P~Q~R~S~T~U~V~<&W~X~Y~Z~`~ {.{+{@{#{${%{&{*{={-{;{>{,{'{){!{~{{{]{J!^{/{({_{:{<{[{            ",
"          }{|{1{2{3{4{5{6{7{8{9{0{a{b{c{d{4!&@e{D#f{g{h{i{M~j{k{l{m{n{o{p{q{r{s{t{u{v{w{x{y{z{A{B{C{D{E{F{G{H{I{J{K{L{M{N{O{P{Q{R{S{T{U{V{W{X{Y{Z{            ",
"          `{ ].]+]@]#]$]%]&]*]=]-];]>],]'])]R$!]~]{]]]^] ]/](]_]:]<][]}]|]1]2]3]4]5]6]7]8]9]0]a]b]c]d]e]f]g]h]i]j]k]l]e~m]n]o]p]q]r]k;!)s]t]u]v]w]x]          ",
"        y]z]A]B]C]D]E]F]G]H]I]J]K]L]M]N]O]R$&@P]Q]R]S]T]U]V]W]X]Y]Z]`] ^.^+^@^#^$^%^&^*^=^-^;^>^,^'^)^!^~^{^]^^^/^(^_^:^<^[^}^|^1^2^3^4^5^6^7^8^9^0^          ",
"        a^b^c^d^e^f^g^h^i^j^k^l^m^n^o^;]p^q^r^s^t^u^v^w^x^y^z^A^B^C^D^E^F^G^H^I^J^K^L^M^N^O^P^Q^R^S^T^U^V^W^X^Y^Z^`^ /./+/@/#/$/%/&/*/=/-/;/>/,/'/)/!/        ",
"        ~/{/]/^///(/_/:/</[/}/|/1/p@2/3/Q]4/R$:^5/6/7/8/9/0/a/b/c/d/e/f/g/h/i/j/k/l/m/n/o/p/q/r/s/t/u/v/w/x/y/z/A/B/C/E~D/E/F/G/H/I/J/K/L/M/N/O/P/Q/R/        ",
"        S/T/U/V/W/X/Y/Z/`/ (.(+(@(#($(%(C/&(*(=(-(;(>(,('()(!(~({(](^(/(((_(:(<([(}(|(1(2(3(4(5(6(7(8(9(0(a(b(c(d(e(f(f%g(h(i(j(k(l(m(n(o(p(q(r(s(l%t(        ",
"        u(v(w(x(y(z(A(B(C(D(# E(F(j'g%G(H(I(g(J(%(K(L(M(N(O(P(Q(R(S(T(U(V(W(X(Y(Z(`( _._+_@_#_$_%_&_*_=_-_;_>_,_'_)_!_~_  {_]_^_/_(___:_<_[_}_|_k-1_2_3_      ",
"        4_5_6_7_8_9_0_a_b_c_d_e_u$f_g_h_i_D/q^j_k_l_m_n_o_p_q_r_s_t_u_v_w_x_y_z_A_B_C_D_E_F_G_H_I_J_K_L_M_N_O_P_Q_!/R_S_    T_U_V_W_X_Y_Z_`_ :.:+:@:#:h#      ",
"          $:%:&:*:=:-:;:>:,:':):2%!:~:{:a&  ]:^:/:(:_:::<:[:}:|:1:2:3:4:5:6:7:8:9:0:k-a:b:c:d:e:f:g:h:i:j:k:l:m:n:o:p:q:r:  `%s:t:u:v:w:x:y:z:A:B:C:D:E:f$    ",
"              F:G:H:I:J:K:L:M:N:O:P:Q:R:    S:T:U:V:O_W:X:Y:Z:`: <.<+<@<#<$<@:%<&<*<4*=<-'-<;<><,<'<)<!<~<{<]<^</<(<_<(::<  <<[<}<|<1<2<3<4<5<6<7<8<z#9<R:    ",
"                  0<a<b<c<d<e<f<s.g<h<      ]:i<j<k<&*l<m<n<o<p<q<r<s<t<u<v<w<x<s%y<z<A<B<C<D<E<F<G<H<I<J<K<L<M<N<$!O<P<Q<    `%R<S<$@T<U<V<W<X<Y<Z<`< [      ",
"                  t#.[+[@[#[$[%[&[        f_*[=[-[;[>[,['[)[![~[{[][^[/[([_[:[<[[[G*}[|[1[r(m-2[3[4[5[6[7[8[9[0[a[b[c[d[e[      f[g[h[i[j[k[l[m[n[o[p[        ",
"                    q[U.r[s[f$t[          u[T_v[v[w[x[y[z[A[B[C[D[E[F[E[G[H[I[J[K[L[m~M[B&N[O[u<P[Q[R[S[,_T[U[V[W[X[Y[Z[`[         }.}+}@}#}$}%}&}*}=}        ",
"                      -};}>}              ,}'})}!}~}{}]}^}/}(}_}:}<}[}}}|}1}2}3}4}5}6}7}8}9}0}a}b}c}d}e}f}g}h}i}j}k}F/l}4/        m}n}o}p}q}r}s}t}u}          ",
"                                          v}S_w}i(x}y}z}A}B}C}D}E}F}G}H}I}J}K}P!L}M}N}O}P}L=Q}R}S}T}U}V}W}X}Y}Z}`}6$ |.|+|@|      #|$|%|&|*|=|-|;|>|          ",
"                                        ,|'|)|/:!|~|{|]|^|/|(|_|:|<|[|}|||1|2|3|4|5|6|8}7|9}0-8|9|0|a|b|c|d|e|f|g|h|i|j|k|l|      m|n|o|p|q|r|s|t|u|v|        ",
"                                        w|x|y|=(z|A|B|C|D|E|F|G|H|I|J|K|L|M|N|O|P|Q|R|S|T|U|0-8-V|W|X|Y|Z|`| 19$.1+1@1#1$1s:      %1&1*1=1-1;1>1,1'1)1        ",
"                                        !1~1{1]1^1/1(1_1:1<1[1}1|111213141516171819101a1b1c1d1e1f1g1h1i1j1k1l1m1n1o1p1q1r1f(      s1t1u1v1w1x1y1z1A1B1        ",
"                                        C1D1E1I$F1G1H1I1J1K1L1M1N1O1P1Q1R1S1T1U1V1W1X1Y1Z1`1 2.2+2@2#2U]$2%2&2*2=2-2;2>2,2'2      )29_!2~2{2]2^2/2(2_2        ",
"                                        :2<2[2}2|212223242526272829202a2b2c2d2e2f2g2h2i2j2k2l2m2n2o2p2q2r2s2t2u2v2w2x2y2z2A2      B2C2D2E2F2G2H2I2J2K2        ",
"                                        !{k|L2M2N2j!O2P2Q2R2S2L$T2U2V2W2c~X2Y2Z2`2 3.301+3@3#3$3%3&3*3=3-3;3>3,3'3)3V}!3~3{3]3  ^3/3(3_3:3<3[3}3|31323        ",
"                                      334353{36373839303a3b3c3d3e3f3g3V{y&h3i3j3k3l3m3n3K;o3p3q3r3s3t3Q(u3v3w3x3y3z3A3t(B3C3D3  E3F3G3H3I3J3K3L3M3N3O3        ",
"                                      ~_P3Q3R3S3T3U3V3W3X3Y3Z3`3 4.4+4@4#4$4%4&4*4a&=4-4=;o3;4>4,4'4)4!4~4{4]4^4/4(4_4:4<4[4}4|414243444546474849404[]        ",
"                                      a4b4g#c4d4/_e4f4g4h4i4j4k4l4m4);n4o4p4q4V1r4a&s4t4u4v4w4x4y4z4A4B4C4D4E4F4G4H4I4J4K4L4M4N4O4P4Q4  R4c/S4T4U4V4W4        ",
"                                      v}X4Y4Z4`4 5.5+5@5#5$5%5&5*5=5-5y%;5>5,5'5)5a&*(!5>!~5{5]5^5/5(5_5:5<5[5}5|51525354555L@657585      9505a5b5c5d5e5      ",
"                                      f5a)p^!/H{g5h5i5j5k5l5m5n5o5p5q5r5K;s5t5H&u5<$a&v5w5x5y5z5A5B5C5D5E5F5G5H5I5J5K5L5M5N5O5P5Q5E(      R5S5T5U5V5W5        ",
"                                      *(X55/Y5Z5`5 6.6+6@6#6$6%6&6*6W==6-6;6>6,6'6<$a&)6o%!6~6l2{6]6^6/6(6_6:6<6[6}6|61626364656        6676869606a6b6        ",
"                                      c6d6e6f6g6h6i6j6k6l6m6n6o6p6q6r6s6t6u6v6w6a&a&a&x6y6^;z6A6B6C6D6E6F6G6H6I6J6K6L6M6N6O6P6          Q6R6S6T6U6V6          ",
"                                      W6X6$1Y6Z6`6 7.7+7@7#7$7%7&7*7=7*<j4/&-7;7a&a&a&>7,7 2'7)7!7~7{7]7^7/7(7_7:7<7[7}7|717@%        273747576777            ",
"                                    8797#107a7b7c7d7e7f7g7h7i7j7k7l7m7V=n7c=o7p7a&a&a&a&q7r7s7t7u7,4v7w7x7@'y7]6z7A7B7C7D7E7F7          G7H7I7                ",
"                                    J7K7L7M7N7L/O7P7Q7R7S7T7U7V7W7X7Y7Z7`7 8.8+8@8a&a&a&#8$8%8&8*8=8-8;8>8,8'8)8!8~8{8]8^8/8(8_8                              ",
"                                    :897<8[8}815|8{818283848586878889808a8b8c8d8I(a&a&a&a&e8f8g8h8i8j8k8l8m8n8o8p8q8r8s8t8Z}u8v8                              ",
"                                    w8x8y8z8A8B8C8D8E8F8G8H8I8J8K8L8M8-<N8O8P8Q8+/a&a&a&a&87&8R8S8T8U8V8W8X8Y8Z8C6`8 9.9+9@9#9$9                              ",
"                                    %9&9*9=9-9;9>9N6,9-<'9)9!9~9{9]9^9*</9[4(9T:_9a&a&a&a&a&:9<9[9}9|919293949596979899909a9b9c9                              ",
"                                    d9e9L<c4f9g9>9h9i9j9k9l9m9n9o9p9q9r9D's9t9x|u9a&a&a&a&a&v9w9C!x9y9e;z9A9B9C9D9E9F9G9H9I9J9K9L9                            ",
"                                  M9N9O9*9P9Q9R9Q9S9T9U9V9W9X9Y9Z9`9 0.0+0@0@0#0$0<$a&a&a&a&%0&0*0=0-0;0>0,0'0)0!0~0{0]0^0/0(0_0:0                            ",
"                                  <0[0}0|0U[Y5102030405060a&70809000a0b0j_c0d0e0!1+/<$<$a&a&f0g0h0i0j0k0l0m0n0o0p0q0r0s0t0u0v0w0=9                            ",
"                                  x0y0z0=9A0B0s:C0D0E0F0G0H0I0G}J0K0L0M0N0O0P0Q0R0R$<$a&a&a&&@S0T0U0V0-0W0X0Y0Z0`0 a.a+a@a#a$a%a&a                            ",
"                                  *aq:y8=a-av8;a>a,a'a)a!a~a{a]a^a/a(a_a:a<a[a}aP]4!@8u$a&a&u$p)|a1a([2a3a4a5a6a7a8a9a0aaabacadaeav0                          ",
"                                  :^!|fagahag(iaW6+/u9*ajakalamanaoapaa'qarasata^:ua_9<$a&a&_9vawaxayazaAaBaCaDaEaFaGaHaIaJaKaLaMaNa                          ",
"                                  k_W6OaPaQaRad_D/<$uaSaTaUaVaWaXaYaZa`a b.b+b@b<#_9#b$ba&_9S:%bU3C[&b*bK&=b-b;b>b,b'b)b!b~b{b]b^b/b                          ",
"                                q^j_(b]:_bi<`[:ba&u$H0<b[b}b|b1b2b3b4b5b6b7b8bg_9b&@  _9a&_9S:a&0b{<{,abbbcbdbebfbgbhbibjbkblbmbnbobpb                        ",
"                                qbrb    sbf%u[@8a&_9*(Qa4;L<tbubvbwbxbybzbAbBbCbDbEb  u$a&a&<$Fb[ GbP:HbU:IbJbKbLbMbNbObPbQbRbSb    Tb                        ",
"                                        f%    _9_94/UbVbWbXbYbZb`b c.c+c@c#c$c%cu[      5%a&a&R$&c*c=c-c;c>c,c'c)c!c~c{c]c^c/c(c                              ",
"                                        _c    <$&@!1:c,}<cHb[c}c|c1c2c3c4c5c6c7c8c      #ba&a&r^9c0cc0f(acbcccdcecfcgcC e$hc_cic                              ",
"                                              <$&@w|!1N9=cjckclcmcncocpcqcrcsc):tc      #ba&a&&@&cgaq:N0ucvcwcxcycF zcAcBc                                    ",
"                                              u$&(Ccu9q^Pa<bDcEcFcGcHcIcJcKcLcMcNc      I(a&a&+/OcPcQcc0v9%bRcScTcPaUc9b4/                                    ",
"                                              &@i<Pcc6w|Vcj<WcXcYcZc`c d.d+d@d#d$d      _9a&<$+/&(>a:8fa%dd_&9rb9b&d*d&(f%                                    ",
"                                              R$=d-dx|;d>dv9,d'd)d!d#c~d)+abO:{d]d      _9<$&@N{^dCc/d(d_d:d<dPcVbCcTcE~f%                                    ",
"                                              I(e[Ub:2X5F71%[d}d|d1d2d3d4d!:Ec5d6d      _9<$_9+/+/q^7d8d9d9d0d=dadw|Oc(c                                      ",
"                                                &@bdw)v[U:w8cdddedfdgd7chdhdidjdkd      <$a&_9@8ldE~Z[9bQ<~+mdndodOcpdf%                                      ",
"                                                _9@8qdrd%dsdtdacudvdwdhdxdydzdAdBd      Cda&D/E~=dDd*a_b9bEdFdi<Gde[@8                                        ",
"                                                  #bI(CcHdIdJd4df(KdLd9dMd@[NdOdPdQd  _95%a&<$RdUbd6Rc~a<b9bQ<Sdqbh<_9                                        ",
"                                                  I(+/Td4dUdVdWdXdYdZd`dtd e.e+e@eS:  _9a&a&+/!1*a#e#03387H#$e<<%eh<                                          ",
"                                                  h<_9&e*e=eyd-e9d;e>e>e,e^c'ecd)e(c  #ba&<$u9Vb33i<!e!1~e*@@8h<#b                                            ",
"                                                  @8u9M9{e]e^e/e(e_e:e<e[e}e^e|e1e2eI(a&a&I(3eOcRdndDb4e5e6e7e8e                                              ",
"                                                  <$D/q^9e~:s.0eaebecedeeefeZd{,6dger^_9<$I(*(UbndRdhe2/ie]:je                                                ",
"                                                  _9h<mdke`%N@lemeM%neMdoeWcpeqere&c8c_9a&+/R$R$R$E~se*b8c_9_9                                                ",
"                                                  te_9ke8cueN@e$hcvewexeyezezeZdAeBe7e_9a&E++/%eCe4/Q.Deh<_9                                                  ",
"                                                  I(_9`[EeFeGeHeIeJeKeLeMe'dfeLdNeOer^a&a&a&#b$#Q,(cI(r^#b5%                                                  ",
"                                                    I(PeQeReSeTeUe~dVeWeXe>eYeZe`e9eu9#bCda&u$(c6e`  fE~Ce#b                                                  ",
"                                                    r^]:>}.f+f@f#f$f%f&f*f=f^e-f;f>f    #b#b#bkeGdTd$esbJ#,f_9                                                ",
"                                                    S:$e'f)f!f~f{f]f^f/f(f_f:f<f[f}f    #b#bP%%e-$|f1f2f3f4f5fke                                              ",
"                                                    _cCe6f7f8f9f0fafbfcfdfefffgfhfp.    #ba&#bF(ifjfkflfmfnfofpf                                              ",
"                                                    CeqfrfsftfufvfwfxfyfzfAfBfLcCfu9Ce  Df9&Ef2@FfGfHfIfO#JfKfLf                                              ",
"                                                    %e%#MfNfOfPfQfRfSfTfUfl!VfLcscWfXf  R:9&YfZf`f g.g+g@g#g$gR:a&                                            ",
"                                                  S:D/%g`%{+&g*gg =gbe-g<bk*;g>g,g'g%e  )gR:!g~g{g]g^g/g(g_g^)u$                                              ",
"                                                    h<S:Xf:g<g[g}g|g1g2g3g4g#8r^5gI(_c    P%0&0&6g7gR#8g9g0gag_9                                              ",
"                                                    h<@8XfF+hcbgcgddwddgegfggg{+5g#bh<      #bhgDfigig0&#b5%#b                                                ",
"                                                      %eke$ek+jgkglgmgngog< {+` %e5%                                                                          ",
"                                                      t[R:pgqgrgsgtgugvgwgxgygzgAg)g                                                                          ",
"                                                    f$f_BgCgDgEgFgGgHgIgJgKgLgMgf$Ng                                                                          ",
"                                                    E(OgPgQgRgSgTgUgVgWgXgYgZg`g h.h                                                                          ",
"                                                    R:+h@h#h$h%h&h*h=h-h;h>h,h'hg'5%                                                                          ",
"                                                  #b.h)h!h~h{h]h^h/h(h_h:h<h[h}h0&Q%                                                                          ",
"                                                  _9_9h<|h h1h }% 2h3h<+4h5h6hF(#b                                                                            ",
"                                                    I(u9)g@8@8I(@8)g)g)gP%#b#b@8                                                                              ",
"                                                                                                                                                              ",
"                                                                                                                                                              ",
"                                                                                                                                                              ",
"                                                                                                                                                              "};
