/* XPM */
static char * ene_4_xpm[] = {
"79 130 4168 2",
"  	c None",
". 	c #120907",
"+ 	c #281C18",
"@ 	c #100706",
"# 	c #0F0605",
"$ 	c #0D0505",
"% 	c #140908",
"& 	c #130A09",
"* 	c #120B09",
"= 	c #170C08",
"- 	c #4F2C22",
"; 	c #422219",
"> 	c #4C251B",
", 	c #603326",
"' 	c #553025",
") 	c #573127",
"! 	c #331C16",
"~ 	c #391F1A",
"{ 	c #371D18",
"] 	c #2E1914",
"^ 	c #351E18",
"/ 	c #190D0B",
"( 	c #231410",
"_ 	c #1B1210",
": 	c #180D0B",
"< 	c #552C20",
"[ 	c #763F2C",
"} 	c #6F3728",
"| 	c #804130",
"1 	c #7B4133",
"2 	c #7D4739",
"3 	c #714637",
"4 	c #704839",
"5 	c #754939",
"6 	c #4A2A20",
"7 	c #2D1814",
"8 	c #180C0B",
"9 	c #0F0705",
"0 	c #0F0808",
"a 	c #150D0B",
"b 	c #1B110F",
"c 	c #1A110E",
"d 	c #301711",
"e 	c #703626",
"f 	c #86422E",
"g 	c #8B4530",
"h 	c #944B37",
"i 	c #9F5946",
"j 	c #A05E47",
"k 	c #A5654E",
"l 	c #9F6753",
"m 	c #936553",
"n 	c #805645",
"o 	c #7D5140",
"p 	c #5A3B2D",
"q 	c #271511",
"r 	c #2F1E1A",
"s 	c #2A1C18",
"t 	c #0F0908",
"u 	c #120D0A",
"v 	c #1A1410",
"w 	c #2C211C",
"x 	c #251B17",
"y 	c #3C2F2A",
"z 	c #332824",
"A 	c #1C1412",
"B 	c #2D1F1C",
"C 	c #1D100E",
"D 	c #2F110C",
"E 	c #5D271A",
"F 	c #91452F",
"G 	c #B35D42",
"H 	c #B36A53",
"I 	c #BF7760",
"J 	c #BC7E63",
"K 	c #C88B72",
"L 	c #CE9379",
"M 	c #BE8C76",
"N 	c #C5967F",
"O 	c #AE8167",
"P 	c #7C5440",
"Q 	c #4B2A22",
"R 	c #3E2721",
"S 	c #35241E",
"T 	c #2B1E1A",
"U 	c #1C1413",
"V 	c #130D0C",
"W 	c #291F18",
"X 	c #2E241D",
"Y 	c #281E19",
"Z 	c #2B201D",
"` 	c #362A26",
" .	c #322724",
"..	c #2F221F",
"+.	c #2A1814",
"@.	c #311611",
"#.	c #4B190F",
"$.	c #6F2817",
"%.	c #944B34",
"&.	c #B66549",
"*.	c #C98C78",
"=.	c #CD846B",
"-.	c #D19C81",
";.	c #E0BDA7",
">.	c #DBB29E",
",.	c #DDAC90",
"'.	c #D7AA90",
").	c #BE9074",
"!.	c #905F46",
"~.	c #562C1F",
"{.	c #331B16",
"].	c #281915",
"^.	c #291E1A",
"/.	c #362822",
"(.	c #2F221C",
"_.	c #221915",
":.	c #17110E",
"<.	c #191311",
"[.	c #352925",
"}.	c #4E3C33",
"|.	c #3B2D27",
"1.	c #4A322B",
"2.	c #472820",
"3.	c #3F1810",
"4.	c #4F180E",
"5.	c #742C1B",
"6.	c #A05239",
"7.	c #B8674B",
"8.	c #CC9079",
"9.	c #CB9E86",
"0.	c #DAAE95",
"a.	c #E2BCAA",
"b.	c #E2BAA8",
"c.	c #D59E88",
"d.	c #CA8669",
"e.	c #BD8369",
"f.	c #91553E",
"g.	c #6B3424",
"h.	c #371A15",
"i.	c #332520",
"j.	c #42322C",
"k.	c #46362F",
"l.	c #372922",
"m.	c #382A24",
"n.	c #31241F",
"o.	c #120E0C",
"p.	c #211A18",
"q.	c #463832",
"r.	c #53423A",
"s.	c #3B2C26",
"t.	c #39231D",
"u.	c #4D271E",
"v.	c #481B11",
"w.	c #682214",
"x.	c #84301C",
"y.	c #92432C",
"z.	c #B4694F",
"A.	c #D39C83",
"B.	c #DEC4B1",
"C.	c #D1B8A8",
"D.	c #D5A68F",
"E.	c #DA9F84",
"F.	c #CC896A",
"G.	c #CD8C68",
"H.	c #AC6F55",
"I.	c #8A4933",
"J.	c #733523",
"K.	c #522920",
"L.	c #583F35",
"M.	c #513B33",
"N.	c #45352E",
"O.	c #30241F",
"P.	c #261D18",
"Q.	c #1F1714",
"R.	c #181210",
"S.	c #191313",
"T.	c #231B19",
"U.	c #3E312B",
"V.	c #40322C",
"W.	c #42231B",
"X.	c #4C1F15",
"Y.	c #40150E",
"Z.	c #551A0E",
"`.	c #802F1A",
" +	c #94452B",
".+	c #A75B3E",
"++	c #BA785A",
"@+	c #C3957C",
"#+	c #CBAD93",
"$+	c #D5A98B",
"%+	c #CC9373",
"&+	c #AA6F4E",
"*+	c #976B4C",
"=+	c #603726",
"-+	c #3E1F14",
";+	c #58271B",
">+	c #441E16",
",+	c #513A31",
"'+	c #514039",
")+	c #40352F",
"!+	c #362B26",
"~+	c #42352E",
"{+	c #2D231F",
"]+	c #241D1A",
"^+	c #14100F",
"/+	c #191312",
"(+	c #291C18",
"_+	c #492218",
":+	c #3D150D",
"<+	c #270E0A",
"[+	c #392E31",
"}+	c #606265",
"|+	c #787775",
"1+	c #6B5D59",
"2+	c #895D51",
"3+	c #A8664C",
"4+	c #B5886B",
"5+	c #AD7359",
"6+	c #865039",
"7+	c #82452E",
"8+	c #60473A",
"9+	c #3E1F18",
"0+	c #3D1D15",
"a+	c #3F1911",
"b+	c #29120E",
"c+	c #37241F",
"d+	c #41342F",
"e+	c #4C3B34",
"f+	c #332621",
"g+	c #2A201B",
"h+	c #140F0E",
"i+	c #151110",
"j+	c #130F0E",
"k+	c #0D0807",
"l+	c #070303",
"m+	c #160706",
"n+	c #110505",
"o+	c #30393F",
"p+	c #586B75",
"q+	c #79919B",
"r+	c #8FA6AC",
"s+	c #7B8F96",
"t+	c #7E8991",
"u+	c #604640",
"v+	c #88563B",
"w+	c #603522",
"x+	c #6C3B26",
"y+	c #8F4B34",
"z+	c #844136",
"A+	c #994C3D",
"B+	c #925B49",
"C+	c #473631",
"D+	c #261B19",
"E+	c #170B0A",
"F+	c #110808",
"G+	c #201714",
"H+	c #42332C",
"I+	c #4D3C34",
"J+	c #18110F",
"K+	c #110A08",
"L+	c #160E0C",
"M+	c #33221E",
"N+	c #221410",
"O+	c #020001",
"P+	c #313232",
"Q+	c #626C75",
"R+	c #63727A",
"S+	c #677579",
"T+	c #6F7D80",
"U+	c #738384",
"V+	c #7C8E8F",
"W+	c #525D60",
"X+	c #302119",
"Y+	c #392620",
"Z+	c #745344",
"`+	c #79382B",
" @	c #6B1E19",
".@	c #51211E",
"+@	c #693932",
"@@	c #725A53",
"#@	c #634D45",
"$@	c #1E110F",
"%@	c #0D0707",
"&@	c #0A0707",
"*@	c #231C19",
"=@	c #392F2A",
"-@	c #130E0D",
";@	c #382724",
">@	c #201513",
",@	c #0E0707",
"'@	c #332724",
")@	c #56514F",
"!@	c #737A7D",
"~@	c #717C83",
"{@	c #616F6C",
"]@	c #657371",
"^@	c #828E87",
"/@	c #676D69",
"(@	c #493F35",
"_@	c #5B5047",
":@	c #7E695D",
"<@	c #6E2922",
"[@	c #871E1B",
"}@	c #380A0C",
"|@	c #5E1819",
"1@	c #63312B",
"2@	c #874A39",
"3@	c #4B2E24",
"4@	c #281713",
"5@	c #0A0605",
"6@	c #100C0A",
"7@	c #060404",
"8@	c #110B0A",
"9@	c #3D231B",
"0@	c #301913",
"a@	c #47281B",
"b@	c #504134",
"c@	c #6A6A5F",
"d@	c #606863",
"e@	c #515E54",
"f@	c #616B58",
"g@	c #676E59",
"h@	c #36372E",
"i@	c #514332",
"j@	c #6D5F4C",
"k@	c #8F7F6A",
"l@	c #753229",
"m@	c #7F312A",
"n@	c #58352B",
"o@	c #621A18",
"p@	c #60251B",
"q@	c #8D422D",
"r@	c #472B22",
"s@	c #1B110E",
"t@	c #19110F",
"u@	c #130907",
"v@	c #592E20",
"w@	c #56281A",
"x@	c #7D391F",
"y@	c #442516",
"z@	c #5C4D37",
"A@	c #665F49",
"B@	c #5A5D47",
"C@	c #4C5641",
"D@	c #4A4C35",
"E@	c #2F2415",
"F@	c #5F472B",
"G@	c #A28451",
"H@	c #6C563D",
"I@	c #4F2820",
"J@	c #6E4235",
"K@	c #94624E",
"L@	c #71382A",
"M@	c #56281D",
"N@	c #201411",
"O@	c #171212",
"P@	c #2D2320",
"Q@	c #0A0706",
"R@	c #2A120C",
"S@	c #471F15",
"T@	c #8A3C21",
"U@	c #5E2A15",
"V@	c #30261B",
"W@	c #322D21",
"X@	c #2D2B1F",
"Y@	c #442919",
"Z@	c #473019",
"`@	c #5A3D1F",
" #	c #8B6433",
".#	c #9F783C",
"+#	c #896032",
"@#	c #4E301F",
"##	c #2F170F",
"$#	c #522419",
"%#	c #58281B",
"&#	c #502C21",
"*#	c #2A1B17",
"=#	c #191210",
"-#	c #140F0D",
";#	c #060505",
">#	c #200B09",
",#	c #712B1A",
"'#	c #5E2614",
")#	c #3D0F09",
"!#	c #42160C",
"~#	c #3F170C",
"{#	c #893C20",
"]#	c #734322",
"^#	c #8A5229",
"/#	c #A56634",
"(#	c #A77333",
"_#	c #875F2E",
":#	c #653B1E",
"<#	c #583822",
"[#	c #6B3F24",
"}#	c #67321D",
"|#	c #613121",
"1#	c #261712",
"2#	c #040304",
"3#	c #080405",
"4#	c #5C1E11",
"5#	c #6D2716",
"6#	c #611E10",
"7#	c #5B1D10",
"8#	c #41140B",
"9#	c #672411",
"0#	c #5D3918",
"a#	c #80461F",
"b#	c #723013",
"c#	c #58280D",
"d#	c #532A15",
"e#	c #673821",
"f#	c #7F573A",
"g#	c #77492F",
"h#	c #492419",
"i#	c #3B2017",
"j#	c #442A21",
"k#	c #100C0B",
"l#	c #332D29",
"m#	c #25201E",
"n#	c #060405",
"o#	c #010204",
"p#	c #331009",
"q#	c #652616",
"r#	c #6A2312",
"s#	c #320A05",
"t#	c #100201",
"u#	c #31170E",
"v#	c #2A140C",
"w#	c #3B150E",
"x#	c #190604",
"y#	c #0B0304",
"z#	c #2A130E",
"A#	c #4C3121",
"B#	c #623A29",
"C#	c #3F231B",
"D#	c #6B412E",
"E#	c #583628",
"F#	c #1B0F0C",
"G#	c #0B0708",
"H#	c #2E2723",
"I#	c #62564E",
"J#	c #726459",
"K#	c #61574F",
"L#	c #39322E",
"M#	c #030203",
"N#	c #070506",
"O#	c #020203",
"P#	c #471A0E",
"Q#	c #6A2816",
"R#	c #3D1107",
"S#	c #160302",
"T#	c #3A160D",
"U#	c #35150C",
"V#	c #511C12",
"W#	c #280C06",
"X#	c #21110B",
"Y#	c #271610",
"Z#	c #462619",
"`#	c #834933",
" $	c #3C1D14",
".$	c #471A0F",
"+$	c #703320",
"@$	c #411E14",
"#$	c #110A09",
"$$	c #4E443D",
"%$	c #695D55",
"&$	c #4B413B",
"*$	c #5F544D",
"=$	c #7C6E64",
"-$	c #837468",
";$	c #6B5D54",
">$	c #786C63",
",$	c #302926",
"'$	c #020202",
")$	c #0F0B0C",
"!$	c #0E0A0C",
"~$	c #1F0804",
"{$	c #6D2A17",
"]$	c #692110",
"^$	c #230401",
"/$	c #551B0C",
"($	c #4F1C0D",
"_$	c #6C311E",
":$	c #441C12",
"<$	c #593221",
"[$	c #593324",
"}$	c #44251E",
"|$	c #592D20",
"1$	c #4E2014",
"2$	c #78351C",
"3$	c #833620",
"4$	c #332823",
"5$	c #534840",
"6$	c #9E9082",
"7$	c #938377",
"8$	c #564942",
"9$	c #544C46",
"0$	c #534740",
"a$	c #3F312C",
"b$	c #51423B",
"c$	c #7D6F64",
"d$	c #A7998C",
"e$	c #A29385",
"f$	c #78685E",
"g$	c #6B5F57",
"h$	c #2A2320",
"i$	c #191211",
"j$	c #150F0F",
"k$	c #040406",
"l$	c #3A0F06",
"m$	c #7A2110",
"n$	c #441005",
"o$	c #652510",
"p$	c #793218",
"q$	c #986137",
"r$	c #6F3A20",
"s$	c #863B21",
"t$	c #7B311C",
"u$	c #663824",
"v$	c #7C4F3A",
"w$	c #834D35",
"x$	c #8D4225",
"y$	c #582012",
"z$	c #160B0B",
"A$	c #1B1413",
"B$	c #312723",
"C$	c #73645A",
"D$	c #B2A294",
"E$	c #B2A293",
"F$	c #96867A",
"G$	c #978D83",
"H$	c #9F9389",
"I$	c #746A63",
"J$	c #7F766F",
"K$	c #ADA297",
"L$	c #92867B",
"M$	c #694D44",
"N$	c #603B32",
"O$	c #706056",
"P$	c #AA9A8C",
"Q$	c #BDB1A2",
"R$	c #BFB1A0",
"S$	c #988373",
"T$	c #827569",
"U$	c #39322D",
"V$	c #0C0909",
"W$	c #221918",
"X$	c #1F1615",
"Y$	c #150F0E",
"Z$	c #0F0303",
"`$	c #3C0F06",
" %	c #581D0E",
".%	c #551C0D",
"+%	c #77351A",
"@%	c #B96432",
"#%	c #A7572E",
"$%	c #A66749",
"%%	c #AE6144",
"&%	c #9B5234",
"*%	c #BE633B",
"=%	c #B35F36",
"-%	c #6D3F25",
";%	c #100504",
">%	c #1A1412",
",%	c #2F2422",
"'%	c #493A33",
")%	c #907B6D",
"!%	c #BBAB9C",
"~%	c #C8BAAA",
"{%	c #C8BAAB",
"]%	c #C0B1A2",
"^%	c #8C8077",
"/%	c #90867C",
"(%	c #958C85",
"_%	c #999088",
":%	c #7D756F",
"<%	c #99928B",
"[%	c #BAB0A6",
"}%	c #B4A89C",
"|%	c #998B80",
"1%	c #774F45",
"2%	c #856258",
"3%	c #B3A99C",
"4%	c #C1B3A4",
"5%	c #C1B4A5",
"6%	c #BFB09F",
"7%	c #9F8C7A",
"8%	c #9C9080",
"9%	c #463E37",
"0%	c #120E0D",
"a%	c #302520",
"b%	c #241B17",
"c%	c #0B0505",
"d%	c #030102",
"e%	c #220904",
"f%	c #200804",
"g%	c #451D0C",
"h%	c #965228",
"i%	c #B67344",
"j%	c #C07B52",
"k%	c #C27D57",
"l%	c #CA764E",
"m%	c #B55630",
"n%	c #6A2910",
"o%	c #180906",
"p%	c #16100E",
"q%	c #211917",
"r%	c #2E2320",
"s%	c #58443B",
"t%	c #8C7A6C",
"u%	c #CEC0AF",
"v%	c #CBBCAB",
"w%	c #BCA897",
"x%	c #C4B3A2",
"y%	c #C5B4A4",
"z%	c #948579",
"A%	c #B6AA9C",
"B%	c #D6CCBF",
"C%	c #B1A79D",
"D%	c #877C74",
"E%	c #998C82",
"F%	c #8A8178",
"G%	c #827C75",
"H%	c #A89F94",
"I%	c #C4BAAD",
"J%	c #CEC5B8",
"K%	c #C9C1B5",
"L%	c #CEC5B9",
"M%	c #B4ADA4",
"N%	c #594B46",
"O%	c #8D7B70",
"P%	c #C7BAAB",
"Q%	c #CDC1B4",
"R%	c #D7CDBF",
"S%	c #BEB1A1",
"T%	c #C0B09E",
"U%	c #B4A596",
"V%	c #695F57",
"W%	c #1A1413",
"X%	c #271D1A",
"Y%	c #241917",
"Z%	c #221513",
"`%	c #24100C",
" &	c #170604",
".&	c #090202",
"+&	c #090101",
"@&	c #120302",
"#&	c #3B150A",
"$&	c #6A2E16",
"%&	c #8A4220",
"&&	c #955333",
"*&	c #7C442B",
"=&	c #492213",
"-&	c #000001",
";&	c #1C1313",
">&	c #1E1615",
",&	c #2F231F",
"'&	c #624D44",
")&	c #9E8C7E",
"!&	c #D6C7B8",
"~&	c #CFC1B0",
"{&	c #C2AF9E",
"]&	c #CABDB0",
"^&	c #C1B0A0",
"/&	c #A59486",
"(&	c #C5BAAB",
"_&	c #D9CEC1",
":&	c #D6CDC2",
"<&	c #CBC1B5",
"[&	c #C4B9AD",
"}&	c #A3998F",
"|&	c #9D9289",
"1&	c #887D75",
"2&	c #706B64",
"3&	c #B8B1A7",
"4&	c #C2BBB0",
"5&	c #C0B6AA",
"6&	c #BCB3A8",
"7&	c #BDB5A9",
"8&	c #CAC1B5",
"9&	c #BBB2A8",
"0&	c #89827B",
"a&	c #A19388",
"b&	c #DCD1C3",
"c&	c #E2D8CB",
"d&	c #E4DCCF",
"e&	c #D7CDBD",
"f&	c #CDC0AF",
"g&	c #B7AA9C",
"h&	c #80786F",
"i&	c #30231F",
"j&	c #2E211D",
"k&	c #2C1D18",
"l&	c #2F120D",
"m&	c #351008",
"n&	c #1A0503",
"o&	c #0E0201",
"p&	c #1B0503",
"q&	c #320E07",
"r&	c #280B07",
"s&	c #120202",
"t&	c #090304",
"u&	c #080204",
"v&	c #070405",
"w&	c #0D0809",
"x&	c #100C0D",
"y&	c #514239",
"z&	c #907A6C",
"A&	c #A08A7C",
"B&	c #A99385",
"C&	c #B7A596",
"D&	c #CBBFB1",
"E&	c #D2C9BE",
"F&	c #AE9788",
"G&	c #A19184",
"H&	c #CCC0B2",
"I&	c #DCD2C6",
"J&	c #DAD0C3",
"K&	c #E5DCCF",
"L&	c #D0C9BD",
"M&	c #A19891",
"N&	c #837B74",
"O&	c #5C5854",
"P&	c #AFAAA3",
"Q&	c #C8C2BA",
"R&	c #B7B0A7",
"S&	c #B2A89D",
"T&	c #B1A89F",
"U&	c #CDC7BF",
"V&	c #BBB1A6",
"W&	c #B6ADA1",
"X&	c #857D77",
"Y&	c #686059",
"Z&	c #8D867D",
"`&	c #A69E95",
" *	c #BFB8AF",
".*	c #C7B8A8",
"+*	c #AFA192",
"@*	c #38322E",
"#*	c #3F302A",
"$*	c #3E2E28",
"%*	c #291915",
"&*	c #230E0B",
"**	c #38140C",
"=*	c #36140C",
"-*	c #130302",
";*	c #180504",
">*	c #150403",
",*	c #1A0605",
"'*	c #0E0505",
")*	c #0A0404",
"!*	c #180B08",
"~*	c #20100C",
"{*	c #0A0504",
"]*	c #080504",
"^*	c #010002",
"/*	c #685850",
"(*	c #BDAEA1",
"_*	c #C6BBB0",
":*	c #B0988B",
"<*	c #886F64",
"[*	c #62524B",
"}*	c #58453F",
"|*	c #50342C",
"1*	c #958074",
"2*	c #CBBCAC",
"3*	c #DDD1C2",
"4*	c #DFD5C6",
"5*	c #E1D6C7",
"6*	c #E6DCCD",
"7*	c #CAC2B5",
"8*	c #958C83",
"9*	c #C1BAB0",
"0*	c #A09992",
"a*	c #47403D",
"b*	c #4D4946",
"c*	c #7E7872",
"d*	c #AEA8A0",
"e*	c #BCB4AB",
"f*	c #A49D95",
"g*	c #ADA49A",
"h*	c #A29B93",
"i*	c #C6BFB6",
"j*	c #B8ADA1",
"k*	c #B4A99C",
"l*	c #6C5F56",
"m*	c #1A1010",
"n*	c #100C0E",
"o*	c #231E1D",
"p*	c #4E4743",
"q*	c #867D76",
"r*	c #C9BFB1",
"s*	c #DBCEBE",
"t*	c #C2B4A4",
"u*	c #716A63",
"v*	c #544239",
"w*	c #4F3B32",
"x*	c #4A2F25",
"y*	c #4C2E22",
"z*	c #422015",
"A*	c #482115",
"B*	c #200703",
"C*	c #0D0101",
"D*	c #190402",
"E*	c #1B0604",
"F*	c #160503",
"G*	c #050101",
"H*	c #110705",
"I*	c #2F1B14",
"J*	c #26150F",
"K*	c #070403",
"L*	c #0F0A09",
"M*	c #241B18",
"N*	c #908177",
"O*	c #D6C8BA",
"P*	c #C4B2A5",
"Q*	c #D2B7A4",
"R*	c #BCA08E",
"S*	c #84594E",
"T*	c #8A5147",
"U*	c #78554C",
"V*	c #A99082",
"W*	c #D3C2B0",
"X*	c #DBCDBD",
"Y*	c #E4D9C9",
"Z*	c #D7CCBC",
"`*	c #CBC2B5",
" =	c #A49D93",
".=	c #8F877F",
"+=	c #DCD6CD",
"@=	c #B1ACA4",
"#=	c #584F48",
"$=	c #5F5953",
"%=	c #5A5550",
"&=	c #9A958D",
"*=	c #AAA39A",
"==	c #96918A",
"-=	c #938D84",
";=	c #A79F97",
">=	c #C2BAAE",
",=	c #C0B6A7",
"'=	c #B9AFA2",
")=	c #81756C",
"!=	c #514642",
"~=	c #60534C",
"{=	c #968F89",
"]=	c #BFB6AC",
"^=	c #BAB1A5",
"/=	c #C9BEB0",
"(=	c #DCCFBF",
"_=	c #D1C4B3",
":=	c #948B7F",
"<=	c #4F423A",
"[=	c #503D35",
"}=	c #4B3024",
"|=	c #6D4937",
"1=	c #492A1D",
"2=	c #34140B",
"3=	c #330D05",
"4=	c #2A0802",
"5=	c #410F06",
"6=	c #4B190B",
"7=	c #4B190C",
"8=	c #0F0203",
"9=	c #150705",
"0=	c #2D160F",
"a=	c #311B14",
"b=	c #190F0C",
"c=	c #120908",
"d=	c #706861",
"e=	c #CABDAF",
"f=	c #D0B7A4",
"g=	c #C49987",
"h=	c #D7A690",
"i=	c #C9A28E",
"j=	c #C5A28F",
"k=	c #CCAE9D",
"l=	c #9A877E",
"m=	c #A3958B",
"n=	c #C1AD9C",
"o=	c #CBBDAD",
"p=	c #D8CFC0",
"q=	c #C7BCAD",
"r=	c #B5A99C",
"s=	c #8A8076",
"t=	c #D5CBBE",
"u=	c #AFA69B",
"v=	c #6B625A",
"w=	c #37312E",
"x=	c #665F59",
"y=	c #635C56",
"z=	c #5C5650",
"A=	c #ADA79D",
"B=	c #ACA49A",
"C=	c #857D74",
"D=	c #958E85",
"E=	c #A79E94",
"F=	c #AAA296",
"G=	c #C7BDAF",
"H=	c #C2B8AB",
"I=	c #958D84",
"J=	c #A2978E",
"K=	c #BCAFA3",
"L=	c #E3DACD",
"M=	c #EAE1D3",
"N=	c #DCD4C7",
"O=	c #C8BEB1",
"P=	c #D1C4B4",
"Q=	c #BDAFA0",
"R=	c #BFB5A8",
"S=	c #4D4844",
"T=	c #281A15",
"U=	c #4C3427",
"V=	c #3B281D",
"W=	c #2D170E",
"X=	c #542918",
"Y=	c #4F1C0C",
"Z=	c #411205",
"`=	c #672312",
" -	c #8A381B",
".-	c #904224",
"+-	c #5C2F1D",
"@-	c #4D3021",
"#-	c #603826",
"$-	c #522D20",
"%-	c #1A0D0A",
"&-	c #35302C",
"*-	c #BBAEA1",
"=-	c #D6C4B3",
"--	c #C19D8D",
";-	c #D19581",
">-	c #D2806B",
",-	c #C27966",
"'-	c #9D665A",
")-	c #B78F83",
"!-	c #6E4F48",
"~-	c #805047",
"{-	c #A88F82",
"]-	c #BCAFA2",
"^-	c #C3B8AB",
"/-	c #C6BBAD",
"(-	c #BCB1A3",
"_-	c #81786E",
":-	c #978F85",
"<-	c #D1C6B7",
"[-	c #B1A79B",
"}-	c #786D63",
"|-	c #423A35",
"1-	c #6A635E",
"2-	c #655F58",
"3-	c #6F6962",
"4-	c #B8B2A8",
"5-	c #BFB9B0",
"6-	c #978E85",
"7-	c #9D9890",
"8-	c #C0B8AD",
"9-	c #B7AEA2",
"0-	c #BFB7AB",
"a-	c #B6ADA0",
"b-	c #A1968B",
"c-	c #9A928B",
"d-	c #D6CEC4",
"e-	c #E2D8C9",
"f-	c #D9CEBF",
"g-	c #E0D8CA",
"h-	c #D1C6B8",
"i-	c #C1B4A6",
"j-	c #C1B2A2",
"k-	c #D5CBBC",
"l-	c #807972",
"m-	c #050000",
"n-	c #302017",
"o-	c #281810",
"p-	c #663A24",
"q-	c #864325",
"r-	c #AB5428",
"s-	c #944C25",
"t-	c #A0512E",
"u-	c #97482A",
"v-	c #A25332",
"w-	c #915439",
"x-	c #724B36",
"y-	c #573828",
"z-	c #351D13",
"A-	c #020000",
"B-	c #544A43",
"C-	c #B59E8E",
"D-	c #C09F8D",
"E-	c #9F6356",
"F-	c #A45246",
"G-	c #A14D3E",
"H-	c #803F33",
"I-	c #702B24",
"J-	c #765149",
"K-	c #552C28",
"L-	c #6F3129",
"M-	c #7A6860",
"N-	c #A89D91",
"O-	c #BFB5A7",
"P-	c #C1B7A9",
"Q-	c #ADA396",
"R-	c #807971",
"S-	c #908980",
"T-	c #CBC2B4",
"U-	c #C5BCB1",
"V-	c #998B7E",
"W-	c #5E534B",
"X-	c #3A3531",
"Y-	c #736C64",
"Z-	c #645D55",
"`-	c #6A6660",
" ;	c #B1ADA3",
".;	c #B6AFA5",
"+;	c #A8A095",
"@;	c #9C958C",
"#;	c #AAA399",
"$;	c #A39A8F",
"%;	c #A69E93",
"&;	c #BEB5A7",
"*;	c #A09487",
"=;	c #756C65",
"-;	c #99928A",
";;	c #DCD2C5",
">;	c #E1D8C9",
",;	c #DDD4C7",
"';	c #C8BEB0",
");	c #BFB2A5",
"!;	c #D3C7B8",
"~;	c #D8CAB7",
"{;	c #B2A495",
"];	c #140705",
"^;	c #6D3E25",
"/;	c #8E4F2B",
"(;	c #BF733E",
"_;	c #B56F39",
":;	c #BA6130",
"<;	c #BB6536",
"[;	c #8A4A29",
"};	c #5E3220",
"|;	c #4F2F1F",
"1;	c #0C0504",
"2;	c #020101",
"3;	c #1D1917",
"4;	c #918479",
"5;	c #C8B09D",
"6;	c #BF9D8C",
"7;	c #894138",
"8;	c #531613",
"9;	c #4A100C",
"0;	c #66100A",
"a;	c #550F0B",
"b;	c #541210",
"c;	c #46140E",
"d;	c #572E26",
"e;	c #99887B",
"f;	c #B4A99B",
"g;	c #B8AEA0",
"h;	c #A79E93",
"i;	c #69635D",
"j;	c #91897F",
"k;	c #C2B8AA",
"l;	c #C3BBAE",
"m;	c #9B8F83",
"n;	c #7C7064",
"o;	c #595048",
"p;	c #403B35",
"q;	c #6B655D",
"r;	c #625B53",
"s;	c #5A544F",
"t;	c #8C8780",
"u;	c #BBB7AE",
"v;	c #B0A89E",
"w;	c #9A948B",
"x;	c #8F8981",
"y;	c #8F8880",
"z;	c #A9A197",
"A;	c #BCB3A7",
"B;	c #918276",
"C;	c #655952",
"D;	c #726E69",
"E;	c #CCC7BE",
"F;	c #F0EADD",
"G;	c #E1D8CA",
"H;	c #D2C6B5",
"I;	c #C1B2A1",
"J;	c #BBAD9E",
"K;	c #C9BBAA",
"L;	c #514944",
"M;	c #000000",
"N;	c #0B0303",
"O;	c #381E11",
"P;	c #54301B",
"Q;	c #884D29",
"R;	c #A15124",
"S;	c #B85626",
"T;	c #B45F2E",
"U;	c #9A643A",
"V;	c #2E1A0F",
"W;	c #0E0606",
"X;	c #010001",
"Y;	c #594C44",
"Z;	c #A89586",
"`;	c #C19B87",
" >	c #B86F5E",
".>	c #954134",
"+>	c #450E09",
"@>	c #5A100B",
"#>	c #791810",
"$>	c #5F120C",
"%>	c #60271F",
"&>	c #72453A",
"*>	c #625047",
"=>	c #A09384",
"->	c #AFA294",
";>	c #B7AA9B",
">>	c #B1A597",
",>	c #958B80",
"'>	c #4F4743",
")>	c #857B72",
"!>	c #B2A79A",
"~>	c #BBB5AB",
"{>	c #A89C8E",
"]>	c #89796B",
"^>	c #7C7167",
"/>	c #6A6158",
"(>	c #655F57",
"_>	c #514B46",
":>	c #5B554F",
"<>	c #8E887F",
"[>	c #B0ABA1",
"}>	c #AAA499",
"|>	c #7F7B75",
"1>	c #827D77",
"2>	c #ABA69E",
"3>	c #AAA19A",
"4>	c #92756A",
"5>	c #968376",
"6>	c #85796F",
"7>	c #7A746F",
"8>	c #D8D3CA",
"9>	c #E1D7C8",
"0>	c #D5C9B7",
"a>	c #C5B4A2",
"b>	c #BEAA99",
"c>	c #D4C7B8",
"d>	c #DACFBF",
"e>	c #78726B",
"f>	c #160806",
"g>	c #3A1B11",
"h>	c #452E1E",
"i>	c #632F17",
"j>	c #7C3B1E",
"k>	c #8B3F1E",
"l>	c #652B12",
"m>	c #341C0F",
"n>	c #120807",
"o>	c #010000",
"p>	c #1B1311",
"q>	c #7F685D",
"r>	c #A78B79",
"s>	c #B47A67",
"t>	c #AF3C2E",
"u>	c #721F15",
"v>	c #3C0805",
"w>	c #57130D",
"x>	c #6B1610",
"y>	c #4E1A14",
"z>	c #865E53",
"A>	c #91796C",
"B>	c #8C7F74",
"C>	c #B7AB9B",
"D>	c #AEA396",
"E>	c #716760",
"F>	c #3C3633",
"G>	c #635B53",
"H>	c #B1A598",
"I>	c #A49C93",
"J>	c #93867A",
"K>	c #8A796C",
"L>	c #867B71",
"M>	c #615952",
"N>	c #615B53",
"O>	c #7D766C",
"P>	c #4F4B45",
"Q>	c #35312D",
"R>	c #433F3B",
"S>	c #8F8980",
"T>	c #9F988D",
"U>	c #989187",
"V>	c #8F877D",
"W>	c #746B64",
"X>	c #534E4B",
"Y>	c #635F5B",
"Z>	c #6E5B54",
"`>	c #6E4B41",
" ,	c #977F71",
".,	c #BFAFA0",
"+,	c #A89A8C",
"@,	c #A39C92",
"#,	c #E1DACD",
"$,	c #C5B4A1",
"%,	c #BCA48F",
"&,	c #BCA997",
"*,	c #D4C6B5",
"=,	c #A59C8F",
"-,	c #231F1C",
";,	c #110908",
">,	c #21140C",
",,	c #5A422D",
"',	c #5F3421",
"),	c #653D24",
"!,	c #7B4429",
"~,	c #512411",
"{,	c #20110A",
"],	c #100605",
"^,	c #6B6561",
"/,	c #AD9F92",
"(,	c #B08676",
"_,	c #964A3C",
":,	c #8C1C13",
"<,	c #510804",
"[,	c #2F0302",
"},	c #580C08",
"|,	c #701A13",
"1,	c #642E26",
"2,	c #897266",
"3,	c #86786C",
"4,	c #9B8C7F",
"5,	c #A79B8C",
"6,	c #A3998C",
"7,	c #988F84",
"8,	c #7D766D",
"9,	c #524B46",
"0,	c #3D3734",
"a,	c #837B71",
"b,	c #BBB1A3",
"c,	c #958C82",
"d,	c #897C70",
"e,	c #827669",
"f,	c #70655D",
"g,	c #645B54",
"h,	c #898277",
"i,	c #80796F",
"j,	c #6A655D",
"k,	c #3F3B36",
"l,	c #13150D",
"m,	c #69655C",
"n,	c #948C82",
"o,	c #79716A",
"p,	c #847C74",
"q,	c #7F766D",
"r,	c #453F3C",
"s,	c #2F2B2A",
"t,	c #665B54",
"u,	c #5A4B44",
"v,	c #7D6A62",
"w,	c #BBAA9C",
"x,	c #C9B9A8",
"y,	c #A39386",
"z,	c #9A948C",
"A,	c #D4CCC0",
"B,	c #D2C3B1",
"C,	c #C4AD99",
"D,	c #AF9986",
"E,	c #C4B2A0",
"F,	c #C7B8A6",
"G,	c #655D55",
"H,	c #130604",
"I,	c #1E100D",
"J,	c #321C12",
"K,	c #412012",
"L,	c #58331D",
"M,	c #66422C",
"N,	c #352016",
"O,	c #3B1E11",
"P,	c #25120A",
"Q,	c #403A36",
"R,	c #BAAFA3",
"S,	c #AD988A",
"T,	c #AA6253",
"U,	c #7C271D",
"V,	c #5A2E27",
"W,	c #2A0A07",
"X,	c #260202",
"Y,	c #380502",
"Z,	c #3B0A06",
"`,	c #311B17",
" '	c #5B4F48",
".'	c #6D5E55",
"+'	c #776A61",
"@'	c #8D8276",
"#'	c #998E82",
"$'	c #938A7F",
"%'	c #78716A",
"&'	c #5A534D",
"*'	c #534E49",
"='	c #8B8076",
"-'	c #9C9285",
";'	c #857B71",
">'	c #887C70",
",'	c #7C7065",
"''	c #73695F",
")'	c #726961",
"!'	c #48413D",
"~'	c #5C5750",
"{'	c #938C82",
"]'	c #716B65",
"^'	c #7A756D",
"/'	c #6D675D",
"('	c #282C19",
"_'	c #57574A",
":'	c #A29D97",
"<'	c #958B83",
"['	c #80776F",
"}'	c #635C55",
"|'	c #504A45",
"1'	c #161515",
"2'	c #302B28",
"3'	c #43332F",
"4'	c #795148",
"5'	c #BAA898",
"6'	c #CEBEAB",
"7'	c #817870",
"8'	c #C4B8AB",
"9'	c #CFC0AF",
"0'	c #CCBBA9",
"a'	c #D2C2AF",
"b'	c #A4998A",
"c'	c #2D2723",
"d'	c #180C09",
"e'	c #362018",
"f'	c #552D1B",
"g'	c #62331A",
"h'	c #633A26",
"i'	c #3B2116",
"j'	c #2B1107",
"k'	c #150603",
"l'	c #0B0908",
"m'	c #C8B9A9",
"n'	c #9D8476",
"o'	c #9A4538",
"p'	c #83231A",
"q'	c #4F2822",
"r'	c #280A06",
"s'	c #4B2018",
"t'	c #311714",
"u'	c #2B211C",
"v'	c #3A2F2A",
"w'	c #362F2C",
"x'	c #857F76",
"y'	c #968D82",
"z'	c #8B8279",
"A'	c #605B56",
"B'	c #595450",
"C'	c #79736C",
"D'	c #918275",
"E'	c #958578",
"F'	c #574C44",
"G'	c #6C5B50",
"H'	c #6E5E53",
"I'	c #423832",
"J'	c #766E65",
"K'	c #625D56",
"L'	c #514D49",
"M'	c #4E4A45",
"N'	c #5F5C4B",
"O'	c #42491C",
"P'	c #748325",
"Q'	c #696854",
"R'	c #847C75",
"S'	c #857D73",
"T'	c #56504A",
"U'	c #201E1D",
"V'	c #0F0E10",
"W'	c #161313",
"X'	c #513731",
"Y'	c #724136",
"Z'	c #A98575",
"`'	c #C4AE9B",
" )	c #D1C1AE",
".)	c #CDBEAD",
"+)	c #7D6D63",
"@)	c #5A514B",
"#)	c #8C7E73",
"$)	c #C6B6A6",
"%)	c #DCCEBC",
"&)	c #DBCDBA",
"*)	c #D4C8B7",
"=)	c #81786D",
"-)	c #170A07",
";)	c #1B0D08",
">)	c #37180C",
",)	c #351509",
"')	c #582E1D",
"))	c #381C11",
"!)	c #0D0403",
"~)	c #514D47",
"{)	c #BFB7AA",
"])	c #C5B7A7",
"^)	c #A28071",
"/)	c #8E3D30",
"()	c #842D21",
"_)	c #422522",
":)	c #64352C",
"<)	c #A15643",
"[)	c #AC7561",
"})	c #83584C",
"|)	c #8B675B",
"1)	c #9C8173",
"2)	c #928377",
"3)	c #5F524B",
"4)	c #8F887F",
"5)	c #766E67",
"6)	c #44403C",
"7)	c #696560",
"8)	c #7D756D",
"9)	c #817469",
"0)	c #8E7E71",
"a)	c #8A7C6F",
"b)	c #78675C",
"c)	c #55473E",
"d)	c #695247",
"e)	c #4F3A31",
"f)	c #66554A",
"g)	c #3E332E",
"h)	c #504943",
"i)	c #746B62",
"j)	c #59524B",
"k)	c #4A443E",
"l)	c #4E4941",
"m)	c #363E26",
"n)	c #425917",
"o)	c #8DA933",
"p)	c #808E43",
"q)	c #766F64",
"r)	c #8B8174",
"s)	c #787168",
"t)	c #1C1919",
"u)	c #030304",
"v)	c #52342D",
"w)	c #643429",
"x)	c #885547",
"y)	c #B07A68",
"z)	c #CAAC99",
"A)	c #D3C4B2",
"B)	c #9A897C",
"C)	c #4E4139",
"D)	c #392D29",
"E)	c #948073",
"F)	c #D7C5B4",
"G)	c #D9CDBC",
"H)	c #D5C8B6",
"I)	c #BFB4A7",
"J)	c #5B544F",
"K)	c #0F0403",
"L)	c #280F08",
"M)	c #4A2214",
"N)	c #230D07",
"O)	c #0A0202",
"P)	c #252321",
"Q)	c #978C82",
"R)	c #C2AE9F",
"S)	c #A68272",
"T)	c #A16451",
"U)	c #903F31",
"V)	c #621D14",
"W)	c #3F2422",
"X)	c #522D28",
"Y)	c #A5715F",
"Z)	c #AB8673",
"`)	c #8C6354",
" !	c #8A5044",
".!	c #82564B",
"+!	c #654B42",
"@!	c #716056",
"#!	c #80776E",
"$!	c #696058",
"%!	c #6F675F",
"&!	c #24211E",
"*!	c #463E39",
"=!	c #5E534C",
"-!	c #7B6D63",
";!	c #897A6D",
">!	c #5C5148",
",!	c #584B42",
"'!	c #4F4238",
")!	c #37251F",
"!!	c #58382E",
"~!	c #795D4F",
"{!	c #564740",
"]!	c #5E5650",
"^!	c #686057",
"/!	c #70675E",
"(!	c #625950",
"_!	c #443F36",
":!	c #3B4824",
"<!	c #5C7C22",
"[!	c #8AAE2A",
"}!	c #A1B353",
"|!	c #6F6C5B",
"1!	c #988F81",
"2!	c #7B7469",
"3!	c #272522",
"4!	c #010101",
"5!	c #1F1614",
"6!	c #44352F",
"7!	c #321510",
"8!	c #5F2A20",
"9!	c #993C2F",
"0!	c #A06E5F",
"a!	c #A48C7D",
"b!	c #7F6A60",
"c!	c #654F48",
"d!	c #452C27",
"e!	c #3E2C27",
"f!	c #7D7067",
"g!	c #A59C91",
"h!	c #C5B9AA",
"i!	c #D2C3B2",
"j!	c #B8ADA0",
"k!	c #524C47",
"l!	c #160A07",
"m!	c #250E08",
"n!	c #110402",
"o!	c #040000",
"p!	c #68625B",
"q!	c #BEAFA1",
"r!	c #8A5746",
"s!	c #7F493A",
"t!	c #5E241C",
"u!	c #633A33",
"v!	c #784F48",
"w!	c #672D26",
"x!	c #9C6F5E",
"y!	c #B78F79",
"z!	c #B3866E",
"A!	c #7E3528",
"B!	c #713B32",
"C!	c #60443B",
"D!	c #6A5E56",
"E!	c #7C7268",
"F!	c #635A53",
"G!	c #403A35",
"H!	c #110E0E",
"I!	c #39322F",
"J!	c #5E5249",
"K!	c #7A695D",
"L!	c #65564C",
"M!	c #5B483E",
"N!	c #4B3B32",
"O!	c #1F130F",
"P!	c #27120D",
"Q!	c #592C23",
"R!	c #6F4E42",
"S!	c #6D5A50",
"T!	c #948C83",
"U!	c #4D4742",
"V!	c #898073",
"W!	c #A89D8D",
"X!	c #877B6C",
"Y!	c #595243",
"Z!	c #57662A",
"`!	c #749927",
" ~	c #92BA30",
".~	c #B1C661",
"+~	c #6F7255",
"@~	c #87817A",
"#~	c #847F78",
"$~	c #44403D",
"%~	c #121010",
"&~	c #100D0D",
"*~	c #120F10",
"=~	c #2C0605",
"-~	c #79221B",
";~	c #815449",
">~	c #77574D",
",~	c #764F46",
"'~	c #82665C",
")~	c #502C26",
"!~	c #4F1B16",
"~~	c #532D28",
"{~	c #4E3E38",
"]~	c #BDAC9D",
"^~	c #C8B6A5",
"/~	c #B7AC9F",
"(~	c #4C4743",
"_~	c #030000",
":~	c #080302",
"<~	c #232220",
"[~	c #A19C94",
"}~	c #B8A596",
"|~	c #796156",
"1~	c #492F26",
"2~	c #50332E",
"3~	c #644B45",
"4~	c #9A7F75",
"5~	c #8F655B",
"6~	c #78211A",
"7~	c #935749",
"8~	c #BE927B",
"9~	c #A47A65",
"0~	c #733328",
"a~	c #5D3832",
"b~	c #6A564D",
"c~	c #6C6058",
"d~	c #72675F",
"e~	c #534A44",
"f~	c #231E1C",
"g~	c #0F0D0E",
"h~	c #29221F",
"i~	c #736054",
"j~	c #847164",
"k~	c #44362F",
"l~	c #4B352C",
"m~	c #261914",
"n~	c #0A0203",
"o~	c #522E25",
"p~	c #774134",
"q~	c #68473C",
"r~	c #775C50",
"s~	c #4C3933",
"t~	c #897F75",
"u~	c #978D82",
"v~	c #615A54",
"w~	c #9C9385",
"x~	c #9A8E7F",
"y~	c #685C51",
"z~	c #3B3C26",
"A~	c #7A9824",
"B~	c #83AB29",
"C~	c #8FB82F",
"D~	c #97B442",
"E~	c #7D8750",
"F~	c #6D6654",
"G~	c #4C4742",
"H~	c #38312E",
"I~	c #0B0909",
"J~	c #1F1C1C",
"K~	c #231F1E",
"L~	c #1D1816",
"M~	c #361814",
"N~	c #553D34",
"O~	c #472922",
"P~	c #5A2C25",
"Q~	c #724A40",
"R~	c #54241E",
"S~	c #66241C",
"T~	c #77382D",
"U~	c #905C4C",
"V~	c #694E44",
"W~	c #7E7066",
"X~	c #B0A194",
"Y~	c #CEC2B4",
"Z~	c #A19A8F",
"`~	c #2C2622",
" {	c #54504C",
".{	c #BCB2A7",
"+{	c #937F72",
"@{	c #4D362F",
"#{	c #906859",
"${	c #9F877A",
"%{	c #A79587",
"&{	c #83685F",
"*{	c #5A0000",
"={	c #81392F",
"-{	c #A87966",
";{	c #96705F",
">{	c #935649",
",{	c #7B5E55",
"'{	c #7B6D64",
"){	c #695E55",
"!{	c #36312E",
"~{	c #0C0A0A",
"{{	c #050406",
"]{	c #180F0E",
"^{	c #5A4036",
"/{	c #4F3830",
"({	c #46332D",
"_{	c #433129",
":{	c #20100D",
"<{	c #120605",
"[{	c #401F19",
"}{	c #66362B",
"|{	c #59372E",
"1{	c #61463B",
"2{	c #533D35",
"3{	c #231C1A",
"4{	c #82766E",
"5{	c #7F756C",
"6{	c #857C72",
"7{	c #AFA697",
"8{	c #9C8D7E",
"9{	c #8E7B6D",
"0{	c #464729",
"a{	c #75971F",
"b{	c #81AC25",
"c{	c #7CA428",
"d{	c #779531",
"e{	c #809149",
"f{	c #6A6945",
"g{	c #6C645A",
"h{	c #524A44",
"i{	c #453E3B",
"j{	c #100F0F",
"k{	c #201B1A",
"l{	c #2C2624",
"m{	c #342D2A",
"n{	c #2E2623",
"o{	c #231714",
"p{	c #2D0A08",
"q{	c #461A16",
"r{	c #572B25",
"s{	c #5F2B23",
"t{	c #69231A",
"u{	c #5F2118",
"v{	c #894436",
"w{	c #9A614E",
"x{	c #7C584B",
"y{	c #60534B",
"z{	c #9B9085",
"A{	c #BEB0A1",
"B{	c #7E7267",
"C{	c #0B0504",
"D{	c #242221",
"E{	c #948D85",
"F{	c #BFAFA1",
"G{	c #6F5E54",
"H{	c #36221F",
"I{	c #735C53",
"J{	c #B69F8E",
"K{	c #BDA794",
"L{	c #B39D8C",
"M{	c #815F55",
"N{	c #4D0704",
"O{	c #723228",
"P{	c #8D695A",
"Q{	c #9B8372",
"R{	c #AA8F7D",
"S{	c #9B8271",
"T{	c #88776A",
"U{	c #62584F",
"V{	c #423C37",
"W{	c #191615",
"X{	c #010102",
"Y{	c #020102",
"Z{	c #040303",
"`{	c #2C1D19",
" ]	c #452F28",
".]	c #48322B",
"+]	c #4D362E",
"@]	c #43221C",
"#]	c #28120E",
"$]	c #41231C",
"%]	c #56352C",
"&]	c #51372F",
"*]	c #422E27",
"=]	c #514138",
"-]	c #312923",
";]	c #463E3A",
">]	c #7A6F67",
",]	c #82766D",
"']	c #C4BAA9",
")]	c #716258",
"!]	c #3A361F",
"~]	c #567019",
"{]	c #6B931C",
"]]	c #67871F",
"^]	c #556E1F",
"/]	c #64772D",
"(]	c #666245",
"_]	c #62574F",
":]	c #4B413C",
"<]	c #2E2725",
"[]	c #090709",
"}]	c #171211",
"|]	c #2A2220",
"1]	c #39312E",
"2]	c #594E49",
"3]	c #493A35",
"4]	c #301310",
"5]	c #300907",
"6]	c #48221C",
"7]	c #5B2E26",
"8]	c #581C15",
"9]	c #53130D",
"0]	c #682017",
"a]	c #8A4535",
"b]	c #9E6B59",
"c]	c #886D60",
"d]	c #5D4F46",
"e]	c #8C8178",
"f]	c #A8998B",
"g]	c #3A322C",
"h]	c #75726F",
"i]	c #C5BDB3",
"j]	c #A29287",
"k]	c #6D584F",
"l]	c #5D4C45",
"m]	c #9E8B80",
"n]	c #AE9B8C",
"o]	c #B7A290",
"p]	c #9D7E6E",
"q]	c #794D42",
"r]	c #4E2721",
"s]	c #965A4D",
"t]	c #906958",
"u]	c #9C8875",
"v]	c #927C6C",
"w]	c #968170",
"x]	c #78685C",
"y]	c #3C342F",
"z]	c #2F2925",
"A]	c #1B1816",
"B]	c #211613",
"C]	c #2B1E19",
"D]	c #2B1B17",
"E]	c #3E2B24",
"F]	c #493128",
"G]	c #3C2620",
"H]	c #4E3730",
"I]	c #504138",
"J]	c #776659",
"K]	c #4F433A",
"L]	c #140F0F",
"M]	c #554B43",
"N]	c #6A6058",
"O]	c #7B7168",
"P]	c #97897C",
"Q]	c #83786C",
"R]	c #615548",
"S]	c #3E3B22",
"T]	c #58741D",
"U]	c #65871D",
"V]	c #7B9B2A",
"W]	c #53721E",
"X]	c #5E7A24",
"Y]	c #585740",
"Z]	c #433934",
"`]	c #50413C",
" ^	c #463934",
".^	c #342C28",
"+^	c #0C0809",
"@^	c #291E1B",
"#^	c #41322E",
"$^	c #594D48",
"%^	c #6B5C55",
"&^	c #44302C",
"*^	c #1F0403",
"=^	c #290E0B",
"-^	c #3D1712",
";^	c #3C110C",
">^	c #3E0E09",
",^	c #611E16",
"'^	c #924F3E",
")^	c #A67C68",
"!^	c #BEA28E",
"~^	c #A28270",
"{^	c #5D463C",
"]^	c #888077",
"^^	c #A79D94",
"/^	c #938379",
"(^	c #5E4B42",
"_^	c #7D665A",
":^	c #A48E7E",
"<^	c #C0AD9A",
"[^	c #C2B09E",
"}^	c #B8A796",
"|^	c #988476",
"1^	c #76493F",
"2^	c #572F28",
"3^	c #A14336",
"4^	c #774337",
"5^	c #816757",
"6^	c #6C5145",
"7^	c #544037",
"8^	c #4A3D36",
"9^	c #50433C",
"0^	c #5F544C",
"a^	c #28221F",
"b^	c #030202",
"c^	c #0A0606",
"d^	c #2E201B",
"e^	c #211612",
"f^	c #170F0D",
"g^	c #4C3A33",
"h^	c #4D3B33",
"i^	c #4D3A31",
"j^	c #43312A",
"k^	c #4A3932",
"l^	c #65554A",
"m^	c #958170",
"n^	c #726257",
"o^	c #221D1B",
"p^	c #60554D",
"q^	c #584E46",
"r^	c #695F56",
"s^	c #4A413B",
"t^	c #5E544E",
"u^	c #443634",
"v^	c #35201C",
"w^	c #2A241A",
"x^	c #536425",
"y^	c #6E872B",
"z^	c #798E27",
"A^	c #496414",
"B^	c #363912",
"C^	c #692E27",
"D^	c #72211B",
"E^	c #541511",
"F^	c #4B261F",
"G^	c #312A26",
"H^	c #070404",
"I^	c #261C1A",
"J^	c #4F3F38",
"K^	c #443732",
"L^	c #50403A",
"M^	c #6D4E44",
"N^	c #4B2920",
"O^	c #160404",
"P^	c #230303",
"Q^	c #290504",
"R^	c #490D08",
"S^	c #703025",
"T^	c #8F6454",
"U^	c #C39F88",
"V^	c #CDA790",
"W^	c #AD826F",
"X^	c #69554C",
"Y^	c #86776C",
"Z^	c #9C8A7E",
"`^	c #715E54",
" /	c #7C6659",
"./	c #BEA692",
"+/	c #BDA895",
"@/	c #B7A493",
"#/	c #B3A293",
"$/	c #AEA194",
"%/	c #A6998F",
"&/	c #917A6F",
"*/	c #A2897C",
"=/	c #A75E50",
"-/	c #742B22",
";/	c #4E302A",
">/	c #32211C",
",/	c #513D35",
"'/	c #52423B",
")/	c #3F3631",
"!/	c #1D1411",
"~/	c #1F1513",
"{/	c #231917",
"]/	c #2E2421",
"^/	c #4D3C33",
"//	c #56443A",
"(/	c #352A25",
"_/	c #3B302A",
":/	c #8E7B6C",
"</	c #716054",
"[/	c #2C2522",
"}/	c #766C63",
"|/	c #39312D",
"1/	c #181312",
"2/	c #0C0507",
"3/	c #60231E",
"4/	c #A5322B",
"5/	c #B24438",
"6/	c #8B4137",
"7/	c #64482F",
"8/	c #686F34",
"9/	c #627226",
"0/	c #3E5618",
"a/	c #352410",
"b/	c #5C120C",
"c/	c #781710",
"d/	c #831A13",
"e/	c #732D1D",
"f/	c #21120E",
"g/	c #130908",
"h/	c #120B0A",
"i/	c #584842",
"j/	c #5F4F49",
"k/	c #3E2B26",
"l/	c #76473B",
"m/	c #632C22",
"n/	c #2D0504",
"o/	c #190101",
"p/	c #180101",
"q/	c #320503",
"r/	c #3E0704",
"s/	c #4D1009",
"t/	c #764133",
"u/	c #A77E6A",
"v/	c #CA9C83",
"w/	c #B9917B",
"x/	c #7D695D",
"y/	c #927D71",
"z/	c #8A786D",
"A/	c #816E63",
"B/	c #B79E8B",
"C/	c #CDB9A6",
"D/	c #B4A291",
"E/	c #BEAE9D",
"F/	c #BFAE9D",
"G/	c #AB9A8A",
"H/	c #83756A",
"I/	c #8D7C6F",
"J/	c #998374",
"K/	c #7E4F42",
"L/	c #705448",
"M/	c #402C27",
"N/	c #40312C",
"O/	c #766154",
"P/	c #69584C",
"Q/	c #443D39",
"R/	c #24201E",
"S/	c #060406",
"T/	c #1C100F",
"U/	c #251916",
"V/	c #3A2A24",
"W/	c #31231F",
"X/	c #564239",
"Y/	c #46352D",
"Z/	c #443630",
"`/	c #64554B",
" (	c #89786A",
".(	c #7D6B5C",
"+(	c #41352E",
"@(	c #7B6D62",
"#(	c #7B6A5F",
"$(	c #302A26",
"%(	c #51140F",
"&(	c #B64637",
"*(	c #C75141",
"=(	c #D37362",
"-(	c #DA7F6B",
";(	c #BB6053",
">(	c #7A3C31",
",(	c #3E401B",
"'(	c #495C23",
")(	c #6E3D24",
"!(	c #861913",
"~(	c #991A14",
"{(	c #75130E",
"](	c #540E07",
"^(	c #160908",
"/(	c #160C0A",
"((	c #3F2A26",
"_(	c #47221D",
":(	c #4B140F",
"<(	c #450B07",
"[(	c #420504",
"}(	c #1F0201",
"|(	c #410704",
"1(	c #4E0804",
"2(	c #60120B",
"3(	c #682018",
"4(	c #9D6454",
"5(	c #C19780",
"6(	c #BF9A85",
"7(	c #877468",
"8(	c #A08D83",
"9(	c #8C746A",
"0(	c #BFA99A",
"a(	c #C3AF9E",
"b(	c #BEAF9F",
"c(	c #A99C8E",
"d(	c #938174",
"e(	c #6E5A4F",
"f(	c #6F594E",
"g(	c #8B796B",
"h(	c #786558",
"i(	c #6F594D",
"j(	c #5F5148",
"k(	c #5A4E46",
"l(	c #736459",
"m(	c #6A5C52",
"n(	c #372F29",
"o(	c #121212",
"p(	c #070606",
"q(	c #0A0808",
"r(	c #130C0B",
"s(	c #160D0C",
"t(	c #2B201C",
"u(	c #352721",
"v(	c #211513",
"w(	c #251A17",
"x(	c #3A2F29",
"y(	c #64554A",
"z(	c #827062",
"A(	c #887667",
"B(	c #67574B",
"C(	c #2F2621",
"D(	c #4C4038",
"E(	c #735F51",
"F(	c #27211D",
"G(	c #2D0303",
"H(	c #781510",
"I(	c #931E18",
"J(	c #9F231D",
"K(	c #9C3D32",
"L(	c #B94D40",
"M(	c #9D352E",
"N(	c #5E2A22",
"O(	c #4E2E1F",
"P(	c #54301E",
"Q(	c #693127",
"R(	c #6A140F",
"S(	c #A5140D",
"T(	c #8F110B",
"U(	c #3C0402",
"V(	c #000101",
"W(	c #030101",
"X(	c #23100E",
"Y(	c #391814",
"Z(	c #5D261D",
"`(	c #350B07",
" _	c #2D0403",
"._	c #2E0302",
"+_	c #220201",
"@_	c #2F0403",
"#_	c #3A0704",
"$_	c #500F09",
"%_	c #530C06",
"&_	c #6C2B21",
"*_	c #AB6C58",
"=_	c #AB816E",
"-_	c #837167",
";_	c #A6968B",
">_	c #B6A599",
",_	c #C5B1A1",
"'_	c #CEBCAB",
")_	c #D1C2B0",
"!_	c #B29E8D",
"~_	c #AA9583",
"{_	c #957D6D",
"]_	c #7F6859",
"^_	c #877465",
"/_	c #615046",
"(_	c #362A24",
"__	c #5A4E45",
":_	c #8F8376",
"<_	c #6A5C53",
"[_	c #473D38",
"}_	c #0B0808",
"|_	c #131111",
"1_	c #151212",
"2_	c #060507",
"3_	c #090607",
"4_	c #0C0708",
"5_	c #18100F",
"6_	c #59483F",
"7_	c #6E5C4F",
"8_	c #907968",
"9_	c #877160",
"0_	c #736053",
"a_	c #382E29",
"b_	c #0F0C0D",
"c_	c #201510",
"d_	c #470705",
"e_	c #871712",
"f_	c #7D1915",
"g_	c #941D19",
"h_	c #871211",
"i_	c #761714",
"j_	c #881514",
"k_	c #631714",
"l_	c #783023",
"m_	c #562B22",
"n_	c #4A1611",
"o_	c #6A0C07",
"p_	c #630705",
"q_	c #78110C",
"r_	c #3D0D0A",
"s_	c #040404",
"t_	c #0C0808",
"u_	c #180B09",
"v_	c #3A130E",
"w_	c #4E1C15",
"x_	c #2D0603",
"y_	c #170101",
"z_	c #230302",
"A_	c #290402",
"B_	c #2A0503",
"C_	c #3D100B",
"D_	c #62251C",
"E_	c #65251C",
"F_	c #6E2B22",
"G_	c #936558",
"H_	c #A98777",
"I_	c #9B8C83",
"J_	c #CFC4B7",
"K_	c #D0C0AE",
"L_	c #D1C3B2",
"M_	c #B1A393",
"N_	c #B1A291",
"O_	c #A29080",
"P_	c #A08774",
"Q_	c #897261",
"R_	c #5B4D44",
"S_	c #322925",
"T_	c #302723",
"U_	c #6B5D52",
"V_	c #6F6257",
"W_	c #423833",
"X_	c #0F0D0D",
"Y_	c #0B0A0A",
"Z_	c #171515",
"`_	c #050405",
" :	c #16100F",
".:	c #3C2F29",
"+:	c #7A6758",
"@:	c #746050",
"#:	c #665347",
"$:	c #6A564A",
"%:	c #140B09",
"&:	c #070001",
"*:	c #180000",
"=:	c #3C0403",
"-:	c #811410",
";:	c #7E1715",
">:	c #A21E1C",
",:	c #831814",
"':	c #841D19",
"):	c #8B1F1B",
"!:	c #82221F",
"~:	c #602922",
"{:	c #392921",
"]:	c #50120B",
"^:	c #66130E",
"/:	c #6A1A15",
"(:	c #3B1D19",
"_:	c #0E0A06",
"::	c #040302",
"<:	c #110D0D",
"[:	c #221C19",
"}:	c #4B2E25",
"|:	c #7A483B",
"1:	c #50251D",
"2:	c #220402",
"3:	c #250402",
"4:	c #250502",
"5:	c #370906",
"6:	c #5E2B22",
"7:	c #7A4A3D",
"8:	c #844D40",
"9:	c #925F51",
"0:	c #9C8275",
"a:	c #92877E",
"b:	c #917B72",
"c:	c #C6BBAF",
"d:	c #CEC0AE",
"e:	c #C6BAAA",
"f:	c #B7AA99",
"g:	c #A99B8A",
"h:	c #A49484",
"i:	c #897769",
"j:	c #625349",
"k:	c #3D312C",
"l:	c #4D4139",
"m:	c #332A26",
"n:	c #403733",
"o:	c #1C1815",
"p:	c #121110",
"q:	c #2E2A27",
"r:	c #3B3531",
"s:	c #23201E",
"t:	c #090808",
"u:	c #060506",
"v:	c #211A17",
"w:	c #4E3F37",
"x:	c #7B685A",
"y:	c #5A4C41",
"z:	c #473B32",
"A:	c #493B33",
"B:	c #171110",
"C:	c #150202",
"D:	c #2C0201",
"E:	c #4D0805",
"F:	c #6F110C",
"G:	c #5D0A08",
"H:	c #7C1916",
"I:	c #871B17",
"J:	c #821B17",
"K:	c #A4201B",
"L:	c #9D211D",
"M:	c #65251D",
"N:	c #50251F",
"O:	c #1D0B0A",
"P:	c #4E1710",
"Q:	c #6E1C16",
"R:	c #52110D",
"S:	c #120705",
"T:	c #1B1614",
"U:	c #1F1917",
"V:	c #4D322B",
"W:	c #59352B",
"X:	c #5C332A",
"Y:	c #3A120D",
"Z:	c #2B0704",
"`:	c #2C0603",
" <	c #280603",
".<	c #260504",
"+<	c #46221C",
"@<	c #73473C",
"#<	c #937668",
"$<	c #AA907F",
"%<	c #B39C8D",
"&<	c #93897F",
"*<	c #705C55",
"=<	c #B7ABA1",
"-<	c #BAAC9F",
";<	c #C4B5A4",
"><	c #AA9D8D",
",<	c #A99B8B",
"'<	c #84776A",
")<	c #54473F",
"!<	c #453932",
"~<	c #3B322D",
"{<	c #4C413A",
"]<	c #4F453D",
"^<	c #483E37",
"/<	c #221C1A",
"(<	c #27221E",
"_<	c #3A342F",
":<	c #413B36",
"<<	c #3A3430",
"[<	c #040203",
"}<	c #0E0A09",
"|<	c #2E2521",
"1<	c #42342E",
"2<	c #3E312A",
"3<	c #281F1B",
"4<	c #45372F",
"5<	c #382A25",
"6<	c #241815",
"7<	c #0C0706",
"8<	c #160403",
"9<	c #350604",
"0<	c #3E0504",
"a<	c #520604",
"b<	c #6B0C09",
"c<	c #7B1210",
"d<	c #73110E",
"e<	c #651B15",
"f<	c #4D0E0A",
"g<	c #681914",
"h<	c #7B251C",
"i<	c #501611",
"j<	c #1C0808",
"k<	c #561A15",
"l<	c #5F221D",
"m<	c #160303",
"n<	c #030303",
"o<	c #251D19",
"p<	c #271F1B",
"q<	c #271E1A",
"r<	c #534138",
"s<	c #43231C",
"t<	c #44221B",
"u<	c #380E0A",
"v<	c #270503",
"w<	c #270A07",
"x<	c #321814",
"y<	c #391F1B",
"z<	c #4E322B",
"A<	c #8A7164",
"B<	c #B9A695",
"C<	c #C6B6A5",
"D<	c #908377",
"E<	c #8C796F",
"F<	c #A69288",
"G<	c #B4A191",
"H<	c #C8BBA9",
"I<	c #A69889",
"J<	c #988B7E",
"K<	c #6C6056",
"L<	c #63554B",
"M<	c #64574C",
"N<	c #76685C",
"O<	c #948576",
"P<	c #87796C",
"Q<	c #473F37",
"R<	c #2A2521",
"S<	c #453C36",
"T<	c #594F47",
"U<	c #595047",
"V<	c #4B443D",
"W<	c #36312D",
"X<	c #050505",
"Y<	c #1D1412",
"Z<	c #372A25",
"`<	c #281C19",
" [	c #563228",
".[	c #4C251E",
"+[	c #120704",
"@[	c #140202",
"#[	c #170102",
"$[	c #380503",
"%[	c #6E110C",
"&[	c #79140D",
"*[	c #64100D",
"=[	c #8A221A",
"-[	c #89211A",
";[	c #621612",
">[	c #5B211A",
",[	c #3F1F1B",
"'[	c #3B221E",
")[	c #502923",
"![	c #361915",
"~[	c #080706",
"{[	c #1C1715",
"][	c #2F2723",
"^[	c #302724",
"/[	c #3F342E",
"([	c #4B3A33",
"_[	c #3F2A24",
":[	c #694B41",
"<[	c #452821",
"[[	c #2D120F",
"}[	c #381F1A",
"|[	c #574037",
"1[	c #634B41",
"2[	c #59473F",
"3[	c #624E44",
"4[	c #827165",
"5[	c #B5A99B",
"6[	c #85776D",
"7[	c #795F55",
"8[	c #C5B1A2",
"9[	c #CABAA8",
"0[	c #D0C3B1",
"a[	c #BEAF9E",
"b[	c #9E9183",
"c[	c #83776C",
"d[	c #817569",
"e[	c #8D7F71",
"f[	c #908476",
"g[	c #9F9283",
"h[	c #9E9386",
"i[	c #665F56",
"j[	c #2F2926",
"k[	c #463D37",
"l[	c #5D534A",
"m[	c #544B43",
"n[	c #5A5048",
"o[	c #151313",
"p[	c #070203",
"q[	c #120707",
"r[	c #341510",
"s[	c #712117",
"t[	c #6A1B12",
"u[	c #42100A",
"v[	c #1E0705",
"w[	c #0E0203",
"x[	c #460705",
"y[	c #5B0E0B",
"z[	c #540D09",
"A[	c #6E100C",
"B[	c #7A1F18",
"C[	c #7B241B",
"D[	c #531612",
"E[	c #371612",
"F[	c #2D1915",
"G[	c #47342C",
"H[	c #4C3029",
"I[	c #2C1612",
"J[	c #090606",
"K[	c #0C0908",
"L[	c #2C2420",
"M[	c #483D37",
"N[	c #463B35",
"O[	c #32211D",
"P[	c #563E36",
"Q[	c #60463D",
"R[	c #493028",
"S[	c #42302B",
"T[	c #5F463E",
"U[	c #4E362F",
"V[	c #755F54",
"W[	c #857569",
"X[	c #7C6C60",
"Y[	c #857468",
"Z[	c #AFA194",
"`[	c #8A7E73",
" }	c #908479",
".}	c #DBD0C1",
"+}	c #C7B7A6",
"@}	c #C2B3A2",
"#}	c #B4A697",
"$}	c #88786C",
"%}	c #8E7D70",
"&}	c #84776C",
"*}	c #8F8073",
"=}	c #7C6E62",
"-}	c #71665C",
";}	c #3B322C",
">}	c #51443B",
",}	c #3E3732",
"'}	c #665D53",
")}	c #6B6056",
"!}	c #5A5047",
"~}	c #3D3732",
"{}	c #211E1C",
"]}	c #190B0A",
"^}	c #3C231C",
"/}	c #6E493C",
"(}	c #663126",
"_}	c #501912",
":}	c #2D0C08",
"<}	c #210A08",
"[}	c #140504",
"}}	c #1A0706",
"|}	c #1D0705",
"1}	c #250503",
"2}	c #250806",
"3}	c #1C0604",
"4}	c #281D1B",
"5}	c #56443B",
"6}	c #2F231D",
"7}	c #090505",
"8}	c #0C0A09",
"9}	c #1B1513",
"0}	c #29211D",
"a}	c #4E433D",
"b}	c #61544B",
"c}	c #483B35",
"d}	c #64534A",
"e}	c #53433B",
"f}	c #594941",
"g}	c #5B453D",
"h}	c #4B342D",
"i}	c #5A4C44",
"j}	c #95897C",
"k}	c #928578",
"l}	c #8D7E73",
"m}	c #8F8379",
"n}	c #93857B",
"o}	c #8C8379",
"p}	c #D4CBBD",
"q}	c #D0C2B2",
"r}	c #ADA092",
"s}	c #AFA293",
"t}	c #938375",
"u}	c #84776B",
"v}	c #6B5F56",
"w}	c #25201D",
"x}	c #342D28",
"y}	c #605249",
"z}	c #574940",
"A}	c #4B403A",
"B}	c #6A6055",
"C}	c #7D7165",
"D}	c #796E62",
"E}	c #534941",
"F}	c #2A2723",
"G}	c #0E0C0C",
"H}	c #080202",
"I}	c #180706",
"J}	c #32140E",
"K}	c #431E16",
"L}	c #4D120C",
"M}	c #5A100A",
"N}	c #4B0E08",
"O}	c #230604",
"P}	c #0C0302",
"Q}	c #0D0706",
"R}	c #45312A",
"S}	c #412F27",
"T}	c #362721",
"U}	c #0E0D0D",
"V}	c #1A1614",
"W}	c #211B19",
"X}	c #4A4039",
"Y}	c #564840",
"Z}	c #827063",
"`}	c #706156",
" |	c #54473E",
".|	c #63534A",
"+|	c #5A4B43",
"@|	c #3B302B",
"#|	c #645B53",
"$|	c #958A7F",
"%|	c #978A7F",
"&|	c #8D8177",
"*|	c #797068",
"=|	c #CABFB1",
"-|	c #C4B8A9",
";|	c #A3988B",
">|	c #9F9386",
",|	c #928375",
"'|	c #8B7D70",
")|	c #5C524A",
"!|	c #2F2724",
"~|	c #39312C",
"{|	c #5B4F47",
"]|	c #574B43",
"^|	c #4D443D",
"/|	c #71675C",
"(|	c #5E544C",
"_|	c #403934",
":|	c #37322F",
"<|	c #211F1D",
"[|	c #1B0504",
"}|	c #1A0302",
"||	c #340402",
"1|	c #420704",
"2|	c #400704",
"3|	c #5C130B",
"4|	c #741F16",
"5|	c #55130B",
"6|	c #240604",
"7|	c #180E0C",
"8|	c #50372D",
"9|	c #614539",
"0|	c #3D2B24",
"a|	c #422F27",
"b|	c #080707",
"c|	c #131011",
"d|	c #171414",
"e|	c #1D1918",
"f|	c #61524A",
"g|	c #726156",
"h|	c #6F6157",
"i|	c #66584E",
"j|	c #6B5B51",
"k|	c #625149",
"l|	c #5B4D46",
"m|	c #5D554F",
"n|	c #868078",
"o|	c #988B80",
"p|	c #5C544E",
"q|	c #ABA298",
"r|	c #CFC3B4",
"s|	c #BAAEA0",
"t|	c #A1978A",
"u|	c #9D9286",
"v|	c #73675D",
"w|	c #61554D",
"x|	c #423834",
"y|	c #39302B",
"z|	c #4D413B",
"A|	c #6D6157",
"B|	c #796C61",
"C|	c #463D36",
"D|	c #655A50",
"E|	c #776C61",
"F|	c #6E6359",
"G|	c #6A6056",
"H|	c #6E6459",
"I|	c #615950",
"J|	c #575048",
"K|	c #302D29",
"L|	c #0E0302",
"M|	c #150201",
"N|	c #2B0302",
"O|	c #460603",
"P|	c #540905",
"Q|	c #68120B",
"R|	c #71160E",
"S|	c #651610",
"T|	c #7B120C",
"U|	c #480705",
"V|	c #55372D",
"W|	c #553B31",
"X|	c #1F1511",
"Y|	c #0F0E0E",
"Z|	c #191716",
"`|	c #292421",
" 1	c #50443D",
".1	c #443A34",
"+1	c #53473F",
"@1	c #5C4E46",
"#1	c #6C5C52",
"$1	c #685B51",
"%1	c #685950",
"&1	c #8C786A",
"*1	c #968072",
"=1	c #9B8A7C",
"-1	c #928579",
";1	c #756B63",
">1	c #7B7066",
",1	c #9E9083",
"'1	c #ACA49B",
")1	c #B8AB9E",
"!1	c #8F8479",
"~1	c #7C7269",
"{1	c #594E48",
"]1	c #50413A",
"^1	c #7A695E",
"/1	c #928275",
"(1	c #75675D",
"_1	c #4F423C",
":1	c #5E524A",
"<1	c #5F564F",
"[1	c #5D534C",
"}1	c #554D46",
"|1	c #433D38",
"11	c #2B2724",
"21	c #161413",
"31	c #230301",
"41	c #440703",
"51	c #570B06",
"61	c #620E09",
"71	c #741611",
"81	c #6A150F",
"91	c #741911",
"01	c #600F0A",
"a1	c #4C0805",
"b1	c #141212",
"c1	c #1E1B1A",
"d1	c #2E2824",
"e1	c #2F2824",
"f1	c #493E38",
"g1	c #3C322D",
"h1	c #3C332E",
"i1	c #443831",
"j1	c #433630",
"k1	c #7E6256",
"l1	c #A99282",
"m1	c #BBAEA0",
"n1	c #B9B0A5",
"o1	c #72655C",
"p1	c #5E554E",
"q1	c #B0A79D",
"r1	c #B3A99F",
"s1	c #6C635C",
"t1	c #675C55",
"u1	c #695E56",
"v1	c #63564D",
"w1	c #756559",
"x1	c #8A7062",
"y1	c #A17E6D",
"z1	c #8C695B",
"A1	c #775549",
"B1	c #6C4339",
"C1	c #745C52",
"D1	c #9F9286",
"E1	c #9F9488",
"F1	c #998D80",
"G1	c #8B8277",
"H1	c #7D776E",
"I1	c #5D564F",
"J1	c #5A544D",
"K1	c #57524B",
"L1	c #3B3633",
"M1	c #393432",
"N1	c #170302",
"O1	c #420603",
"P1	c #400603",
"Q1	c #5F110C",
"R1	c #7F1E18",
"S1	c #63130F",
"T1	c #4F100A",
"U1	c #570D09",
"V1	c #560906",
"W1	c #1E1B19",
"X1	c #352D29",
"Y1	c #61534A",
"Z1	c #69594E",
"`1	c #776E64",
" 2	c #47352D",
".2	c #3E312C",
"+2	c #30211D",
"@2	c #35201B",
"#2	c #62463C",
"$2	c #978478",
"%2	c #C7BFB4",
"&2	c #D7CFC4",
"*2	c #C8BEB2",
"=2	c #9F8A7C",
"-2	c #65574D",
";2	c #A89F95",
">2	c #C4B7A9",
",2	c #908176",
"'2	c #998D83",
")2	c #B1A69A",
"!2	c #AA9B8D",
"~2	c #BFAC9B",
"{2	c #BC9B88",
"]2	c #A8715E",
"^2	c #663B2F",
"/2	c #825648",
"(2	c #AC8977",
"_2	c #B59F8D",
":2	c #C9B6A3",
"<2	c #B0A394",
"[2	c #B2A89B",
"}2	c #AFA597",
"|2	c #A69B8D",
"12	c #A49B8D",
"22	c #898278",
"32	c #5D5751",
"42	c #45403C",
"52	c #0E0101",
"62	c #230202",
"72	c #3D0503",
"82	c #440705",
"92	c #7E1B15",
"02	c #912920",
"a2	c #4E110D",
"b2	c #350302",
"c2	c #380403",
"d2	c #320302",
"e2	c #191715",
"f2	c #706257",
"g2	c #7F6D60",
"h2	c #907E71",
"i2	c #B3A495",
"j2	c #B69F8F",
"k2	c #875849",
"l2	c #896658",
"m2	c #A79486",
"n2	c #7B5A4E",
"o2	c #48231D",
"p2	c #65473E",
"q2	c #786359",
"r2	c #A79A90",
"s2	c #D7CBBB",
"t2	c #CCBFAF",
"u2	c #9E9084",
"v2	c #99948C",
"w2	c #D8CEC1",
"x2	c #C8B9AB",
"y2	c #D4CABD",
"z2	c #CCC0B1",
"A2	c #B9AA9C",
"B2	c #A78F82",
"C2	c #A37667",
"D2	c #835449",
"E2	c #6B4037",
"F2	c #AD9588",
"G2	c #CCBCAD",
"H2	c #C4B3A1",
"I2	c #B19987",
"J2	c #A48D7C",
"K2	c #B8AEA1",
"L2	c #B8AD9E",
"M2	c #BBB0A2",
"N2	c #A1988D",
"O2	c #756E66",
"P2	c #1A0101",
"Q2	c #3C0504",
"R2	c #470806",
"S2	c #731610",
"T2	c #881F1A",
"U2	c #621512",
"V2	c #4A0405",
"W2	c #460404",
"X2	c #150101",
"Y2	c #171413",
"Z2	c #514841",
"`2	c #62554D",
" 3	c #79675B",
".3	c #77665C",
"+3	c #9D8D80",
"@3	c #AC998B",
"#3	c #997C6E",
"$3	c #957869",
"%3	c #B89A88",
"&3	c #A07766",
"*3	c #814F40",
"=3	c #63493F",
"-3	c #6A564E",
";3	c #A39990",
">3	c #AB9C8F",
",3	c #C3B9AC",
"'3	c #ACA499",
")3	c #A1988C",
"!3	c #868179",
"~3	c #CFC7BC",
"{3	c #B4A497",
"]3	c #B1A293",
"^3	c #9D8B7E",
"/3	c #AF9384",
"(3	c #AF8D7E",
"_3	c #73594F",
":3	c #89796F",
"<3	c #A19287",
"[3	c #AC9786",
"}3	c #B09987",
"|3	c #BBAA99",
"13	c #BBAE9D",
"23	c #B7AD9D",
"33	c #B6AC9E",
"43	c #B9B3A9",
"53	c #A69D92",
"63	c #897F74",
"73	c #6C635A",
"83	c #322E29",
"93	c #2A0403",
"03	c #260302",
"a3	c #1B0202",
"b3	c #3D0807",
"c3	c #97241E",
"d3	c #80211B",
"e3	c #5E1411",
"f3	c #4E0805",
"g3	c #3F0403",
"h3	c #290302",
"i3	c #050403",
"j3	c #161312",
"k3	c #473E39",
"l3	c #433A35",
"m3	c #564841",
"n3	c #7D6C62",
"o3	c #84756A",
"p3	c #998679",
"q3	c #BDB0A0",
"r3	c #B19383",
"s3	c #A97561",
"t3	c #A87462",
"u3	c #824E40",
"v3	c #74574C",
"w3	c #68544B",
"x3	c #796D66",
"y3	c #9A8D82",
"z3	c #AAA095",
"A3	c #A2998F",
"B3	c #A3998E",
"C3	c #5E5751",
"D3	c #938C84",
"E3	c #AD9E92",
"F3	c #A09185",
"G3	c #B3A79B",
"H3	c #D0C4B6",
"I3	c #D9CEBE",
"J3	c #CDBDAB",
"K3	c #A08D80",
"L3	c #C1AE9C",
"M3	c #B09A89",
"N3	c #BEAC9A",
"O3	c #CABDAE",
"P3	c #BCAD9D",
"Q3	c #AC9E8E",
"R3	c #94887B",
"S3	c #7F766E",
"T3	c #82786F",
"U3	c #72685E",
"V3	c #7C7367",
"W3	c #6D655B",
"X3	c #272420",
"Y3	c #110302",
"Z3	c #260403",
"`3	c #240403",
" 4	c #49130F",
".4	c #871C16",
"+4	c #721613",
"@4	c #450806",
"#4	c #4C0705",
"$4	c #560B08",
"%4	c #5B0F0B",
"&4	c #050506",
"*4	c #1A1615",
"=4	c #403935",
"-4	c #3E3631",
";4	c #40342E",
">4	c #816E61",
",4	c #7A6B5E",
"'4	c #806B5E",
")4	c #A78F7F",
"!4	c #AC8A79",
"~4	c #976F5F",
"{4	c #794639",
"]4	c #6B3E33",
"^4	c #5A453E",
"/4	c #8C7B6F",
"(4	c #9F9185",
"_4	c #AA9D8F",
":4	c #9B8D81",
"<4	c #9D8F82",
"[4	c #9B8E82",
"}4	c #4E4741",
"|4	c #312D2A",
"14	c #726A64",
"24	c #D0C3B4",
"34	c #DDD2C2",
"44	c #DED1C1",
"54	c #DACFC0",
"64	c #C5B9AC",
"74	c #CFC2B3",
"84	c #CFBEAA",
"94	c #C6B29F",
"04	c #C8B39F",
"a4	c #CEB9A6",
"b4	c #C3A996",
"c4	c #A08777",
"d4	c #74655A",
"e4	c #82786D",
"f4	c #7B7065",
"g4	c #665C53",
"h4	c #797066",
"i4	c #3B3631",
"j4	c #110303",
"k4	c #360908",
"l4	c #6F1510",
"m4	c #420907",
"n4	c #290202",
"o4	c #420604",
"p4	c #640C09",
"q4	c #460907",
"r4	c #0A0909",
"s4	c #0E0C0D",
"t4	c #3E3835",
"u4	c #403834",
"v4	c #726055",
"w4	c #907E70",
"x4	c #A58F7F",
"y4	c #B39987",
"z4	c #BEA18D",
"A4	c #BFA692",
"B4	c #886C5D",
"C4	c #684A41",
"D4	c #836D61",
"E4	c #8B7B6F",
"F4	c #9A8E81",
"G4	c #8C7F73",
"H4	c #8A7D73",
"I4	c #3A332F",
"J4	c #030204",
"K4	c #625D57",
"L4	c #C1B6A9",
"M4	c #BFAC9C",
"N4	c #D7C8B7",
"O4	c #CCBEB0",
"P4	c #CDBDAC",
"Q4	c #E1D2C0",
"R4	c #DBCAB7",
"S4	c #D0B8A5",
"T4	c #CAA08B",
"U4	c #AA7466",
"V4	c #A27666",
"W4	c #A47261",
"X4	c #775E53",
"Y4	c #948578",
"Z4	c #897D71",
"`4	c #756A60",
" 5	c #5D544C",
".5	c #5F5750",
"+5	c #0D0304",
"@5	c #1B0404",
"#5	c #390C09",
"$5	c #4D110D",
"%5	c #51100C",
"&5	c #470A07",
"*5	c #390302",
"=5	c #141211",
"-5	c #141111",
";5	c #332D2A",
">5	c #3B332F",
",5	c #2A201D",
"'5	c #52443C",
")5	c #967E6E",
"!5	c #A48B79",
"~5	c #BEA38F",
"{5	c #BAA794",
"]5	c #A48D7B",
"^5	c #816658",
"/5	c #967B6B",
"(5	c #766357",
"_5	c #6C5E54",
":5	c #6F645B",
"<5	c #796E65",
"[5	c #2A2624",
"}5	c #837B75",
"|5	c #B5A79B",
"15	c #D6C7B6",
"25	c #D5C7B7",
"35	c #D4C5B3",
"45	c #D5C8B9",
"55	c #DFD0BE",
"65	c #CDB6A5",
"75	c #CEA692",
"85	c #D67E68",
"95	c #A14133",
"05	c #942D22",
"a5	c #84332B",
"b5	c #6F382E",
"c5	c #775247",
"d5	c #776A5F",
"e5	c #7B7268",
"f5	c #5C534B",
"g5	c #28231F",
"h5	c #0F0504",
"i5	c #420E0A",
"j5	c #82251D",
"k5	c #921E1B",
"l5	c #731310",
"m5	c #4A0806",
"n5	c #1E0202",
"o5	c #1A1616",
"p5	c #26211E",
"q5	c #1B1615",
"r5	c #261F1D",
"s5	c #201816",
"t5	c #332924",
"u5	c #544740",
"v5	c #857165",
"w5	c #997E6D",
"x5	c #AC907E",
"y5	c #A69182",
"z5	c #B59C8A",
"A5	c #B09685",
"B5	c #A2897A",
"C5	c #7C695E",
"D5	c #66554B",
"E5	c #52453E",
"F5	c #594D46",
"G5	c #413833",
"H5	c #050404",
"I5	c #4E4945",
"J5	c #BDB1A4",
"K5	c #DFD3C3",
"L5	c #E3D8C8",
"M5	c #E1D4C3",
"N5	c #E9DDCD",
"O5	c #E0D1BE",
"P5	c #D8C5B2",
"Q5	c #BF7A67",
"R5	c #AF4938",
"S5	c #BA5947",
"T5	c #A93C2E",
"U5	c #781D16",
"V5	c #7E2D23",
"W5	c #773025",
"X5	c #5C453D",
"Y5	c #776E65",
"Z5	c #7B7166",
"`5	c #645B52",
" 6	c #312C27",
".6	c #090303",
"+6	c #400B07",
"@6	c #56120D",
"#6	c #3D0606",
"$6	c #400504",
"%6	c #2F0404",
"&6	c #0D0B0A",
"*6	c #1E1A18",
"=6	c #2D2623",
"-6	c #26201F",
";6	c #1F1412",
">6	c #533D36",
",6	c #795E52",
"'6	c #8D6556",
")6	c #7E574A",
"!6	c #775146",
"~6	c #9F7B6B",
"{6	c #C8AE9B",
"]6	c #C9B5A3",
"^6	c #BAA998",
"/6	c #8F7969",
"(6	c #4E4540",
"_6	c #3D3835",
":6	c #201E1C",
"<6	c #A59E94",
"[6	c #D7C8B8",
"}6	c #CFBCAA",
"|6	c #E1D4C2",
"16	c #E0D2C0",
"26	c #E1D1BD",
"36	c #C0907F",
"46	c #A1473C",
"56	c #D78975",
"66	c #BB5141",
"76	c #831810",
"86	c #942D20",
"96	c #862D20",
"06	c #6D4E46",
"a6	c #69625A",
"b6	c #746A62",
"c6	c #73685F",
"d6	c #423B35",
"e6	c #130404",
"f6	c #0E0C0B",
"g6	c #191514",
"h6	c #2D2724",
"i6	c #161212",
"j6	c #261815",
"k6	c #563028",
"l6	c #644237",
"m6	c #6C3E34",
"n6	c #613027",
"o6	c #5E2C24",
"p6	c #87695C",
"q6	c #C2AA98",
"r6	c #D1BDA9",
"s6	c #A68E7C",
"t6	c #695D56",
"u6	c #68625F",
"v6	c #282524",
"w6	c #5B5651",
"x6	c #C4B8AA",
"y6	c #CDBDAE",
"z6	c #BEAB9C",
"A6	c #BCA797",
"B6	c #D1C2B3",
"C6	c #D2C2B0",
"D6	c #CB9C88",
"E6	c #D2503D",
"F6	c #D76852",
"G6	c #C06C56",
"H6	c #954234",
"I6	c #8F2419",
"J6	c #992A1D",
"K6	c #795149",
"L6	c #776B61",
"M6	c #796E64",
"N6	c #7D7167",
"O6	c #756B61",
"P6	c #443B35",
"Q6	c #0F0C0B",
"R6	c #2E2724",
"S6	c #161110",
"T6	c #1F1715",
"U6	c #322521",
"V6	c #402822",
"W6	c #724637",
"X6	c #5E2D21",
"Y6	c #54231B",
"Z6	c #461410",
"`6	c #68463C",
" 7	c #B69F8D",
".7	c #C0AA97",
"+7	c #C4AF9C",
"@7	c #C0AF9E",
"#7	c #9B8A7D",
"$7	c #6C6157",
"%7	c #2B2826",
"&7	c #302D2B",
"*7	c #ACA197",
"=7	c #C9B9AA",
"-7	c #DED2C3",
";7	c #C8B3A3",
">7	c #B19D8F",
",7	c #B9A99B",
"'7	c #B77567",
")7	c #C44235",
"!7	c #AE5544",
"~7	c #D97F68",
"{7	c #C95947",
"]7	c #B33A2A",
"^7	c #A5473A",
"/7	c #9A7A6C",
"(7	c #918072",
"_7	c #8A7D71",
":7	c #887B6E",
"<7	c #1A1512",
"[7	c #1B1815",
"}7	c #2C2623",
"|7	c #433A34",
"17	c #271F1C",
"27	c #17100E",
"37	c #1F1310",
"47	c #55281F",
"57	c #7D3728",
"67	c #642D20",
"77	c #46120D",
"87	c #532A20",
"97	c #A67A66",
"07	c #C2AA95",
"a7	c #C5B29F",
"b7	c #C9B9A7",
"c7	c #A59688",
"d7	c #443D37",
"e7	c #120F0F",
"f7	c #655B53",
"g7	c #C2B5A6",
"h7	c #DDCEBF",
"i7	c #CEC4B8",
"j7	c #716962",
"k7	c #592A25",
"l7	c #9B453C",
"m7	c #8B554D",
"n7	c #B3806D",
"o7	c #CF947D",
"p7	c #C5775E",
"q7	c #C3866F",
"r7	c #B1907F",
"s7	c #9D8B7C",
"t7	c #A6998A",
"u7	c #938476",
"v7	c #857567",
"w7	c #4C4139",
"x7	c #2C2521",
"y7	c #4E413A",
"z7	c #50433A",
"A7	c #3E332C",
"B7	c #43362F",
"C7	c #4D342D",
"D7	c #55241C",
"E7	c #4A1911",
"F7	c #571009",
"G7	c #53160F",
"H7	c #85594A",
"I7	c #B29783",
"J7	c #C2AF9C",
"K7	c #CABAA9",
"L7	c #92877B",
"M7	c #161311",
"N7	c #1C1816",
"O7	c #928B82",
"P7	c #E4D9CB",
"Q7	c #DBCEBF",
"R7	c #C4B2A3",
"S7	c #665850",
"T7	c #352926",
"U7	c #4E3E39",
"V7	c #8E8783",
"W7	c #9B8171",
"X7	c #BC8C76",
"Y7	c #A96B5A",
"Z7	c #BB8772",
"`7	c #AE8E7C",
" 8	c #A69383",
".8	c #B2A393",
"+8	c #968677",
"@8	c #8D7C6D",
"#8	c #68574D",
"$8	c #3E3630",
"%8	c #3B322E",
"&8	c #4B3F38",
"*8	c #5B4C43",
"=8	c #5E4F46",
"-8	c #55433B",
";8	c #584239",
">8	c #5E3C33",
",8	c #34100C",
"'8	c #3D0704",
")8	c #4B0C06",
"!8	c #68352B",
"~8	c #7D5F52",
"{8	c #957C6E",
"]8	c #847A71",
"^8	c #161412",
"/8	c #0F0B0B",
"(8	c #2A221E",
"_8	c #58534E",
":8	c #CFC8BD",
"<8	c #D9D2C9",
"[8	c #8A7E76",
"}8	c #372C27",
"|8	c #28201F",
"18	c #27201E",
"28	c #413B38",
"38	c #47342E",
"48	c #774E3F",
"58	c #A47B6A",
"68	c #C2A693",
"78	c #BAA795",
"88	c #B1A191",
"98	c #AFA08F",
"08	c #857366",
"a8	c #705D51",
"b8	c #715E51",
"c8	c #3F332E",
"d8	c #403630",
"e8	c #3F3530",
"f8	c #433731",
"g8	c #56483F",
"h8	c #7C685B",
"i8	c #6F574B",
"j8	c #694C40",
"k8	c #694336",
"l8	c #390D07",
"m8	c #5D291F",
"n8	c #8F5B4D",
"o8	c #927164",
"p8	c #937669",
"q8	c #968274",
"r8	c #554B44",
"s8	c #080607",
"t8	c #1F1918",
"u8	c #3C302A",
"v8	c #2F2521",
"w8	c #635E57",
"x8	c #A39C95",
"y8	c #69635F",
"z8	c #4A3E38",
"A8	c #453A34",
"B8	c #211C1B",
"C8	c #1A1515",
"D8	c #1E1512",
"E8	c #6D5B50",
"F8	c #B19B8B",
"G8	c #B6A18F",
"H8	c #AE9B8A",
"I8	c #B5A796",
"J8	c #8B7A6D",
"K8	c #665449",
"L8	c #6E5C50",
"M8	c #463A33",
"N8	c #453A33",
"O8	c #493D35",
"P8	c #322A26",
"Q8	c #443832",
"R8	c #473B35",
"S8	c #57443A",
"T8	c #6F5548",
"U8	c #806454",
"V8	c #7C5748",
"W8	c #41130E",
"X8	c #59261D",
"Y8	c #804C3D",
"Z8	c #7B5245",
"`8	c #977B6C",
" 9	c #A59285",
".9	c #110D0C",
"+9	c #090809",
"@9	c #211C1A",
"#9	c #382C26",
"$9	c #3D302A",
"%9	c #372D28",
"&9	c #342A27",
"*9	c #4A3F39",
"=9	c #312B27",
"-9	c #282320",
";9	c #1E1918",
">9	c #6A5D53",
",9	c #9A8677",
"'9	c #A69382",
")9	c #A89889",
"!9	c #907F71",
"~9	c #746053",
"{9	c #746153",
"]9	c #413831",
"^9	c #594D43",
"/9	c #100D0C",
"(9	c #3C322E",
"_9	c #4F433C",
":9	c #51443D",
"<9	c #4E3F38",
"[9	c #4D3830",
"}9	c #695145",
"|9	c #846A59",
"19	c #906F5C",
"29	c #5D3227",
"39	c #6C2A1F",
"49	c #77372B",
"59	c #79493D",
"69	c #876F62",
"79	c #7F7167",
"89	c #070607",
"99	c #1D1817",
"09	c #352B26",
"a9	c #433730",
"b9	c #41342E",
"c9	c #352A26",
"d9	c #3A302A",
"e9	c #4A3E37",
"f9	c #53463D",
"g9	c #443A33",
"h9	c #302925",
"i9	c #241F1D",
"j9	c #141010",
"k9	c #191513",
"l9	c #837265",
"m9	c #998575",
"n9	c #857264",
"o9	c #645449",
"p9	c #6A5A4F",
"q9	c #473C35",
"r9	c #64574D",
"s9	c #0D0B0B",
"t9	c #4C3F38",
"u9	c #56473F",
"v9	c #483832",
"w9	c #4B3932",
"x9	c #866D5E",
"y9	c #755C4E",
"z9	c #6A4F41",
"A9	c #5B372C",
"B9	c #5E3227",
"C9	c #8A5E50",
"D9	c #906A5B",
"E9	c #705649",
"F9	c #2C221E",
"G9	c #090807",
"H9	c #3A312C",
"I9	c #4A3D35",
"J9	c #645247",
"K9	c #6A5243",
"L9	c #5D493D",
"M9	c #5A4A41",
"N9	c #5E4C42",
"O9	c #57473E",
"P9	c #504239",
"Q9	c #37302B",
"R9	c #483D36",
"S9	c #786557",
"T9	c #65564B",
"U9	c #594C42",
"V9	c #564A41",
"W9	c #64564C",
"X9	c #332B26",
"Y9	c #17110F",
"Z9	c #44372F",
"`9	c #604E43",
" 0	c #645146",
".0	c #524037",
"+0	c #493931",
"@0	c #48362E",
"#0	c #755C4F",
"$0	c #7B685C",
"%0	c #5C4B42",
"&0	c #4F2B21",
"*0	c #866151",
"=0	c #977564",
"-0	c #7E5E50",
";0	c #49372E",
">0	c #55463C",
",0	c #614B3E",
"'0	c #956E55",
")0	c #96715B",
"!0	c #876F60",
"~0	c #786154",
"{0	c #685346",
"]0	c #5E493D",
"^0	c #554339",
"/0	c #3C312B",
"(0	c #332C27",
"_0	c #322B27",
":0	c #251F1D",
"<0	c #4D423B",
"[0	c #6E5F55",
"}0	c #706055",
"|0	c #605248",
"10	c #4E433B",
"20	c #594C43",
"30	c #5A4D44",
"40	c #362D28",
"50	c #100B0A",
"60	c #150E0C",
"70	c #1E1713",
"80	c #42352F",
"90	c #4C3C34",
"00	c #2D211C",
"a0	c #231814",
"b0	c #392822",
"c0	c #69574D",
"d0	c #67554C",
"e0	c #5B3A31",
"f0	c #997866",
"g0	c #A48775",
"h0	c #0A0505",
"i0	c #40332D",
"j0	c #56453C",
"k0	c #4E372E",
"l0	c #804B34",
"m0	c #A16950",
"n0	c #A47D68",
"o0	c #927562",
"p0	c #7E6353",
"q0	c #6B5243",
"r0	c #44332B",
"s0	c #372E2A",
"t0	c #77685C",
"u0	c #51453D",
"v0	c #52463E",
"w0	c #342D27",
"x0	c #211816",
"y0	c #0D0808",
"z0	c #3F312B",
"A0	c #3E2F29",
"B0	c #413028",
"C0	c #34261F",
"D0	c #392922",
"E0	c #503B32",
"F0	c #6E5346",
"G0	c #634438",
"H0	c #805948",
"I0	c #695043",
"J0	c #150E0B",
"K0	c #2D2421",
"L0	c #4C3D35",
"M0	c #624A3E",
"N0	c #9E6043",
"O0	c #A25E40",
"P0	c #945D47",
"Q0	c #986C56",
"R0	c #8A5D4A",
"S0	c #8B5B45",
"T0	c #6D4333",
"U0	c #432F27",
"V0	c #332925",
"W0	c #342C27",
"X0	c #413731",
"Y0	c #1A1513",
"Z0	c #3C342E",
"`0	c #584A42",
" a	c #544940",
".a	c #362F2A",
"+a	c #362F29",
"@a	c #0F0B0A",
"#a	c #0E0908",
"$a	c #050202",
"%a	c #1E1714",
"&a	c #251C19",
"*a	c #281D1A",
"=a	c #5F4D42",
"-a	c #7D6759",
";a	c #4D342A",
">a	c #4A2D24",
",a	c #462C23",
"'a	c #3E2820",
")a	c #150A08",
"!a	c #010103",
"~a	c #0B090A",
"{a	c #28211E",
"]a	c #64493D",
"^a	c #B06546",
"/a	c #AB5938",
"(a	c #AC5333",
"_a	c #AF5133",
":a	c #AB5236",
"<a	c #8D513A",
"[a	c #935C44",
"}a	c #634537",
"|a	c #0B0807",
"1a	c #483C35",
"2a	c #4B4039",
"3a	c #322C28",
"4a	c #211C19",
"5a	c #211B17",
"6a	c #090504",
"7a	c #2B1F1A",
"8a	c #160F0C",
"9a	c #0D0909",
"0a	c #191110",
"aa	c #523F36",
"ba	c #725A4C",
"ca	c #856C5D",
"da	c #836858",
"ea	c #513B32",
"fa	c #1F110D",
"ga	c #040405",
"ha	c #0A090B",
"ia	c #080809",
"ja	c #050508",
"ka	c #020204",
"la	c #201917",
"ma	c #4A3B33",
"na	c #52382E",
"oa	c #B15C3F",
"pa	c #B95032",
"qa	c #A34529",
"ra	c #BF5635",
"sa	c #B75234",
"ta	c #97452E",
"ua	c #683B2C",
"va	c #392C27",
"wa	c #171313",
"xa	c #1D1614",
"ya	c #322723",
"za	c #3D332C",
"Aa	c #0F0C0A",
"Ba	c #13100D",
"Ca	c #050302",
"Da	c #17100D",
"Ea	c #3E2F28",
"Fa	c #4C382E",
"Ga	c #5B453A",
"Ha	c #6E584B",
"Ia	c #43342C",
"Ja	c #0B0B0C",
"Ka	c #111010",
"La	c #0F0E0F",
"Ma	c #050507",
"Na	c #090707",
"Oa	c #32251F",
"Pa	c #5D4033",
"Qa	c #7B3120",
"Ra	c #8B3623",
"Sa	c #531A0F",
"Ta	c #7E341F",
"Ua	c #93482E",
"Va	c #893A24",
"Wa	c #5C261A",
"Xa	c #45291F",
"Ya	c #19110E",
"Za	c #0E0B0B",
"`a	c #0D0A0B",
" b	c #140E0B",
".b	c #332923",
"+b	c #2C241F",
"@b	c #040202",
"#b	c #020201",
"$b	c #29201A",
"%b	c #3A2E26",
"&b	c #130C0C",
"*b	c #281C17",
"=b	c #2A1E19",
"-b	c #0B0607",
";b	c #030405",
">b	c #0A0A0C",
",b	c #100E0F",
"'b	c #191717",
")b	c #111112",
"!b	c #090A0B",
"~b	c #0E0B0A",
"{b	c #322721",
"]b	c #4D372E",
"^b	c #63291C",
"/b	c #591D11",
"(b	c #4A160D",
"_b	c #693523",
":b	c #A3593B",
"<b	c #8E4E37",
"[b	c #5F3A2D",
"}b	c #593628",
"|b	c #1D110C",
"1b	c #0E0B0C",
"2b	c #0A080A",
"3b	c #070605",
"4b	c #30251E",
"5b	c #372B24",
"6b	c #110C0A",
"7b	c #090708",
"8b	c #030406",
"9b	c #08080A",
"0b	c #0A0B0C",
"ab	c #070809",
"bb	c #050608",
"cb	c #1F1916",
"db	c #382922",
"eb	c #3E1D15",
"fb	c #52170D",
"gb	c #45160E",
"hb	c #4B2116",
"ib	c #52281B",
"jb	c #4F2C20",
"kb	c #533B30",
"lb	c #3A251C",
"mb	c #140C09",
"nb	c #130E0E",
"ob	c #201813",
"pb	c #060607",
"qb	c #0C0C0D",
"rb	c #040506",
"sb	c #010203",
"tb	c #0C0A0B",
"ub	c #161210",
"vb	c #251A16",
"wb	c #2E1711",
"xb	c #411810",
"yb	c #3B140C",
"zb	c #46180F",
"Ab	c #37160E",
"Bb	c #34140C",
"Cb	c #421C13",
"Db	c #200D09",
"Eb	c #150F0D",
"Fb	c #08090B",
"Gb	c #07080A",
"Hb	c #060708",
"Ib	c #0E0D0C",
"Jb	c #231B17",
"Kb	c #251612",
"Lb	c #442118",
"Mb	c #3E1B12",
"Nb	c #471C13",
"Ob	c #4A251B",
"Pb	c #47261B",
"Qb	c #3A1A12",
"Rb	c #20140F",
"Sb	c #271C16",
"Tb	c #291F1A",
"Ub	c #0D0D0E",
"Vb	c #0B0B0D",
"Wb	c #09090B",
"Xb	c #050607",
"Yb	c #151211",
"Zb	c #1F1A17",
"`b	c #261F1C",
" c	c #29201D",
".c	c #37221C",
"+c	c #39211A",
"@c	c #3E2119",
"#c	c #59372C",
"$c	c #3C261D",
"%c	c #1E120F",
"&c	c #231813",
"*c	c #251B15",
"=c	c #251D1A",
"-c	c #120F0E",
";c	c #070709",
">c	c #0D0D0F",
",c	c #0F0F11",
"'c	c #0B0C0D",
")c	c #040507",
"!c	c #020303",
"~c	c #080708",
"{c	c #28211D",
"]c	c #231E1B",
"^c	c #201713",
"/c	c #3A2921",
"(c	c #402E26",
"_c	c #19100D",
":c	c #1D1511",
"<c	c #1B1411",
"[c	c #2F2722",
"}c	c #030302",
"|c	c #080709",
"1c	c #0A0A0B",
"2c	c #26201C",
"3c	c #241C19",
"4c	c #372A23",
"5c	c #57453A",
"6c	c #514136",
"7c	c #2B1A14",
"8c	c #452D24",
"9c	c #1A120E",
"0c	c #251C18",
"ac	c #302621",
"bc	c #0D0C0E",
"cc	c #030305",
"dc	c #1A1514",
"ec	c #151311",
"fc	c #171312",
"gc	c #352A24",
"hc	c #5B493F",
"ic	c #352924",
"jc	c #311F19",
"kc	c #311E18",
"lc	c #43352C",
"mc	c #4E3F35",
"nc	c #1C1714",
"oc	c #070708",
"pc	c #0E0D0E",
"qc	c #0B0A0C",
"rc	c #07070A",
"sc	c #020305",
"tc	c #030306",
"uc	c #100D0E",
"vc	c #141110",
"wc	c #43352E",
"xc	c #40312A",
"yc	c #433028",
"zc	c #3D2C24",
"Ac	c #47372E",
"Bc	c #44342D",
"Cc	c #14100E",
"Dc	c #110F11",
"Ec	c #0C0C0E",
"Fc	c #131110",
"Gc	c #0B0A0B",
"Hc	c #392E29",
"Ic	c #40332C",
"Jc	c #3C3029",
"Kc	c #362A23",
"Lc	c #3D2E26",
"Mc	c #5F4A3D",
"Nc	c #4C3A2F",
"Oc	c #3F2F27",
"Pc	c #090A0C",
"Qc	c #0B0C0E",
"Rc	c #121112",
"Sc	c #1B1919",
"Tc	c #010100",
"Uc	c #030404",
"Vc	c #1E1A17",
"Wc	c #27211E",
"Xc	c #4C3E36",
"Yc	c #4B3D36",
"Zc	c #473B34",
"`c	c #342B26",
" d	c #44342B",
".d	c #6F5647",
"+d	c #6C5647",
"@d	c #3B2F27",
"#d	c #201814",
"$d	c #0C0B0D",
"%d	c #0C0B0C",
"&d	c #131213",
"*d	c #161516",
"=d	c #181617",
"-d	c #131112",
";d	c #070608",
">d	c #25201C",
",d	c #443933",
"'d	c #4A3E36",
")d	c #4D3E35",
"!d	c #5E4A3E",
"~d	c #765B4C",
"{d	c #574439",
"]d	c #18120F",
"^d	c #1B1412",
"/d	c #100F11",
"(d	c #171616",
"_d	c #110F10",
":d	c #0D0C0D",
"<d	c #3D342F",
"[d	c #3A302C",
"}d	c #2B2321",
"|d	c #483A33",
"1d	c #6C5548",
"2d	c #120D0C",
"3d	c #020304",
"4d	c #060608",
"5d	c #121111",
"6d	c #100E0E",
"7d	c #14110F",
"8d	c #2B2522",
"9d	c #4C3E35",
"0d	c #604D41",
"ad	c #514037",
"bd	c #15100E",
"cd	c #010202",
"dd	c #1C1817",
"ed	c #26201D",
"fd	c #332B27",
"gd	c #1E1916",
"hd	c #433832",
"id	c #483B33",
"jd	c #473931",
"kd	c #100C0C",
"ld	c #110F0E",
"md	c #0C0A08",
"nd	c #111011",
"od	c #060709",
"pd	c #181412",
"qd	c #2B2420",
"rd	c #3C322B",
"sd	c #251E1B",
"td	c #0F0D0C",
"ud	c #09090A",
"vd	c #0E0D0F",
"wd	c #3A302B",
"xd	c #433831",
"yd	c #352C27",
"zd	c #332A25",
"Ad	c #40342D",
"Bd	c #312823",
"Cd	c #251E1A",
"Dd	c #191413",
"Ed	c #0A0708",
"Fd	c #141210",
"Gd	c #221D1A",
"Hd	c #241E1B",
"Id	c #2E2622",
"Jd	c #342A24",
"Kd	c #231B18",
"Ld	c #1D1613",
"Md	c #211A16",
"Nd	c #171210",
"Od	c #080606",
"Pd	c #080808",
"Qd	c #231A16",
"Rd	c #211915",
"Sd	c #2B201A",
"Td	c #2D221C",
"Ud	c #2E2520",
"Vd	c #1E1815",
"Wd	c #2A1D17",
"Xd	c #110E0D",
"Yd	c #3A2C24",
"Zd	c #48362D",
"`d	c #4F3B31",
" e	c #3D2E27",
".e	c #2D241E",
"+e	c #15110F",
"@e	c #120D0D",
"#e	c #4E3326",
"$e	c #301C15",
"%e	c #0E0807",
"&e	c #2F241F",
"*e	c #2A211D",
"=e	c #47362D",
"-e	c #564236",
";e	c #41322A",
">e	c #261D19",
",e	c #21100D",
"'e	c #2B1510",
")e	c #220B08",
"!e	c #1E0A07",
"~e	c #1C0907",
"{e	c #120504",
"]e	c #0E0303",
"^e	c #050303",
"/e	c #1A1311",
"(e	c #352720",
"_e	c #3F3028",
":e	c #413129",
"<e	c #251B16",
"[e	c #281F1A",
"}e	c #080404",
"|e	c #1D0C0A",
"1e	c #431912",
"2e	c #512018",
"3e	c #491810",
"4e	c #531E14",
"5e	c #3D160F",
"6e	c #270B06",
"7e	c #2A0906",
"8e	c #0C0705",
"9e	c #090605",
"0e	c #140C0A",
"ae	c #2D1E18",
"be	c #51382C",
"ce	c #47332A",
"de	c #2E2420",
"ee	c #100B09",
"fe	c #180806",
"ge	c #3E1912",
"he	c #38140E",
"ie	c #3F1711",
"je	c #4A160C",
"ke	c #4D190F",
"le	c #3B160F",
"me	c #210905",
"ne	c #1D0503",
"oe	c #050100",
"pe	c #2D1C16",
"qe	c #442F25",
"re	c #533B2F",
"se	c #533A2E",
"te	c #4E3A2F",
"ue	c #4A382E",
"ve	c #3B2A22",
"we	c #362820",
"xe	c #130C09",
"ye	c #060302",
"ze	c #3D1810",
"Ae	c #592216",
"Be	c #481C12",
"Ce	c #531E12",
"De	c #692A1C",
"Ee	c #4D1E15",
"Fe	c #35120D",
"Ge	c #110403",
"He	c #060303",
"Ie	c #2E1E18",
"Je	c #241712",
"Ke	c #2B1D17",
"Le	c #513528",
"Me	c #80533B",
"Ne	c #694332",
"Oe	c #7C4E3A",
"Pe	c #764E3B",
"Qe	c #5F4334",
"Re	c #342621",
"Se	c #251B18",
"Te	c #150F0C",
"Ue	c #220A06",
"Ve	c #3A130B",
"We	c #2F110B",
"Xe	c #260C07",
"Ye	c #2E100A",
"Ze	c #270C08",
"`e	c #110907",
" f	c #241813",
".f	c #241914",
"+f	c #2E1E19",
"@f	c #6A4433",
"#f	c #764C39",
"$f	c #8B5942",
"%f	c #774E3C",
"&f	c #7D5B46",
"*f	c #3A2A23",
"=f	c #070505",
"-f	c #000201",
";f	c #030201",
">f	c #020100",
",f	c #040101",
"'f	c #0E0706",
")f	c #281B16",
"!f	c #2C201A",
"~f	c #281D18",
"{f	c #3D2C25",
"]f	c #372720",
"^f	c #3E2C23",
"/f	c #33231C",
"(f	c #221B18",
"_f	c #4C382F",
":f	c #654A3C",
"<f	c #654B3D",
"[f	c #5D4539",
"}f	c #3C2C25",
"|f	c #3B2B22",
"1f	c #2B1F19",
"2f	c #2E211B",
"3f	c #2B201B",
"4f	c #362923",
"5f	c #46352C",
"6f	c #1B120F",
"7f	c #1E1715",
"8f	c #1B120E",
"9f	c #1E1410",
"0f	c #4E352B",
"af	c #6F4E3F",
"bf	c #664435",
"cf	c #724C3B",
"df	c #5F3F30",
"ef	c #382119",
"ff	c #231412",
"gf	c #0C0707",
"hf	c #130A08",
"if	c #2E211C",
"jf	c #3C2A24",
"kf	c #5B3C30",
"lf	c #714736",
"mf	c #6D4332",
"nf	c #5E3829",
"of	c #4E2D21",
"pf	c #47271D",
"qf	c #1B0D0A",
"rf	c #0E0403",
"sf	c #241511",
"tf	c #35211B",
"uf	c #281A17",
"vf	c #3C2720",
"wf	c #633B2C",
"xf	c #8A4A35",
"yf	c #8B4832",
"zf	c #723928",
"Af	c #753D2A",
"Bf	c #663121",
"Cf	c #451F15",
"Df	c #270F0A",
"Ef	c #110504",
"Ff	c #0B0403",
"Gf	c #230F0B",
"Hf	c #1F0E0B",
"If	c #391F18",
"Jf	c #4D251B",
"Kf	c #673123",
"Lf	c #693425",
"Mf	c #8A422C",
"Nf	c #8A3D27",
"Of	c #833B27",
"Pf	c #7F3A27",
"Qf	c #62281A",
"Rf	c #60281B",
"Sf	c #40170F",
"Tf	c #1D0805",
"Uf	c #070202",
"Vf	c #3C1F17",
"Wf	c #6F3726",
"Xf	c #793926",
"Yf	c #854531",
"Zf	c #914A31",
"`f	c #8E462C",
" g	c #85412A",
".g	c #753120",
"+g	c #5B2014",
"@g	c #4F180F",
"#g	c #2D0C07",
"$g	c #140402",
"%g	c #130909",
"&g	c #22100F",
"*g	c #51281F",
"=g	c #6B3528",
"-g	c #67382C",
";g	c #7B4736",
">g	c #582C1F",
",g	c #411B13",
"'g	c #5A271C",
")g	c #572116",
"!g	c #401B15",
"~g	c #3B1C16",
"{g	c #1C0A08",
"]g	c #0A0304",
"^g	c #170706",
"/g	c #210E0A",
"(g	c #1E0E0B",
"_g	c #2C1711",
":g	c #1B0906",
"<g	c #1E0A06",
"[g	c #1A0603",
"}g	c #0B0302",
"                                                                                                                                                              ",
"                                                                                                                                                              ",
"                                                                                                                                                              ",
"                                                                                  .                                                                           ",
"                                                                    +       @ # $ % & *     =                                                                 ",
"                                                                    - ; > , ' ) ! ~ { ] ^ / (                                                                 ",
"                                                            _     : < [ } | 1 2 3 4 5 6 7 8 9 0                                                               ",
"                                                            a b c d e f g h i j k l m n o p q r s b t u v                                                     ",
"                                                    w x y z A B C D E F G H I J K L M N O P Q R S T U V                                                       ",
"                                                W X Y Z `  ...+.@.#.$.%.&.*.=.-.;.>.,.'.).!.~.{.].^./.(._.:.                                                  ",
"                                                    <.[.}.|.1.2.3.4.5.6.7.8.9.0.a.b.c.d.e.f.g.h.i.j.k.l.m.n.                                                  ",
"                                                  o.p.q.r.s.t.u.v.w.x.y.z.A.B.C.D.E.F.G.H.I.J.K.L.M.N.O.P.Q.                                                  ",
"                                                  R.S.T.U.V.W.X.Y.Z.`. +.+++@+#+$+%+&+*+=+-+;+>+,+'+)+!+~+{+]+                                                ",
"                                                    ^+/+/+(+_+:+<+[+}+|+1+2+3+4+5+6+7+8+9+0+a+b+c+d+e+f+g+h+i+j+                                              ",
"                                                    t k+l+& m+n+o+p+q+r+s+t+u+v+w+x+y+z+A+B+C+D+E+F+G+H+I+J+                                                  ",
"                                                    K+L+M+N+O+P+Q+R+S+T+U+V+W+X+Y+Z+`+ @.@+@@@#@$@%@&@*@=@-@                                                  ",
"                                                        ;@>@,@'@)@!@~@{@]@^@/@(@_@:@<@[@}@|@1@2@3@4@5@6@  7@                                                  ",
"                                                        8@9@0@a@b@c@d@e@f@g@h@i@j@k@l@m@n@o@p@q@r@s@t@                                                        ",
"                                                        u@v@w@x@y@z@A@B@C@D@E@F@G@H@I@J@K@`+L@M@N@O@P@                                                        ",
"                                                        Q@R@S@T@U@V@W@X@Y@Z@`@ #.#+#@###$#%#&#*#=#R.                                                          ",
"                                                        -#;#>#,#'#)#!#~#{#]#^#/#(#_#:#<#[#}#|#1#L+                                                            ",
"                                                        /+2#3#4#5#6#7#8#9#0#a#b#c#d#e#f#g#h#i#j#N@k#                                                          ",
"                                                      l#m#n#o#p#q#r#s#t#u#v#w#x#y#z#A#B#C#R@D#E#F#G#H#                                                        ",
"                                                  I#J#K#L#M#N#O#P#Q#R#S#T#U#V#W#X#Y#Z#`# $.$+$@$#$J+$$%$&$                                                    ",
"                                              *$=$-$;$>$,$'$)$!$~${$]$^$/$($_$:$<$[$}$|$1$2$3$T#j+4$5$6$7$8$9$                                                ",
"                                        0$a$b$c$d$e$f$g$h$7@i$j$k$l$m$n$o$p$q$r$s$t$u$v$w$x$y$z$A$B$C$D$E$F$G$H$I$J$                                          ",
"                                    K$L$M$N$O$P$Q$R$S$T$U$V$W$X$Y$Z$`$ %.%+%@%#%$%%%&%*%=%-%;%>%,%'%)%!%~%!%{%]%^%/%(%_%                                      ",
"                              :%<%[%}%|%1%2%3%4%5%6%7%8%9%0%a%b%V c%d%e%f%g%h%i%j%k%l%m%n%o%p%q%r%s%t%u%v%w%x%y%z%A%B%C%D%E%F%                                ",
"                          G%H%I%J%K%L%M%N%O%P%Q%R%S%T%U%V%W%X%Y%Z%`% &.&+&@&#&$&%&&&*&=&-&7@;&>&,&'&)&!&~&{&]&^&/&(&_&:&<&[&}&|&1&                            ",
"                        2&3&4&5&6&7&8&9&0&a&b&c&d&e&f&g&h&-&i&j&k&l&m&n&+&o&p&q&r&s&t&u&d%v&w&x&y&z&A&B&C&D&E&F&G&H&B%I&J&K&L&M&}&N&                          ",
"                      O&P&Q&R&S&T&U&V&W&X&Y&Z&`& *8&.*v%+*@*#*$*%*&***=*-*;*>*n&,*'*)*!*~*{*]*^*/*(*_*:*<*[*}*|*1*2*3*4*5*6*7*8*9*0*a*                        ",
"                    b*c*d*e*f*g*h*i*j*k*l*m*n*o*p*q*r*s*t*u*v*w*x*y*z*A*B*C*D*E*F*G*H*I*J*K*L*M*N*O*P*Q*R*S*T*U*V*W*X*Y*Z*`* =.=+=@=#=                        ",
"                    $=%=&=*===-=;=>=,='=)=!=~={=]=^=/=(=_=:=<=[=}=|=1=2=3=4=5=6=7=8=9=0=a=b=c=d=e=f=g=h=i=j=k=l=m=n=o=p=q=r=s=Z&t=u=v=w=                      ",
"                  x=y=z=A=B=C=D=E=F=G=H=I=J=K=L=M=N=O=P=Q=R=S=T=U=V=W=X=Y=Z=`= -.-+-@-#-$-%-&-*-=---;->-,-'-)-!-~-{-]-^-/-(-_-:-<-[-}-|-                      ",
"                  1-2-3-4-5-6-7-8-9-0-a-b-c-d-e-f-g-h-i-j-k-l-m-n-o-p-q-r-s-t-u-v-w-x-y-z-A-B-C-D-E-F-G-H-I-J-K-L-M-N-O-P-Q-R-S-T-U-V-W-                      ",
"                X-Y-Z-`- ;.;+;@;#;$;%;&;*;=;-;;;>;,;';);!;~;{;,$G*];^;/;(;_;:;<;[;};|;1;2;3;4;5;6;7;8;9;0;a;b;c;d;e;f;(-g;h;i;j;k;l;m;n;o;                    ",
"                p;q;r;s;t;u;v;w;x;y;z;A;B;C;D;E;F;G;H;I;J;K;]%L;M;N;O;P;Q;R;S;T;U;V;W;d%X;Y;Z;`; >.>+>@>#>$>%>&>*>=>->;>>>,>'>)>!>~>{>]>^>                    ",
"                />(>_>:><>[>%;}>|>1>2>3>4>5>6>7>8>9>0>a>b>c>d>e>M;f>g>h>i>j>k>l>m>n>)*o>p>q>r>s>t>u>v>w>x>y>z>A>B>C>g;D>,>E>F>G>H>I>J>K>L>M>                  ",
"              N>O>P>Q>R>S>T>U>V>W>X>Y>Z>`> ,.,+,@,#,e-$,%,&,*,=,-,;,>,,,',),!,~,V;{,],m-^,/,(,_,:,<,[,},|,1,2,3,4,5,6,7,8,9,0,a,b,c,d,e,f,g,                  ",
"              h,i,j,k,l,m,n,o,p,q,r,s,t,u,v,w,x,y,z,A,B,C,D,E,F,G,H,I,J,K,L,M,N,O,P,A-Q,R,S,T,U,V,W,X,Y,Z,`, '.'+'@'#'$'%'&'*'='-';'>',''')'!'                ",
"            ~'{']'^'/'('_':'<'['}'|'1'2'3'4'5'6'~&#'7'8'9'0'9'a'b'c'd'e'f'g'h'i'j'k'l'8,m'n'o'p'q'r'X.s't'j&u'v'w'x'y'z'A'B'C'd,D'>'E'F'G'H'I'                ",
"            J'K'L'M'N'O'P'Q'R'S'T'U'V'W'X'Y'Z'`' ).)+)@)#)$)%)&)*)=)-);)>),)')))!)M;~){)])^)/)()_):)<)[)})|)1)2)3)4)V>5)6)7)8)9)0)a)b)c)d)e)f)g)              ",
"          h)i)j)k)l)m)n)o)p)q)r)s)t)u)i$v)w)x)y)z)A)B)C)D)E)F)G)H)I)J)M;K)L)M)N)O)P)Q)R)S)T)U)V)W)X)Y)Z)`) !.!+!@!#!$!%!&!*!=!-!;!>!,!'!)!!!~!{!              ",
"          ]!^!/!(!_!:!<![!}!|!1!2!3!4!5!6!7!8!9!0!a!b!c!d!e!f!g!h!i!j!k!M;l!m!n!o!p!q!5>r!s!t!u!v!w!x!y!z!A!B!C!D!E!F!G!H!I!J!K!L!M!N!O!P!Q!R!S!              ",
"        T!U!V!W!X!Y!Z!`! ~.~+~@~#~$~%~&~o**~=~-~;~>~,~'~)~!~~~{~9)]~^~/~(~_~:~2;<~[~}~|~1~2~3~4~5~6~7~8~9~0~a~b~c~d~e~f~g~h~i~j~k~l~m~n~o~p~q~r~s~            ",
"      t~u~v~w~x~y~z~A~B~C~D~E~F~G~|'H~I~J~K~L~M~N~O~P~Q~R~S~T~U~V~W~X~Y~Z~`~M;M; {.{+{a$@{#{${%{&{*{={-{;{>{,{'{){j)!{~{{{]{^{/{({_{:{<{[{}{|{1{2{3{          ",
"      4{5{6{7{8{9{0{a{b{c{d{e{f{g{h{i{j{k{l{m{n{o{p{q{r{s{t{u{v{w{x{y{z{A{B{C{D{E{F{G{H{I{J{K{L{M{N{O{P{Q{R{S{T{U{V{W{X{Y{Z{`{ ].]+]@]#]$]%]&]*]=]-]          ",
"    ;]>],]L$']A%)]!]~]{]]]^]/](]_]:]<][]}]|]1]2]3]4]5]6]7]8]9]0]a]b]c]d]e]f]g]h]i]j]k]l]m]n]o]p]q]r]s]t]u]v]w]x]y]z]A]Y{X;4!7@B](+C]D]E]F]G]H]I]J]K]L]        ",
"    M]N]O]P]f;Q]R]S]T]U]V]W]X]Y]Z]`] ^.^+^@^#^$^%^&^*^=^-^;^>^,^'^)^!^~^{^]^]!^^/^(^_^:^<^[^}^|^1^2^3^4^5^6^7^8^9^0^a^  b^Y{c^d^e^f^g^h^i^j^k^l^m^n^o^        ",
"  p^q^r^F!s^t^u^v^w^x^y^z^A^B^C^D^E^F^G^H^I^J^K^L^M^N^O^C*P^Q^R^S^T^U^V^W^X^Y^Z^`^ /./+/@/#/$/%/&/*/=/-/;/>/,/'/F')/      Y{v&!/~/0 {/]/^///(/_/:/</[/        ",
"  }/*$|/1/2/3/4/5/6/7/8/9/0/a/b/c/d/e/f/g/h/i/j/k/l/m/n/o/p/q/r/s/t/u/v/w/x/y/z/A/B/C/D/E/F/G/H/I/J/K/L/M/N/O/P/Q/R/      Y{S/T/$@U/V/W/X/Y/Z/`/ (.(+(        ",
"  @(#($(-&%(&(*(=(-(;(>(,('()(!(~({(](^(/(Y{[/{~((_(:(<([(}(|(1(2(3(4(5(6(7(8(9(0(a(.)b(c(d(e(f(g(h(i(j(k(l(m(n(o(p(        q(r(s(t(u(v(w(x(y(z(A(B(C(-#      ",
"  D(E(F(G(H(I(J(K(L(M(N(O(P(Q(R(S(T(U(V(W(X{M#X(Y(Z(`( _._+_@_#_$_%_&_*_=_-_;_>_,_'_)_I;!_~_{_]_^_/_(___:_<_[_}_|_1_        2_3_4_5_h/V ,&6_7_8_9_0_a_b_      ",
"  T=c_o>d_e_f_g_h_i_j_k_l_m_n_o_p_q_r_Z{2;s_t_u_v_w_x_y_z_A_B_C_D_E_F_G_H_b!I_J_2*K_L_M_N_O_P_Q_R_S_T_U_V_W_X_Y_U'Z_        `_2#4!M#b^ :.:/_+:@:#:$:S_i+      ",
"  %:&:*:=:-:;:>:,:':):!:~:{:P!]:^:/:(:_:::<:[:T }:|:1:*^2:3:4:5:6:7:8:9:0:a:b:c:H&d:e:f:g:h:i:j:k:l:a_m:n:o:p:q:r:s:t:        ;#M#u:;#v:w:x:y:z:y(A:B:        ",
"    C:D:E:F:G:H:I:J:K:L:M:N:O:P:Q:R:S:  Z{T:U:,&V:W:X:Y:Z:`: <.<+<@<#<$<%<&<*<=<-<;<F,><,<'<)<!<~<{<]<^</<(<_<:<<<s:Y_          [<u:}<|<1<2<3<4<5<6<7<        ",
"    8<9<0<a<b<c<d<e<f<g<h<i<j<k<l<m<    n<o<p<q<r<^{s<t<u<v<w<x<y<z<A<B<C<D<E<F<G<_=H<I<J<K<L<M<N<O<P<Q<R<S<T<U<V<W<p:            X<;#V$Y<Z<`< [.[@.+[        ",
"      @[#[$[%[&[*[=[-[;[>[,['[)[![      ~[{[][^[/[([_[:[<[[[}[|[1[2[3[4[5[6[7[8[9[0[a[b[c[d[e[f[g[h[i[`~j[k[l[m[n[W<o[              b^4!p[q[r[s[t[u[v[        ",
"        w[x[y[z[A[B[C[D[E[F[G[H[I[    J[K[{[L[M[N[O[P[Q[R[S[T[U[V[W[X[Y[Z[`[ }.}+}@}#}$}%}&}*}=}-}G!;}>}I',}'})}!}~}{}u:              7@]}^}/}(}_}:}<}        ",
"          [}}}|}1}2}3}q[U 4}5}6}      7}8}9}0}a}b}c}G{d}e}f}g}h}i}j}k}l}m}n}o}p}q}r}s}6$t}u}v}W_w}x}y}z}A}B}C}D}E}L#F}G}              H}I}J}K}L}M}N}O}        ",
"                P}H}Q}R}S}T}n.        u:U}V}W}G^X}N[Y}Z}`} |.|+|@|#|$|%|&|*|}&=|-|;|>|,|'|)|!|W%~|_@{|]|^|/|r^U{(|_|:|<|              [|}|||1|2|3|4|5|6|      ",
"                    7|8|9|0|a|        b|c|d|e|w}`~M[f|g|h|i|j|k|l|m|n|m;o|p|q|r|s|t|u|v|w|x|y|z|A|B|F'C|D|E|F|G|H|I|J|K|            L|M|N|O|P|Q|R|S|T|U|      ",
"                      V|W|X|        Y{Y|o[Z|`| 1.1+1@1#1$1%1&1*1=1-1;1>1,1}/'1)1%|!1~1{1{<]1j|^1/1(1_1:1)|<1[1#|}1h)|11121          o&3141516171819101a1      ",
"                                    '$b1c1d1f~e1f1g1h1i1j1y [=k1l1m1n1J=o1p1q1r1s1t1u1v1w1x1y1z1A1B1C1D1E1F1G1H1I1J1K1L1M1          N1q/O1P1Q1R1S1T1U1V1      ",
"                                    Z{W1X1Y1Z1b}`1''V. 2.2+2@2#2$2%2&2*2=2-2;2>2,2'2)2!2~2{2]2^2/2(2_2:2T%<2[2}2|212223242          526272829202a2b2c2d2      ",
"                                    '$e2$$f2g2h2i2j2k2l2m2n2o2p2q2r2s2t2u2+'v2w2x2y2z2A2B2C2D2E2F2G2H2I2J2U%K2L2M2f;N2O2T'          C*P2Q2R2S2T2U2V2W2X2      ",
"                                    u)Y2Z2`2 3.3+3@3#3$3%3&3*3=3-3;3>3,3'3)3!3~3{3]-r}]3^3/3(3_3:3<3[3}3|313233343536373^!83        9303a3b3c3d3e3f3g3h3      ",
"                                  i3O#j3k3l3m3n3o3p3q3r3s3t3u3v3w3x3y3z3A3B3C3D3E3F3G3H3I39'J3K3B)L3M3N3O3P3Q3R3S3T3U3V3W3X3      Y3Z3`38< 4.4+4@4#4$4%4      ",
"                                  ::&4*4=4-4;4>4,4'4)4!4~4{4]4^4/4(4_4:4<4[4}4|414}&y2243444546474849404a4b4c4d4e463f4g4h4i4          j4N;k4l4m4n4o4p4q4      ",
"                                  b^r4s4t4u4` v4w4x4y4z4A4B4C4D4E4#)F4>1G4H4I4M;J4K4L4M4N4O4A)P4Q4R4S4T4U4V4W4X4Y4Z4`4 5a,.5            +5@5#5$5%5&5*5        ",
"                                  7@=5-5;5>5,5'5>4)5!5~5{5]5^5/5(5_5&$l3:5<5[5-&-&21}5|515253545556575859505a5b5c5h2d573e5f5g5          h5i5j5k5l5m5n5        ",
"                                  ~[o5p5q5r5s5t5u5v5w5x5y5z5A5B5C5D5E5&$F5G5H5-&-&M;I5J5K5L5M5N5O5P5Q5R5S5T5U5V5W5X50^Y5Z5`5 6          .6+6@6#6$6%6          ",
"                                  &6*6~<=6-6/+;6>6,6'6)6!6~6{6]6^6/6d]y{(6_6~{-&M;M;:6<634[6}6|616263646566676869606a6b6c6`5d6              e6l+              ",
"                                  f6g6,$h6i6p.j6k6l6m6n6o6p6q6r6`'s6(1t6u6v6M;M;M;-&M;w6x6y6z6A6B6C6D6E6F6G6H6I6J6K6L6M6N6O6P6                                ",
"                                  Q6[/R6e1S6T6U6V6W6X6Y6Z6`6 7.7+7@7#7$7%7M;M;M;M;Y{X{&7*7=7-7;7>7,7'7)7!7~7{7]7^7/7(7_7:7,4y|<7                              ",
"                                  [7R6}7|7g117273747576777879707a7b7c7d7M;M;M;M;M;'$u:e7f7g7M5h7i7j7k7l7m7n7o7p7q7r7s7t7u7v7w7x7                              ",
"                                  V}m:y|~<y7z7A7B7C7D7E7F7G7H7I7J7K7L7o^M;M;M;M;;#S6M7*4N7O7P7Q7R7S7T7U7V7W7X7Y7Z7`7 8.8+8@8#8)+H#                            ",
"                                ;#H!`~$8%8&8*8=8-8;8>8,8'8)8!8~8{8B)]8^8M;M;M;M;/8(8]+/<17_8:8<8[8}8|818283848586878889808a8b8c8R6                            ",
"                                2#1_e1d8e8f8g8h8i8j8k83:l8m8n8o8p8q8r8M;M;M;M;M;s8}]t84$u8v8w8x8y8z8A8R6B8C8D8E8F8G8H8I8J8K8L8M8N8O8                          ",
"                                X<*4P8Q8j(R8B7S8T8U8V8W8X8Y8Z8`8 9>].9M;M;M;M;M;2#+9@9#9$9%9&9m{X1*9.1=9-9;9T:h+>9,9'9)9!9~9{9y7]9^9                          ",
"                                /9f~(9_9:9c}<9[9}9|919293949596979X-M;M;M;M;M;M;X{899909a9C)b9c9d9e9f9g9$8h9i9j9k9`2l9m9n9o9p9q9]|r9                          ",
"                              ;#s9Y2I't9u9A:v9w9x9y9z9A9B9C9D9E9F9M;M;M;M;M;M;M;M;G9=6H9I9J9K9L9M9N9O9P9f9]9Q9|/g6$(R9S9S9T9U9&8V9W9X9                        ",
"                              p%}<Y9Z9`9 0.0+0@0#0$0%0&0*0=0-0;0'$M;M;M;M;M;M;M;M;q(S_Q8>0,0'0)0!0~0{0]0^0/0(0h6_0:0-&<0[0}0|010203040                        ",
"                              507}60708090Y/00a0b0c0d0e0f0g0M.h0M;M;M;M;M;M;M;M;M;Z{17i0j0k0l0m0n0o0p0q0r0p<a^h$s0a^4!N7W-t0`/u0v0]9w0                        ",
"                            K[Q@%@x0y04$z0A0B0C0D0E0F0G0H0I0J0M;M;M;M;M;M;M;4!4!-&4!e7K0L0M0N0O0P0Q0R0S0T0U0V0W0X0Y0X{M;Z0-2`0 a5$.a+aF(                      ",
"                            @a#a$ac^5@%a&a*a@0=a-a;a>a,a'a)a!aX{u)X{-&-&M;M;    -&-&~a{a80]a^a/a(a_a:a<a[a}a/0!|n{|a'$O#.9=@1a2a2a3a4a5a                      ",
"                            +^7@[<6a7a8a9a0aaabacadaeafagahaiajaka-&-&-&M;M;    -&X;89lamanaoapaqarasataua8|va3{wa'$Y{u)+^xaya>0zaj+  AaBa                    ",
"                            H^    CaJ0CaZ{DaEaFaGaHaIa!aJaKaLaMa!a-&M;M;M;M;    4!H5n<NaOaPaQaRaSaTaUaVaWaXaYaZa`aX{`_2#|a.9 b.b+bN#    8}                    ",
"                                @b#b4!b^Z{$b%b&b*b=b-b;b>b,b'b)b!b;bV(-&o>      4!7@q(~b{b]b^b/b(b_b:b<b[b}b|b1b2b;#<7p('$3b  4b5b                            ",
"                                W(        5@6b`_`_7b8b8b8b9b0babbb;bX{X{4!      2;Z{~{Y_cbdbebfbgbhbibjbkblbmbnbu:ga    n<;#    ob                            ",
"                                          Y{Y{&4pbqb>bbb8bbbrbsb4!4!O#O#X;      '$s_tbY_ubvbwbxbybzbAbBbCbDb!/Ebs_O#                                          ",
"                                          -&n<Y_U}!bFbGbGbHb;bX{V(-&4!X;M;M;    '$u)r4Ibk9JbKbLbMbNbObPbQbRbSbTbo.Z{                                          ",
"                                          M;'$u)gabb0bUbVbWbXbMau)'$4!X;M;M;    n<&41_YbZb`b c.c+c@c#c$c%c&c*c=c-cs_                                          ",
"                                          o>4!u)k$;c>b>c,c'c)c)c;c!c4!V(M;M;    O#~cd|Y2][{c]cs4^c/c(c_c=b:c<c[cM7                                            ",
"                                          2;}cs_|c;c;cbb1cUb9bHbMau)M#2#4!4!  M#X{7bj3g62c3ci+q(4c5c6c7c8c9c0cac/9                                            ",
"                                            n<u)u:&4LabcccX{cc9bVb&4{{2_X{M;  Y{'$Q6dcecfcL~Q6f6gchcicjckcJblcmcnc                                            ",
"                                            '$ocpcqcV'>crcsckak$;ctcu)O#-&M;  X;'$G}o5ucvc0%`_[:=cwcxcyczcAcBcIaCc                                            ",
"                                            X{O#U}DcUbEc>bbbk$&4pcEc;cs82;M;4!4!'$Fco5Gce7Na~bS_HcIcJcKcLcMcNcOc}_                                            ",
"                                            4!O#pb1cJaVb>bPcQcRcSc,cqb~a4!M;4!TcUcVcWcX_tb;#0}XcYcZc`c d.d+d@d#df6                                            ",
"                                            '$4!89$dWb;ck$%d&d*d=dRc-d;dM;M;4!4!u:*6>dGc`_Zaa_<9,d'd)d!d~d{d]d^d0%                                            ",
"                                              4!u)&4ia/d/d'b(dqcqc_d|ccc-&-&O#u)gapc:dpb&4g6<d[d}da_|d//1d{+2dR.Cc3b                                          ",
"                                              Y{kaccrb9b>b/d/dHbcc3d4dgaM;X;  ga&45d6dMa7d8dQ9*6:0d99d0dadbd-cvc-c                                            ",
"                                                u)k$:d$diak$rb3dcccdX{M;M;M;  2#r4ddedG}fdx}gd{cS_hdidjdp<kdS6ldmd                                            ",
"                                                n<rb>b&dndJaVbGbodX{M;M;M;    4!I~e|pdG}w}qdM8a9hdhdI9rdsdk9tdb|b^                                            ",
"                                                Z{u)gaudvdRcV'pb;bV(M;M;o>    X;O#b|&4&~h~wdxdydzdb9AdBdCd1/DdEdZ{                                            ",
"                                              4!'$X{4!u)!cu)u)X{X{X{M;M;Tc    4!4!X{X{FdGd4aHdIdJd#9KdLdMdNd.9OdH5                                            ",
"                                              4!`_~c~cPdO#u)cck$MaO#M;M;2;    '$'$X{X{&~/<sdsdi+#dQdRdSdTdUdVdK[7@                                            ",
"                                              Tcp(G}vcWd* O#u)3dX{4!M;o>      '$#bM;4!Xdfc4a{cY0u'YdZd`d e.e+eH57@                                            ",
"                                            4!4!J[@e!/#e$e%e7}b^X;o>TcM;      4!X;M;M;3b2d&e*eC(u'=e-ei^;e>e/9b|Z{                                            ",
"                                            2;M;Y{c%,e'e)e!e~e{e]eW(M;o>    TcM;X;Y{^ey0&@/e(e_e:e<e00[e0cxaXdNa^e                                            ",
"                                            2;M;}e|e1e2e3e4e5e6e7e+&M;o>  2;4!X;b^{*8e9e0eaebeceZdde<.50J[Q@ee^eJ[                                            ",
"                                            #bo>fegeheiejekelemeneoeM;M;  #b#b4!b^{*5@_cpeqereseteueveweg+p>xeyeK*                                            ",
"                                              2;H,zeAeBeCeDeEeFeGeX;M;o>  4!o>4!d%HeK+IeJeKeLeMeNeOePeQeReSeTe9eH^                                            ",
"                                              o>$aUeVeWeXeYeZex#W(o>M;      M;M;2;b^`e f.fNd+f@f#f$f%f&f*f=#=fb^b^                                            ",
"                                                  4!-f;f>f,f$a;fW(          M;M;2;o>'f)f!f~f{f]f^fqe/fC0a%p%H5d%b^                                            ",
"                                                                            M;M;M;4!Od(fva_f:f<f<f[f}f^dbd9e4!Tc                                              ",
"                                                                              o>M;4!p(=#|f1f7a2f3f4f5f6f7f#a'$@b                                              ",
"                                                                              4!X;X;4!7}8f9f0fafbfcfdfefffgfY{b^                                              ",
"                                                                              2;2;4!X;hf+fifjfkflfmfnfofpfqfH^^e                                              ",
"                                                                              Tc2;W(rfsftfufvfwfxfyfzfAfBfCfDfEf                                              ",
"                                                                              o>2;FfGfHfIfJfKfLfMfNfOfPfQfRfSfTfP}                                            ",
"                                                                                o>2;Uf@ VfWfXfYfZf`f g.g+g@g#g$gO)                                            ",
"                                                                                  '$^e%g&g*g=g-g;g>g,g'g)g!g~g{g<{]g                                          ",
"                                                                                    b^[<$a^g/g(g_g:gK)<g[gP}}gG*Uf                                            ",
"                                                                                        '$d%d%@b2;b^@b2;Y{2;2;4!                                              ",
"                                                                                                                                                              ",
"                                                                                                                                                              ",
"                                                                                                                                                              ",
"                                                                                                                                                              ",
"                                                                                                                                                              "};
