/* XPM */
static char *_b2aedd30bfe4d219ef7274c4f2381a0[] = {
/* columns rows colors chars-per-pixel */
"100 100 253 2 ",
"   c #010005",
".  c #030109",
"X  c #0B060A",
"o  c #0B030D",
"O  c #12050B",
"+  c #19080A",
"@  c #19110F",
"#  c #0E0510",
"$  c #0D0A12",
"%  c #130512",
"&  c #1A0616",
"*  c #140A14",
"=  c #1A0B16",
"-  c #1D0D1A",
";  c #181417",
":  c #1C141B",
">  c #220B0C",
",  c #2B090A",
"<  c #340304",
"1  c #390709",
"2  c #36150E",
"3  c #24061A",
"4  c #230C1D",
"5  c #330F10",
"6  c #27171A",
"7  c #23121E",
"8  c #381816",
"9  c #2D2619",
"0  c #1E1B22",
"q  c #260E21",
"w  c #280E21",
"e  c #261221",
"r  c #2A1424",
"t  c #241B22",
"y  c #2C1B24",
"u  c #2D1628",
"i  c #2E1929",
"p  c #311C25",
"a  c #321B2B",
"s  c #2B2528",
"d  c #33242B",
"f  c #37282B",
"g  c #37322A",
"h  c #2D2A32",
"j  c #372C32",
"k  c #3B3537",
"l  c #460A09",
"z  c #5A0709",
"x  c #4A100E",
"c  c #59180B",
"v  c #461A15",
"b  c #571A15",
"n  c #660709",
"m  c #701510",
"M  c #492419",
"N  c #572617",
"B  c #58351F",
"V  c #6E2A12",
"C  c #672A19",
"Z  c #76351A",
"A  c #411E21",
"S  c #472926",
"D  c #582923",
"F  c #44322E",
"G  c #553427",
"H  c #463837",
"J  c #543C38",
"K  c #67332B",
"L  c #6A3A28",
"P  c #783726",
"I  c #51482E",
"U  c #4B453A",
"Y  c #54493A",
"T  c #58553A",
"R  c #684739",
"E  c #774733",
"W  c #784B30",
"Q  c #66593A",
"!  c #68653E",
"~  c #776C3D",
"^  c #383740",
"/  c #4A3E41",
"(  c #4C4745",
")  c #574B45",
"_  c #595447",
"`  c #454453",
"'  c #5A5652",
"]  c #685846",
"[  c #6E504A",
"{  c #685854",
"}  c #6A6345",
"|  c #756945",
" . c #7A7643",
".. c #6B6755",
"X. c #776A57",
"o. c #7B7657",
"O. c #545361",
"+. c #756F62",
"@. c #88080B",
"#. c #960C0E",
"$. c #A9080C",
"%. c #B40B0D",
"&. c #922F15",
"*. c #883816",
"=. c #B1251D",
"-. c #873726",
";. c #963729",
":. c #AD3226",
">. c #C8080A",
",. c #D7080A",
"<. c #D11513",
"1. c #E90807",
"2. c #F50704",
"3. c #EB1810",
"4. c #DF2F22",
"5. c #8D4117",
"6. c #994517",
"7. c #A64A17",
"8. c #AE5019",
"9. c #B85618",
"0. c #884629",
"q. c #974928",
"w. c #874B32",
"e. c #964C34",
"r. c #8E5334",
"t. c #955636",
"y. c #A54A28",
"u. c #A85429",
"i. c #B95927",
"p. c #A84F34",
"a. c #A75434",
"s. c #B55B35",
"d. c #8C6F3E",
"f. c #AB6632",
"g. c #B86738",
"h. c #C65B17",
"j. c #D15D17",
"k. c #CC6418",
"l. c #D86817",
"z. c #EA6E0B",
"x. c #F16F05",
"c. c #EB7404",
"v. c #E5720C",
"b. c #EC720B",
"n. c #F17204",
"m. c #F1720B",
"M. c #E36C14",
"N. c #E96D13",
"B. c #E67214",
"V. c #C55927",
"C. c #D45235",
"Z. c #E54A37",
"A. c #C96529",
"S. c #D2702E",
"D. c #C66937",
"F. c #D77738",
"G. c #E3792E",
"H. c #8F5B4A",
"J. c #916F4C",
"K. c #857644",
"L. c #847C41",
"P. c #926A56",
"I. c #867956",
"U. c #AE7047",
"Y. c #DA6241",
"T. c #C77945",
"R. c #D67B43",
"E. c #7F8048",
"W. c #8B853F",
"Q. c #DC843B",
"!. c #E98939",
"~. c #F1913B",
"^. c #8A8442",
"/. c #898643",
"(. c #958A44",
"). c #9B9443",
"_. c #9A9645",
"`. c #898559",
"'. c #958958",
"]. c #9A9658",
"[. c #A59944",
"{. c #AA954E",
"}. c #A59C57",
"|. c #ADA442",
" X c #A9A349",
".X c #B5A744",
"XX c #BCAC43",
"oX c #BCB045",
"OX c #AAA457",
"+X c #B6AC58",
"@X c #BBB257",
"#X c #888462",
"$X c #948961",
"%X c #999562",
"&X c #A79A62",
"*X c #9FA062",
"=X c #A9A462",
"-X c #B8AA62",
";X c #BDB463",
":X c #CD8448",
">X c #D68546",
",X c #D28B4F",
"<X c #E88A43",
"1X c #EB9743",
"2X c #EA914B",
"3X c #F19643",
"4X c #F49944",
"5X c #C3AC43",
"6X c #C5A847",
"7X c #CBAD44",
"8X c #D6AD44",
"9X c #CCB142",
"0X c #C6B148",
"qX c #D4B242",
"wX c #DCB142",
"eX c #D8B44A",
"rX c #C2AC58",
"tX c #C8B657",
"yX c #D6B858",
"uX c #E7AD46",
"iX c #EEAD45",
"pX c #F3AF44",
"aX c #E3B242",
"sX c #ECB242",
"dX c #EAB44B",
"fX c #F5B242",
"gX c #FCB242",
"hX c #F4B34C",
"jX c #FDB54B",
"kX c #E6B957",
"lX c #EBBA59",
"zX c #F4B651",
"xX c #FCB751",
"cX c #F5B956",
"vX c #FCB956",
"bX c #F4BB59",
"nX c #FDB958",
"mX c #FDBA59",
"MX c #FDBB5A",
"NX c #CD8B63",
"BX c #C8BA63",
"VX c #D7BE62",
"CX c #E7BF62",
"ZX c #F7BF60",
"AX c #FCBF60",
"SX c #CBC063",
"DX c #D7C163",
"FX c #E4C264",
"GX c #EDC163",
"HX c #F4C163",
"JX c #FBC062",
"KX c #FCC062",
"LX c #FDC264",
/* pixels */
"gXgXgXgXiXKXmXmXjXgXgXiXJXJXmXmXjXpXbXKXmXjXgXiXJXLXmXmXxXgXiXmXmXgXgXgXiXKXmXmXxXxXjXiXJXLXmXmXjXgXiXJXmXmXjXgXgXiXJXLXmXmXjXjXiXJXmXgXgXjXgXgXiXKXLXmXmXvXgXgXiXvXgXgXgXiXJXLXmXgXgXiXJXmXgXgXfXzXKXmX",
"gXgXgXgXiXAXmXmXvXgXgXiXiXJXmXvXgXgXiXmXmXvXgXgXiXJXmXmXvXgXiXmXmXvXvXgXiXKXmXmXvXjXvXiXJXLXmXmXvXgXiXJXmXvXgXgXgXiXJXLXmXvXgXgXiXKXmXgXvXvXgXxXgXiXKXmXmXvXgXgXiXvXgXgXgXiXJXLXmXgXgXiXKXmXvXvXvXLXLXmX",
"gXgXgXgXgXiXvXmXjXgXgXgXiXJXmXjXgXgXiXJXmXvXgXgXiXJXmXjXjXgXiXKXmXgXgXgXiXKXmXmXmXjXgXiXKXLXmXjXjXgXiXKXmXmXxXgXgXiXKXLXmXvXgXgXiXKXmXgXjXjXmXxXgXiXmXmXmXjXgXgXiXvXgXgXgXiXKXLXmXgXgXiXKXmXmXjXiXKXLXmX",
"gXgXgXgXgXiXvXvXgXgXgXiXhXAXmXvXzXiXJXmXmXvXgXgXiXJXmXvXgXxXiXmXmXxXgXgXiXKXmXmXjXgXgXiXKXKXmXmXjXgXiXKXmXvXgXgXgXiXKXLXmXvXgXgXgXiXvXjXgXxXjXgXgXiXmXmXmXjXgXgXiXvXjXgXgXiXKXLXmXvXxXiXKXmXmXxXiXKXLXmX",
"gXgXgXgXgXiXvXmXvXgXxXiXJXmXmXvXgXiXJXmXmXvXgXgXiXJXmXvXgXgXxXmXmXgXgXgXiXKXmXmXvXgXgXiXKXmXmXmXjXgXiXmXmXvXgXgXgXiXKXLXmXjXvXvXgXiXvXvXgXvXvXgXgXiXAXmXmXgXgXgXiXvXvXgXgXiXJXLXmXvXgXiXKXKXmXgXiXKXLXmX",
"jXgXgXgXgXiXvXmXmXjXgXiXmXmXmXjXpXcXKXmXvXgXgXgXiXmXmXjXjXjXiXKXmXmXjXgXiXKXmXmXjXjXgXiXKXmXmXmXmXgXiXmXmXmXjXgXgXiXKXLXmXjXjXgXgXiXvXvXgXgXjXgXgXiXKXmXvXgXgXgXiXmXmXjXgXpXiXmXmXmXjXiXKXLXmXgXiXKXLXmX",
"vXgXgXgXgXiXvXmXmXvXgXiXKXmXjXgXhXKXLXmXmXvXgXiXJXLXmXvXgXgXiXAXmXgXgXgXiXKXLXmXvXgXgXiXKXmXmXmXjXgXiXvXmXvXgXgXgXiXKXLXmXmXmXjXgXiXvXmXmXmXvXgXgXiXKXmXvXgXgXgXgXiXvXmXjXgXiXKXmXvXgXiXiXKXmXgXiXKXLXmX",
"vXgXxXgXgXiXvXmXmXxXgXiXKXmXvXiXKXLXmXmXvXgXiXiXKXLXmXgXgXgXiXvXvXgXgXgXiXKXLXmXvXxXgXiXKXmXmXmXjXgXiXvXmXxXgXgXgXiXJXLXmXmXmXvXgXiXvXmXjXvXjXgXgXiXKXmXmXxXgXgXgXzXmXmXjXgXiXKXmXvXgXgXiXKXmXgXiXKXLXmX",
"vXgXgXgXgXiXKXmXvXgXgXiXmXmXmXiXKXLXAXmXgXjXgXiXKXLXmXgXgXgXiXmXmXjXgXgXiXJXLXmXmXjXjXiXKXmXmXmXgXgXiXJXmXbXdXwXwX8XDXFXFXkXsXfXfXiXJXmXmXxXjXgXgXiXKXmXvXgXvXgXgXiXvXjXgXgXiXKXmXgXgXgXiXKXmXgXiXKXLXmX",
"vXgXgXgXgXiXKXmXvXgXgXiXvXvXgXiXKXLXLXmXgXgXgXiXJXmXvXgXgXgXiXAXmXvXgXgXiXJXLXmXmXjXgXiXJXmXmXjXgXfXuXGXkXyX(.Q T T ' ' ' ..(.XXaXuXHXbXmXmXvXgXgXiXKXmXmXjXvXvXgXhXKXjXxXgXiXKXmXgXgXgXiXKXmXgXiXKXLXmX",
"vXgXgXgXgXiXmXmXvXgXgXiXvXgXgXiXhXKXLXmXmXgXgXiXJXmXjXxXgXpXiXmXmXxXgXgXiXJXLXmXmXmXgXiXJXmXmXbXsXwXXX#XX.} H t e e e 7 : t k } ^.[.BXlXbXjXvXxXgXiXKXmXmXjXmXmXvXLXKXgXgXgXiXKXmXgXgXgXiXKXmXgXiXKXLXmX",
"mXmXjXgXgXiXKXmXmXmXgXiXvXjXgXgXiXKXLXmXvXgXgXiXJXmXxXxXzXiXKXmXmXvXgXgXiXJXLXmXxXgXgXiXJXmXbXyX.X^.T k d d a a a a a a i y e : s ) #X+XyXzXvXgXgXiXKXmXvXgXvXxXgXiXmXgXgXgXiXKXmXgXgXgXiXKXmXgXiXKXLXmX",
"mXvXvXgXgXiXKXmXvXgXgXxXmXvXgXgXiXKXLXmXvXgXgXiXJXmXvXgXgXiXLXLXmXmXvXgXiXJXLXmXvXvXgXiXHXkX+X`.) k a a a a a a a a a a a a i t 7 t k ' ].yXcXgXgXiXJXmXmXvXmXvXvXiXmXKXgXgXiXAXmXgXgXgXiXKXmXgXvXKXLXmX",
"mXxXgXgXgXiXKXmXgXgXgXzXmXxXgXgXiXKXmXmXvXgXgXiXJXmXvXgXgXiXKXmXmXjXgXgXiXJXLXmXmXmXgXuXVXOX..H a a a a a a a a a a a a a i i y 7 * o 6 _ ].eXfXgXiXJXJXmXxXvXjXgXiXmXKXgXgXpXiXvXgXgXgXiXKXmXxXhXmXLXmX",
"mXvXgXgXgXiXJXmXgXgXgXiXvXvXgXgXiXJXLXmXxXgXgXiXJXmXmXxXgXiXJXLXmXxXgXgXiXJXLXmXgXgXfX8X%X' k a a a a a a a a a a a a a a a i r 7 * o * ( ^.tXfXgXiXJXLXmXvXgXxXgXiXmXKXjXjXgXiXvXgXgXgXiXKXmXjXxXLXLXmX",
"mXvXgXgXgXiXJXmXgXgXgXiXvXvXgXgXiXHXHXbXfXfXfXuXHXbXcXfXfXuXHXbXbXcXgXgXiXJXmXmXvXfX9X).' j a a a a a a a a a a a a a a a a a u 7 * o $ k .. X9XsXiXJXLXmXvXgXgXgXiXKXmXKXjXgXiXvXgXgXgXiXKXmXgXiXJXLXmX",
"vXgXgXgXgXiXJXmXxXmXxXcXmXvXfXfXwXBX=X]._.)._._.%X]._.]._._.*X}.OXtXeXsXuXGXHXbXsXwX|.Q d a a a a a a a a a a a a a a a a a a u e & o o ; j I W.qXuXJXLXmXvXgXgXgXiXKXKXjXgXgXiXvXjXgXgXiXKXmXgXiXLXLXmX",
"vXgXgXgXgXiXJXmXmXzXuXGXkXyX5X|._.$X#X`.`.^.^.^.#X`.`.^.^.L.o.o.o. .^.^.(.%X=X+X.X[. .j q a a a a a a a a a a a a a a a a a a u 7 * o . . . ; ~ 7XfXiXKXmXmXjXgXgXgXiXKXmXgXgXiXvXmXvXjXxXKXmXgXpXmXLXmX",
"mXvXgXgXgXiXJXbXlXqX.X'.o. . .| (.-XBXyXeXqXqX7XVXyXyXyXqX8XVXyXtXXX.X[.^.+.o.X.X.] ) H H k d p u u p a a a a a a a a a a a i u 4 * o . . : U ^.8XfXgXhXmXmXmXmXjXgXiXKXjXmXgXiXAXmXvXvXiXKXmXgXgXiXJXmX",
"mXmXjXgXgXiXGXyX+X(...' X. XXXXXBXDXVXtXXXqX9X[.`.'.].]._.[.&XOXOXrXqXwX8XDXyXyXeX5X.X[.%X`.o.} Q T Q _ / j a r r u i a a i u r : * o . ; Y ].yXdXfXxXiXmXmXmXjXgXgXcXmXgXgXgXiXJXmXxXvXiXKXmXgXgXiXKXmX",
"mXvXgXgXfXuXBX].| | (.%XOX9X9XXXSXDXtX+X[.|.[.} H H H H H H H U { L.[.[.).=XtXkXaX5XXX7XDXkXyXyX0X5X6X;X&XI.] Y Y H H d i u r r - * o . t ' @XcXgXgXgXiXJXKXvXvXgXgXiXvXgXgXgXiXJXmXvXvXiXKXmXgXgXiXKXmX",
"mXmXxXgXaX.X#XX.K.[.5XBXyXqXqX8X-X'.X._ U I I j a a a a a i r u k ) ] ] ) +.OXyX5X^.^.XXDXkXtX}.].qXuXFXDXyX0XrX@X[.^.X.{ ' / y 7 & o . : ' XXcXxXgXgXiXvXmXvXxXgXgXiXvXgXgXgXiXJXmXgXxXiXKXmXgXgXiXKXLX",
"mXvXgXfX7X^.X.'.[..X7X@X].K.Q Q ) k s r r 4 4 e r r r r r r r r r s f f d _ o.].(.] | }.BXBX].o. .5X8XVX-XOX0XkXaXqX7XSXDXBX].| } T k 0 ; _  XkXsXsXsXiXvXmXmXgXgXgXiXvXmXgXgXiXJXmXxXvXiXKXmXgXgXiXKXLX",
"mXvXaXXX^.(.-XrX5X|.(.I.{ H r r e e e e e e e e e 7 7 e e e e e e e e e e p f H H f f U ) ) U H ] )..X=X`.o..XtXoX).[.SXDXDXtX0X9XXX). .....^.].(.(._.XXVXkXdXsXsXfXiXJXmXgXgXiXJXmXgXvXvXAXmXgXiXJXLXLX",
"mXcXwX).| [.-XOX(.~ J f d y e r e e e e e e e e e e e e e e e e e e e e e e q 4 7 r r q q r r y j H U ( H _ `.}.[.^.(.BXDXBXOX{.tXwXaXuXVXyXqXtX X(. .^.#Xo.o.^.[.9XuXGXbXmXzXiXKXmXgXjXpXiXvXgXiXKXLXLX",
"mXbXyX).| ).`.[ H d r 4 7 e e e e e e e w e e e e q e e e r e e e e r e e e e e e e e r u u u u r r r r r d k U U H J { o.o.{ I.@X5X5X7XSXtXyXyX9X9X9X8XBX}.^. . .^.(.%X@XyXkXuXZXmXgXgXgXiXvXgXiXKXLXLX",
"mXcXwX).} ^.I.g 4 w q 4 4 4 q e e e e e q e e e e e e e r u r r r r r e e e e e e e e r r r r r r r r r r r r r r r r y d f d U }  .^.|.BXyXyX@X|.XX9X8XVXyXqXqXXX).L.....o.^.(.BXkXfXgXgXiXvXgXiXJXLXLX",
"mXcXwX[.} X.{ d 3 4 4 4 4 4 4 4 - - - - - - 4 4 4 4 4 4 4 7 7 7 7 e e 7 7 7 7 7 e e e 7 7 7 7 7 e e e e e e 7 7 e e e r r e e r i d H Y ] X.| | ).XX9X5X%X`.OXyXkXqX7X-X].^. .} X.].XXwXsXiXvXgXgXiXJXLX",
"mXcXsXqX[.} j 7 & 3 3 3 3 3 & & % o o o o o o o o o o o o o o o % * * * * & & = - - 7 7 7 e e e e e e r e e e e e e e u u u r r r r r r y d a j H T ! Q _ X.].rX.X{.XX-X}.5X5X[.+... .(.|.8XcXmXvXiXJXKX",
"mXvXgXfXqXd.g ; % % % % % o o . . . . . . . . . . . . . . . . . . . . . . . o o o o o % % * * - - 7 e e e e e e e e e e e e e e e e e e e e e e e r y y i j ( ..K.(.[.&X}..X.X5X-X{.K.] } ^.+XeXlXfXiXmX",
"mXmXjXgXwX)._ h ; o o . . . . . . . . . . . . . . . . . . . . . . . . . . . . . . . . . . . . o o # % % * - 4 7 e e e e e e e e e e e e e e e e e e e e 4 4 q y F H J / _ | L.[.&XOX.X|.L.} ..(.tXdXiXvX",
"mXmXvXgXsX5X'...k $ . . . . . . . . . . . . . . . . . . . . . . . . . . . . . . . . . . . . . . . . . . . o # % % * & & & : : 7 7 e e e 7 7 e e e e e e q q q q q q q q a J ] | I.'.'.{.[.(.X.| '.5XwXlX",
"mXmXjXgXgXuXtX'.' s ; $ . . . . . . . . . . . . . . . . . . . . . . . . . . . . . . . . . . . . . . . . . . . . . . . o o o o o o % - - 4 4 4 4 4 4 4 q q 4 4 4 4 4 4 q q r s f J ) ) | [.|.{.K.[ | +XyX",
"mXxXxXjXgXiXlXyX|. .T k *       . . . . . . . . . . . . .       X + + + > > > > > > > > > > > > + X . .         . . . . . . . . . . . o o o % % * & - - 4 4 4 4 4 4 4 4 4 4 3 3 4 r r F Q L.'.K.] _ =XyX",
"vXgXgXgXgXiXmXJXdXwX5X'...Y g t $ . . . . . . . . . . .     . X 2 b C C C C C Z Z Z Z Z Z Z Z Z K v > + + + O X o o o . . . . . . . . . . . . . o o o o % * & & - - 4 4 4 3 3 3 3 3 3 4 p f ) { _ _ =XyX",
"vXgXgXgXgXiXAXKXxXgXiXkXtXXX[. .{ ( h ; .     . . . . .     . + D -.y.y.y.p.u.i.V.V.V.V.i.i.i.s.p.-.D D D N b x 8 > . . . . . . . . . . . . . . . . . . . . . o o o % % % & & 3 3 3 3 3 3 3 a H H _ =XVX",
"mXmXjXgXgXiXmXKXxXgXiXvXjXfXsXwXSX@X].| Y U k ;           . . + D w.-.K N P u.i.V.V.V.V.V.y.Z D K P -.;.:.:.;.;.-.b + . . . . . . . . . . . . . . . . . . . . . . . . . o o # % % % & & & - 4 y Y ^.BXFX",
"mXgXgXgXgXxXmXmXjXgXiXmXKXmXgXiXHXbXdXwXXX.X%XX.U U g s : ; $ + D r.E D v L p.V.A.l.l.A.i.q.N > v -.q.:.:.:.:.:.;.C > . . X > 2 2 v v 2 + o . . . . . . . . . . . . . . . . . . . . . . o o # 9 ~ .XDXHX",
"mXjXgXgXgXiXvXjXjXgXiXmXKXxXgXiXKXmXmXmXfXuXDXtX5X+XOX^. .X.] ( R r.r.K M w.T.<X!.!.!.!.>XU.L 6 L U.:XF.R.R.R.T.D.w.2 . X 2 L w.e.a.p.P N , . .     . . . . . . . . . . . . . . . .     . o s Y ).8XHXLX",
"mXmXvXgXgXiXvXmXjXgXiXmXLXKXgXiXKXmXvXgXgXiXHXmXjXbXzXfXuXFXDX].X.H.H.R S t.,X1X4X~.1X4X2XU.L 6 W :X1X1X4X4X4X1X,Xt.8 o + N e.g.D.S.A.u.Z x O                                     o s s g U ..).5XuXKXLX",
"mXmXvXgXgXiXmXvXgXgXiXAXmXgXgXiXKXmXmXvXgXiXKXmXvXgXgXgXiXJXlX+XI.U.H.E B t.,X1X4X4X1X4X2XU.L 6 W :X1X1X4X4X4X1X>Xd.M , 8 L p.D.F.F.F.s.0.v 7 0 0 0 0 0 0 0 0 : : 0 s k ( U U U ( ' I.(.).|.tXaXfXiXKXLX",
"vXgXgXgXgXKXKXgXgXgXiXmXmXgXgXiXJXmXmXjXgXiXmXmXmXvXgXgXgXiXGX+XI.U.U.r.R U.,X1X3X4X1X1X2X:Xr.L t.>X1X1X4X4X4X3X2XT.t.0.q.a.D.>X!.!.Q.D.e.R }  .^.^.`.`.`.E.E. . .E.`.}.+XXX5X6XBXtXyXsXsXiXcXgXgXiXKXLX",
"vXgXgXgXgXmXKXgXgXgXiXvXvXgXgXiXJXmXmXjXgXiXKXmXjXxXgXgXgXiXGX@XI.J.U.U.U.U.:X:XQ.<X<X2X2X2X,X,X>X3X4X1X4X4X4X4X4X<X!.!.!.!.!.~.~.<X<Xg.H.'.tXkXsXuXHXGXGXlXsXsXsXuXGXbXcXgXfXiXHXmXxXgXgXiXvXgXgXiXKXLX",
"vXgXgXgXgXiXAXmXgXgXiXvXmXvXgXiXJXmXmXjXgXiXKXmXvXfXgXgXgXiXCX+Xo.] R G S G G B B G G E P.U.g.F.<X3X4X1X4X~.~.~.~.~.!.!.F.F.R.R.R.R.U.H.$XtXdXfXgXiXKXLXmXmXgXgXgXiXKXmXgXgXgXiXKXmXgXgXgXiXvXgXgXiXKXLX",
"mXjXgXgXgXiXKXmXmXgXiXvXmXjXgXiXKXmXjXgXgXiXKXmXkXtXwXsXfXuXBX'._ j @               . * p f N w.g.F.>X<X2X2X3X~.~.!.G.A.y.6.0.P E d.(.-XyXlXzXjXjXiXJXLXmXvXgXgXgXiXKXmXmXgXgXiXJXmXgXgXgXiXvXgXgXiXKXLX",
"vXgXgXgXgXiXmXmXmXgXiXKXmXgXgXiXmXmXjXvXgXiXKXmXtX(.|.5X7X.X#X' : o     . o = 8 8 = $ . .   O 5 M N R E r.f.>X3X~.G.S.i.*.K [ X.L..XuXHXmXgXvXvXgXiXJXLXmXvXgXgXgXiXKXmXjXgXgXiXJXmXgXgXiXiXvXgXgXiXKXmX",
"vXgXgXgXgXiXvXjXjXjXiXmXmXgXgXiXKXmXmXmXzXiXKXmXtXX.Y T I I j ;       X > M L r.t.R 9 @ * + o . . o $ 7 S w.:X<X!.S.V.y.*.X.+XqXaXsXiXJXmXvXxXgXgXiXKXLXmXgXgXgXgXiXKXmXjXgXgXiXJXmXgXvXiXmXmXgXgXiXKXmX",
"vXgXgXgXgXiXvXgXgXgXpXcXmXmXgXiXKXmXmXjXgXiXKXLXyX^.U *         o : : d L t.g.F.>Xg.r.L G F 8 + X . & 8 G e.D.F.S.i.q.-.[ #XyXbXjXfXiXJXmXgXvXxXgXiXKXLXmXgXgXgXgXiXmXxXxXgXiXKXLXmXxXzXhXJXmXgXpXiXKXmX",
"vXgXgXgXgXiXvXvXgXgXgXiXKXmXgXiXKXmXjXvXgXiXKXmXlXqX).! T Y Y Y !  .| } [ t.s.F.!.Q.S.s.s.t.L M v 8 M L r.f.D.V.i.q.V D o.=XyXdXlXsXuXHXbXjXvXvXgXiXKXLXmXgXgXgXgXiXvXgXgXgXiXKXLXmXgXgXiXmXvXgXiXJXLXmX",
"mXxXgXgXgXzXmXmXxXgXgXfXhXvXgXiXKXmXjXvXgXiXKXKXmXfXaXqXqX7XBXtX9XwXqX6X&XI.H.r.a.s.i.8.y.q.0.0.0.P P P E w.q.q.P D 8 5 F ) | I.I.^.[.BXyXlXzXgXgXiXKXLXmXmXmXxXgXiXvXgXgXiXKXLXLXmXgXgXiXvXjXgXiXJXLXmX",
"vXgXgXgXgXiXvXvXgXgXgXgXiXvXgXiXKXmXmXmXjXiXKXLXmXmXgXgXgXiXJXmXgXgXfXuXFXBXOX(.^.K.~ I S M v 8 S Y } X.X.I.I.K.K.Q D z n n #.$.=.=.e.H.'..XeXdXfXiXJXLXmXgXgXvXgXiXvXxXxXiXKXLXKXmXjXgXiXvXgXgXiXJXLXmX",
"vXgXgXgXgXiXmXvXgXgXgXgXiXvXgXiXKXKXmXvXgXiXJXLXmXjXxXgXgXiXKXmXvXvXgXiXbXbXbXsXaXaX5X^.) t $ * U L.|.;X;X@X@X@X[.d.;.$.%.>.,.1.1.1.1.<.:.t.J.+XwXuXJXLXmXgXvXgXgXiXvXvXgXiXKXLXmXmXvXgXiXvXgXgXiXJXLXmX",
"vXgXgXgXfXiXGXbXjXjXgXgXiXvXgXiXKXmXmXmXxXiXKXLXmXmXgXgXgXiXKXmXmXxXjXiXLXLXbXkX9X[.L.Y s $ . X s T  .$X%X].OX|.[.U.:.<.,.1.1.2.2.2.1.1.,.>.=.t.[.7XGXLXmXgXjXjXjXiXvXxXxXiXKXLXmXmXxXgXiXvXxXgXiXKXLXmX",
"mXxXfXwX5X X=X@XwXlXdXfXiXvXgXiXJXKXmXmXxXiXKXLXmXmXjXgXgXiXKXmXmXvXgXiXHXGXyXOXX.Y j ; o . . . 0 k _ ....' ( R w.:.:.$.$.>.,.1.2.2.1.1.2.1.,.:.t.(.;XFXmXjXmXvXiXJXmXgXgXiXKXLXmXgXgXgXiXvXjXgXiXKXLXmX",
"bXcXaX|.| ) ) { I.'.}.7XiXcXfXiXJXKXmXjXgXiXhXJXLXmXvXgXgXiXKXLXmXgXgXfXuXrXI.Y d k j * . . . o : k _ +.O.h ; 5 b :.:.#.@.#.>.1.2.1.1.2.2.2.2.1.<.e.$XBXlXhXvXgXiXJXmXgXgXiXKXLXmXgXgXgXiXvXmXxXiXKXLXmX",
"kXtX(.Q D x l 5 d f Y L.[.rXqXaXkXGXbXzXjXgXiXJXLXmXmXjXgXiXKXmXmXgXgXsXXXP.K 1 7 j f ; O * * % 0 ^ ( ` k s - , z &.=.#.@.@.$.>.,.1.1.2.2.2.2.1.1.=.e.].tXkXjXgXiXJXmXgXgXiXKXLXmXgXgXiXKXmXmXgXiXKXLXmX",
"yXOX) v x l 1 1 x x 5 D J ) T !  .#XOXyXbXcXiXJXmXmXvXgXgXiXKXLXmXgXsX8Xf.C b < 7 f s = o X % * # ; 0 : ; 7 1 n #.$.$.$.@.n @.#.%.>.1.1.2.2.2.2.1.,.:.H.[.aXxXgXiXmXvXgXgXiXJXLXmXgXgXiXKXmXgXgXiXKXLXmX",
"9XOXY 5 l < , , , , < l l , , v S ) X.].@XtX8XFXGXbXcXgXgXiXJXmXmXfX7X(.R b N D S J G G G J H G M 6 & 3 4 l n $.>.>.>.%.#.n z n #.<.,.1.2.2.2.2.1.,.%.*.L.yXcXhXiXvXjXgXgXiXJXLXmXgXgXiXKXmXgXgXiXKXLXmX",
"qX XY 1 l 1 5 x 5 1 1 1 , , N P 0.0.G k ( T | $X%XOXyXkXsXuXJXmXbXyX}.Q G G E H.U.T.T.T.:X:X,XT.U.0.N v v z #.$.%.%.%.$.@.n n @.%.<.2.2.2.2.2.2.1.,.$.m | rXaXaXuXlXzXgXgXiXJXLXmXgXgXiXKXmXgXgXiXKXLXmX",
"aXXX| G x < < < , 1 b x 1 5 C q.u.w.N 6 f f d h k ( X.o.^..XuXCXyX).! R 0.s.F.Q.G.G.B.B.B.B.B.B.l.k.9.q.*.V m m m m n n n @.$.>.1.1.2.2.2.2.2.2.1.>.@.c G { ~ ~ ).@XqXsXfXiXJXLXmXgXgXiXKXmXgXgXiXmXLXmX",
"bXsX7X).~ { ( S S S G S 5 v 0.a.u.P M H ' ) J d 6 s h s f T  .#XX.U F L p.A.G.!.~.B.b.z.b.x.z.z.z.z.M.l.k.i.u.y.e.P m @.$.,.1.1.2.1.2.2.2.2.1.,.%.#.m *.5.q.q.q.w.] K.|.qXuXHXLXmXgXgXiXKXmXgXgXpXiXKXmX",
"gXgXfXaX8XVX+X`.L.^.^.! S C u.D.g.t.L { X.[ J f ( { ' / j f k j h h k J L w.f.T.T.S.M.b.z.z.z.z.z.z.z.B.M.M.S.i.q.-.=.%.,.1.3.3.3.3.2.2.2.1.>.$.#.&.&.8.k.l.l.l.A.q.E Q ^.[.BXGXmXgXgXiXJXmXgXgXfXzXKXmX",
"gXgXgXgXiXZXbXlXlXsXwX|.Q *.i.F.S.u.R { I.{ s y ] I.' j d U ) k t h H H d f G G L 0.f.A.A.A.A.A.l.M.v.v.M.k.y.;.;.p.s.C.4.4.Z.Z.Z.4.3.1.,.%.#.m m &.h.l.B.z.b.B.M.l.k.u.E R $XBXlXfXgXiXJXmXvXvXvXLXLXmX",
"gXgXgXgXgXiXvXmXjXgXfX5XK.r.i.l.F.D.q.L L D , 6 ) X.) h H }  .) H ) ( H H ( ) k s H J J D N N N Z 7.i.V.9.7.y.y.p.T.NXNXY.C.Y.Y.Z.4.,.>.%.@.n m 6.9.l.v.c.c.c.c.c.b.v.k.6.Z J | +XsXfXiXJXmXmXjXiXJXLXmX",
"gXgXgXgXgXiXvXvXgXgXfX8X(.P.p.V.S.G.i.y.;.m x 5 p f 8 6 f ) ] / ( { ( ( | +.{ H 6 f f s ; + 6 6 2 N V *.5.q.e.e.a.g.U.T.T.R.C.Z.4.,.>.$.@.n n *.9.l.b.c.c.c.c.c.c.c.b.B.l.8.V J ].tXkXiXAXmXmXzXiXJXLXmX",
"gXgXgXgXgXiXvXmXvXgXzXuXVXrXU.H.p.V.D.p.*.m b x z n n z 5 6 d H { K.| _ | ..( d f H H d 6 @ 6 6 v P q.s.T.>X>XT.T.D.g.U.,X6X,Xs.:.#.@.m n c *.7.k.M.c.c.c.c.c.c.c.c.b.B.l.7.V S ..].XX8XHXJXmXgXiXJXLXmX",
"jXgXgXgXgXiXvXmXmXjXgXiXbXlXyXOXK.[ E P C c x l z z z z l < N q.a.e.w.E R J j j F H j y @ @ 5 4 b *.7.A.R.<X<X~.<X<X2XT.U.U.U.a.e.;.Z D N V 7.k.M.v.c.c.c.c.c.c.c.c.c.B.l.7.c 1 f _ (.7XHXLXmXgXiXKXLXmX",
"vXgXgXgXgXiXvXmXmXxXgXiXJXmXhXaX0X;X=X'.| T I I U Y Y T I F V 9.l.l.l.k.g.a.Z C C M 8 @ O 7 8 v v V q.i.F.<X<X<X3X1X<XD.s.a.0.K R J v 8 D 0.h.B.b.c.c.c.c.c.c.c.c.c.c.B.l.6.c 1 , U L.5XuXKXmXgXiXKXLXmX",
"vXgXxXgXgXiXmXmXmXvXgXiXKXmXvXiXHXHXbXyXtXXX.X.X;XBXtX5X.XW.W 9.l.M.z.z.B.l.l.k.V.6.Z N 8 > + + 8 D C P s.F.!.~.<X<XR.D.p.q.P b 8 6 + > N 6.k.B.c.c.c.c.c.c.c.c.c.c.c.B.l.6.c 1 , U L.5XuXKXmXgXiXKXLXmX",
"vXgXgXgXgXiXKXmXvXgXgXiXmXmXmXiXLXLXKXmXfXzXfXiXHXHXbXfXwX|.W 8.M.z.x.x.c.b.b.M.M.M.k.8.*.C N N N Z Z C q.s.D.D.D.g.a.-.-.;.-.V x + + 8 W i.l.c.c.c.c.c.c.c.c.c.c.c.c.B.l.6.c 1 , U L.5XuXKXmXgXiXJXLXmX",
"vXgXgXgXgXiXKXmXvXgXgXiXvXvXgXiXLXLXLXmXgXgXgXiXKXmXvXfXaX|.W 8.l.v.m.x.c.c.c.x.x.b.B.M.l.h.9.9.9.h.h.9.8.6.0.r.0.P C b C P P C 2 + 2 C 7.l.B.c.c.c.c.c.c.c.c.c.c.c.b.B.k.6.c 1 , U L.5XuXKXmXgXiXJXLXmX",
"vXgXgXgXgXiXmXmXvXgXgXiXvXgXgXiXhXLXLXmXvXgXgXiXKXmXjXzXsX.X~ t.g.l.M.b.b.x.x.x.n.n.b.b.n.b.b.B.B.m.c.v.M.k.9.7.6.5.5.Z *.*.Z N 5 + N u.A.B.c.c.c.c.c.c.c.c.c.c.c.b.b.l.i.*.c < , U L.XXuXKXmXgXiXJXLXmX",
"mXmXjXgXgXiXKXmXmXmXgXiXvXjXgXgXiXKXLXmXvXgXgXiXKXmXxXzXzX8X;X].I.t.i.l.v.c.n.c.c.z.M.l.l.l.l.l.M.b.c.n.n.c.b.v.v.M.M.M.M.l.u.W N N *.i.G.b.c.c.c.c.c.c.c.c.c.c.c.b.B.k.6.V 1 < , U L.5XuXKXmXgXiXKXLXmX",
"mXvXvXgXgXiXKXmXvXgXgXxXmXvXgXgXiXKXLXmXvXgXgXiXKXmXvXgXgXiXGXBX}.I.J.i.A.l.M.N.M.j.8.&.*.*.&.7.h.M.v.x.n.c.c.c.c.b.b.b.b.B.k.u.5.6.9.l.c.c.c.c.c.c.c.c.c.c.c.c.c.b.M.h.Z c 1 < , J L.5XuXKXmXgXvXKXLXmX",
"mXxXgXgXgXiXKXmXgXgXgXzXmXxXgXgXiXKXmXmXvXgXgXiXKXmXvXgXgXiXJXbXyX0X[.d.E *.7.7.6.*.V x 1 l l c V 7.h.N.x.n.n.n.c.c.n.n.c.c.v.M.M.M.v.c.c.c.c.c.c.c.c.c.c.c.c.c.c.M.l.9.V l < < 8 Y ^.5XuXJXmXxXhXAXLXmX",
"mXvXgXgXgXiXKXmXgXgXgXiXvXvXgXgXiXKXLXmXxXgXgXiXKXmXmXxXgXiXJXLXmXzXqX|.! 2 l l 1 , + O X o o + 5 M *.9.l.M.b.c.c.c.c.c.c.c.c.b.b.b.c.c.c.c.c.c.c.c.c.c.c.c.c.n.z.l.i.-.c < < 8 U  .XXwXiXJXmXjXzXLXLXmX",
"mXvXgXgXgXiXKXmXgXgXgXiXvXvXgXgXiXKXKXmXgXgXgXiXKXmXvXgXgXiXKXmXmXxXaXXX~ ; o o . . .     . . .   + 2 C *.9.l.b.c.c.c.c.c.c.c.c.c.c.c.c.c.c.c.c.c.c.c.b.b.b.b.z.l.h.&.c 1 < < f { ).wXfXiXJXmXgXiXJXLXmX",
"vXgXgXgXgXiXKXmXxXmXxXbXmXvXgXgXiXKXAXmXjXgXgXiXKXmXjXjXgXiXKXmXvXzXeX|.! ; % * % % % % % o . . . . O 6 M Z 7.k.z.c.c.c.c.c.c.c.c.c.c.c.c.c.c.c.c.c.c.c.m.m.N.l.9.*.c l 1 < 1 J '.tXsXgXiXKXmXgXiXKXLXmX",
"vXgXgXgXgXiXKXmXmXxXiXKXmXvXgXgXiXKXLXmXvXgXgXiXKXmXxXgXgXiXKXmXcXqX_.! k r r r r r r r e = # . . . . X + 2 c 5.h.l.z.m.n.n.c.c.c.c.c.c.c.c.c.c.n.n.b.m.b.N.k.7.*.c 1 < < 1 f ] +XkXcXjXxXKXmXgXpXmXKXmX",
"mXvXgXgXgXiXKXmXvXgXiXmXmXjXgXiXiXKXLXmXgXgXgXiXKXmXvXvXgXiXKXmXlX0X^.g e u u u u u u u r : # . . . .   . . + v V 7.h.M.N.b.n.n.n.n.c.n.n.n.n.n.x.b.M.l.V.8.*.c l 1 < < 5 g ~ |.VXbXvXvXiXKXmXgXgXiXKXmX",
"mXmXjXgXgXiXKXmXjXjXzXmXmXjXgXiXKXLXmXmXgXgXgXiXKXmXmXjXgXiXKXmXlXtX^.g 4 y y u u u p u r 7 % . . . . . . . . O , c *.8.h.l.M.v.c.c.b.c.c.v.M.l.l.h.7.*.V c l 1 < < < 5 J K..XwXHXmXjXvXiXKXmXgXgXiXKXmX",
"mXvXgXgXgXiXKXmXgXgXiXKXmXgXgXiXKXLXmXmXjXgXgXiXKXmXmXvXgXiXKXmXlX5XW.g 7 u i y u a a y u : # . . . . . . . . . X + 2 b V V *.7.8.9.9.9.8.7.5.Z V c c l 1 < < < < 8 S ] (.7XaXiXJXmXvXxXiXKXmXgXgXiXKXmX",
"mXmXxXgXgXiXKXmXgXgXiXKXmXgXgXiXKXmXmXmXjXgXgXiXKXmXmXjXgXiXmXmXlXtX^.g 7 u i i u a p u r : # . . . . . . . . .       X + , 1 x N N N N b x l 1 < < < < < < , 8 F Q ^.+XwXfXgXiXKXvXgXxXiXKXmXgXgXiXKXLX",
"mXvXgXgXgXiXKXmXgXgXiXmXmXgXgXiXKXmXvXgXgXgXgXiXKXmXvXgXgXiXKXmXlXtX^.g 7 y y y y a u r r 7 o . . . . . . . . . . . . . o % 7 ( .. .~  .| _ J A 8 8 8 8 F Y }  .[.5XwXcXbXgXgXiXKXmXxXvXiXKXmXgXgXiXKXLX",
"mXvXgXgXgXiXKXmXgXgXiXKXmXgXgXiXKXKXmXgXgXgXgXiXKXmXvXvXgXiXAXmXlXoXL.g 7 y i u u u u r r : o . . . . . . . . . . o o O = t s  .7XaXiXuXVXtX_.I.K.d.~  .$X@XeXsXfXfXiXJXmXjXgXiXJXmXgXvXvXAXmXgXiXJXLXLX",
"mXvXgXgXgXiXKXmXgXgXiXKXmXgXgXiXKXKXmXgXjXgXpXiXKXmXvXvXgXiXmXmXlX@XL.g 7 i u u u u u u e - # . . . . . . . . . o o O * d H j } OXwXfXiXJXbXfXlXdXsXsXuXGXbXjXgXgXgXiXJXmXmXzXiXJXmXgXjXpXiXvXgXiXKXLXLX",
"mXmXxXgXgXiXvXvXgXgXiXvXmXxXgXiXKXLXmXxXgXgXiXKXLXmXxXgXpXiXKXmXlX@XL.g 7 y u u u u u r e - # o 0 j g ; . . . o # % % - d H f j } .XsXiXKXmXmXvXgXgXgXiXKXmXgXgXgXgXiXJXmXxXzXiXJXmXgXgXgXiXvXgXiXKXLXLX",
"mXvXgXgXgXiXvXmXvXgXiXvXvXgXgXiXKXKXmXvXgXiXiXKXmXmXvXgXiXAXLXmXlXoXL.g 4 u u u u u u u e - * t (  . .H $ . o % % % & 4 H ) / f U W.7XuXJXmXmXvXgXgXgXiXKXmXgXgXgXgXiXJXmXvXgXiXJXmXgXgXgXiXvXgXiXJXLXLX",
"mXvXgXgXgXzXmXvXgXgXiXvXjXjXgXiXKXAXmXxXgXiXKXLXmXmXjXgXiXKXLXmXlX0Xd.g 4 r u u u u r u e - * s T ).).} j * O % % % % 3 S J J J f I L.7XGXLXmXgXgXgXgXiXKXmXxXmXmXgXiXJXmXgXgXiXJXmXgXgXgXiXvXgXgXiXKXLX",
"mXvXgXgXgXiXvXxXgXgXiXmXKXjXmXiXKXKXmXmXmXiXKXLXmXxXxXgXiXKXLXmXlX@XL.g e r u u u u u u e - # * ( ^. X_...s o % % % % - S J [ [ F y Y ).BXHXmXgXgXgXgXiXKXmXmXvXgXxXiXJXmXgXgXiXJXmXgXgXgXiXvXmXvXiXLXKX",
"mXvXgXgXgXiXvXvXgXgXiXAXmXjXgXiXKXKXmXmXgXiXKXLXmXvXgXgXiXKXLXmXlXtX^.g 4 r u u u u u r 7 - # * Y )..X|.`.k * % % & & & y H [ { J 8 6 F %XVXbXjXvXvXgXiXKXmXmXvXgXgXiXJXmXgXgXiXJXmXgXgXgXiXvXjXvXgXiXmX",
"mXmXjXgXgXiXvXxXjXgXiXmXmXmXgXiXmXmXmXjXgXiXKXLXmXvXgXgXiXKXmXmXlX5XW.g = t r u r r r r 7 & # * Y (.oX7XOX..H = % & & & - p F R [ J 7 6 +.BXkXfXmXjXgXiXKXmXvXgXgXgXiXJXmXgXgXiXJXmXjXgXgXiXvXgXvXjXiXvX",
"mXmXvXgXgXiXvXmXjXgXiXmXKXjXgXiXmXmXvXgXgXiXKXKXmXmXvXgXiXKXmXmXdXtX(.U t 7 e e 7 7 e e : & o $ k  .|.8XBX%X' ; % & & & % 6 F [ { ) t $ k X.tXfXvXgXgXiXKXmXmXgXgXgXiXJXmXgXgXiXJXmXmXvXgXiXvXgXvXgXiXvX",
"mXmXjXgXgXiXvXmXvXgXiXmXKXjXgXiXAXmXvXgXgXiXKXKXmXmXjXgXiXKXmXjXcXkXXX^.( * o o o % % % % o .   $ g W.7XSX=X..s * % % % % 6 J ) H p % . ; _ +XsXgXgXgXiXKXLXmXvXgXgXiXJXmXgXgXiXJXmXmXjXgXiXvXgXvXiXmXmX",
"mXxXjXjXgXiXmXmXgXgXiXmXmXgXgXiXKXmXmXjXgXiXKXmXmXjXgXgXiXKXmXmXbXdX9X_.' ; . . . o o o o o . .   9 W.8XkXtX`.) s o . . . % 7 6 = O . . * _ +XkXmXjXgXiXJXLXmXmXjXgXiXJXmXgXgXiXJXmXvXgXgXiXvXgXjXzXKXmX",
"vXgXgXgXgXiXmXKXjXgXiXvXmXvXgXiXKXmXmXvXgXiXKXmXmXmXvXgXiXJXmXhXqX[. .U s % % % O O % O o o o .   9 W.8XDXtX`.H : . o . o o o o . . . . $ _ +XsXgXgXgXiXJXLXmXvXgXgXiXKXmXgXgXiXKXmXvXvXgXiXvXvXgXiXKXmX",
"vXgXgXgXgXiXAXKXjXgXiXvXvXgXgXiXKXmXmXxXgXiXKXmXmXvXgXgXiXGXyX0X]._ : # % O o o o o o o o o . . . 6 ~ .X;X]...t # o o . o o o . . . . . $ Y |.sXjXgXgXiXJXLXmXvXgXgXiXmXmXmXxXiXKXmXxXgXgXiXvXgXgXiXKXKX",
"mXmXjXgXgXiXmXKXxXgXiXvXjXgXgXiXKXmXmXmXjXiXJXmXgXvXjXgXuXBXo.T k : . . . . .                     o h Y ( k t .                         $ U |.dXmXxXgXiXJXmXmXmXxXgXiXKXmXmXgXhXJXmXvXgXgXiXvXgXgXiXKXLX",
"mXgXgXgXgXxXmXmXjXfXiXmXJXmXfXiXHXbXhXfXfXiXHXbXfXcXjXzXuX-X{ d 6 6 t t y y d d d f d p y y y y y y t t y y y t t t y s d y t t t t 6 t 6 ) |.aXfXfXfXuXHXbXmXmXcXfXiXHXmXgXfXiXHXJXmXgXfXiXvXgXgXiXKXLX",
"mXjXgXgXgXiXcXdXdXaXuXbXHXkXqX7XBXtXtXtX9X7XBXtX0XtXtX9XXX&XX.{ ] ] ] ] { { ..X.X.K.| { { { { { { { ] ] { { { { ] ] ] X.+.X.{ { { { ] ] { { (..XrX9X9X7XBXtXtXtX9X9X7XBXyX9X9X7XDXFXlXsXaXuXlXfXgXiXKXLX"
};
