/* XPM */
static char *a46f03a6155e48d8870ccee983259bdf[] = {
/* columns rows colors chars-per-pixel */
"100 100 254 2 ",
"   c #010105",
".  c #030109",
"X  c #0B030C",
"o  c #0B080B",
"O  c #15040C",
"+  c #19080C",
"@  c #1D100F",
"#  c #0E0511",
"$  c #0D0A14",
"%  c #130612",
"&  c #130B13",
"*  c #1B0A15",
"=  c #180A17",
"-  c #1C0B19",
";  c #1B131B",
":  c #181518",
">  c #26080A",
",  c #2B0B0C",
"<  c #3C0404",
"1  c #360608",
"2  c #33120F",
"3  c #240917",
"4  c #230B1E",
"5  c #23131D",
"6  c #291719",
"7  c #381815",
"8  c #31221C",
"9  c #1B1924",
"0  c #260E21",
"q  c #290E22",
"w  c #261222",
"e  c #291323",
"r  c #281B24",
"t  c #2E1B29",
"y  c #341D25",
"u  c #311B2A",
"i  c #381E31",
"p  c #2B2529",
"a  c #2A2628",
"s  c #34232C",
"d  c #36282A",
"f  c #3B332B",
"g  c #2D2A30",
"h  c #342B31",
"j  c #3B2C32",
"k  c #3B3333",
"l  c #393536",
"z  c #470809",
"x  c #510E09",
"c  c #57190B",
"v  c #441B16",
"b  c #551916",
"n  c #78080A",
"m  c #69140E",
"M  c #492419",
"N  c #592B12",
"B  c #582919",
"V  c #69220C",
"C  c #72290E",
"Z  c #682819",
"A  c #752C17",
"S  c #693319",
"D  c #793619",
"F  c #4A2A26",
"G  c #522C26",
"H  c #47332A",
"J  c #5A3525",
"K  c #463836",
"L  c #433C3B",
"P  c #553A37",
"I  c #693728",
"U  c #773925",
"Y  c #6D3A32",
"T  c #54472A",
"R  c #4A463A",
"E  c #55493A",
"W  c #59543A",
"Q  c #67463A",
"!  c #764637",
"~  c #794B30",
"^  c #64583A",
"/  c #5F6035",
"(  c #6E673D",
")  c #78733D",
"_  c #443D41",
"`  c #4A4644",
"'  c #554C47",
"]  c #5A5547",
"[  c #504D50",
"{  c #5A5753",
"}  c #674944",
"|  c #665947",
" . c #775946",
".. c #75554E",
"X. c #655A54",
"o. c #6A6646",
"O. c #766A43",
"+. c #7B7443",
"@. c #7A7744",
"#. c #6B6655",
"$. c #766956",
"%. c #7A7557",
"&. c #767062",
"*. c #8B0C0C",
"=. c #96080B",
"-. c #B9080A",
";. c #AB1013",
":. c #882B16",
">. c #883916",
",. c #963D17",
"<. c #A72B1B",
"1. c #991E21",
"2. c #8D3827",
"3. c #A73528",
"4. c #CC0D0D",
"5. c #D60909",
"6. c #EA0805",
"7. c #F60604",
"8. c #F30A03",
"9. c #E81510",
"0. c #DF241A",
"q. c #E53427",
"w. c #8C4217",
"e. c #9A4617",
"r. c #A64A17",
"t. c #AB511A",
"y. c #B75719",
"u. c #BA601E",
"i. c #884629",
"p. c #954926",
"a. c #954936",
"s. c #8E5132",
"d. c #985536",
"f. c #A64A29",
"g. c #A7552A",
"h. c #B75727",
"j. c #B2522F",
"k. c #A65837",
"l. c #91673D",
"z. c #AC6939",
"x. c #B66537",
"c. c #C75D17",
"v. c #DC6D0E",
"b. c #C86218",
"n. c #D76816",
"m. c #E96E0B",
"M. c #EB7404",
"N. c #E87803",
"B. c #E6740A",
"V. c #EA730A",
"C. c #F07106",
"Z. c #E36D13",
"A. c #E26B1A",
"S. c #E77213",
"D. c #C65A26",
"F. c #C75534",
"G. c #E44B39",
"H. c #CC6A2D",
"J. c #D56725",
"K. c #C86C36",
"L. c #C8743B",
"P. c #D57738",
"I. c #E77728",
"U. c #8F5A46",
"Y. c #AD5C4B",
"T. c #857B43",
"R. c #8F704F",
"E. c #837A57",
"W. c #AE7047",
"Q. c #806C62",
"!. c #837961",
"~. c #E15E45",
"^. c #CD7743",
"/. c #A8903F",
"(. c #E9893A",
"). c #EC943E",
"_. c #F4973D",
"`. c #898444",
"'. c #938C43",
"]. c #968846",
"[. c #9A9544",
"{. c #898556",
"}. c #968958",
"|. c #999458",
" X c #A59A44",
".X c #B29148",
"XX c #A59A58",
"oX c #ABA244",
"OX c #B6A843",
"+X c #BDB146",
"@X c #AAA457",
"#X c #B6AA57",
"$X c #BBB258",
"%X c #8B8762",
"&X c #948A62",
"*X c #9A9663",
"=X c #AE8A63",
"-X c #A49962",
";X c #ACA662",
":X c #B5A962",
">X c #BCB463",
",X c #CA8444",
"<X c #D98746",
"1X c #D08E58",
"2X c #E58A43",
"3X c #E99543",
"4X c #F19745",
"5X c #F49943",
"6X c #C4AC43",
"7X c #CBAD44",
"8X c #C6A948",
"9X c #D3AD44",
"0X c #DBAC45",
"qX c #CCB242",
"wX c #C8B247",
"eX c #D4B142",
"rX c #DCB242",
"tX c #D6B44B",
"yX c #C3AA54",
"uX c #C9B558",
"iX c #D7B856",
"pX c #DCBA59",
"aX c #E4AD45",
"sX c #EEAD45",
"dX c #EFAF48",
"fX c #F2AE44",
"gX c #E4B242",
"hX c #ECB242",
"jX c #EBB54B",
"kX c #F4B242",
"lX c #FCB242",
"zX c #F3B24C",
"xX c #FDB54B",
"cX c #E8B956",
"vX c #E4BA59",
"bX c #ECBB5A",
"nX c #F4B754",
"mX c #FCB751",
"MX c #FCB956",
"NX c #F4BA59",
"BX c #FDBA58",
"VX c #FCBA59",
"CX c #FDBB5A",
"ZX c #C8B963",
"AX c #D7BE63",
"SX c #E5BF62",
"DX c #FCBF60",
"FX c #CDC064",
"GX c #D9C163",
"HX c #E8C163",
"JX c #F4C163",
"KX c #FCC162",
"LX c #FCC163",
"PX c #FDC264",
/* pixels */
"lXlXlXlXsXKXBXBXxXlXlXsXKXKXBXBXxXfXNXKXBXxXlXsXKXPXBXBXmXlXsXBXBXlXlXlXsXKXBXBXmXmXxXsXKXPXBXBXxXlXsXKXBXBXxXlXlXsXKXPXBXBXxXxXsXKXBXlXlXxXlXlXsXKXPXBXBXMXlXlXsXMXlXlXlXsXKXPXBXlXlXsXKXBXlXlXkXzXKXBX",
"lXlXlXlXsXDXBXBXMXlXlXsXdXKXBXBXxXlXsXBXBXMXlXlXzXKXBXBXMXlXsXBXBXMXMXlXsXKXBXBXMXxXMXsXKXPXBXBXMXlXsXKXBXBXxXlXlXsXKXPXBXBXxXlXsXKXBXlXMXMXxXmXlXzXKXBXBXMXlXlXsXMXlXlXlXsXKXPXBXlXlXsXKXBXMXMXMXPXPXBX",
"lXlXlXlXlXsXMXBXxXlXlXlXsXKXBXxXlXlXsXKXBXMXlXlXsXKXBXxXxXlXsXKXBXlXlXlXsXKXBXBXBXxXlXsXKXPXBXxXxXlXsXKXBXBXxXlXlXsXKXPXBXMXlXlXsXKXBXlXxXxXBXxXlXsXBXBXBXxXlXlXsXMXlXlXlXsXKXKXBXlXlXsXKXBXBXxXsXKXPXBX",
"lXlXlXlXlXsXMXMXlXlXlXsXdXDXBXMXmXsXKXBXBXMXlXlXsXKXBXMXlXmXsXBXBXMXlXlXsXKXBXBXxXlXlXsXKXKXBXMXxXlXsXKXBXMXlXlXlXsXKXPXBXMXlXlXlXsXMXxXlXmXxXlXlXsXDXBXBXxXlXlXsXMXxXlXlXsXKXPXBXMXmXsXKXBXBXMXsXKXPXBX",
"lXlXlXlXlXsXMXBXmXlXmXsXKXBXBXmXlXsXKXBXBXMXlXlXsXKXBXMXlXlXmXBXBXlXlXlXsXKXBXBXMXlXlXsXKXBXBXBXxXlXsXBXBXMXlXlXlXsXKXPXBXxXmXmXlXsXMXMXlXmXMXlXlXsXBXBXBXxXlXlXsXMXMXlXlXsXKXPXBXmXlXsXKXKXBXlXsXKXPXBX",
"xXlXlXlXlXsXMXBXBXmXlXsXBXBXBXxXkXnXKXBXMXlXlXlXsXBXBXmXxXxXsXKXBXBXmXlXsXKXBXBXmXxXlXsXKXBXBXBXBXlXsXBXBXBXmXlXlXsXKXPXBXxXxXlXlXsXMXMXlXlXxXlXlXsXKXBXMXlXlXlXsXBXBXxXlXfXsXBXBXBXmXsXKXPXBXlXsXKXPXBX",
"MXlXlXlXlXsXMXBXBXMXlXsXKXBXxXlXdXKXPXBXBXMXlXsXDXKXBXMXlXlXsXKXBXlXlXlXsXKXPXBXMXlXlXsXKXBXBXBXxXlXsXMXBXMXlXlXlXsXKXPXBXBXMXlXlXsXMXBXMXMXMXlXlXsXKXBXMXlXlXlXlXfXBXMXlXlXsXKXBXMXlXsXdXKXBXlXsXKXPXBX",
"MXlXxXlXlXsXMXBXBXmXlXsXKXBXBXsXKXPXBXBXBXlXsXsXKXPXBXlXlXlXsXMXMXlXlXlXsXKXPXBXmXxXlXsXKXBXBXBXxXlXsXMXBXxXlXlXkXsXJXJXBXNXBXBXkXsXMXBXxXMXxXlXlXsXKXBXBXmXlXlXlXnXBXBXxXlXsXKXBXBXlXlXsXKXBXlXsXKXPXBX",
"MXlXlXlXlXsXKXBXMXlXlXsXDXBXMXsXKXPXKXBXlXmXlXsXKXPXBXlXlXlXsXBXBXxXlXlXsXKXPXBXBXxXlXsXKXBXBXMXlXlXsXKXBXBXjXeX7X6XZXZXZXuX7XeXgXsXKXBXBXMXxXlXlXsXKXBXMXlXMXlXlXsXMXxXlXlXsXKXBXlXlXlXsXKXBXlXsXKXPXBX",
"MXlXlXlXlXsXKXBXMXlXlXsXMXBXxXsXKXPXKXBXlXlXlXsXKXBXBXlXlXlXsXBXBXMXlXlXsXKXPXBXBXxXlXsXDXBXBXxXlXlXsXHXpXuXoX@.] E R R ' W o.`.oX9XHXNXBXMXMXlXlXsXKXBXMXlXMXmXlXsXBXxXmXlXsXKXBXlXlXlXsXKXBXlXsXKXPXBX",
"MXlXlXlXlXsXBXBXMXlXlXsXMXlXlXsXNXPXPXBXBXlXlXsXKXBXmXxXlXkXsXBXBXxXlXlXsXKXPXBXBXBXlXsXDXBXBXBXkXrX8X*X$.] R l r w w w w 5 r a R O.;XuXbXnXMXxXlXsXKXBXBXmXBXBXmXPXKXlXlXlXsXKXBXlXlXlXsXKXBXlXsXKXPXBX",
"BXMXlXlXlXsXKXBXBXMXlXsXMXlXlXlXsXKXPXBXMXlXlXsXKXBXMXMXMXsXDXBXBXMXlXlXsXKXPXBXMXlXlXsXDXBXBXcX6X'.o.L s t t u u t u u t t r 5 - a ' E.#XiXMXlXlXsXKXBXMXlXMXMXlXdXBXlXlXlXsXKXBXlXlXlXsXKXBXlXsXKXPXBX",
"BXBXBXlXlXsXKXBXBXxXlXmXBXBXlXlXsXKXPXBXMXlXlXsXKXBXmXlXlXsXKXPXBXBXmXlXsXKXPXBXmXmXlXsXKXNXiX@XO.R a e t u u u u t u u u u t t r ; ; L #.@XiXkXlXsXKXBXBXmXBXmXmXsXMXBXlXlXsXKXBXlXlXlXsXKXBXlXmXPXPXBX",
"BXxXlXlXlXsXKXBXlXlXlXzXMXxXlXlXsXKXKXBXMXlXlXsXKXBXMXlXlXsXKXKXBXmXlXlXsXKXPXBXBXMXlXsXHXuX|.X.j t t t t u u u u u u u u u t t w - X & l @.OXhXlXsXKXBXBXxXMXmXlXsXDXKXlXlXfXsXMXlXlXlXsXKXBXxXmXBXKXBX",
"BXMXlXlXlXsXKXBXlXlXlXdXBXMXlXlXsXKXKXBXMXlXlXsXKXBXBXMXlXsXKXKXBXMXlXlXsXKXPXBXxXlXlXaXZX{.R d u u u u u u u u u u u u u u u t w = X . g o.@XgXkXsXKXPXBXBXxXmXlXsXBXKXxXlXlXsXMXlXlXlXsXKXBXxXMXPXPXBX",
"BXBXlXlXlXsXKXBXlXlXlXsXMXMXlXlXsXKXJXbXhXhXhXaXHXbXcXgXgXaXHXHXvXjXkXkXsXKXBXBXxXlXkX7X%X[ s u u u u u u u u u u u u u u u u t w - X . : l O. XeXsXKXPXBXMXlXlXlXsXBXBXBXMXlXsXMXlXlXlXsXKXBXxXsXKXPXBX",
"MXlXlXlXlXsXKXBXxXMXlXdXBXNXkXkXaXAX@X}.E.@.+.@.&.%.%.@.+.+.&.%.%.'.#X9X0XAXSXvXhXhXrXoX] s t u u u u u u u u u u u u u u u u t w - # X X & a W OXsXKXKXBXMXlXlXlXsXKXKXMXlXlXsXMXlXlXlXsXKXBXlXsXKXPXBX",
"MXlXlXlXlXsXKXBXBXMXzXJXvXuXOX X X*X%X|.@XoXoX X-XXX@XoXoX X;X@XXX].T.@.@.%.$.%.'.[.`.( d w e t t t t u u u u u u u u u u u u t w - # X X   o R OXhXzXKXBXMXlXlXlXkXnXKXBXlXlXsXMXBXmXlXmXKXBXlXsXKXPXBX",
"BXxXlXlXlXsXKXBXMXhX0X$X|.E.+.T.T.*X>XiXpXrXrXaXGXuXtXtXeX0XGXpXiXqXqXqX7X:XXX|.'.{.O.^ ' E R L h t e e e e t u u u u u u u u t w - % X X & f ( +XkXfXNXBXBXBXBXmXlXsXKXxXxXlXsXBXBXxXMXsXKXBXlXlXsXKXBX",
"BXMXlXlXlXsXJXNXpX6X}.&.$.}.OX7XuXZXGXiXqXOX+X8X-X$.#.#.o.O.$.$.%.{. X9XaXAXpXpXvXrXrX8X:X#X#XXXT.$.| { { ` j s t t u u u t t t w = % X : k {.uXbXlXlXsXBXBXBXMXlXlXBXKXxXxXlXsXKXBXBXMXsXKXBXlXlXsXKXBX",
"BXBXxXlXlXsXHXiX XT.T.}.@XOXeX9X:X-XuXuX+X'.T.T.X.l u t t u u s h L |  XOX{.E.XXrXgXqXOX:XpXbXvXeXwX7XAXZX#X`.+.o.^ W [ K j t w 4 % % X ; l ].iXkXlXnXsXKXDXBXxXlXlXsXMXlXlXlXsXKXBXmXMXsXKXBXlXlXsXKXBX",
"BXBXxXlXlXsX>X{.T.R..X:X#X.X6X8X-X!.E.E.#.' l l h t t t t t u u u s K ^ o.` { }.7XeX X+.&XuXvXwX|.].6XGXHXvXrXrXrXeX8X-X&X%.| W K a = X & f '.iXkXlXlXsXBXBXxXlXlXlXsXMXlXlXlXsXKXBXlXlXsXKXBXlXlXsXKXPX",
"BXBXxXlXhX9X-X$.]..X.X#X#X X].+.] l j s u e w w w w w w w w e e e e e s s t j ' +.T.| ] &.:XuX@X+.O.OXGXFXXX'.$XtXgX7XZXAXAXuX8XXX+.W L l ` T.uXtXgXgXaXNXNXBXxXlXlXsXMXmXlXlXsXKXBXMXMXsXKXBXlXlXsXKXPX",
"BXMXlXkX7X`.Q.W..XOX.X=XQ.E l s e w w w w w w w w w w w 0 0 w w w w w w w w w t s j s s K ' ' ` k E T.*X&X$.E.$XrX7X].&X>XFXiXiXuXOXoXXX*X}.{.{.`.@.`.[.uXuXiXgXhXkXsXBXBXlXlXsXKXBXlXMXzXKXBXlXkXnXKXPX",
"BXMXlXhX6X+.&X#XR.( Q P d e w w q q q w w w w w w w w w q w w w w w w w w w w w w w w w w w w w w s j K K j R o.`.'.o.!.:XAXpXuX$X+XeXaXAXpXrXiX$XOX[.`.!.&.#.@.[.+X0XSXbXNXlXsXKXMXlXMXsXdXMXlXsXKXPXPX",
"BXBXmXhX6X+.}.#XO.d q 4 4 0 0 0 w 0 q w w w w w w 0 w w w w w w w w e e w w w w w w w w w w w w w w 0 0 0 5 e u f K d L ] o.o.o.E. XOXOX:XiXiXuX6XqXqX7XZX#XoX[.'.@.@.%X@XuXpXaXJXMXlXlXlXsXMXlXsXKXPXPX",
"BXMXlXhX6XO.E.}.^ e q 0 0 0 0 w w w w w w w w w 0 0 w w w w w w w 0 w 0 w w w w w w w w w w w w w w w w w w w w w w w w w e t t K W O.'.;X@X@XXXoX+X+X6XZXiXeXrX6X X`.&.%.O.@.[.>XvXhXkXlXsXMXlXsXKXPXPX",
"BXMXlXlX9XT.` K s 4 4 0 0 0 4 4 4 4 - - - - - - - - - - - - - - - - 4 w w w w w w w 5 w w w w w w w w w w w w w w w e w w e w w w t d K E E ] +.'.oX'.`.*XXXoXuXiXqX6X>X$XoXT.O.#.E. X7XgXsXMXlXlXzXKXPX",
"BXMXlXlXhXuX{.k % = - - 3 - - - % % X X X X X X X X X X X X X X X X % % % % % % & = - ; 5 5 5 5 w w w w w w w w w w w w w w w w w w w 4 4 4 t j R R K R { $.E.XX@X.X].-X#XOXOXoX&X#.| T. X7XcXzXxXsXKXPX",
"BXMXlXlXkXaX@XR = % % % % X X X X X . . . . . . . . . . . . . . . . . X X X X X X X X X X # % % & - 5 5 w w w w w w w w w w w w w w w w w w w w w w w e t d H P E } T.-XXX].T.oX>XXXT.| O.+.|.uXcXsXDXBX",
"BXMXlXlXlXaX$X@.R a & . . . . . . . . . . . . . . . . . . . . . . . . . . . . . . . . . . . . . . X # % # & - - - 4 5 5 w w w w w w w w w w w w w w w w 0 4 4 0 q u K ' ' ^ T.OXZX#XXX[. X`.X.o.@XiXsXMX",
"pXbXMXlXlXsXpX$XE.R ;   . . . . . . . . . . . . . . . .     . . . . . . . . . . .   . . . . . . . . . . . X . X X # % % = - - - ; ; 5 5 w w w w w w w w 0 0 0 0 0 q q q q y K W Q.{.].]. X].$.| E.OX9XcX",
"$XiXNXlXlXsXNXvX$X`.^ k & . . . . . . . . . . . . . .     . X X . . . . X . . . . . . .     . . .       . . . . . . . . . X . . X X % % & & - - ; ; - 4 4 4 4 4 4 4 4 4 0 0 0 4 y K | R.]. X}.].E.O. XuX",
"#XiXzXxXlXsXMXBXjXrX6X}.' g :       . . . . . . . .           . . O 2 7 7 7 7 7 7 2 2 2 2 , 2 2 , + o                 . . . . .   . . . . . . o # % % % - - 4 4 4 4 4 4 3 4 4 4 3 4 y K R Q Q. XXX#.%X$X",
"@XeXlXlXlXsXKXKXlXkXaXiX#X'.( R l h & . . . . . . . .   .     . + v Y 2.i.~ 2.2.2.2.2.U U U U U I J v , , > > + + O X . . . . . . . . . . . . . . X . X X % % % = = - - - - - 3 3 4 3 4 q e K O.$.] &X$X",
"$XeXkXlXlXsXBXKXBXlXsXNXbXjXeXOX;X|.o.R K r .   . . . X .     . + Z a.a.i.p.p.h.h.h.h.h.h.h.g.p.a.s.U I U U Z Z B v , . . . . . . . . . . . . . . . . . . . . . X X X % % % & = - 3 3 3 4 4 t L K ] *X$X",
"vXjXkXlXlXsXDXKXlXlXsXMXmXlXkXsXHXvXuX$X XO.] R a X .         . @ J a.i.B B i.x.D.D.D.D.D.h.p.S M Z 2.2.<.<.<.,.>.A v O . . . .     . . . . . . . . . . . . . . . . . X X X X X % % = = - - - r R @.>XGX",
"NXNXMXlXlXsXBXKXBXlXsXMXMXlXlXsXKXBXNXNXcX9XZX$X`.] ' L h a a ; 5 I k.s.M 7 >.h.J.J.J.J.J.x.i.M > B p.f.f.f.f.f.f.i.B O X X + 7 v M M 7 , O . .       . . . . . . . . . . . . . .   . . . X X : W '.ZXJX",
"NXxXlXlXlXzXBXBXxXlXsXBXPXMXlXsXKXBXxXxXkXsXJXbXgXiX6XoX[.%X{.@.E ! z.s.M M d.^.).).(.).(.P.z.B 7 s.^.<X2X(.(.2X^.z.~ > . + B i.k.x.x.d.S v O . .     . . . . . . . . . . . . . .         . r K `.6XHXJX",
"NXxXlXlXlXsXMXxXlXlXsXBXKXBXlXsXKXBXBXMXlXsXKXBXlXMXNXkXsXHXbXvX[.~ z.l.G B z.2X5X_.)._.).<Xz.J M s.<X3X5X_._.).2XL.~ @ O 2 S a.h.J.J.D.,.V > X . . .     . . . . . . . . . . .   . a g k R #.'.6XaXJXPX",
"NXBXBXlXlXsXMXBXmXlXsXBXKXBXlXsXKXBXMXlXlXsXKXBXMXMXxXlXsXKXPXvXXX~ W.l.J G z.3X5X_.).5X4X<XW.J J k.<X3X5X5X5X5X3X,Xs.M 7 G i.x.L.P.I.P.f.S 6 a a g h l h a a a h h l ` [ W W W { X.%.[. X XyXgXkXsXKXPX",
"BXmXmXlXlXzXBXmXlXlXsXBXBXlXlXsXKXBXBXmXlXsXKXBXBXxXlXlXfXNXBXvXXXl..XW.~ ! z.2X5X_.4X4X4X2XL.s.s.L.3X4X5X_._._.5X<Xx.g.g.x.K.<X2X(.2XP.j.! | `.'.'.*X*X*X|.}.|.'.[.*X;XuXqXeX9XFXFXpXgXhXsXNXlXlXsXKXPX",
"MXlXlXlXxXKXKXlXlXlXsXMXBXlXlXsXKXBXBXMXlXsXBXBXBXMXlXlXlXsXKXvXXX ..X.X=XR.W.W.,X,X,X,X,X<X2X2X2X5X5X4X5X5X_._._.5X).(.(.2X2X2X2X2X2XK.U.R.#XrXhXsXJXJXJXNXkXkXkXsXJXNXMXlXlXsXKXBXMXlXlXsXMXlXlXsXKXPX",
"MXlXlXlXlXnXBXlXlXlXsXMXMXlXlXsXKXBXBXxXlXsXKXBXxXxXkXlXlXsXKXvX|.K E T H F F G G G G G I U.W.W.,X3X4X4X5X5X_._._._.).(.(.P.^.^.^.W.k.R.}.$XpXzXlXsXPXPXPXBXlXlXlXsXKXBXxXlXlXsXKXBXxXlXlXsXMXlXlXsXKXPX",
"BXxXlXlXlXsXKXKXxXlXsXMXBXMXlXsXKXBXMXlXlXsXKXBXNXrX+XeXhXaXAXuXE.8 & o       o O X .   O 6 8 B ! l.,X,X,X,X2X_._.(.I.P.F.p.! U.R.T.+.*XAXbXzXlXlXsXPXPXBXMXlXlXlXsXKXBXxXlXlXsXKXBXlXlXlXsXMXlXlXsXKXPX",
"BXxXlXlXlXsXKXBXMXlXsXMXBXxXlXsXKXBXxXlXlXsXKXBXNXwX@.[.OX X%X#.l $     . X 3 2 7 7 3 .     . . @ 7 G J J ~ k.<X(.P.D.j.3.D ' %.oX6X9XHXNXBXxXxXxXsXKXPXBXMXlXlXlXsXKXBXMXlXlXsXKXBXlXlXlXsXMXlXlXsXKXPX",
"MXlXlXlXlXsXMXBXBXxXsXKXBXlXlXsXBXBXxXMXlXsXKXBXNX6XO.L E K a & .       o 6 M D s.i.S 7 > O           . 3 M p.P.P.H.D.f.3.Y %.#XrXhXsXJXBXlXmXmXlXsXKXPXBXmXlXlXlXsXKXBXxXlXlXsXKXBXlXxXsXnXMXlXlXsXKXBX",
"MXlXlXlXlXsXMXlXlXlXsXBXBXlXlXsXKXBXBXBXMXsXKXBXNXiX[.W 6         & 5 6 f Q d.x.P.,Xx.s.U B v 7 3 + O = v U g.K.K.K.j.3.a.!.#XrXkXkXsXKXBXMXMXlXlXsXKXPXBXlXlXlXlXsXKXBXxXlXlXsXKXBXxXMXsXBXMXlXlXsXKXBX",
"MXlXlXlXlXsXMXlXlXlXkXnXBXBXlXsXKXBXBXxXlXsXKXPXBXkXrXoX) / ] ] W ( @.@.$...U.z.P.P.H.H.K.x.p.i.S M v M I a.k.x.g.p.D Z Q %X#XiXiXrX0XHXNXlXMXxXlXsXPXPXBXlXlXlXlXsXBXxXxXlXsXKXPXBXxXxXnXKXBXlXfXsXKXBX",
"MXlXlXlXlXsXMXMXlXlXlXsXKXBXlXsXKXBXxXMXlXsXKXBXMXlXkXhXgX0XGXiXeXrXrX0XZX|.%. .d.k.g.g.p.p.p.p.i.D I I U 2.a.i.i.U b z v K } !  .( O.*XiXjXnXmXlXsXKXPXBXxXxXlXlXsXMXlXlXlXzXKXPXBXlXlXsXMXMXlXsXKXPXBX",
"BXmXlXlXlXmXBXBXmXlXlXlXzXMXlXsXKXBXxXMXlXsXKXKXBXlXlXlXlXsXKXBXlXlXlXsXHXHXuXOX X'.T.( H v v v y P | $.$.E.}.}.`.T.Y m n *.=.-.-.-.;.a.R.XXyXgXkXsXPXPXBXBXBXMXlXsXMXlXlXsXKXPXPXBXlXlXsXMXxXlXsXKXPXBX",
"MXlXlXlXlXsXMXMXlXlXlXlXsXMXlXsXKXBXBXBXxXsXKXPXBXBXlXlXlXsXKXBXlXlXlXsXJXJXNXhXgXrX6X[.` 9 $ $ a ( [.:X>X$XuXwX6XOXY.;.-.4.5.6.6.6.6.5.;.a.T. XeXsXKXPXBXlXlXMXlXsXMXmXxXsXKXPXDXBXxXlXsXMXlXlXsXKXPXBX",
"MXlXlXkXkXsXbXNXkXkXlXlXsXMXlXsXKXKXBXMXlXsXKXKXBXxXmXlXlXsXKXBXBXMXlXsXBXBXNXgX6X XO.R a $ . . & h ' X.&.%.{.XX X.XY.4.4.4.5.7.7.7.6.8.9.4.1.i./.7XHXJXBXlXMXxXlXsXMXMXlXsXKXPXBXBXMXlXsXMXlXlXsXKXPXBX",
"MXlXkXeXOX].{.XXtXjXhXkXsXMXlXsXKXBXBXBXmXsXKXKXBXBXlXlXlXsXKXBXBXmXxXsXJXJXiXXX+.E g & X       & a ` X.#.[ ` E Q Y 1.=.=.-.5.6.8.7.6.7.8.6.5.4.p.T.ZXHXNXlXxXxXxXsXMXmXmXsXKXPXBXBXmXlXsXMXmXlXsXKXPXBX",
"NXnXrXoX( P F E ( %.].6XaXbXkXsXKXKXBXBXmXsXKXPXBXBXxXlXlXsXKXBXBXMXlXsXHXZX|.X.d a a r : & & = = h ' { ` g 9 s Q a.3.1.n =.-.5.6.7.6.7.8.8.6.6.-.d.-XZXvXzXBXBXsXKXBXlXlXsXKXPXBXlXlXlXsXMXxXlXsXKXPXBX",
"bXuXT.T B x z , 7 7 H ^ T.XX6X9XGXHXbXzXlXsXdXKXPXBXMXlXlXsXKXPXBXxXlXhX8XW.! b , r l g 9 a g g r r h l l a ; 7 b *.;.;.*.n =.-.5.6.6.7.7.8.8.6.5.<.Y.-XuXjXMXlXsXKXBXlXlXsXKXPXBXlXlXlXsXMXBXMXsXKXPXBX",
"vX$XE 2 z z z 1 z z 1 x G P E ^ o.%.|.tXjXkXsXKXPXBXBXxXlXsXKXBXBXlXkXeX XU.*.x > : a 9 & & ; 9 : $ & ; ; w v m =.-.-.;.=.n n *.-.5.6.7.7.7.7.8.6.9.3.R.#XtXzXlXsXKXBXlXlXsXKXPXBXlXlXsXKXBXBXlXsXKXPXBX",
"cX$XE 2 z < 1 1 1 , , < z > , 7 B G ' {.@XuX0XSXbXNXNXkXkXsXKXPXBXkXrX X^ Z Z B B J J J J J J J F 8 - $ = z n ;.-.4.-.-.=.n x n ;.4.6.8.7.7.8.8.8.5.;...[.eXnXkXsXBXMXlXlXsXKXPXBXlXlXsXKXBXlXlXsXKXPXBX",
"gX$X] 2 z < z z 1 1 z 1 > 3 M U d.s.G k R W o.%.{.XXiXeXrXsXJXBXNXrXOX) M B i.W.^.,X,X<X<X<X<X,XW.s.I M M b n -.-.-.;.=.*.n n ;.4.6.6.7.7.8.8.8.6.5.1...`.$XpXjXsXNXxXlXlXsXKXPXBXlXlXsXKXBXlXlXsXKXPXBX",
"hXyX@.T F 1 1 1 > < z z 1 7 S p.p.i.F s d f k a a ' $.#.@. XZXpXiX#X$.I i.h.H.I.I.I.I.I.I.I.I.I.I.J.D.h.p.A Z C V V m x n *.;.4.6.6.7.7.7.8.6.6.5.-.*.b P | ( ) [.$XiXkXlXsXKXPXBXlXlXsXKXBXlXlXsXKXPXBX",
"lXkXrXOXT.#.' K H G P F , v i.h.j.i.G K | O. .K a j K j h R ] #.] E P ! d.K.I.(.I.I.S.B.M.M.M.M.m.m.Z.A.J.b.y.h.g.a.A =.4.5.6.8.7.6.7.7.8.8.6.4.-.*.C w.g.h.g.p.~  .].+XgXsXJXJXBXlXlXsXKXBXlXlXsXKXPXBX",
"BXlXlXhXaXGXZXXX|.[. XO.H I h.P.K.k.P ..$.} P a h { $.#.R L h 5 = t j F I s.W.W.L.H.J.Z.B.V.V.V.m.V.V.m.Z.v.n.D.f.2.<.4.5.0.q.q.0.9.8.8.6.5.-.=.*.:.r.b.v.Z.n.b.y.f.! ^ `.OXHXJXBXlXlXsXKXBXlXlXkXsXKXBX",
"lXlXlXlXsXKXNXNXjXkXgXoX$.i.h.I.P.k.Y ..$.} d a [ X.{ [ ` ' R g j K P F 6 j H G B D g.u.b.b.b.b.b.Z.B.m.n.c.r.i.d.k.j.0.q.~.~.~.G.9.8.6.5.-.*.n :.r.b.Z.V.V.m.S.Z.n.h.i.Q `.>XHXbXlXlXsXKXBXlXlXlXzXKXBX",
"lXlXlXlXsXKXBXBXMXlXkX6X].U.h.J.P.K.p.i.Y G 7 d ' X.' L L L j j X.X.L d K { { h 9 h P P B N c N S w.y.y.r.,.2.a.W..X1X^.~.G.G.G.q.9.6.4.=.n x C r.J.Z.V.M.M.V.V.B.B.n.y.>.J $.;XpXkXlXsXKXBXMXmXMXPXPXBX",
"lXlXlXlXlXsXMXBXmXlXkXrXOXR.k.h.J.J.D.f.2.A b 2 y y y 7 6 y s K X.O.E ` | !.$.k 5 a j a & o = 6 7 B A >.p.f.p.f.d.W.=X=X1X~.q.9.9.5.-.=.n x C e.c.Z.V.M.M.B.M.M.M.B.S.n.y.D ' %XuXhXkXsXDXBXBXmXsXKXPXBX",
"lXlXlXlXlXsXMXMXlXlXlXsXaXZXXXU.j.h.j.3.:.V b z x m m m z , 7 J } ..} }  .$.X.g a K K s @ + , 7 b Z i.z.,X2X2X<XL.W.Y.=XyX1XF.3.<.1.*.n c V ,.D.Z.B.M.M.M.M.M.N.N.B.S.n.t.A G ] E.#XiXsXKXBXBXMXsXKXPXBX",
"lXlXlXlXlXsXMXMXxXlXxXsXKXNXpX#XT.( ..Y Z b x z x x x z < 1 S p.j.j.g.p.~ Q P j K L k a = 3 2 7 b D g.K.<X3X5X5X4X2X^.L.W.k.f.k.a.:.Z G B e.c.v.B.B.M.M.M.N.M.M.M.M.V.n.e.V < 7 ' ].9XsXKXDXBXlXsXKXPXBX",
"lXlXlXlXlXsXMXBXBXmXlXsXBXBXNXjX9X8X:X|.$.^ W W W W ^ ^ W K U t.c.Z.Z.n.J.h.p.D S F 7 = o + 3 6 v Z >.g.^.2X3X5X5X2XP.F.F.2.Y s.! G v 7 S h.n.S.B.N.N.N.N.M.M.M.N.M.V.n.,.V < 1 K %.uXsXKXPXBXlXsXKXPXBX",
"MXlXlXlXlXsXMXBXBXmXlXsXKXBXxXlXsXJXJXpXuXuX7X7XuXZXiXiX8X].l.h.v.V.M.V.S.m.B.n.c.t.D c 2 > + + 7 M B U d.x.P.2X3X<XK.j.3.:.Z b 7 > = 7 S y.Z.B.B.N.N.N.N.M.M.M.M.M.V.n.e.V < , k %.7XaXzXKXBXlXsXKXPXBX",
"MXlXxXlXlXsXMXBXBXxXlXsXKXBXBXsXKXPXDXBXBXkXsXsXJXJXBXlXgX Xl.g.n.V.C.C.M.M.V.V.Z.v.b.t.>.A N V A D D U s.k.x.L.L.x.d.i.2.:.:.c 1 3 6 S e.b.B.B.B.N.N.N.N.M.M.M.M.M.V.n.e.V < , f %.7XkXsXKXBXlXsXKXPXBX",
"MXlXlXlXlXsXKXBXMXlXlXsXKXBXMXsXKXPXKXBXxXmXlXsXKXPXBXlXgXoXl.g.n.V.C.C.M.V.M.C.M.M.B.S.n.n.b.b.b.n.b.y.f.d.d.p.i.U Z B U U S M , 2 B i.b.S.M.B.N.N.N.N.M.M.M.M.M.M.S.b.e.V < , f +.9XkXsXKXBXlXsXKXPXBX",
"MXlXlXlXlXsXKXBXMXlXlXsXMXBXxXsXKXPXDXBXlXlXlXsXKXBXBXlXhXOX`.R.K.n.Z.V.M.M.M.M.M.M.M.V.m.m.m.V.M.V.S.Z.n.b.h.f.e.e.,.>.>.U I 7 + 8 ~ h.n.S.M.B.N.N.N.N.M.M.M.B.M.V.n.y.D x 1 , f ) 7XkXsXKXBXlXsXKXPXBX",
"MXlXlXlXlXsXBXBXMXlXlXsXMXlXlXsXBXPXPXBXMXlXlXsXKXBXmXxXkXrX6X@XR.p.y.n.V.V.V.V.B.B.Z.n.b.b.b.n.S.V.V.C.C.m.m.m.v.v.v.v.v.H.d.S v S h.J.S.B.B.B.N.N.N.M.M.M.V.M.V.m.c.e.V 1 > , f ) 7XkXsXKXMXlXsXKXPXBX",
"BXMXlXlXlXsXDXBXBXMXlXsXMXlXlXlXsXKXPXBXMXlXlXsXKXBXMXBXnXsXbXiX|.Q i.f.y.b.v.v.n.y.r.,.,.,.,.r.c.Z.m.m.V.M.M.V.B.B.V.V.B.n.u.r.e.y.n.B.B.N.B.B.M.N.M.M.M.M.M.M.S.Z.y.>.c 1 1 , H ) 7XkXsXKXMXlXsXKXPXBX",
"BXBXBXlXlXsXKXBXBXxXlXzXBXBXlXlXsXKXPXBXMXlXlXsXKXBXxXlXkXsXHXGX@X$.' G N D >.w.>.A c z v z v c A e.b.Z.C.C.M.M.M.M.M.C.M.V.Z.Z.Z.B.B.B.N.N.M.M.M.M.M.M.M.M.M.V.S.J.r.V z 1 1 s ] '.9XlXsXKXMXlXzXKXPXBX",
"BXxXlXlXlXsXKXBXlXlXlXfXMXxXlXlXsXKXKXBXMXlXlXsXKXBXMXkXgX8X-X!.{ _ a & + 3 , 2 , > + O o o o O > c >.y.n.Z.V.M.M.M.M.M.M.V.V.V.M.B.B.B.N.M.M.M.M.M.M.M.M.M.V.S.n.D.:.x < 1 s ' }.7XhXlXsXKXBXxXMXBXKXBX",
"BXBXlXlXlXsXKXBXlXlXlXzXBXBXlXlXsXKXKXBXBXlXlXsXJXbXpXyX[.o.` h a r r w 5 5 9 9 = # # # # X X X X > v S e.D.J.Z.V.M.M.M.M.M.M.M.M.M.M.M.M.M.M.M.M.M.M.M.M.V.S.J.y.>.c z 1 1 F | @XhXlXlXsXKXBXxXnXPXPXBX",
"BXBXlXlXlXsXKXBXlXlXlXsXMXMXlXlXsXKXPXBXlXlXlXsXHXuX{.o.L h u t u u u j K k k K a % # X % # X # # X O 2 M U h.n.m.V.V.M.M.M.M.M.M.M.M.M.M.M.M.M.M.M.M.V.V.S.n.h.>.c < 1 1 2 W [.iXkXlXlXsXKXBXmXsXKXPXBX",
"BXxXlXlXlXsXKXBXxXmXlXsXMXMXlXlXsXKXBXBXMXlXlXaX>X{.' s u u i s j ` X.O.o.[ _ K a X . o & ; ; ; & o o o + 7 A r.c.Z.m.C.C.C.C.M.M.M.M.M.M.M.M.M.M.M.V.m.Z.c.t.A c 1 1 1 2 H ) 6XbXlXlXlXsXKXBXlXsXKXPXBX",
"MXlXlXlXlXsXKXBXBXBXnXKXBXMXlXlXsXKXPXBXxXlXhX9X%XK y y s s s L X.].+X X] l a r a g k R ] #.$.| L :       o 7 B >.y.v.C.C.V.C.M.M.M.M.M.M.M.M.V.B.Z.n.c.r.>.c z < 1 1 2 K T.OXaXNXBXxXlXnXKXBXlXsXKXPXBX",
"BXxXlXlXlXsXKXBXMXlXsXDXBXMXlXlXsXKXPXBXMXgX6X`.' s y s s d ' $.%.`.'.) f ; r l O.{.[.oXZXpXpX$X{.R ;       o + 2 C e.y.b.n.Z.B.B.B.B.B.B.v.n.b.y.r.>.V c z < < < < 2 E `.+XgXsXBXBXxXMXdXKXBXlXlXsXKXBX",
"BXBXlXlXlXsXKXBXMXlXmXDXBXmXlXsXNXPXPXBXkXeX[.R t y y s y K !.@XXXE.E a a L #.|.uXgXhXsXJXBXBXbX6X{.R &       . o > z c C >.r.r.r.r.r.r.e.e.>.C c x z < 1 1 1 1 2 H | *X9XjXkXsXKXBXBXMXsXKXBXlXlXsXKXBX",
"BXBXmXlXlXsXKXBXlXmXsXBXBXlXlXsXKXPXBXMXgX+XT.K r s s d K ^ !.}.E.#.j : ] *XuXcXkXlXlXsXKXBXBXNXeXXX] :         . X X O > 2 x x c x x x x x z < 1 1 1 < 1 1 7 K ^ ].6XvXkXlXlXsXKXBXxXMXsXKXBXlXlXsXKXBX",
"BXMXlXlXlXsXKXBXlXlXsXKXBXlXlXsXKXPXBXpX$X'.W d u s s K O.oX;X{.{ a a E `.ZXbXMXlXlXlXsXKXBXBXzXiXOX( r .       . . X X X O O O O O O + > > 1 1 7 7 d H ' X.+.[.6XgXaXMXlXlXlXsXKXBXxXlXsXKXBXlXlXsXKXPX",
"BXBXxXlXlXsXKXBXlXlXsXBXBXlXlXsXKXBXbX+X@.R g s s s j R +. X|.X.j a W oX0XJXBXBXlXlXlXsXKXDXBXBXjXeX[.{ a . . .     . . . . . . X X X X : d R o.) @.`.[.#XiXvXjXkXlXsXMXxXlXlXsXKXBXmXMXsXKXBXlXlXsXKXPX",
"BXMXlXlXlXsXKXBXlXlXsXKXBXlXlXsXKXbXuX[.W h r s j j E T. X X!.K : ' '.7XJXPXBXxXmXlXsXKXPXPXBXMXlXhXOXE.l o . .         . . . X o X o . r ' {.$XeXrXrXaXvXbXNXkXlXlXsXBXMXlXlXsXKXBXxXMXzXKXBXlXlXzXKXPX",
"BXMXlXlXlXsXKXBXlXlXsXKXBXlXlXsXJXuXE.K s u u s j { @.XX X`.X.h l {.6XaXKXPXBXBXmXlXsXKXPXPXBXMXlXnX0X;X$.l o         . . X ; t d d s 6 6 a H W o.O.T.`.&X*X#XrXkXkXsXKXBXmXlXsXKXBXlXMXzXzXMXlXsXKXPXPX",
"BXBXxXlXlXsXNXbXrXrX0XbXNXxXlXaXZX&X` 5 r u i i H $.XX@X].^ a L {.$XgXsXKXPXBXmXlXlXsXKXPXPXBXMXlXlXsXHXZX{.L ; . X . . # & s ' .. . .Q P F 5 & & : r a g l W @.[.OXaXJXBXBXBXsXKXBXlXlXlXsXMXlXsXPXPXPX",
"BXMXlXlXlXsXcXuX`.W O.$XvXgXeXoX%.` s t t u u j E $. XT.W a ; ] @XeXkXsXKXBXBXMXlXlXsXKXPXPXBXMXxXmXsXJXHXuX[.X.a $ . X # % r K }  .U.U...} G F d 6 - X X   $ 6 l O.OXGXNXlXlXsXKXBXlXlXlXsXMXlXsXKXPXPX",
"BXMXlXlXlXsXcX$XO.: a #.{.}.+.W h ; w r 6 t s ' }.XX}.O.a ; ' {.uXjXkXsXKXPXBXMXlXlXsXKXPXPXBXBXxXlXlXsXKXNXiX@X{.W k & . X & - 6 d H P } } Q Q ! Q F % .       $ R '.ZXbXxXlXsXKXBXlXlXlXsXMXlXkXnXPXPX",
"BXMXlXlXlXmXbXuX`.f ; a g h g ; % O % & ; s ' &.}.}.@.E a L %XuXvXzXlXsXKXPXBXBXxXlXsXKXPXPXBXBXxXlXlXsXKXBXkXbXgX7X'.| ' h $ X X % = 6 s P } U.Q F 6 X . . . $ k o.OXGXNXlXlXsXKXBXlXlXlXsXMXxXlXsXKXPX",
"BXMXlXlXlXsXMXjX7X[.W ; X X % O O O O O % d !.*X{.o.L r l %.>XbXNXxXlXsXKXPXBXBXxXlXsXKXPXPXBXBXxXlXlXsXKXBXlXMXlXkXaXZX>X%X' K a ; # X % ; 6 y 6 = X X . X 9 R @.OX0XJXBXlXlXsXKXBXlXlXlXsXMXBXMXsXKXBX",
"BXMXlXlXlXsXMXmXkXrX X#.h & X O O O O O O - K ' _ a : : o.;XGXNXBXmXlXsXKXPXBXMXlXlXsXKXPXPXBXMXlXlXlXsXKXBXBXMXlXlXsXJXJXGX$XXX{./ k 9 X X X . . . . . . : ] |.qXgXsXKXBXlXlXsXKXBXxXlXlXsXMXlXMXxXsXMX",
"BXBXMXlXlXsXMXBXMXkXaX$X{.] a = X X X X o X X O o . ; R `.ZXbXBXMXlXlXsXKXBXBXMXlXlXsXKXPXKXBXMXlXlXlXsXBXBXBXlXlXlXsXKXPXJXNXNXpX+X[.+.#.L ; . . . . . . : #.+XgXkXsXKXBXlXlXsXKXBXxXlXlXsXMXlXMXlXsXMX",
"BXBXBXlXlXsXMXBXmXlXsXcXAX@X`.W a o .   . X X     o R [.9XHXBXBXmXxXlXsXKXPXBXxXlXlXsXKXPXKXBXBXBXlXlXsXKXPXBXlXlXlXsXJXPXPXBXBXBXNXkXaXZX&Xd     . . . 9 ` {.9XkXlXsXKXBXlXlXsXKXBXBXBXlXsXMXlXMXfXsXMX",
"BXBXxXxXlXsXMXBXmXlXsXBXJXjXeXOX%.R h ;       . X a ( OXaXJXBXxXBXMXlXsXKXPXBXmXxXlXsXKXPXPXBXBXBXmXlXsXDXKXBXlXlXlXsXPXPXPXBXBXmXxXlXsXAX*Xf       X g { &XuXcXlXlXsXKXBXlXlXsXKXBXMXlXlXsXMXlXmXzXKXBX",
"BXxXlXlXlXsXDXKXlXlXsXMXBXlXkXaXZX#X{.{ r X o $ a O.OXrXsXKXBXBXMXxXlXsXKXPXBXlXlXlXsXKXPXPXBXBXBXMXlXsXDXBXMXlXlXlXsXKXPXPXPXBXMXxXlXsXZX!.a .   $ a o.-XAXbXBXMXlXsXKXBXlXlXsXKXBXMXxXlXsXMXlXmXzXKXBX",
"MXlXlXlXlXsXBXKXMXlXsXMXBXxXlXsXJXbXpXXX) ( o.o.%.@XjXkXsXKXBXxXxXxXlXnXBXBXMXlXlXlXsXKXPXPXBXBXBXxXlXsXKXBXMXlXlXlXsXKXPXPXPXBXMXlXlX9XE.l $   ; R @.oXGXJXBXMXlXlXsXKXBXxXlXsXKXBXxXxXlXsXMXxXlXsXKXBX",
"BXxXlXlXlXsXKXKXlXlXsXMXMXlXkXsXJXNXNXcXrX0XGXpXiXcXkXkXsXKXBXlXMXMXkXsXJXBXMXkXkXkXsXJXJXJXJXBXMXMXkXsXJXBXBXMXlXkXsXJXJXJXBXBXBXlXkX8X$.k a d ' `.6XaXJXJXNXNXkXkXsXBXBXBXMXsXKXBXMXlXlXsXMXlXlXsXKXPX",
"BXBXmXlXlXsXNXHXvXrXaXNXnXrXqX7XZXuXuXuXuX7XZXuXwXuXuXqX7XZXuXqXwXqXqX7XZXuXuXqXqXqX7XZXZXZXZXuXyX6X6X8XZXuXuXuXqXqX7XZXZXZXuXuXuXwXqXOX!.$.O.$.E.[.OX7XZXiXiXiXtXqX7XZXuXuXqXtXGXvXcXkXgXaXbXlXlXsXKXPX"
};
