/* XPM */
static char *_8abad54dd1346b59937c394d8de42aa[] = {
/* columns rows colors chars-per-pixel */
"100 100 252 2 ",
"   c #020106",
".  c #0B0205",
"X  c #030109",
"o  c #0B030C",
"O  c #0C090D",
"+  c #140305",
"@  c #12050B",
"#  c #180708",
"$  c #060513",
"%  c #0C0512",
"&  c #0D0A14",
"*  c #130512",
"=  c #180716",
"-  c #130B14",
";  c #190A15",
":  c #1C0C1A",
">  c #171310",
",  c #181518",
"<  c #1C141B",
"1  c #2C0405",
"2  c #270808",
"3  c #2F0F0F",
"4  c #330305",
"5  c #3B0305",
"6  c #340509",
"7  c #380B09",
"8  c #39150C",
"9  c #280B14",
"0  c #23061B",
"q  c #240D1D",
"w  c #2A0D1C",
"e  c #271719",
"r  c #23131D",
"t  c #391815",
"y  c #2A2619",
"u  c #392A17",
"i  c #39351B",
"p  c #1A1523",
"a  c #280E21",
"s  c #261221",
"d  c #2A1323",
"f  c #261A25",
"g  c #2B1A25",
"h  c #2D1B29",
"j  c #341A24",
"k  c #321B2B",
"l  c #1E242C",
"z  c #2A2625",
"x  c #362926",
"c  c #34222C",
"v  c #393527",
"b  c #292B31",
"n  c #382632",
"m  c #373535",
"M  c #440306",
"N  c #490809",
"B  c #580709",
"V  c #49160C",
"C  c #58160B",
"Z  c #461B16",
"A  c #541112",
"S  c #660708",
"D  c #65190B",
"F  c #731210",
"G  c #4A2316",
"H  c #572B12",
"J  c #572719",
"K  c #433719",
"L  c #682916",
"P  c #752916",
"I  c #722F14",
"U  c #67351C",
"Y  c #700A20",
"T  c #462B26",
"R  c #463928",
"E  c #55352C",
"W  c #463A38",
"Q  c #6C2E25",
"!  c #683826",
"~  c #753926",
"^  c #4B4529",
"/  c #54452A",
"(  c #595629",
")  c #494537",
"_  c #564837",
"`  c #4E5131",
"'  c #5B5537",
"]  c #614823",
"[  c #72482D",
"{  c #675A2A",
"}  c #654737",
"|  c #665738",
" . c #785B37",
".. c #706A2D",
"X. c #69633A",
"o. c #76683B",
"O. c #7B753B",
"+. c #3A3942",
"@. c #483C40",
"#. c #4D4A48",
"$. c #584C46",
"%. c #5A5547",
"&. c #69574C",
"*. c #675948",
"=. c #686344",
"-. c #766845",
";. c #7C7547",
":. c #766F57",
">. c #786954",
",. c #716460",
"<. c #88090A",
"1. c #921011",
"2. c #A70B0C",
"3. c #B20E10",
"4. c #8F3315",
"5. c #8A3718",
"6. c #B52B1A",
"7. c #9E1D20",
"8. c #903727",
"9. c #AB3627",
"0. c #B33827",
"q. c #C7080A",
"w. c #D20B0D",
"e. c #E90807",
"r. c #F50603",
"t. c #FA0502",
"y. c #F30905",
"u. c #E8130F",
"i. c #E52A1C",
"p. c #CF3024",
"a. c #954418",
"s. c #B04A17",
"d. c #B6541A",
"f. c #944928",
"g. c #8C4D30",
"h. c #A94A27",
"j. c #B85727",
"k. c #B1542D",
"l. c #A85737",
"z. c #916D37",
"x. c #85783B",
"c. c #977B3D",
"v. c #B36A34",
"b. c #B86838",
"n. c #CB5C1B",
"m. c #CC6517",
"M. c #D8681A",
"N. c #EC6E09",
"B. c #F26E07",
"V. c #E67504",
"C. c #EB7403",
"Z. c #EB7802",
"A. c #E5760B",
"S. c #EB730A",
"D. c #F27303",
"F. c #F2730A",
"G. c #E66C16",
"H. c #E57417",
"J. c #EA7414",
"K. c #F17215",
"L. c #C45829",
"P. c #C65334",
"I. c #E55032",
"U. c #C96527",
"Y. c #D66926",
"T. c #DA7429",
"R. c #D07036",
"E. c #E56E2D",
"W. c #E67625",
"Q. c #885844",
"!. c #887845",
"~. c #8E734D",
"^. c #977156",
"/. c #B17248",
"(. c #DC6646",
"). c #CC7447",
"_. c #8B823A",
"`. c #97863C",
"'. c #9A933C",
"]. c #B18D38",
"[. c #A9963D",
"{. c #B4A33F",
"}. c #D3883B",
"|. c #EA8735",
" X c #F0903A",
".X c #F6963C",
"XX c #F6993C",
"oX c #C9A83F",
"OX c #F4A23D",
"+X c #978844",
"@X c #908A4A",
"#X c #978657",
"$X c #9D9456",
"%X c #A68A44",
"&X c #A89945",
"*X c #B69545",
"=X c #AB8854",
"-X c #A89757",
";X c #B59A57",
":X c #B8A644",
">X c #AFA652",
",X c #B9A756",
"<X c #938A61",
"1X c #988961",
"2X c #AB9761",
"3X c #B8A963",
"4X c #CD8C4C",
"5X c #C59A44",
"6X c #E88D48",
"7X c #EA9545",
"8X c #F49843",
"9X c #E79A56",
"0X c #C9A744",
"qX c #CFAF4C",
"wX c #D8A944",
"eX c #D8B146",
"rX c #C4A857",
"tX c #CAB658",
"yX c #D9B558",
"uX c #E4AC43",
"iX c #ECAA46",
"pX c #EEAD45",
"aX c #F4A345",
"sX c #F2AE43",
"dX c #E5B245",
"fX c #ECB142",
"gX c #F5B242",
"hX c #FCB242",
"jX c #F3B34C",
"kX c #FCB54B",
"lX c #E6A957",
"zX c #E8B758",
"xX c #F4B653",
"cX c #FCB751",
"vX c #F5B956",
"bX c #FCB956",
"nX c #FDB956",
"mX c #F6BA59",
"MX c #FDB958",
"NX c #FCBB59",
"BX c #FDBB5A",
"VX c #C8AA63",
"CX c #CBB862",
"ZX c #D7BA62",
"AX c #E7BD62",
"SX c #F9BF60",
"DX c #E9C163",
"FX c #F5C163",
"GX c #FBC162",
"HX c #FCC062",
"JX c #FCC163",
"KX c #FDC264",
/* pixels */
"hXhXhXhXpXHXMXMXkXhXhXpXGXGXMXMXkXsXmXGXMXkXhXpXHXKXMXMXcXhXpXMXMXhXhXhXpXHXMXMXcXcXkXpXGXKXMXMXkXhXpXGXMXMXkXhXhXpXGXKXMXMXkXkXpXHXMXhXhXkXhXhXpXHXKXMXMXnXhXhXpXnXhXhXhXpXGXKXMXhXhXpXGXMXhXhXgXxXHXMX",
"hXhXhXhXpXSXMXMXnXhXhXpXpXGXMXnXhXhXpXMXMXnXhXhXpXGXMXMXnXhXpXMXMXnXnXhXpXHXMXMXnXkXnXpXHXKXMXMXnXhXpXHXMXnXhXhXhXpXGXKXMXnXhXhXpXHXMXhXnXnXkXcXhXpXGXMXMXnXhXhXpXnXhXhXhXpXGXHXMXhXhXpXGXMXnXnXnXKXKXMX",
"hXhXhXhXhXpXnXMXkXhXhXhXpXGXMXkXhXhXpXGXMXnXhXhXpXHXMXkXcXhXpXHXMXhXhXhXpXHXMXMXMXkXhXpXHXKXMXkXcXhXpXHXMXMXcXhXhXpXHXKXMXnXhXhXpXHXMXhXcXkXMXcXhXpXMXMXMXkXhXhXpXnXhXhXhXpXHXKXMXhXhXpXHXMXMXkXpXHXKXMX",
"hXhXhXhXhXpXnXnXhXhXhXpXjXMXMXcXcXpXGXMXMXnXhXhXpXHXMXnXhXcXpXMXMXcXhXhXpXHXMXMXkXhXkXpXHXHXMXMXkXhXpXHXMXnXhXhXhXpXHXKXMXMXhXhXhXpXnXkXhXcXkXhXhXpXMXMXMXkXhXhXpXnXkXhXhXpXHXKXMXcXcXpXHXMXMXcXpXHXKXMX",
"hXhXhXhXhXpXnXMXnXkXcXpXHXMXMXnXhXpXGXMXMXnXhXhXpXGXMXnXhXhXcXMXMXhXhXhXpXHXMXMXnXhXhXpXHXMXMXMXkXhXpXMXMXnXhXhXhXpXHXKXMXkXnXnXhXpXnXnXhXnXnXhXhXpXHXMXnXhXhXhXpXnXnXhXhXpXGXHXMXnXhXpXHXHXMXhXpXHXKXMX",
"cXhXhXhXhXpXnXMXMXkXhXpXMXMXMXcXsXmXHXMXnXhXhXhXpXMXMXkXcXcXpXHXMXMXkXhXpXHXHXMXkXcXhXpXHXMXMXMXMXhXpXMXMXMXkXhXhXpXHXKXMXcXcXhXhXpXnXnXhXhXkXhXhXpXHXMXnXhXhXhXpXMXMXcXhXsXpXMXMXMXkXpXHXKXMXhXpXHXKXMX",
"nXhXhXhXhXpXnXMXMXcXhXpXHXMXkXhXjXHXKXMXMXcXgXpXGXKXMXcXhXhXpXMXMXhXhXhXpXHXKXMXcXhXhXpXHXMXMXMXkXhXpXnXMXcXhXhXhXpXHXKXMXMXMXkXhXpXnXMXMXMXMXhXhXpXHXMXnXhXhXhXhXpXnXMXkXhXpXHXMXnXhXsXpXHXMXhXpXHXKXMX",
"nXhXcXhXhXpXMXMXMXnXhXpXHXMXMXpXHXKXMXMXnXhXpXpXGXKXMXhXhXhXpXMXnXhXhXhXpXHXKXMXnXnXhXpXHXMXMXnXhXhXpXMXMXnXhXhXhXpXHXKXMXMXMXnXhXpXMXMXkXnXhXhXhXpXHXMXMXnXhXhXhXcXMXnXhXhXpXHXMXnXhXhXpXHXMXhXpXHXKXMX",
"nXhXhXhXhXpXHXMXnXhXhXpXMXMXMXpXHXKXMXMXhXkXhXpXGXKXMXhXhXhXpXMXMXcXhXhXpXHXKXMXMXcXcXpXHXMXMXMXhXhXpXGXMXMXzXdXdXuXDXDXFXmXgXhXhXpXHXMXMXkXkXhXhXpXHXMXnXhXnXhXhXpXnXcXhXhXpXHXMXhXhXhXpXHXMXhXpXKXKXMX",
"nXhXhXhXhXpXHXMXnXhXhXpXnXcXhXpXHXKXKXMXkXhXhXpXGXMXnXhXhXhXpXMXMXcXhXhXpXGXKXMXMXkXhXpXGXMXnXkXhXhXpXDXmXrXR % % % % - f x @XpXgXpXGXMXMXMXnXhXhXpXHXMXMXkXMXnXhXjXHXkXcXhXpXHXMXhXhXhXpXHXMXhXpXHXKXMX",
"nXhXhXhXhXpXMXMXnXhXhXpXnXhXhXpXpXHXKXMXnXhXhXpXGXMXkXnXhXpXpXSXMXnXhXhXpXGXKXMXMXnXhXpXGXMXmXnXgXwXx./ / v g f h f f f f , x | { :XFXMXMXkXnXnXhXpXHXMXMXkXMXMXnXHXHXhXhXhXpXHXMXhXhXhXpXHXMXhXpXHXKXMX",
"MXMXcXhXhXpXHXMXMXMXhXpXnXcXhXhXpXHXKXMXMXhXhXpXGXMXkXkXkXpXGXSXMXnXhXhXpXGXKXMXkXhXhXpXGXMXmXzX_.( x k k k k k k k k k h d : o > ' 2XyXmXkXnXhXhXpXHXMXnXhXnXkXhXpXMXhXhXhXpXHXMXhXhXhXpXHXMXhXpXHXKXMX",
"MXnXcXhXhXpXHXMXcXhXhXcXMXcXhXhXpXHXKXMXnXhXhXpXGXMXnXhXhXpXGXHXMXMXcXhXpXGXKXMXMXnXhXpXFXyX;X) g c k k k k k k k k k k k h h r ; o > &.yXvXcXhXhXpXHXMXMXnXMXMXcXpXMXHXhXhXpXMXMXhXhXhXpXHXMXhXMXHXKXMX",
"MXnXhXhXhXpXHXMXhXhXhXcXMXnXhXhXpXHXMXMXnXhXhXpXGXMXnXhXhXpXGXMXMXkXhXhXpXGXKXMXMXnXhXpXCX:.n c n k k k k k k k k k k k k k k h : o X , ^ -XvXhXhXpXHXHXMXnXnXkXhXpXMXHXhXhXhXpXnXhXhXhXpXHXMXnXjXHXKXMX",
"MXnXhXhXhXpXHXMXhXhXhXpXnXnXhXhXpXGXHXMXkXhXhXpXGXMXMXkXhXpXHXHXMXkXhXhXpXGXKXMXhXhXgXwX$.h k k k k k k k k k k k h h h k h k h : o     y $XvXgXgXpXGXHXMXnXhXkXhXpXMXHXcXnXhXpXnXhXhXhXpXGXMXcXjXGXKXMX",
"MXcXhXhXhXpXHXMXhXkXhXpXnXnXhXhXpXGXGXMXkXhXhXpXGXMXnXhXhXpXHXMXMXcXkXhXpXGXMXMXcXhXoXR h h h k k k k k k k k k k k k k k h h h : o     y ;.0XuXgXpXGXHXMXnXhXhXhXpXHXMXSXhXhXpXnXhXhXhXpXGXMXhXpXGXKXMX",
"nXhXhXhXhXpXHXMXnXnXnXmXMXnXhXgX&X1X1X#X+X`.`.+X1X#X+X#X+X+X1X#X;XxXhXhXpXFXFXMXhXsXx.x f k k k k k k k k k k k k k k k k k k h : o o     & y o.uXpXGXKXMXnXhXhXhXpXGXHXkXhXhXpXnXnXhXhXpXGXMXhXpXGXKXMX",
"nXhXhXhXhXpXGXMXMXkXpXZXyXyX5X*X*.%.%.=.=.X.{ X.=.=.| { ' ' %.#.x ..z.c.z.@X-XrX0X*XR r f k k k k k k k k k k k k k k k k k k h : o o       > | uXhXpXGXMXMXcXkXkXhXpXHXnXhXhXpXnXMXkXkXxXGXMXhXsXvXGXMX",
"MXnXhXhXhXpXGXMXzXwX*XR > z x / $XAXDXzXdXfXdXuXDXzXzXzXdXuXAXzX;X*X%Xc. .` R m z < % - s h k k k k k k k k k k k k k k k k j h : o o X X X , -.pXhXhXpXnXMXMXnXhXhXjXHXkXMXhXpXGXMXMXnXpXGXMXhXhXpXGXMX",
"MXMXvXgXhXpXAX,X@Xv R -X#X:X:XwXAXCX^.;XeXuX%X-.^.#X#X+X+X+X1X-X-X,XwXgXpXAXzXlXwX0X{.'.&.R x x g d g d k k j k j j h h h h h f : o o o o R {.yXgXgXMXpXSXMXMXkXhXhXjXMXhXhXhXpXGXMXkXnXpXGXMXhXhXpXHXMX",
"MXnXhXhXgXwX$Xz R x.o.VXzXqX`.wXDXZX-XzXeX&X-.x k h k d h d d d d x `.pX0X$X=XrXsXgXgXuXVXyXzXqX5X]._.;.!.*.r r d s d k k h h f : % o X & _ eXnXhXhXhXpXMXMXkXkXhXhXpXnXhXhXhXpXGXMXkXkXpXGXMXhXhXpXGXSX",
"MXMXxXfX{.R _ -X%X[.wXZXyX+X:XwX,X#X_ ) x c j k k k k k k k k k k T `.wX[.R x _ wXdX0X_ ^ ,XmXmXzX0XwXFXFXzXqX;X^.o.^ W n d s r : o o X O _ wXvXcXgXhXpXnXMXMXcXhXhXpXnXkXhXhXpXGXMXkXnXpXGXMXhXhXpXGXKX",
"MXnXgXoX/ } ^.=XwXoX0X2X^.@X' R c f d r r r d d f f d d d d d f d g E | | c k _ ,XwX{.R _ ZXmXvX&Xv ' ZXDXzXyX,XeXfXuXAX3X>.>.&.W < o o & _ yXvXgXgXhXpXnXMXnXhXhXhXpXMXnXhXhXpXGXMXkXnXpXGXMXhXhXpXGXKX",
"MXvX%X| x./.VXyX!.5Xo.x q 0 d s s s s s s s s f d s s s s s s f d d d s s h h s d c k g n =.;.@Xo.x -.CXCXyX$X^ {.eX0XZXVX3XyXzXqXX.` ` m b O._.`.`.%X5XFXSXnXhXhXgXpXGXMXkXhXpXGXMXhXnXxXvXnXhXpXGXKXKX",
"MXzX_ / oX0X;X;X| x r s s s s s s d s d s s s s s s s s s s s s s s s s s s s s d f f f d d s s d h g n W &.$._ 0XuXwXCX<X$.-XeXzXdXfXpXSXzX0X$X-.( v =.:.&.-._.0XfXpXFXmXMXnXpXGXMXhXhXhXpXnXhXpXGXKXKX",
"MXyX/ / oX`.T 9 w s s s s s w w w q q w q q w a a a a a a s s s s s s s s q q s s s d f d d s s s d d f d s r g x R ( | W &.tXzXrX!.0X0X2XtXyXtX0XqX0XwX-X!.) ) @XX.!.1X;XjXgXpXGXMXhXhXhXpXnXhXpXGXKXKX",
"MXyX/ ^ :Xx.x q q w s s r r s s s s r q q r s s s s s s s s s s d d d d d d s s s s s s d d s s s d h d s s s d d d f d d s d @.) | 5XwXDXyX&X>X0X0X0X0XDXzXeXqX!.m X.W < =.@X%XZXmXhXhXhXpXnXhXsXvXHXKX",
"MXzX_ v _.i q s q a q q q r s s s r q q q q q q q r r s s s q q q q s s s s s s s s s s d d s s s s s s s s s s s s d d s s s s d h z x $.W E :XpXfX0X' *.yXzXyXzXqXwXCX-X_ $.#._ ,XwXpXfXpXnXkXhXpXGXKX",
"MXvX&XX.e - : q w w w 0 0 0 ; * @ o o o o o o o o o o o o o o o * ; < < p < : < q r s s s f d s s d s s s s s s s d d s s s s d d s d s s s d x ^ ( / c ,.;X~.$X0X&X&X#XyX:X+X-.W b ) ` &XuXvXMXvXpXGXMX",
"MXnXhXoXK O = : ; ; ; * * * X X X X X X X X X X   X X X X X X X X X X X X X X X X o = ; : : : q s s s s s s s s s s s d s s s s s s s s s s s d s s s s j W *.*.W W &XCX;X-.~.wX3X$X>.n m ..-XdXvXjXpXnX",
"MXMXMXwX/ , o o o           X X   X X X X X         X X X X X X   X X X X X X X X X X X X X X o % - - * < s s s s s s s d d d s s r q q w a s d s s s s r r q w w w T &.>.R z.wX2X,X:X%X%X/ W *.;XgXpXnX",
"MXMXnXpX;._ ,               X X   X X X X X   X X X   X X X X X X X X X X X X X X X X X X X X X X X X X X o @ @ * ; : : < r s s s s r q q q s s s r r r r r q a a w w 9 9 w T  .~.-X>.=X0X!.$.E :.wXiXnX",
"MXMXkXkXdX*X!.y   X       X X X   X X X X X   X X     X     X X X X       X X X X X X X X X X X     X X X X X X X X X X X X X X * ; : r r q q q q q q q q q q q q q q 0 w w w w j W E %X*X5X=X!.X.m %.yX",
"nXhXhXhXhXpXyXX.' e X X X                   X X X X X X X   X X X X     . X         X X   . .     . . X X   . .         o o X X X X X X X X * : , < q q q w w w w q 0 0 0 0 9 9 0 w w j | `.-.&X-XR ^ tX",
"nXhXhXhXhXpXmXAXzX&Xi % X X X X X             X X X X X X     + 3 G G t G G t t t t t t t t 8 3 @     .   . . .         X X X X X X X X X X X X X X o = = : : : : q 0 0 0 0 0 0 0 w q q q 9 e | x.x ^ tX",
"MXkXhXhXhXpXMXGXhXfX*XrX@X` ` v O             X X X X X X X X 2 ~ b.v.l.k.j.j.k.j.j.L.j.j.j.b./.[ G G Z Z 2 # + + X X .         X X X X X         X X X X X X X X o = ; : 0 0 0 0 0 0 w 0 0 0 j | z ^ CX",
"MXnXnXhXhXsXMXHXMXkXpXnXmXjXgX0Xo.| _ < X X X X X X X X X   . 2 ~ l.U Z G h.U.L.L.n.n.U.).~ U ! ~ g.8.h.9.4.8.9.Q 2   o X X X X X X X X X X X X X X X X X X   X X   X X o @ * = = 0 0 0 0 q : q f ) :.ZX",
"MXcXhXhXhXjXMXMXcXhXpXGXGXkXhXpXFXmXyX;.'._.y X X X X X X X X 9 [ l.G @ V k.Y.U.Y.M.G.R./.J + # E 8.8.9.9.6.6.9.Q 2 X X X X X           X X X X X X X X X X X X X X X X X X X X .   . X o o o * , =.ZXFX",
"MXkXkXhXhXpXnXkXhXhXpXMXKXMXhXpXGXMXMXcXhXiX3X-Xx.X.m p $ X X 3 g.b.J @ G b.}.T.T.T.T.}.).U # 3 g.v.b.R.R.U.U.R.g.8 X   . 2 U U ~ ~ ~ L 3 o X X X X X X X X X X X X X X                     X & R *XDXHX",
"MXMXnXhXhXpXnXMXnXhXpXMXHXnXhXpXHXMXMXkXhXpXGXMXmXvXsXuXwXCX2XR z.4XU 2 H 6XaXOXXX.XXXaX9X! # t z.6X8X7X.X.X.X8X/.t o X = J ).Y.R.Y.L.k.D #                 X X X X X X X                 X z | +XuXGXHX",
"MXkXkXhXhXMXSXkXhXhXpXMXMXhXhXpXHXMXMXkXhXpXHXMXMXcXhXhXhXjXtX^ Q.4XE # G 4XaXOXOX8XOXaX9X! # t ^.9X8X7X8X7X7X7X).G o   # J l.R.R.Y.U.U.L #   X           X X X X X X X X X X X X X z O.` ) $XfXfXpXGXHX",
"nXhXhXhXkXHXHXkXhXhXpXnXnXhXhXpXHXMXMXcXhXpXMXMXcXnXhXhXhXpXtX^ Q.4X} 2 H 4X8X8X8X8XXXaX9X~ + G /.8X.X7X8XXX.X8X4X~ 8 V L f.R.|.|.W.Y.U.U e l l z b b b b l l z z b m =.~.c.c.c.+X+X=XpXfXuXvXgXgXpXGXHX",
"nXhXhXhXhXpXMXkXhXhXpXnXnXhXhXpXHXMXMXnXhXpXGXMXnXhXhXhXhXpXtX^ Q.wX0X5X4X9X9X9XaXaXiXaX9X4X4X/.7XXXXX7X8X8XXX.X8X7X}.}.|.8X X.X.X8XE.L.~ *.qXuXuXuXAXAXAXzXpXpXpXuXSXmXhXhXhXpXGXMXhXhXhXpXnXgXhXpXGXHX",
"MXcXhXhXhXpXHXMXcXhXpXnXMXMXhXpXHXMXnXhXhXpXGXMXMXcXhXhXhXpXtX^ >.!.] E E E ! ! ] ] [ z./.4X7X8XXXXX.XXX.XXX.X X X X|. X|.|.7X7X).).l.[ !.>XxXcXcXpXGXKXMXnXhXhXhXpXHXMXcXhXhXpXHXMXhXhXhXpXnXhXhXpXGXKX",
"nXhXhXhXhXpXMXMXnXhXpXMXMXhXhXpXMXMXhXkXhXpXFXmXyXfXhXhXhXpX,Xi X o       X X X X X % e @ t  .v.6X6X8X8X8X.X X X|.|.|.(.b.l.f.f.~ J ) 1XyXxXkXkXhXpXHXKXMXMXhXhXhXpXHXMXcXhXhXpXHXMXhXhXsXpXnXhXhXpXHXHX",
"nXhXhXhXhXpXnXnXnXnXpXHXMXhXhXpXHXMXMXnXhXpXFX,X( :XfXdX:Xx.i .           X . . .   X X . . o # V U z.g.[ ).|.|.|.W.L.L.D 8 R `.x.o.0XFXMXhXhXhXhXpXHXKXMXhXhXhXhXpXHXMXnXhXhXpXHXMXhXnXpXMXMXhXhXpXHXMX",
"nXhXhXhXhXpXnXhXhXhXpXMXMXcXhXpXHXMXMXkXkXpXFXtX^ ' ..( z , .             # T  ._ > X X X         X X . G /.|.|.}.E.s.9.D t &.,XeXgXpXGXmXkXMXcXhXpXHXKXMXhXhXhXhXpXGXMXcXhXsXmXHXMXnXnXpXMXMXhXhXpXHXMX",
"nXhXhXhXhXpXnXkXhXhXhXpXMXMXhXpXHXMXcXnXhXpXGXyXR X X X X     . .     # E [ f.}.}.! t 3 e @ . . X X X + G b.T.T.R.b.h.8.J #XzXnXnXhXpXFXmXhXnXkXhXpXGXKXMXhXhXhXhXpXnXhXhXhXpXHXHXMXhXhXcXMXMXhXpXxXHXMX",
"nXhXhXhXhXpXnXnXhXhXhXpXMXMXhXpXHXMXnXnXhXpXFXzX-XO.y X X X X o > ^ z u [ l.T.XXOXv.b.).l.J 3 # @ . 2 U ^.4XR.(.R.5.F J &.ZXmXnXhXhXpXFXMXnXkXhXhXpXGXKXMXMXnXhXhXpXnXhXhXpXGXKXKXMXhXhXpXnXnXhXpXHXKXMX",
"MXkXhXhXhXjXMXMXkXhXhXhXpXnXhXpXHXMXcXnXhXpXGXKXMXzX{.[.[.'.-X&X{.wX&X| } ! g.}.U.U.U.U.b.v.l.f.~ Q ~ f.l.l.a.f.~ 8 2 > ) x.z.!.!.~.%XCXMXkXkXhXhXpXGXKXMXkXkXnXhXpXnXcXcXpXHXKXKXMXhXhXpXnXhXhXpXHXKXMX",
"nXhXhXhXhXpXnXnXhXhXhXhXpXnXhXpXHXMXMXMXcXpXHXKXMXcXkXhXhXpXGXMXkXkXgXuX2X:.' E R E H G Z Z t 3 w h g x E } | _ } G 5 4 5 B F <.<.<.F &.;X0XmXMXgXpXHXKXMXhXkXcXhXpXnXkXhXpXHXKXMXMXMXhXpXnXhXhXpXHXKXMX",
"nXhXhXhXhXpXGXMXnXhXhXhXpXnXhXpXGXHXMXnXhXpXGXKXMXnXhXhXhXpXGXMXMXkXcXpXFXSXvXzXuXwXO.z p : & , ' &X&X1X<X-X-X&X{.f.2.2.2.w.e.u.y.y.u.3.P } #XwXgXpXGXKXMXhXnXnXnXpXnXkXhXpXHXKXMXMXkXhXpXnXhXhXpXHXKXMX",
"MXcXhXhXhXpXGXMXhXnXhXhXpXnXhXpXGXHXMXMXMXpXGXKXMXnXhXhXhXpXHXMXMXMXhXpXGXHXmXzXrX%XX.m f X   O m O.!.2X3X3XtXeXoXs.q.q.q.w.e.r.t.t.e.e.u.6.F / [.iXFXFXMXhXcXcXsXmXMXkXkXpXHXKXMXkXkXhXpXnXkXhXpXHXKXMX",
"MXkXdXwX5XrXAXmXkXmXvXgXpXnXhXpXGXMXMXcXhXpXmXKXHXMXnXhXhXpXGXKXMXcXhXsXmXSX,X&.%., X @ X X X $ f ) =.,.m q W ' ! 3.q.2.2.q.e.r.t.r.y.y.r.u.q.7.[ _.CXFXmXnXMXcXpXGXMXhXhXpXHXKXMXhXhXhXpXnXMXkXpXHXKXMX",
"mXzX+XK t x ~.$X+XeXvXhXpXnXhXpXGXKXMXnXhXhXpXGXHXMXMXnXhXpXGXMXnXhXhXhXuX-X&.e O O . X X   X X z X.=.) +.p , x g.9.7.B S 2.w.e.r.e.r.r.r.t.t.u.1.J #XvXMXkXnXhXpXGXMXhXhXpXHXKXMXhXhXsXMXMXnXhXpXGXKXMX",
"=X#X/ C S 5 .   3 { z.*XuXzXgXgXpXGXMXcXMXcXpXGXMXMXnXhXhXpXGXKXMXhXhXpX`.G 2 @ g ) , s & b - X , ) #.#.z b z ; A 1.p.1.S <.3.w.e.e.r.t.t.t.r.e.u.2.L x.0XkXcXhXpXMXMXhXhXpXHXKXMXhXhXpXHXMXkXhXpXGXKXMX",
". + 5 S B 6 3 Z V 5 M t n %.[.{.*XZXmXMXnXkXpXHXKXMXnXhXhXpXGXHXMXhXpXx.P S 2 @ m W c ; , #.f $ & - , f z - 2 B F 1.3.7.<.S <.2.q.e.e.t.t.t.t.r.y.e.6.~.&XzXkXcXpXnXcXhXhXpXGXKXMXhXhXpXHXMXhXhXpXGXKXMX",
"+ + M S 5 + # 6 N 7 B B 7 # - b x :.ZXzXvXgXpXGXHXMXMXnXhXpXGXmXmXzX~.Q <.F 2 . > @ o o X - % % = * % % @ 5 <.q.q.q.q.2.7.S M S 1.2.w.e.r.t.t.r.e.y.q.F R yXgXhXpXnXnXhXgXpXGXKXMXhXhXpXHXMXhXhXpXHXKXMX",
". 2 N B 4 Z Z 2 2 2 + @ + 2 J J T 2 p m o.%XuXrXZXMXMXMXhXpXxXFXmXqX_ j t G ~ Q.Q.c.].]./././.%XR & % + 1 F q.u.w.3.q.3.<.M 5 <.3.q.u.y.r.t.t.r.e.e.3.S K tXgXgXpXvXhXhXhXpXHXKXMXhXhXpXHXMXhXhXpXHXKXMX",
"X 2 A N 1 M 5 2 A Y A w 2 H h.8.E t e r @ , ) z W $X&XwXuXgXpXFX,XR e e U l.E.T.T.W.W.J.J.J.J.W.n.j.f.G 6 N F <.<.F F S M 5 S 3.u.y.t.r.t.r.t.t.e.w.2.B u '.'.x.5XlXxXgXhXpXHXKXMXhXhXpXHXMXhXhXsXpXGXMX",
"[.O.G 6 2 j j 2 M A T x V 9.h.l.Z 9 c W z e O @ @ ; > i K [.:X$XR u g.5.U.W.F.F.N.F.B.C.D.C.C.D.B.B.G.U.j.s.a.I I J 1 B 7.3.w.u.y.t.t.t.t.r.r.e.q.3.F N V C V 7 u v x.!.uXpXFXHXMXhXhXpXHXMXhXhXhXpXGXMX",
"hXsX[.].].v * j c % . # J j.0.l.} m x #X>.$.e x ' #.r W @.f X   @ y  .! l.9X6XW.G.F.D.C.C.C.C.C.N.N.N.N.B.B.G.Y.P.~ D 6.u.r.r.r.y.r.t.t.y.e.e.3.<.S S 5.n.G.M.n.h.f.} E O.c.AXHXMXhXhXpXGXMXcXcXxXKXKXMX",
"hXhXhXgXgX0XtXzXvXeXo.u f.(.(.).[ g x <X:.y @ , ) &.x $.@.) , - W W < e z T g.Q.f.T.W.H.J.H.H.G.J.N.C.C.F.M.d.5.~ 8.).0.i.I.E.i.i.i.y.t.y.e.q.<.S F 4.n.M.V.S.S.H.n.5.I Z R ,XrXzXhXhXpXGXMXMXcXpXHXKXMX",
"hXhXhXhXhXpXvXnXhXfX'.U R.I.P.).f.G E &.W , & ) *X:.y R !.@Xv W >.W y e y z > - 3 J U U L ~ a.I 5.U.G.G.n.k.l.P g.4X^.8.0.(.7XI.I.I.u.e.q.1.<.Y F P m.A.A.A.A.C.S.S.H.T.d.[ x R tXvXcXpXGXMXMXnXpXHXKXMX",
"hXhXhXhXhXpXnXMXkXgX>X/ /.).P.I.U.P.8.~ H 3 o . x x z %.W m e $.-.) O.R -.^.m c m p s X . + o X + H h.s.9.7.9.P ~ 5XVXVX=Xp.I.i.u.u.w.2.F B A A 4.M.J.S.C.C.C.C.C.C.S.J.Y.5.V e | eXhXpXGXMXnXhXpXHXKXMX",
"kXhXhXhXhXpXnXMXMXcX0Xz. .g.h.p.I.(.9.7.4.V 2 7 N M 1 # O @ x >.>.$.x R  .R < z x ;._ 9 2 V 7 4 8 3 J C h.).T.U.d.5.g.4Xb.j.)./.p.p.2.<.B N D P n.A.C.C.C.C.C.C.C.A.A.H.T.}.g.t i >XzXuXGXKXnXhXpXHXKXMX",
"nXhXhXhXhXpXnXMXMXnXhXpXZX~.! 8.9.8.P 1.F V M S F F S M 1 2 [ [ T T e / `._ y $.&.$.e O # 7 N N C ~ }.9X X.XXX.X|.T.U.b.b.k.rX%Xv.8.<.S A A 5.m.J.N.V.V.C.V.V.A.A.Z.A.A.H.d.D 5 2 R ( :XpXHXnXhXpXHXKXMX",
"nXhXkXhXhXpXnXMXMXkXhXpXGXmX-Xo.#.@.Q Q V 7 1 5 M N M N 2 8 h.T.W.M.n.v. .3 + 2 c R > . + 2 6 t Z g./.l.9X8XaXOXXX X|.L.P.b.J E %X~.G 7 V I U.A.C.V.V.V.C.C.C.Z.Z.Z.C.A.H.d.D 5 1 1 K [.iXGXMXhXpXHXKXMX",
"nXhXhXhXhXpXGXMXnXhXhXpXMXMXnXpXFXAX2Xo. .{ {  .-.-.o.o.^ t h.S.C.F.F.J.T.U.j.a.U t . . # 9 # # 9 } ! Q.).7X8XaXXX XT.U.k.P.D Z 3 + . . # L Y.A.C.V.V.V.C.C.C.C.Z.Z.C.A.H.d.D 5 1 1 u [.iXGXMXhXpXHXKXMX",
"nXhXhXhXhXpXGXMXnXhXhXpXnXnXhXpXHXHXGXMXgXgXgXpXFXmXnXgX'.K a.N.S.J.J.S.C.B.S.A.H.U.a.C w d - % 3 J T &.g.b.7X7X7X Xb.5.4.9.4.P 8 + @ 3 V s.H.V.A.V.C.V.V.C.C.C.C.C.C.C.A.d.D 5 1 1 u [.iXGXMXhXpXKXKXMX",
"nXhXhXhXhXpXMXMXMXhXhXpXnXhXhXpXvXKXKXMXMXhXhXpXGXMXkXkX{.K 4.S.D.F.B.C.C.S.B.C.V.C.J.M.s.5.~ ~ a.U.j.f.L L f.b.l.8.P C 4.h.h.5.7 . # Q f.T.A.V.V.S.C.Z.V.A.C.C.C.C.C.C.A.d.D 5 1 1 u [.uXGXMXhXpXKXKXMX",
"MXnXkXhXhXpXHXMXMXMXhXpXnXkXhXhXpXKXKXMXnXhXhXpXHXMXnXvX,XK U Y.K.F.F.A.V.C.C.C.C.S.C.S.S.N.K.W.N.B.A.W.Y.j.8.C C C t 7 A A C A # X * V j.H.V.V.V.V.Z.Z.C.C.S.S.Z.Z.C.A.T.b.D 5 6 2 u [.uXGXMXhXpXHXKXMX",
"MXMXnXhXhXpXHXMXnXkXhXcXMXnXhXhXpXHXKXMXnXhXhXpXHXMXnXgX0X| %.g.l.Y.K.N.J.J.V.V.V.C.S.J.K.S.S.K.K.F.S.V.A.H.H.M.Y.Y.U.U.j.U./.U 2 e Q h.H.C.Z.C.Z.Z.Z.C.C.C.A.C.C.S.S.G.s.D N 5 1 2 u [.iXHXMXkXnXKXKXMX",
"MXkXhXhXhXpXHXMXhXhXhXjXnXkXhXhXpXHXMXMXnXhXhXpXHXMXnXhXhXpXZX_ 9 f.Y.G.S.S.S.S.J.H.n.d.h.j.d.d.n.J.B.D.C.C.C.C.V.V.V.V.V.J.U.H 9 Z l.E.A.C.C.C.Z.Z.Z.C.C.C.C.C.C.J.S.m.4.B 5 4 2 2 u '.uXGXMXcXjXMXKXMX",
"MXnXhXhXhXpXHXMXhXhXhXpXnXnXhXhXpXHXKXMXnXhXhXpXHXMXMXnXhXpXFXDX,X-X] U f.s.d.d.d.h.5.C B A A D a.m.A.F.D.C.C.C.C.C.S.C.C.C.J.Y.n.m.H.S.S.C.C.C.C.Z.C.C.C.S.C.C.C.N.A.m.I N 5 1 2 2 u [.iXGXMXkXnXKXKXMX",
"MXnXhXhXhXpXHXMXhXhXhXpXnXnXhXhXpXHXKXMXhXhXhXpXHXMXnXhXhXpXFXMXmXyXX.O.` t 8 7 7 1 1 + . . . + 7 I s.W.J.F.F.F.C.C.C.C.C.C.C.C.A.A.S.V.C.C.C.C.C.C.C.C.C.C.J.S.C.H.M.h.L M 4 1 2 3 _ :XpXFXMXkXpXHXKXMX",
"nXhXhXhXhXpXGXMXcXMXcXvXMXnXhXhXpXHXMXMXkXhXhXpXGXMXkXkXhXpXFXmXnXkXzXwX' -     . . .       X . . + Z ~ s.H.J.C.D.D.C.C.C.C.C.C.C.C.C.C.C.S.F.C.Z.C.C.C.C.C.S.S.F.J.U.L M 6 6 4 3 } wXfXpXGXnXhXpXHXKXMX",
"nXhXhXhXhXpXGXMXMXnXpXGXMXnXhXhXpXHXKXMXnXhXhXpXGXMXnXhXhXpXGXmXzX{.' y - = - - - - : - o $ $ o o % = 3 L 4.U.H.S.D.C.D.D.C.C.C.C.C.C.C.C.C.C.C.S.C.C.N.N.F.F.N.G.L.D N 4 1 6 2 x X.zXkXnXHXMXhXsXMXKXMX",
"MXnXhXhXhXpXGXMXnXhXpXMXMXkXhXsXpXHXKXMXkXhXhXpXGXMXnXcXhXpXDXtX' f s r r s h h h h k s : & - * = & & o + 7 ~ j.M.B.B.D.C.C.C.C.Z.C.C.C.C.C.C.C.C.D.D.C.D.D.K.Y.h.L M 4 1 6 6 u ~.yXnXnXpXGXMXhXhXpXHXMX",
"MXMXkXhXhXpXGXMXcXkXxXMXMXkXhXpXHXKXSXMXhXhXhXpXGXMXMXkXgX5X&.n n n n n c k h h x | ) e = - X X X X       . 2 A a.Y.G.K.S.C.C.C.C.C.C.C.C.C.C.C.D.D.C.J.H.Y.j.P B 5 4 4 1 1 3 ^ #XvXxXnXpXGXMXhXhXpXHXMX",
"MXnXhXhXhXpXGXMXhXhXpXGXMXhXhXpXHXKXMXMXkXhXhXpXHXMXMXvXpXx.x k k k n n n c n $.!.&Xx.y , o X X X       X o @ # 8 L 4.Y.N.F.D.D.D.D.C.D.D.S.S.C.S.G.Y.j.8.D N M 5 6 6 6 1 t { :XFXMXvXnXpXGXMXhXhXpXGXMX",
"MXMXcXhXhXpXGXMXhXhXpXGXMXhXhXpXHXMXMXMXkXhXhXpXGXMXmX&X( x h k k k n n W #X-X~.!.o.y o % o X X X X X X X     X o # 8 I 4.s.n.m.Y.W.W.Y.Y.M.Y.d.a.P D C M 5 4 4 4 4 6 4 t o.:XuXGXMXhXcXpXGXMXhXhXpXGXKX",
"MXnXhXhXhXpXGXMXhXhXpXMXMXhXhXpXHXMXnXhXhXhXhXpXHXMXzX;.z g k k k k k g T 2XyX~.e . X o p $.< X X X X X X X X X X X . # 7 M M M B B B N N N M M 5 5 5 4 1 1 4 4 4 6 w ' ;XdXgXpXFXMXcXnXpXGXMXhXhXpXGXKX",
"MXnXhXhXhXpXGXMXhXhXpXHXMXhXhXpXHXHXMXhXhXhXhXpXFXyX,Xi f h k k k c R !.2X-X&.m - O i ` 2XZX_ & X X X X X X X       X X o . . # 4 M 5 5 4 4 6 6 6 6 6 6 4 1 6 6 u { :XAXMXhXhXpXGXMXhXnXnXMXMXhXpXGXKXKX",
"MXnXhXhXhXpXGXMXhXhXpXHXMXhXhXpXHXHXMXhXkXhXsXpXAX:.e f k k k k c x o.wXAX&.< & , K *XAXDXZX%.f % X X X X     . o .       X X > _ _.O.`.>X&Xo.t 4 6 6 6 6 u [.oX0XpXpXSXMXMXcXpXGXMXhXhXgXpXnXhXpXGXKXKX",
"MXMXcXhXhXpXnXnXhXhXpXnXMXkXhXpXHXKXMXkXhXhXpXFXZX=.f c c c k c n ' x.*.>.v - , ' c.wXFXFXFXzX&., X X X X X X X X X X         O z ` ' %XZXyX-X;X*X5X5X5XVXyXgXhXgXgXpXSXMXcXkXpXGXMXhXhXhXpXnXhXpXGXKXKX",
"MXnXhXhXhXpXnXMXnXhXpXnXMXkXhXpXHXHXMXnXhXpXiX$Xv > g c c c c n E 0XfX[.K e - R %XuXpXGXKXHXvX#Xv X X X X X     X X X X o < < @ o o o > y y _ ,XuXsXgXpXFXvXhXhXhXhXpXSXMXnXhXpXGXMXhXhXhXpXnXhXsXMXKXKX",
"MXnXhXhXhXcXMXnXhXhXpXnXkXkXhXpXHXHXMXcXhXpXSX<Xz e k k c n n c R &X!./ < % & / uXgXpXGXKXHXmXzX&Xv X X X X   X X o o * : n n r q : : : - $ & , x ^ ( { o.#XzXMXnXhXpXSXMXhXhXpXGXMXhXhXhXpXnXhXhXpXHXKX",
"MXnXhXhXhXpXnXkXhXhXpXnXGXcXmXpXGXSXMXmXmX0X#XW f f c c c c W -.,XqX`.y - y O.,XxXhXpXHXKXKXMXMXxX0X' > X X   X % % % = r _ -X#X~.W j t w ; : & $ X X X X R ,XyXgXkXpXGXMXhXhXpXGXMXhXhXhXpXnXMXMXpXHXHX",
"MXnXhXhXhXpXnXnXhXhXpXzXyXwXwXuXFXGXmXvXwX' < f h h c c c n / -X,X} e O O R yXvXgXhXpXHXKXKXMXnXhXgXuXc.) x - $ $ $ $ * = = e x E z.z.[ Q.E e * o o X X X & z >.pXhXpXGXMXhXhXpXGXMXkXhXhXpXnXkXnXhXpXnX",
"MXMXcXhXhXpXnXcXcXhXpX,Xv & z ;.yXtX,X%X!.x - g h k c n n R *X,X~.v - - x ;.zXnXhXhXpXHXKXKXMXnXhXhXhXpXzX,Xv & & $ % % * % * = s T T J &.$.$.e .   X X $ & m '.gXhXpXGXMXhXhXpXGXMXkXhXhXpXnXhXnXkXpXnX",
"MXMXMXhXhXpXnXMXkXhXpXtXi X O - l X : : . o o - r h c n T ~.-X-X .e & z <XZXmXcXhXhXpXHXKXMXMXMXMXhXhXpXGXFXyXeXc.( - X o X X o * = = * @ 0 : o . X o $ & _ tXdXhXhXpXGXMXhXhXpXGXMXMXMXhXpXnXhXnXsXpXnX",
"MXMXkXhXhXpXnXMXnXhXpXyXR o - = : : ; = ; = & o X o ; g =.CXtX*.e $ , ) 3XFXMXnXhXhXpXHXKXKXMXMXMXnXhXpXGXGXmXhXgXwX&X<Xz X     o o X o X X X X X X & x *.3XmXnXgXhXpXGXMXhXhXpXGXMXnXhXhXpXnXhXnXpXSXMX",
"MXkXkXkXhXpXMXMXhXhXpXzX>X'.u * = : = = * * = = @ @ o > { !.=.e % $ y +XDXFXMXhXkXhXpXHXKXKXMXMXMXcXhXpXMXMXnXhXhXhXpXAX,X>X$X;.W - X X X X X X X $ < -.AXFXMXMXcXhXpXGXMXhXhXpXGXMXnXhXhXpXnXhXcXjXHXMX",
"nXhXhXhXhXpXMXHXcXhXpXnXMXzX+X{ > @ @ @ o o o @ # = : q * .   X & ) +XyXmXMXnXhXhXhXpXGXKXKXMXMXMXcXhXpXHXMXnXhXhXhXpXGXKXKXKXMX>Xi           X X o v :XDXKXMXnXhXhXpXGXMXkXhXpXGXMXcXcXhXpXnXcXhXpXHXMX",
"nXhXhXhXhXpXGXHXkXhXpXnXnXhXgXwX~.W - O @ O . o o @ * * @ o o   i -XfXpXGXMXnXhXhXhXpXHXKXKXKXMXnXnXhXpXHXMXMXnXhXhXpXGXKXKXMXmXtXi         X X X y '.0XFXHXMXnXhXhXpXMXMXMXnXpXHXMXnXhXhXpXnXhXhXpXHXKX",
"MXMXcXhXhXpXMXHXMXhXpXnXcXhXgXpXFXrX@Xy % o o o o o o o O o X < R oXhXpXGXMXnXhXhXhXpXHXKXKXKXMXcXhXhXpXHXMXMXcXhXhXpXHXKXKXMXMX,Xi     X X X - $.[.dXpXGXMXMXMXkXhXpXHXMXnXhXcXHXMXnXhXhXpXnXhXhXpXHXKX",
"MXkXhXhXhXxXMXMXkXhXpXMXKXMXhXpXGXMXjXeX+Xv o . X X X X X X y +XeXgXhXpXMXMXnXhXhXhXpXHXKXKXKXMXMXcXhXpXHXMXMXkXhXhXpXHXKXKXMXxX>Xi       X > X.&XfXgXpXFXMXMXMXcXhXpXHXMXhXhXpXHXKXMXhXhXpXnXhXhXpXHXKX",
"MXkXhXhXhXpXnXkXhXhXpXMXHXMXhXpXGXMXMXnXgX0X-.&.v @       X i ,XhXhXhXpXGXMXMXnXnXhXpXGXHXKXHXMXnXnXhXpXHXMXMXnXhXhXpXHXKXKXMXnX,Xi     X z X.0XxXhXgXpXGXMXMXnXhXhXpXGXMXhXhXpXGXHXMXhXhXpXnXhXhXpXHXKX",
"MXMXMXhXhXpXnXMXcXhXpXmXGXmXgXpXFXmXvXgXgXpXFXmXrXi ; o . o K tXvXhXhXpXMXMXnXhXkXgXpXFXFXmXmXmXxXxXgXpXFXmXmXjXvXgXpXFXHXHXmXvX[.u .   , >.uXgXgXgXpXmXGXMXMXMXkXpXFXFXmXgXgXpXFXKXMXhXgXpXnXhXhXpXHXKX"
};
