/* XPM */
static char *output[] = {
/* columns rows colors chars-per-pixel */
"256 256 39 1 ",
"  c black",
". c #010101",
"X c #010202",
"o c #0C1811",
"O c #0D1A12",
"+ c #0F1E15",
"@ c #101F15",
"# c #102016",
"$ c #1D3927",
"% c #285037",
"& c #295138",
"* c #2B543A",
"= c #2B553B",
"- c #346748",
"; c #45895F",
": c #478C61",
"> c #478D61",
", c #488F63",
"< c #498F63",
"1 c #4E9A6A",
"2 c #58AD78",
"3 c #60BE84",
"4 c #61BF84",
"5 c #62C186",
"6 c #63C387",
"7 c #67CB8C",
"8 c #6BD292",
"9 c #6ED996",
"0 c #6FDC98",
"q c #70DC98",
"w c #70DC99",
"e c #70DD99",
"r c #71DF9A",
"t c #72E19C",
"y c #74E59E",
"u c #75E8A0",
"i c #76E9A1",
"p c #76E9A2",
"a c #76EAA2",
/* pixels */
"pppppppppppppppppppppppppppppppppppppppppppppppppppppppppppppppppppppppppppppppppppppppppppppppppppppppppppppppppppppppppppppppppppppppppppppppppppppppppppppppppppppppppppppppppppppppppppppppppppppppppppppppppppppppppppppppppppppppppppppppppppppppppppytqqq",
"0000000000000000000000000000000000000000000000000000000000000000000000000000000000000000000000000000000000000000000000000000000000000000000000000000000000000000000000000000000000000000000000000000000000000000000000000000000000000000000000000000q9000q0q0qqq",
"44444444444444444444444444444444444444444444444444444444444444444444444444444444444444444444444444444444444444444444444444444444444444444444444444444444444444444444444444444444444444444444444444444444444444444444444444444444444444444444444444444444446780tq",
",,,,,,,,,,,,,,,,,,,,,,,,,,,,,,,,,,,,,,,,,,,,,,,,,,,,,,,,,,,,,,,,,,,,,,,,,,,,,,,,,,,,,,,,,,,,,,,,,,,,,,,,,,,,,,,,,,,,,,,,,,,,,,,,,,,,,,,,,,,,,,,,,,,,,,,,,,,,,,,,,,,,,,,,,,,,,,,,,,,,,,,,,,,,,,,,,,,,,,,,,,,,,,,,,,,,,,,,,,,,,,,,,,,,,,,,,,,,,,,,,,,,,,,::,1268qt",
"=======================================================================================================================================================================================================================================================&&=-;270y",
"@@++@+++@++++@@@+++@@+++@@++@+++@++++@@@+++@@+++@@++@+++@++++@@@+++@@+++@@++@+++@++++@@@+++@@+++@@++@+++@++++@@@+++@@+++@@++@+++@++++@@@+++@@+++@@++@+++@++++@@@+++@@+++@@++@+++@++++@@@+++@@+++@@++@+++@++++@@@+++@@+++@@++@+++@++++@@@+++@@+++@@++@++oo#$-160u",
"..........................................................................................................................................................................................................................................................#=,40p",
"..........................................................................................................................................................................................................................................................@=,40p",
"..........................................................................................................................................................................................................................................................@=,40p",
"..........................................................................................................................................................................................................................................................+=,40p",
"..........................................................................................................................................................................................................................................................+=,40p",
"..........................................................................................................................................................................................................................................................+=,40p",
"..........................................................................................................................................................................................................................................................@=,40p",
"..........................................................................................................................................................................................................................................................@=,40p",
"..........................................................................................................................................................................................................................................................@=,40p",
"..........................................................................................................................................................................................................................................................@=,40p",
"..........................................................................................................................................................................................................................................................@=,40p",
"..........................................................................................................................................................................................................................................................+=,40p",
"..........................................................................................................................................................................................................................................................+=,40p",
"..........................................................................................................................................................................................................................................................+=,40p",
"..........................................................................................................................................................................................................................................................@=,40p",
"..........................................................................................................................................................................................................................................................@=,40p",
"..........................................................................................................................................................................................................................................................@=,40p",
"..........................................................................................................................................................................................................................................................@=,40p",
"..........................................................................................................................................................................................................................................................@=,40p",
"..........................................................................................................................................................................................................................................................+=,40p",
"..........................................................................................................................................................................................................................................................+=,40p",
"..........................................................................................................................................................................................................................................................+=,40p",
"..........................................................................................................................................................................................................................................................@=,40p",
"..........................................................................................................................................................................................................................................................@=,40p",
"..........................................................................................................................................................................................................................................................@=,40p",
"..........................................................................................................................................................................................................................................................@=,40p",
"..........................................................................................................................................................................................................................................................@=,40p",
"..........................................................................................................................................................................................................................................................+=,40p",
"..........................................................................................................................................................................................................................................................+=,40p",
"..........................................................................................................................................................................................................................................................+=,40p",
"..........................................................................................................................................................................................................................................................@=,40p",
"..........................................................................................................................................................................................................................................................@=,40p",
"..........................................................................................................................................................................................................................................................@=,40p",
"..........................................................................................................................................................................................................................................................@=,40p",
"..........................................................................................................................................................................................................................................................@=,40p",
"..........................................................................................................................................................................................................................................................+=,40p",
"..........................................................................................................................................................................................................................................................+=,40p",
"..........................................................................................................................................................................................................................................................+=,40p",
"..........................................................................................................................................................................................................................................................@=,40p",
"..........................................................................................................................................................................................................................................................@=,40p",
"..........................................................................................................................................................................................................................................................@=,40p",
"..........................................................................................................................................................................................................................................................@=,40p",
"..........................................................................................................................................................................................................................................................@=,40p",
"..........................................................................................................................................................................................................................................................+=,40p",
"..........................................................................................................................................................................................................................................................+=,40p",
"..........................................................................................................................................................................................................................................................+=,40p",
"..........................................................................................................................................................................................................................................................@=,40p",
"..........................................................................................................................................................................................................................................................@=,40p",
"..........................................................................................................................................................................................................................................................@=,40p",
"..........................................................................................................................................................................................................................................................@=,40p",
"..........................................................................................................................................................................................................................................................@=,40p",
"..........................................................................................................................................................................................................................................................+=,40p",
"..........................................................................................................................................................................................................................................................+=,40p",
"..........................................................................................................................................................................................................................................................+=,40p",
"..........................................................................................................................................................................................................................................................@=,40p",
"..........................................................................................................................................................................................................................................................@=,40p",
"..........................................................................................................................................................................................................................................................@=,40p",
"..........................................................................................................................................................................................................................................................@=,40p",
"..........................................................................................................................................................................................................................................................@=,40p",
"..........................................................................................................................................................................................................................................................+=,40p",
"..........................................................................................................................................................................................................................................................+=,40p",
"..........................................................................................................................................................................................................................................................+=,40p",
"..........................................................................................................................................................................................................................................................@=,40p",
"..........................................................................................................................................................................................................................................................@=,40p",
"..........................................................................................................................................................................................................................................................@=,40p",
"..........................................................................................................................................................................................................................................................@=,40p",
"..........................................................................................................................................................................................................................................................@=,40p",
"..........................................................................................................................................................................................................................................................+=,40p",
"..........................................................................................................................................................................................................................................................+=,40p",
"..........................................................................................................................................................................................................................................................+=,40p",
"..........................................................................................................................................................................................................................................................@=,40p",
"..........................................................................................................................................................................................................................................................@=,40p",
"..........................................................................................................................................................................................................................................................@=,40p",
"..........................................................................................................................................................................................................................................................@=,40p",
"..........................................................................................................................................................................................................................................................@=,40p",
"..........................................................................................................................................................................................................................................................+=,40p",
"..........................................................................................................................................................................................................................................................+=,40p",
"..........................................................................................................................................................................................................................................................+=,40p",
"..........................................................................................................................................................................................................................................................@=,40p",
"..........................................................................................................................................................................................................................................................@=,40p",
"..........................................................................................................................................................................................................................................................@=,40p",
"..........................................................................................................................................................................................................................................................@=,40p",
"..........................................................................................................................................................................................................................................................@=,40p",
"..........................................................................................................................................................................................................................................................+=,40p",
"..........................................................................................................................................................................................................................................................+=,40p",
"..........................................................................................................................................................................................................................................................+=,40p",
"..........................................................................................................................................................................................................................................................@=,40p",
"..........................................................................................................................................................................................................................................................@=,40p",
"..........................................................................................................................................................................................................................................................@=,40p",
"..........................................................................................................................................................................................................................................................@=,40p",
"..........................................................................................................................................................................................................................................................@=,40p",
"..........................................................................................................................................................................................................................................................+=,40p",
"..........................................................................................................................................................................................................................................................+=,40p",
"..........................................................................................................................................................................................................................................................+=,40p",
"..........................................................................................................................................................................................................................................................@=,40p",
"..........................................................................................................................................................................................................................................................@=,40p",
"..........................................................................................................................................................................................................................................................@=,40p",
"..........................................................................................................................................................................................................................................................@=,40p",
"..........................................................................................................................................................................................................................................................@=,40p",
"..........................................................................................................................................................................................................................................................+=,40p",
"..........................................................................................................................................................................................................................................................+=,40p",
"..........................................................................................................................................................................................................................................................+=,40p",
"..........................................................................................................................................................................................................................................................@=,40p",
"..........................................................................................................................................................................................................................................................@=,40p",
"..........................................................................................................................................................................................................................................................@=,40p",
"..........................................................................................................................................................................................................................................................@=,40p",
"..........................................................................................................................................................................................................................................................@=,40p",
"..........................................................................................................................................................................................................................................................+=,40p",
"..........................................................................................................................................................................................................................................................+=,40p",
"..........................................................................................................................................................................................................................................................+=,40p",
"..........................................................................................................................................................................................................................................................@=,40p",
"..........................................................................................................................................................................................................................................................@=,40p",
"..........................................................................................................................................................................................................................................................@=,40p",
"..........................................................................................................................................................................................................................................................@=,40p",
"..........................................................................................................................................................................................................................................................@=,40p",
"..........................................................................................................................................................................................................................................................+=,40p",
"..........................................................................................................................................................................................................................................................+=,40p",
"..........................................................................................................................................................................................................................................................+=,40p",
"..........................................................................................................................................................................................................................................................@=,40p",
"..........................................................................................................................................................................................................................................................@=,40p",
"..........................................................................................................................................................................................................................................................@=,40p",
"..........................................................................................................................................................................................................................................................@=,40p",
"..........................................................................................................................................................................................................................................................@=,40p",
"..........................................................................................................................................................................................................................................................+=,40p",
"..........................................................................................................................................................................................................................................................+=,40p",
"..........................................................................................................................................................................................................................................................+=,40p",
"..........................................................................................................................................................................................................................................................@=,40p",
"..........................................................................................................................................................................................................................................................@=,40p",
"..........................................................................................................................................................................................................................................................@=,40p",
"..........................................................................................................................................................................................................................................................@=,40p",
"..........................................................................................................................................................................................................................................................@=,40p",
"..........................................................................................................................................................................................................................................................+=,40p",
"..........................................................................................................................................................................................................................................................+=,40p",
"..........................................................................................................................................................................................................................................................+=,40p",
"..........................................................................................................................................................................................................................................................@=,40p",
"..........................................................................................................................................................................................................................................................@=,40p",
"..........................................................................................................................................................................................................................................................@=,40p",
"..........................................................................................................................................................................................................................................................@=,40p",
"..........................................................................................................................................................................................................................................................@=,40p",
"..........................................................................................................................................................................................................................................................+=,40p",
"..........................................................................................................................................................................................................................................................+=,40p",
"..........................................................................................................................................................................................................................................................+=,40p",
"..........................................................................................................................................................................................................................................................@=,40p",
"..........................................................................................................................................................................................................................................................@=,40p",
"..........................................................................................................................................................................................................................................................@=,40p",
"..........................................................................................................................................................................................................................................................@=,40p",
"..........................................................................................................................................................................................................................................................@=,40p",
"..........................................................................................................................................................................................................................................................+=,40p",
"..........................................................................................................................................................................................................................................................+=,40p",
"..........................................................................................................................................................................................................................................................+=,40p",
"..........................................................................................................................................................................................................................................................@=,40p",
"..........................................................................................................................................................................................................................................................@=,40p",
"..........................................................................................................................................................................................................................................................@=,40p",
"..........................................................................................................................................................................................................................................................@=,40p",
"..........................................................................................................................................................................................................................................................@=,40p",
"..........................................................................................................................................................................................................................................................+=,40p",
"..........................................................................................................................................................................................................................................................+=,40p",
"..........................................................................................................................................................................................................................................................+=,40p",
"..........................................................................................................................................................................................................................................................@=,40p",
"..........................................................................................................................................................................................................................................................@=,40p",
"..........................................................................................................................................................................................................................................................@=,40p",
"..........................................................................................................................................................................................................................................................@=,40p",
"..........................................................................................................................................................................................................................................................@=,40p",
"..........................................................................................................................................................................................................................................................+=,40p",
"..........................................................................................................................................................................................................................................................+=,40p",
"..........................................................................................................................................................................................................................................................+=,40p",
"..........................................................................................................................................................................................................................................................@=,40p",
"..........................................................................................................................................................................................................................................................@=,40p",
"..........................................................................................................................................................................................................................................................@=,40p",
"..........................................................................................................................................................................................................................................................@=,40p",
"..........................................................................................................................................................................................................................................................@=,40p",
"..........................................................................................................................................................................................................................................................+=,40p",
"..........................................................................................................................................................................................................................................................+=,40p",
"..........................................................................................................................................................................................................................................................+=,40p",
"..........................................................................................................................................................................................................................................................@=,40p",
"..........................................................................................................................................................................................................................................................@=,40p",
"..........................................................................................................................................................................................................................................................@=,40p",
"..........................................................................................................................................................................................................................................................@=,40p",
"..........................................................................................................................................................................................................................................................@=,40p",
"..........................................................................................................................................................................................................................................................+=,40p",
"..........................................................................................................................................................................................................................................................+=,40p",
"..........................................................................................................................................................................................................................................................+=,40p",
"..........................................................................................................................................................................................................................................................@=,40p",
"..........................................................................................................................................................................................................................................................@=,40p",
"..........................................................................................................................................................................................................................................................@=,40p",
"..........................................................................................................................................................................................................................................................@=,40p",
"..........................................................................................................................................................................................................................................................@=,40p",
"..........................................................................................................................................................................................................................................................+=,40p",
"..........................................................................................................................................................................................................................................................+=,40p",
"..........................................................................................................................................................................................................................................................+=,40p",
"..........................................................................................................................................................................................................................................................@=,40p",
"..........................................................................................................................................................................................................................................................@=,40p",
"..........................................................................................................................................................................................................................................................@=,40p",
"..........................................................................................................................................................................................................................................................@=,40p",
"..........................................................................................................................................................................................................................................................@=,40p",
"..........................................................................................................................................................................................................................................................+=,40p",
"..........................................................................................................................................................................................................................................................+=,40p",
"..........................................................................................................................................................................................................................................................+=,40p",
"..........................................................................................................................................................................................................................................................@=,40p",
"..........................................................................................................................................................................................................................................................@=,40p",
"..........................................................................................................................................................................................................................................................@=,40p",
"..........................................................................................................................................................................................................................................................@=,40p",
"..........................................................................................................................................................................................................................................................@=,40p",
"..........................................................................................................................................................................................................................................................+=,40p",
"..........................................................................................................................................................................................................................................................+=,40p",
"..........................................................................................................................................................................................................................................................+=,40p",
"..........................................................................................................................................................................................................................................................@=,40p",
"..........................................................................................................................................................................................................................................................@=,40p",
"..........................................................................................................................................................................................................................................................@=,40p",
"..........................................................................................................................................................................................................................................................@=,40p",
"..........................................................................................................................................................................................................................................................@=,40p",
"..........................................................................................................................................................................................................................................................+=,40p",
"..........................................................................................................................................................................................................................................................+=,40p",
"..........................................................................................................................................................................................................................................................+=,40p",
"..........................................................................................................................................................................................................................................................@=,40p",
"..........................................................................................................................................................................................................................................................@=,40p",
"..........................................................................................................................................................................................................................................................@=,40p",
"..........................................................................................................................................................................................................................................................@=,40p",
"..........................................................................................................................................................................................................................................................@=,40p",
"..........................................................................................................................................................................................................................................................+=,40p",
"..........................................................................................................................................................................................................................................................+=,40p",
"..........................................................................................................................................................................................................................................................+=,40p",
"..........................................................................................................................................................................................................................................................@=,40p",
"..........................................................................................................................................................................................................................................................@=,40p",
"..........................................................................................................................................................................................................................................................@=,40p",
"..........................................................................................................................................................................................................................................................@=,40p",
"..........................................................................................................................................................................................................................................................@=,40p",
"..........................................................................................................................................................................................................................................................+=,40p",
"..........................................................................................................................................................................................................................................................+=,40p",
"..........................................................................................................................................................................................................................................................+=,40p",
"..........................................................................................................................................................................................................................................................@=,40p",
"..........................................................................................................................................................................................................................................................@=,40p",
"..........................................................................................................................................................................................................................................................@=,40p",
"..........................................................................................................................................................................................................................................................@=,40p",
"..........................................................................................................................................................................................................................................................@=,40p",
"..........................................................................................................................................................................................................................................................+=,40p",
"..........................................................................................................................................................................................................................................................+=,40p",
"..........................................................................................................................................................................................................................................................+=,40p",
"..........................................................................................................................................................................................................................................................@=,40p",
"..........................................................................................................................................................................................................................................................@=,40p",
"..........................................................................................................................................................................................................................................................@=,40p",
"..........................................................................................................................................................................................................................................................@=,40p",
"..........................................................................................................................................................................................................................................................@=,39p",
"..........................................................................................................................................................................................................................................................#=<60p",
"+++@++@@+++@@+++@@@++++@+++@++@@+++@@+++@@@++++@+++@++@@+++@@+++@@@++++@+++@++@@+++@@+++@@@++++@+++@++@@+++@@+++@@@++++@+++@++@@+++@@+++@@@++++@+++@++@@+++@@+++@@@++++@+++@++@@+++@@+++@@@++++@+++@++@@+++@@+++@@@++++@+++@++@@+++@@+++@@@++++@+++@+++oo@$-160p",
"=======================================================================================================================================================================================================================================================&%=-;270y",
",,,,,,,,,,,,,,,,,,,,,,,,,,,,,,,,,,,,,,,,,,,,,,,,,,,,,,,,,,,,,,,,,,,,,,,,,,,,,,,,,,,,,,,,,,,,,,,,,,,,,,,,,,,,,,,,,,,,,,,,,,,,,,,,,,,,,,,,,,,,,,,,,,,,,,,,,,,,,,,,,,,,,,,,,,,,,,,,,,,,,,,,,,,,,,,,,,,,,,,,,,,,,,,,,,,,,,,,,,,,,,,,,,,,,,,,,,,,,,,,,,,,,,,::,12680t",
"44444444444444444444444444444444444444444444444444444444444444444444444444444444444444444444444444444444444444444444444444444444444444444444444444444444444444444444444444444444444444444444444444444444444444444444444444444444444444444444444444444444366789qq",
"0000000000000000000000000000000000000000000000000000000000000000000000000000000000000000000000000000000000000000000000000000000000000000000000000000000000000000000000000000000000000000000000000000000000000000000000000000000000000000000000000000000090qqqqqq",
"pppppppppppppppppppppppppppppppppppppppppppppppppppppppppppppppppppppppppppppppppppppppppppppppppppppppppppppppppppppppppppppppppppppppppppppppppppppppppppppppppppppppppppppppppppppppppppppppppppppppppppppppppppppppppppppppppppppppppppppppppppppppppppyttqq"
};
