/* XPM */
static char * matrix_line_xpm[] = {
"3 256 17 1",
" 	c #74E59E",
".	c #72E19C",
"+	c #70DC98",
"@	c #6FDC98",
"#	c #67CB8C",
"$	c #6BD292",
"%	c #58AD78",
"&	c #63C387",
"*	c #45895F",
"=	c #346748",
"-	c #4E9A6A",
";	c #2B553B",
">	c #488F63",
",	c #61BF84",
"'	c #60BE84",
")	c #498F63",
"!	c #6ED996",
" .+",
"+@+",
"#$@",
"%&$",
"*%#",
"=-&",
";>,",
";>,",
";>,",
";>,",
";>,",
";>,",
";>,",
";>,",
";>,",
";>,",
";>,",
";>,",
";>,",
";>,",
";>,",
";>,",
";>,",
";>,",
";>,",
";>,",
";>,",
";>,",
";>,",
";>,",
";>,",
";>,",
";>,",
";>,",
";>,",
";>,",
";>,",
";>,",
";>,",
";>,",
";>,",
";>,",
";>,",
";>,",
";>,",
";>,",
";>,",
";>,",
";>,",
";>,",
";>,",
";>,",
";>,",
";>,",
";>,",
";>,",
";>,",
";>,",
";>,",
";>,",
";>,",
";>,",
";>,",
";>,",
";>,",
";>,",
";>,",
";>,",
";>,",
";>,",
";>,",
";>,",
";>,",
";>,",
";>,",
";>,",
";>,",
";>,",
";>,",
";>,",
";>,",
";>,",
";>,",
";>,",
";>,",
";>,",
";>,",
";>,",
";>,",
";>,",
";>,",
";>,",
";>,",
";>,",
";>,",
";>,",
";>,",
";>,",
";>,",
";>,",
";>,",
";>,",
";>,",
";>,",
";>,",
";>,",
";>,",
";>,",
";>,",
";>,",
";>,",
";>,",
";>,",
";>,",
";>,",
";>,",
";>,",
";>,",
";>,",
";>,",
";>,",
";>,",
";>,",
";>,",
";>,",
";>,",
";>,",
";>,",
";>,",
";>,",
";>,",
";>,",
";>,",
";>,",
";>,",
";>,",
";>,",
";>,",
";>,",
";>,",
";>,",
";>,",
";>,",
";>,",
";>,",
";>,",
";>,",
";>,",
";>,",
";>,",
";>,",
";>,",
";>,",
";>,",
";>,",
";>,",
";>,",
";>,",
";>,",
";>,",
";>,",
";>,",
";>,",
";>,",
";>,",
";>,",
";>,",
";>,",
";>,",
";>,",
";>,",
";>,",
";>,",
";>,",
";>,",
";>,",
";>,",
";>,",
";>,",
";>,",
";>,",
";>,",
";>,",
";>,",
";>,",
";>,",
";>,",
";>,",
";>,",
";>,",
";>,",
";>,",
";>,",
";>,",
";>,",
";>,",
";>,",
";>,",
";>,",
";>,",
";>,",
";>,",
";>,",
";>,",
";>,",
";>,",
";>,",
";>,",
";>,",
";>,",
";>,",
";>,",
";>,",
";>,",
";>,",
";>,",
";>,",
";>,",
";>,",
";>,",
";>,",
";>,",
";>,",
";>,",
";>,",
";>,",
";>,",
";>,",
";>,",
";>,",
";>,",
";>,",
";>,",
";>,",
";>,",
";>,",
";>,",
";>,",
";>,",
";>,",
";>,",
";>,",
";>,",
";>,",
";>,",
";>,",
";>,",
";>,",
";>'",
";)&",
"=-&",
"*%#",
"%&$",
"#$!",
"+++",
" .."};
