/* XPM */
static char *b7b00bd77b9a4fb8accbe63d30f9de0e[] = {
/* columns rows colors chars-per-pixel */
"100 100 255 2 ",
"   c #050201",
".  c #0C0203",
"X  c #090807",
"o  c #0C030A",
"O  c #130204",
"+  c #1B0204",
"@  c #13030A",
"#  c #1B030B",
"$  c #130A0B",
"%  c #180B09",
"&  c #0C1405",
"*  c #181709",
"=  c #0D0713",
"-  c #170914",
";  c #1A1617",
":  c #220304",
">  c #2C0204",
",  c #23040A",
"<  c #29080A",
"1  c #370608",
"2  c #2F160B",
"3  c #250912",
"4  c #370812",
"5  c #251818",
"6  c #361514",
"7  c #18270B",
"8  c #1C3511",
"9  c #2E2E11",
"0  c #282818",
"q  c #263717",
"w  c #181723",
"e  c #261A27",
"r  c #2C1A2F",
"t  c #1E262D",
"y  c #272527",
"u  c #2C2A2D",
"i  c #322A2B",
"p  c #373527",
"a  c #2C2B32",
"s  c #322B33",
"d  c #373637",
"f  c #470808",
"g  c #520D0B",
"h  c #480815",
"j  c #570918",
"k  c #491718",
"l  c #561816",
"z  c #691014",
"x  c #781616",
"c  c #502919",
"v  c #69251C",
"b  c #762F1D",
"n  c #4E1521",
"m  c #561625",
"M  c #72142A",
"N  c #512A28",
"B  c #6B2F2A",
"V  c #762A23",
"C  c #7A3328",
"Z  c #185312",
"A  c #2B4817",
"S  c #325419",
"D  c #1A6A0B",
"F  c #2E6C17",
"G  c #364C29",
"H  c #3B5827",
"J  c #366E2A",
"K  c #4B4D33",
"L  c #62542D",
"P  c #486F32",
"I  c #3A354B",
"U  c #3D3663",
"Y  c #45374D",
"T  c #433E67",
"R  c #36434A",
"E  c #464547",
"W  c #514B4E",
"Q  c #565556",
"!  c #675955",
"~  c #537244",
"^  c #6E6954",
"/  c #56516C",
"(  c #635B73",
")  c #686769",
"_  c #6F6E6D",
"`  c #77777B",
"'  c #8F1511",
"]  c #881716",
"[  c #922818",
"{  c #AA2B1C",
"}  c #8E1632",
"|  c #AD133A",
" . c #8C2E2B",
".. c #AD3729",
"X. c #C7311B",
"o. c #8F4B34",
"O. c #B04B32",
"+. c #AE6A25",
"@. c #DC552A",
"#. c #D05231",
"$. c #D16E2F",
"%. c #D76B3B",
"&. c #D76B3D",
"*. c #CD773A",
"=. c #D77638",
"-. c #E76C34",
";. c #E87334",
":. c #A21E41",
">. c #B71846",
",. c #942B46",
"<. c #B22D52",
"1. c #C9194A",
"2. c #CD2B56",
"3. c #E63055",
"4. c #D13864",
"5. c #E9396C",
"6. c #935248",
"7. c #A5544B",
"8. c #B25847",
"9. c #A9605A",
"0. c #847973",
"q. c #CB524A",
"w. c #C6634B",
"e. c #CB654C",
"r. c #CD6E4A",
"t. c #D76846",
"y. c #DB6A44",
"u. c #D66748",
"i. c #D57745",
"p. c #E57146",
"a. c #D74A6E",
"s. c #DB556E",
"d. c #E94C74",
"f. c #EA5379",
"g. c #1F8218",
"h. c #2C8F16",
"j. c #379718",
"k. c #36A51A",
"l. c #378F2B",
"z. c #3EA729",
"x. c #4B8F1C",
"c. c #4F9230",
"v. c #51A731",
"b. c #67AD37",
"n. c #538B4A",
"m. c #6A904C",
"M. c #52A94E",
"N. c #6CB24D",
"B. c #66A868",
"V. c #72C258",
"C. c #978538",
"Z. c #D5932D",
"A. c #EA8D39",
"S. c #E8993B",
"D. c #DDA231",
"F. c #E6A93A",
"G. c #F0AE3C",
"H. c #8A8A59",
"J. c #A0AE58",
"K. c #8E8A6C",
"L. c #AC966F",
"P. c #B4AB70",
"I. c #D09352",
"U. c #EE9347",
"Y. c #D3AE52",
"T. c #EBAD42",
"R. c #EAAA48",
"E. c #F3A947",
"W. c #E7B245",
"Q. c #ECB242",
"!. c #ECB44C",
"~. c #F2B243",
"^. c #F4B84C",
"/. c #E8AD55",
"(. c #ECB652",
"). c #ECB956",
"_. c #EAB559",
"`. c #ECBB5A",
"'. c #F5B854",
"]. c #F2BB5B",
"[. c #D19B66",
"{. c #D2AE6D",
"}. c #ECBE61",
"|. c #ECB76E",
" X c #EBB969",
".X c #F3BC68",
"XX c #86C65F",
"oX c #FAC64D",
"OX c #FAC454",
"+X c #F8C556",
"@X c #F7CE51",
"#X c #FCCB55",
"$X c #FCCB5A",
"%X c #FCD156",
"&X c #F6D35A",
"*X c #FBD25C",
"=X c #ECC264",
"-X c #EBC36C",
";X c #F2C264",
":X c #FECD62",
">X c #F9CA68",
",X c #FCD262",
"<X c #F6D56C",
"1X c #F9D56A",
"2X c #EDC576",
"3X c #F3C477",
"4X c #F7D878",
"5X c #5C5C8A",
"6X c #615E89",
"7X c #6C6A8E",
"8X c #EE5683",
"9X c #EB698B",
"0X c #7D828A",
"qX c #868587",
"wX c #918D90",
"eX c #97949A",
"rX c #A7A591",
"tX c #8589AD",
"yX c #9D9CA2",
"uX c #A29EA6",
"iX c #A9A7A6",
"pX c #B6B2B0",
"aX c #CDB68F",
"sX c #E7B78A",
"dX c #C5B9B0",
"fX c #A8C4A9",
"gX c #D9C58F",
"hX c #EAC685",
"jX c #F6DA86",
"kX c #F1CD93",
"lX c #F7E28B",
"zX c #F7E296",
"xX c #D7CCB4",
"cX c #F0D5AC",
"vX c #ECDAB9",
"bX c #F8E6A7",
"nX c #F8E8B9",
"mX c #B0B4C2",
"MX c #C8C8C9",
"NX c #D2CFCD",
"BX c #DAD9D9",
"VX c #EBDAC9",
"CX c #F6E9CA",
"ZX c #ECE6D7",
"AX c #F5EDD3",
"SX c #F4EBD7",
"DX c #DADFE1",
"FX c #E6E6E5",
"GX c #F3EEE9",
"HX c #ECF3EA",
"JX c #FAF6E6",
"KX c #F3F1EE",
"LX c #EDF3F3",
"PX c #F4F4F4",
"IX c #F6F9F8",
/* pixels */
"`.!.Q.W.}.T.Q.`.=XT.Q.!.T.Q.).`.=X(.Q.Q.Q.).`.Q.!.`.=XT.Q.!.`.`.Q.!.`.=XT.(.`.`.`.T.Q.].).Q.`.`.;XT.~.].=XT.).`.=XT.Q.).`.!.Q.Q.!.=XT.Q.(.`.Q.!.=X`.Q.Q.).G.!.`.`.=XT.Q.Q.!.=XT.Q.`.=X`.Q.Q.).}.T.Q.`.=X",
"`.;XT.Q.}.T.Q.].=XT.Q.!.T.Q.).`.=X(.Q.(.Q.).`.(.).`.=XT.Q.).`.`.Q.).`.=XT.!.!.`.`.Q.Q.].!.Q.(.].;XT.'.].!.!.`.`.`.G.Q.`.`.!.Q.Q.!.=X(.Q.(.`.Q.!.=X`.Q.Q.).T.!.`.`.=XT.Q.!.Q.=XT.).`.=X`.Q.!.`.}.T.(.`.=X",
"`.;X).).}.T.Q.].=XT.Q.!.T.Q.).`.=XT.(.(.(.).`.Q.!.`.=XT.Q.!.`.`.Q.`.`.=XT.!.].].].T.).]._._. X}._.W._.`.T.Q.).`.T.T.!.`.`.!.Q.Q.!.=X`.).`.`.Q.!.=X`.Q.Q.).T.!.`.`.!.!.!.`.Q.=XT.Q.`.=X`.Q.Q.).}.T.(.`.=X",
"`.;X!.`.}.T.Q.`.=XT.Q.!.T.Q.).`.}.T.!.`.Q.).`.Q.!.`.=XT.Q.!.`.`.Q.!.`.=XT.(.].].].T.Q.).cXpXiXrXrXC.wXL.{.G.].]. X.X}.`.`.!.Q.Q.!.;X(.).`.`.Q.!.=X`.Q.Q.).T.Q.`.`.R.Q.).(.Q.=XT.Q.`.=X`.Q.Q.).}.T.Q.).=X",
"`.=XT.`.}.T.Q.`.=XT.Q.!.T.Q.Q.`.).G.).!.(.).`.Q.!.`.=XT.Q.).`.`.Q.!.`.=XT.~.].].`.~._.].xXW d d i 9 u 0 wX).!.;XKXHXZX(.cX2XQ.Q.!.;X(.!.`.`.Q.!.=X).Q.Q.).T.Q.).`.T.!.).!.Q.}.T.Q.`.=X`.Q.!.`.}.T.!.!.=X",
"`.=X!.`.}.R.).`.=XT.Q.!.T.Q.Q.`.`.G.Q.(.Q.).T.Q.!.`.=XT.Q.!.`.`.Q.!.`.=XT.~.!.`.`.Q.vX3XDXd $ # , + O   wXVX).vXIXvX|. XVXQ.Q.W.!.;X(.).`.`.(.).=X).Q.Q.).T.Q.).`.R.Q.!.!.Q.!.Q.Q.`.=X`.Q.Q.).}.T.Q.).=X",
"`.=XT.`.}.T.Q.`.=XT.Q.`.T.Q.).`.`.T.!.!.!.`.T.Q.!.`.=XT.Q.!.`.`.Q.).`.=XT.!.).`.`.Q..XGXDXd - # + + O   _ Y.Y.xXDXBXBXBX XQ.Q.Q..X3X(.!.`.`.Q.!.=X).Q.!.).T.Q.`.`.T.Q.).Q.).!.Q.Q.`.=X`.Q.Q.).`.T.!.`.`.",
"`.=XT.).=XT.(.`.=XT.Q.`.T.Q.Q.`.}.G.!.).!.`.T.(.!.`.=XT.Q.!.`.).Q.!.`.}.T.Q.`.`.`.}.FXLXMXu # @ $ . O O i ! ! ) _ ) ) ) ^ Y.Q.).GXGX!.Q.;X`.Q.`.=X).Q.!.).T.Q.).`.R.Q.).!.`.!.Q.).!.=X`.Q.Q.).`.T.Q.`.`.",
"`.=XT.).=XT.`.`.!.T.Q.`.T.Q.Q.`.=XT.!.!.!.`.T.Q.Q.`.=XT.Q.).`.`.Q.`.`.}.T.Q.). X`.VXqX) Q 3 , < 4 4 4 : O ; ; ; 5 5 5 5 $ pXG.Q. X2X(.Q.=X`.(.`.`.T.Q.(.).T.Q.(.`.!.Q.).Q.`.!.Q.Q.!.=X`.Q.!.`.`.T.(.`.`.",
"`.=XT.).=XT.(.`.!.Q.(.`.T.Q.Q.`.=XG.Q.Q.!.`.T.Q.`.`.=XT.Q.!.`.(.Q.`.`.}.T.!.!.ZX`.Y.I ; - 3 k  .,.,.,.n O O O @ @ @ @ O   pXG.Q.`.=X X}.=X`.Q.}.=XT.Q.`.`.T.Q.(.`.!.Q.Q.Q.`.!.Q.(.`.=X`.Q.Q.).`.T.(.`.`.",
"`.=XT.).`.T.(.`.!.Q.).(.Q.Q.Q.`.=XG.Q.).`.`.T.Q.`.`.=XT.Q.!.`.(.Q.!.`.}.T.Q.).ZX`.W.w o @ 4 7.9X9Xf.a. .+ O . @ @ $ @     pXG.`.`.=XvXZX`.T.Q.kXhXT.Q.`.T.Q.Q.(.`.!.Q.).).`.!.Q.(.`.=X`.Q.Q.).`.T.Q.`.`.",
"`.=XT.).).Q.(.`.!.!.`.(.Q.Q.Q.`.=XG.Q.`.`.`.G.).`.`.=XT.Q.Q.).(.Q.).`.}.T.Q.!.2X=XY.; @ @ 6 s.9Xf.4.<.,.3   . O + O O .   iXF.ZX(.}. X X XR.W. X-X!..X`.T.Q.Q.).`.!.Q.).`.`.!.Q.`.`.=X`.Q.Q.!.`.T.!.`.`.",
"`.=XT.).).Q.!.`.!.Q.(.`.Q.Q.).`.=XT.Q.).!.`.T.).`.`.=XT.Q.!.`.(.Q.!.`.}.T.!.`.=XcXNX  O O l a.s.8Xa.>.,.,   . : 1 1 > , + W 0.qXH.H.K.qXqXwXH.K.iXiXBX(.(.Q.W.`.`.!.Q.Q.(.`.!.Q.`.`.=X`.Q.Q.).`.T.Q.`.`.",
"`.=XT.).).Q.Q.`.!.Q.Q.(.Q.!.!.`.=XT.Q.(.`.=XT.Q.!.=X=XT.Q.!.`.`.Q.!.`.}.R._.`.2XcXMX  O + m a.a.9X2.1.M ,   O k C C V l : ; y y 0 0 y y y u 0 i d d pX`. XQ.).(.`.!.Q.Q.`.`.(.Q.Q.`.=X`.Q.Q.).}.T.Q.`.`.",
"`.=XT.`.).Q.Q.`.!.Q.(.(.Q.!.Q.`.=XT.!.!.}.-XT.Q. X2X2XT.Q.).`.`._.`.}. X|.NXP.FXBXyX  $ + m s.5.d.2.1.M ,   :  .e.w.q. .> O . o o @ . O @ @ @ @ @   iXvXGX]..X(.`.!.Q.).!.`.(.Q.Q.`.=X`.Q.!.`.}.T.Q.).`.",
"`.=XT.`.).Q.Q.`.!.!.!.`.Q.`.!.`.=XT.!.].kXkXT.).PXPXvXT.Q.!._.}.ZXVXrXyXJ.) W ` ) Y   O O 6 a.3.3.2.>.M > . + o.q.#.#. .: + + # + O O O @ # + O $   eXpXMXFXZX}.`.!.Q.]..X`.(.Q.Q.`.=X`.Q.Q.).}.T.Q.!.`.",
"`.=XT.`.).Q.Q.`.!.Q.Q.=X!.`.).`.=XT.!.].kXkXG.).PXPXvXT.Q.!.`.cXIXMXd d K w - ; ; =   O O 4 4.2.1.>.>.M 1 . +  .q.@.#.x : + # + O O O O - @ + + @   N d W iXpXVX-X X].].vX-X(.Q.(.`.=X`.Q.Q.).}.T.Q.).`.",
"`.=XT.`.).Q.Q.`.!.Q.Q.=X`.`.!.`.=XT.).!.}.=XG.}.hXhX-X X!.!.`. XGXiX; - - - O $ $ o @ @ @ 4 ,.2.1.>.>.M k . O v q.@.#.x : O # @ @ o o @ = @ @ @ @ . $ = - d K iXVXSXCX X].`.(.Q.(.`.=X`.Q.Q.).}.T.Q.`.`.",
"`.=XT.`.).Q.Q.`.!.Q.Q.`.Q.`.Q.`.=XT.!.).`.=XF.ZXHXHX-XGXaXY.Y.dXpX` $ @ # O . . O @ @ @ @ < M } :.| } V k . + f  .y.q.z + O = ; r s s s y y ; o o . . = = O O qX.XGXCXZX}.`.(.Q.(.`.=X`.Q.).`.}.T.Q.`.`.",
"`.=XT.).).Q.Q.`.!.Q.!.(.Q.!.!.`.=XT.!.!.}.=XG.}.vXHXVX{.Q K N Y d y O O # O . O O @ @ .   # > h m M M M 4 + 4 h z q.q.l O @ a W / ` ` _ ( / I - $ O + < # O O Q J.dXVXHXvX`.(.Q.(.`.=X`.Q.Q.).}.T.Q.`.`.",
"`.=X!.).).Q.Q.`.!.Q.`.(.(.`.).`.=XQ.Q.).kXkX_..X|.hX3XY.e 3 @     . O # O O O O O O * & & & $ % , 4 4 k > k ,.,. .q.q.j O @ Q qXR / ) ` 7X6XI = @ 1 1 g k < O 5 p W aXGXVX`.(.Q.`.`.=X`.Q.Q.).}.T.Q.`.`.",
"`.`.(.).).Q.Q.).T.Q.`.`.Q.`.!.`.=XT.Q.W.}.-XBXVXVXVXkXpXO + O . . + + : +   @ . O 0 K G H G ; % @ $ 5 3 g <.d.a.s.s.2.g O ; Q eXw w w ) ( E w - < B v [ o.v : = = 5 rXhXvX=X(.Q.!.`.=X`.Q.!.`.}.T.Q.`.`.",
"`.=X!.`.).Q.Q.).T.Q.`.(.Q.!.).`.}._.!.).}.>XpX9.9.aXdX! . O + : 6 k n 4 +   o $ & ~ m.m.n.~ G O O @ % 4  .a.d.d.d.5.>.f O o E wXt X   I W e = - k  .O.$.%...h = o 3 pXGX3X=X(.Q.Q.].=X`.Q.Q.).}.T.Q.`.`.",
"`.=X!.).).Q.Q.).T.Q.`.(.Q.!.).`.=XVX!.!.kXkXwXM M 6.) 5 O . : m 6.9.9.,.6   o . 7 m.m.m.P P K + @ , k M a.d.f.d.d.3.| 1 . o e ) r     y W = @ , l [ %.A.;.#.x : . 3 0.MXFX2X(.Q.(.].=XT.Q.Q.).}.T.Q.`.`.",
"`.=X!.`.).Q.Q.).T.`.=X(.Q.Q.).`.=XVX!._.gXMX^ z z B 5 @ % + h ,.9X9X8X4.m . o & A b.l.c.J P H O @ k 7.a.8Xf.aX5.3.2.| 1 . X   y = X ; E _ - @ > o.O.U.A.;.O.' g : + y d yXhX(.Q.(.].=XT.Q.!.`.}.T.Q.`.`.",
"`.=XT.).).Q.Q.).T.!.`.`.W.Q.).-X2XVX(. XH.) k g f n # # < 4 M 4.8X8X4.:.m % % A P c.j.j.J P H O . N 9Xd.a.f.9X5.3.>.| f @     o * 7 K wXE o O 1 O.%.;.A.;.@.@...g @ . $ wXKX_.Q.Q.`.=XT.Q.!.).}.T.(.`.`.",
"`.=XT.`.).Q.Q.).T.W.2X`.W.W.`.VXLXcXhXNX0 5 > 1 1 > # + 4 h M <.4.2.>.} h * * H n.c.x.c.J ~ K . o m <.4.f.d.d.3.3.| } 1 O = & * H P m.rXG X # 1 [ %.;.S.U.;.p.q.x +   $ eXLXcXW.!.`.=XT.Q.!.`.}.T.(.`.`.",
"`.=XT.`.).Q.(.).W.G.VX).}._. XLXLXcXhXmX  + : f k : + : 2 c } <.>.2.<.M > $ * G P J F S S K p   . m 4.1.2.1.2.2.2.>.} > O d H P N.N.c.n.q X @ : z O.;.S.U.U.;.#.] > O o _ uXpXW.(.`.=XT.~.(.).=XT.Q.!.`.",
"`.=XT.`.`.!.`.).T.!.hXR.ZXVX2XhX X|.kXpX  # < k k 6 : p L 9.6.,.>.2.a.M :   O * 7 7 7 * * * % . O m a.1.1.1.3.2.>.} M < X _ rXB.B.c.l.J 0 o = + f  .-.A.A.;.-.#.[ g > . y d Y Y.(.`.=XG.Q.(.`.=XT.Q.).`.",
"`.!.Q.`.).).(.).T.}.ZXkXHXHXFXvX|.FXBXyXo % 2 2 6 < c ^ K.P.9.M } 1.4.M :   # # O O O % # .   . + j 2.2.1.1.1.>.} j n , 7 H.B.B.z.l.l.G * o o # 1  .p.;.;.$.@.X.{ [ h :   X w Y.(.=X=XG.!.(.`.=XT.!.`.`.",
"`.!.Q.).).).`.`.G.GXMXiXwXqXB.K.0.` ) E = % 2 2 9 * ^ P.2XP.L k M :.<.M +   o $ . . o $ O . O O @ m <.>.>.| | } j 6 N 0 ~ n.l.M.h.J J q * p . # > V y.-.-.-.-.@.X...} 1 . X $ NX X=X=XT.(.!.`.=XT.Q.`.`.",
"`.!.Q.).).).`.}.G.FXQ d u y y y y ; ; $ - 2 k 9 9 7 L.kX{.m.S > j } M j +   X         X . O O O   3 m j j j j h 3 # * ~ rXc.B.M.F J H & G H.0 % 6 l ..-.-.;.;.@.X.X.{ g :   o MXLX=X=XT.!.(.`.=XT.!.`.`.",
"`.!.Q.).).).(.}._.FXE - @ @ $ @ . O O O # 2 c A S q H.P.m.K 2 + > h 4 < O               . O + O   $ : < : : : # - O q B.B.M.fXJ l.~ A   K H.K < 6 f x { O.%.%.#.X.X.{ x f O   wXxX}.=XG.(.(.`.=XT.!.`.`.",
"`.!.Q.).).).).`.VXDXd - @ - @ $ . + O O O 2 B F S A p K 9 * * O + O % O . . o O $ $ % - ; % , % % o + O % O o @ 3 % ~ V.M.M.B.J J n.7 . G ^ K n 3 > g z ] ....@.X.X.[ ] l :   d W ^ {.G.).!.`.=XT.Q.).`.",
"=XR.Q.).).!.(.}.(.NXy @ $ O X . o O O % & 2 B F S A 7 % % O $ O X i E E E E W W Q Q ! ) ) ! ! ! ! W i 3 % # % @ , O H M.B.M.M.F H H & X ; p 9 N # , k 4 g ] ..@.X.{ ' ] x 4 . . $ d {.T.!.Q.).;XT.(.!.`.",
"=XR.Q.).).).(.=XW.iX$ O & 7 8 8 . . & 8 S A 9 A K q * % O @ @ & d iXMXNXNXVXBXFXFXFXFXFXFXFXFXFXFXBX0.Y : , # # , O 7 J B.B.n.J H q & o = y q H 8 O # + 1 z ..#.' ' x ' ] j O @ . L =XT.(.!.).;XT.(.`.`.",
"=XR.Q.).).).).Y.^ Q . & 8 Z c.J 7   A c.v.N.c.q 9 * & . . @ @   eXPXIXIXPXPXIXIXIXPXIXIXIXIXPXPXPXGXyXN O O O O O . X 7 H n.P ~ H 7 X ; o 0 m.XXP 7 $ O > g  ...z z ] { ] j O o O L =XT.Q.(.`.=XT.Q.`.=X",
"=X!.Q.).).).(.J.w ; % A n.F l.J G & P N.k.z.V.P % . X . ; ; ; O pXGXJXJXJXJXJXJXJXJXJXJXJXJXJXJXJXJXiXd d E E E u X o O * 7 q G 7 & ; % % G XXV.c.P 7 . : f  .[ x z ] ' } j O . O d {.R.}.].`.=XT.Q.`.=X",
"=X=XT.).-X`.}.P.= % 0 n.v.g.J J P A P v.h.h.c.K O o X u _ _ _ _ L.gXcXbXbXbXnXnXnXnXnXnXnXCXCXCXAXAXCXpXpXNXBXNXwXo o   . X & * X $ ; 5 ; H V.v.x.x.S * + > j z x z x ] [ g +   . % K ^ ZX!.`.=XT.Q.`.=X",
"=X=XT.).cX|.xXP.y O 0 N.v.g.F D c.n.c.c.h.h.h.q $ o . ) ZXGXGXGXAXCXbXzXlX4X4X4X4X4XjXjXjXjXjXjXzXzXnXCXSXJXJXJXNXu = X .     . $ ; ; - ; P N.v.v.x.P A O + > 1 f f g z V f + . . O % i BX].`.=XT.!.`.=X",
"=X=XT.).!.pX_ ) ; X & N.v.z.J D j.M.l.D D F S 7 u E K 0.JXJXPXKXSXCXnXbXlX4X1X1X1X1X1X1X1X1X1X1X1X<XjXzXbXnXCXCXCXW y ; $ o X X o 5 * & & c.N.x.x.c.c.H & ; + : : : > 1 h > + . O + + y BXvX`.=XT.Q.`.=X",
"=X=XT.).G.iX= ; * q q l.j.M.M.v.k.N.M.D F S 9 * ` MXxXdXAXCXAXAXCXnXzXjX4X<X*X*X*X*X,X*X,X*X%X%X%X&X1X<XjXjXlXzXbXrXK.Q X X   X o & H H 7 m.b.v.b.v.J P & - o O O @ # , , # O O + + + y BX].`.=XT.Q.`.=X",
"=X=XT.).(.P.  @   P n.l.j.l.l.l.k.N.B.F P H * $ eXIXJXCXbXlXlXlXjX4X1X1X&X&X,X,X1X,X1X>X>X:X$X#X$X*X1X1X1X1X1X4XjXnXAXeX      o @ 7 m.XXP N.N.v.v.x.J P & X o @ @ = = = - - @ O + + + y BX].`.=XT.!.`.=X",
"=X=XT.).cXiX  O   n.M.v.h.h.h.l.v.N.N.Z S H.  ; iXPXSXnXjX1X&X&X*X%X%X%X%X*X1X1X>X>X>X>X>X>X:X:X,X,X:X,X:X,X*X1X4XbXnXdXX .   $ O A N.J.XXN.b.b.x.x.x.H X . O 3 - - = w y - = @ + + + y DXvX`.).~.!.`.=X",
"=X!.Q.).vXpX  .   J v.j.j.h.h.v.M.N.P 7 8 ~ p Q MXAXnXkX1X%X@X#X#X#X#X#X$X:X*X*X,X,X:X:X:X,X:X:X:X,X,X$X#X$X%X*X1XjXzXxXK % . o . 8 c.x.b.b.x.c.v.v.x.S . . $ - - - r Y s r - # + O + y BX.X`.).~.Q.`.=X",
"=XR.Q.).vXpX  O   J z.j.j.h.h.v.M.c.8 * ; p wXNXCXzXjX1X,X*X:X:X:X$X$X$X$X*X%X%X%X*X*X*X*X,X$X!.+X,X*X*X#X$X$X*X*X<XjXbXgXQ 5 = = & A P J c.x.XXN.v.S q     . @ $ t Y wX( Y a - O O O y DXVX`.).~.Q.`.=X",
"=X!.`.}.vXpX  .   J z.j.j.h.v.c.V.J * 2 % 0.dXAXcX4X&X*X,X1X>X>X:X:X,X%X%X*X%X%X%X*X*X*X*X:X$XZ.R.,X,X,X$X$X,X,X%X1X4XjXnXxX! = = o & A H F x.N.c.H A 7         = R ` NXyX/ s r - @ O u BXVX`._.~.!.`.=X",
"].!.`. XvXiX  .   J z.j.j.k.V.c.N.H 7 2 p NXCXzX4X&X#X*X:X>X:X:X,X%X*X*X%X%X$X$X#X,X,X,X,X,X$XF.^.1X,X,X*X%X,X*X#X%X<XjXbXCXwX; . . o * A H S S q 9 0 ;   .     o E iXLXmX( I Y 5 o + s DXVX`._.~.Q.`.=X",
").Q.(. XvXiX      J z.j.j.k.N.S S q 0 ; 0.AXnX<X*X,X:X>X:X$X#X#X%X*X*X*X$X$X$XT.T.$X,X,X,X,X#X#X$X,X,X*X&X&X*X$X#X*X,XjX4XcXxXQ . O   = 5 p 8 * * 5 5 % . . O O O u iXFXmX( / Y w = + u iXvX`._.~.Q.`.=X",
"(.(.(. XvXiX      J z.k.k.v.N.9 2 5 y Q xXnXlX,X@X%X:X1X:X#X#X%X%X$X*X:X:X:X+XZ.Z.+X*X,X,X*X$X$X$X*X*X*X&X&X&X%X%X%X,X1X1XzXnXpX= @ . @ O 5 ; 0 5 N 5 %   O O O $ 3 ` iXqX/ / Y 3 o O % d P.`._.~.!.`.=X",
"(.Q.(.).(.iX  .   l.v.z.v.v.J 2 6 ; E pXSXzX4X*X%X%X*X*X*X%X%X*X*X$X,X,X,X$X^.+.Z.+X*X,X,X$X*X,X$X,X,X,X*X&X&X*X%X*X,X$X1XjXbXSXr ; $ O O % $ % 5 u % # O + , O   3 N E d Q tX/ - . O O o pX2X(..XcX].=X",
"(.~.(. XG.dX      c.b.v.v.v.A ; 6 * Q FXGXzX4X%X%X%X$X$X$X$X*X%X$X$X*X,X,X#X+XZ.Z.+X$X,X,X,X*X#X%X*X*X*X*X%X*X%X#X%X$X:X,X4XzXCX_ Q   . O O O . O 3 h j h m h ,   # 6 5 e Y tX/ - @ . O ; mXhX_..XcX`.`.",
")._.!.ZXG.dX  .   n.N.v.l.b.H ; % 5 ^ ZXGXnX<X%X%X%X*X$X$X$X%X#X^.!.*X*X*X#X#XT.Q.+X$X*X,X$X$X*X$X$X$X$X%X#X#X#X%X$X$X:X1X4XjXnXBXeX  O O + O . O 4 ,.:.<.<.,.M O . + , ; I 7X/ ; o o . ; MX3X_.~.`.`.=X",
"`.ZX!.|.F.iX      P b.l.c.c.H ; u _ _ SXCXbX1X%X%X$X*X$X:X:X$X+XD.T.$X%X*X#X#X#X+X$X$X*X,X$X'.oX$X$X$X$X#X%X*X#X%X$X$X:X:X1X<XzXCXwX  @ O + O O < M <.4.2.<.<.} + . + 3 - e I s e - = o - L.;X).~.`.`.=X",
"`.ZX{._ ! Q   X & J c.N.M.~ q - ) ZXxXCXnXjX%X%X%X*X*X:X:X$X$XoXF.F.#X&X%X#X*X$X$X%X$X*X$X$XW.F.$X#X#X#X#X^.oX%X%X$X$X:X:X,X&X4XgXaX  - + +   . j <.4.5.4.| >.} 4 O + 3 r r U U U Y r = $ pXhX!.~.(.`.=X",
"`.}.Y.p ; ; . & A m.M.N.n.P * + ` GXAXnXzX4X#X#X$X$X:X,X:X*X#X+XD.G.$X&X%X#X*X*X*X%X*X$X$X$X'.^.#X$X#X$X+XF.F.#X%X$X$X:X:X$X&X1XzXcX  # , +   O ,.a.5.d.8X>.1.} h + + r Y U / 5X5X7XI - $ pXGX!.!.}.`.=X",
"`.!.Y.p o O   8 m.M.F F c.K 5 + 0.JXCXbX4X,XoX#X$X$X:X:X*X*X%XoXZ.G.%X&X%X#X*X*X*X*X#XoX#X$X+X+X#X%X$X*XoXZ.F.#X%X$X$X:X$X$X%X,XlXcX9 i < + X O 2.d.5.8X9X2.1.:.h + , r Y U 7X0X6X7XI = $ _ ` H.|.cX`.=X",
"`.!.{.d o @   G M.J D D F p + + L.AXcXjX,X@XoX#X$X*X:X$X$X$X#X#X!.^.%X*X*X#X$X*X%X*X+X^.#X#X$X$X$X*X$X*X+XF.^.#X$X$X:X:X$X$X%X,X4XbXL.0.> +   : 2.5.d.d.8X4.2.>.h + : r / 5XtXtX5X7XI - + e e _ !.].].=X",
";XR.{.d @ @ . G c.F D D S 9 6 L gXnXzX<X%X@X#X#X#X*X$X*X$X%X#X%X$X$X*X*X*X$X$X*X%X$X+X+X#X#X$X#X$X$X$X$X#X#X$X#X$X$X:X$X#X$X$X,X<XlXcXrX: +   : 2.5.d.f.s.a.4.>.h + + r 6X/ 6X6XT 7XY # + % o _ !.].].=X",
";X!.aXd @ O   7 J F A Z Z 5 ^ aXzXjX4X,X#X#X+X%X%X%X$X$X%X%X%X%X#X$X*X*X,X$X:X*X%X$X#X#X#X#X#X#X$X$X$X$X#X$X*X$X*X$X:X$X#X$X:X:X>X4XkXP.  : O : 2.8X8X8X8Xf.5.<.h + O r 6X5X/ U U 7XY # + + . _ !.~.].=X",
";X XBXI @ O   & Z 8 q Z 8   aXbXjX<X,X&X+X+X+X#X%X%X$X%X%X%X%X&X$X*X,X,X,X$X:X*X%X*X+X#X#X$X$X:X$X$X$X$X#X$X$X:X:X:X:X$X#X$X:X:X>X4XzXL.  > + : ,.4.a.5.a.4.2.} h O O w 6X6X5X/ / 5XI # + + . ) !.'.].;X",
";XSXFXE o o   X & * ; 7 * o P.lX4X1X*X%X#X#XoXD.^.#X$X#X#X#X#X$X$X$X*X*X*X%X$X$X#X#X#X#X$X$X$X$X$X$X$X$X$X$X$X:X:X:X$X$X$X$X:X$X$X>XlXP.O + O + h M } } } } } z h O . - / ( / Y I Y 5 O . + O ) !.'..X3X",
";X XFXW o o o X . . = X * 5 K.jX1X,X+X+X%XoXoXZ.T.#X$X#X@XoX$X$X#X#X*X$X&X&X%X$X#X#X$X$X$X$X$X$X$X$X$X$X$X#X$X$X:X:X$X$X$X$X$X#X#X1XjX{.O O # # > h j z z j j f 4 o o @ r s s ; - 3 + . X + O _  X'.kXPX",
"-X_.FXW o o o         . 6 c L.4X1X#XF.T.#XoX+XZ.F.#X$X#XW.D.oX#X$X^.+X$X%X%X%X$X#X#X$X$X$X$X$X$X$X$X$X$X#X#X$X$X:X$X$X$X$X$X:X$X#X>X4XgXO O @ O : 1 h j j h f 4 4 O   . o @ @ O O @ + O X O O _ GX'.hXIX",
"kXhXVX0.  . . . .     O c L.<X1X:X$XF.F.#X#XoXF.^.$X$X#X^.T.+X#X#XD.D.#X#X#X%X$X#X#X$X$X$X$X$X$X$X#X#X$X#X#X$X$X$X$X$X#X$X:X:X$X$X:X4XhX> + o O + > h h h 4 > < 4 + O O O % O % . O + O   O O ` GXG.].SX",
"3X(._.Y.= . O + O .   O B hX>X,X:X+XZ.F.#X%X#X+X$X%X#X+X#X+X#X#X#XF.D.^.#XoX%X$X#X#X$X$X$X$X$X$X$X#X#X#X#X#X$X$X$X$X#X$X$X:X:X:X$X:X4XhXN 0 O O O : > 1 4 , + , 3 + + + : : : + O @ + +   . O 0X.X'.'.SX",
"SX X_. Xd O + : 3 + . O ! jX:X$X$X#XT.^.#X#X#X$X$X*X#X#X#X#X#X#X#XoX!.^.oXF.%X$X#X#X$X$X$X$X$X$X$X#X#X#X$X$X$X$X#X#X+X+X$X:X>X:X:X:X<XhXrXH.% $ O O + : + O @ + < > 1 1 1 f 1 > + @ : + . . . C.~.'.'.3X",
"SXVXVXZXE O + k n 4 O   ! jX*X$X:X$X#X#X%X%X#X$X$X$X$X$X#X#X#X#X#X+XoXoX^.D.#X#X$X$X$X$X$X$X#X#X$X$X#X#X#X$X$X$X#X^.~.Q.$X:X>X>X:X:X>X2XkXaX6 $ O . $ + O O + : 4 f j j z x v f > : < > + . . C.~.].].;X",
"3X X_.NXI + < m m 4 O   6.jX*X$X,X$X#X%X&X&X#X$X#X$X$X$X#X#X#X#X#X#X#X+XoX~.#X#X$X$X$X#X#X$X$X$X#X#X$X#X+X+X#X#X#X!.Z.F.$X:X>X:X$X:X:X1XjXaXi O @ o @ O + : > 1 h g z x ] [  .l 1 < k h > O $ ` R.).].].",
"cXhX) ! e + k B 4 , @   H.4X*X*X,X*X%X*X&X&X$X$X$X$X$X$X#X#X#X$X$X#X#X#X#X+X#X#X#X#X$X#X#X#X#X+X#X#X#X#XD.F.+X+X$X~.Z.R.$X:X>X:X#X$X:X:X4XgXp + @ O @ O > f f g g g ] ] ' [  .b 1 1 v  .6 O   s ^ {.].}.",
"IXhXy ; - + N B > # # < 9.4X$X&X,X*X%X*X&X#X#X$X$X$X$X$X#X#X#X#X$X$X#X#X#X#X#X#X#X#X$X#X#X$X#X+XoX+X+X+XD.D.+X+X#X^.~.R.#X$X:X:X$X#X$X:X<XgXN 3 , + O O 1 v x [ x z ] ] ' [ ..7.k < l 7.k O . X s {..X].",
"SX!.= X O + N B + O , o.I.>X:X%X,X*X%X%X%X#X#X$X$X$X$X$X#X$X#X$X$X#X#X%X&X%X$X#X#X#X#X#X#X$X+X!.D.^.+X+X+X^.+X#XoX+X+X'.#X$X:X$X$X#X$X$X<XhXB L i + O + f  .[ [ ] z ] ] ' ' ..o.k : g w.v O .   u MXGX].",
"3X Xw . O + N B + O 4 |.].'.:X#X,X*X%X%X#X#X#X#X#X#X#X#X#X#X#X+X+X$X$X$X&X&X#X#X#X$X$X#X#X#XoXZ.D.^.+XoXoX+X+X+X#X+X+X!.#X#X$X$X$X#X#X$X>X-Xr.P.W + + + 1 V  .] ] z ] ] ' ' x g : O f e.V O O . u MXGX].",
";XZX- O O + N n . O l  X^.^.$X#X#X*X%X#X#X#X#X#X#X#X#X#X#X#X^.S.S.T.$X$X&X&X#X#X#X#X#X#X#X#X+XZ.F.T.+X+X@X@X+X+X'.R.R.R.#X#X#X#X#X#X#X:X>X:X$X2XL - O : 1 l x ] x z x ' ' ] z > @ o 1 e.V # o . y {..X;X",
"].|.r O O + N n . + v _.~.^.+X'.T.$X#X#X#X#X#X#X#X#X#X#X#X#X~.S.S.Z.'.+X#X#X#X#X#X#X#X#X#X#XoXZ.Z.Z.+XoXoX#X#X#XR.Z.+.Z.+X#X+X+X$X$X#X#X#X&X%X-XK , 3 # + 1 f l j j x ' ' ] l : O O > w.V # o   y MX(.;X",
".XZX6 O O + N k O + o._.~.^.+X^.Z.+X#X%X#X#X#X#X#X#X#X#X#X#X~.S.G.Z.'.'.+X+X+X+X+X+X+X+X+X+X+XF.Z.S.'.oXoXoXoX+XR.S.S.R.#XoX#X+X$X$X$X#X#X@XoX;XL , + - # : > 1 f h z ] ' ] v : O O > 8.V @ =   y MX].;X",
"kXkXi O O + N h O + o._.~.^.+X^.$.^.#X%X#X#X#XoXoX#X#X#X#XoXQ.S.G.Z.E.E.E.E.E.E.E.E.E.E.E.E.E.E.R.E.'.'.oXoXoXoXG.F.G.~.oX+X+X+X#X#X#X+XoXoXoX,Xo.1 < # , > > 1 1 h z  . . .v + O O > 8.C o =   y MX(.;X",
"kXKX6 O + + N h O + o.E.G.!.'.E.=.^.+X#X#X#X+XoXoXoXoXoXoXoX~.E.E.S.S.S.S.S.S.S.S.S.S.S.S.A.A.U.U.E.E.^.~.~.~.^.G.E.G.~.'.+X+X+X#X#X$X+X+X+XoX$XI.L B , + : > > > > l V C V N + O : 1 8.C o o   y [.~.;X",
"kXIXs @ O O m h . + 7.U.G.E.U.U.;.'.'.+X+X+X+XoXoXoXoXoXoXoX'.'.'.'.U.U.U.U.U.U.U.U.U.U.U.U.U.U.I.=.A.A.Z.A.A.A.A.A.A.A.U.U.R.R.R.R.R.R.R.R.~.^.-X[.[.c + : : + + : > 1 f 4 6 O + N C O.b . . . y [.~.;X",
"kXIXN @ . O k 4   + 7.U.G.U.$.-.A.E.R.R.R.E.E.R.!.R.E.R.R.R.U.U.U.U.I.i.i.;.p.=.p.p.p.i.&.&.&.&.&.&.=.=.=.&.&.&.%.%.&.%.=.=.=.=.=.=.=.=.=.A.Z.Z.*.i.i.l : , # O O O O @ : : # % : 6.[.O.V . O O y [..X>X",
".XGXW     . h 4   : 7.U.A.U.;.;.;.=.*.*.=.=.=.*.*.*.*.*.*.*.*.*.*.%.&.&.&.%.%.&.%.%.y.y.y.t.t.t.t.&.&.&.&.y.y.y.&.y.t.&.&.&.%.&.=.&.&.=.i.i.=.=.=.=.*.l > : 3 - - O $ @ + + O O : 6.{.O.b   O O y [.PXcX",
"].3X!     . 4 4 O > 7.U.;.p.;.;.=.=.=.%.%.%.=.i.y.e.u.t.t.t.&.%.&.%.t.t.y.&.y.%.y.y.%.y.y.t.t.t.y.t.t.t.t.&.&.&.&.&.%.&.y.y.y.y.y.y.y.y.y.u.=.$.=.*.*.B 1 > , - @ O O + : : + + > o.[...V   O O u I.IXkX",
"].;X)       > , 3 c 8.;.;.p.p.;.y.i.y.y.p.y.y.y.y.y.u.t.t.t.t.&.&.y.y.y.%.&.&.&.%.%.y.y.y.t.t.t.t.u.t.y.y.&.&.&.&.&.&.&.y.y.y.y.y.y.y.p.y.u.y.=.$.%.%.O.v l k > 1 6 6 6 f f 6 6 6 o.i...V   . . u I.GX;X",
"].3X0.c p & + + N 9.e.y.i.u.y.%.y.y.y.p.p.p.u.y.y.y.u.y.t.u.y.y.t.t.y.t.y.y.t.t.y.y.t.y.y.u.u.u.u.u.u.u.u.i.t.u.u.e.w.w.u.u.y.y.p.y.y.y.u.u.u.&.i.t.&.#.O.O.o.l  .o.o.o.o.o.o.6.o.o.#.{ l   ; p E I..X;X",
"`.SXsX{.P.0 % + N 8.w.w.w.e.w.e.e.e.e.e.e.w.w.w.w.w.w.w.w.w.w.w.w.w.w.w.w.w.w.w.w.w.w.w.w.8.8.8.8.8.8.8.8.8.8.8.8.8.8.8.8.8.8.w.w.w.w.w.w.w.w.w.w.w.w.#.#.O.O.[ i.i.i.i.i.i.r.r.i.&.O.V <   W rXrXW.].;X",
"`.2X!.!.{.u O O k C o. .C C C C C C C C C C V v v v v v v v v v v v v v v v v v v v v v v l l l l l l l l l l l l l l l l l l v v v v v v v v V C C C  . .b b o.r.r.*.*.r.r.r.*.$.O.C l +   wXVX!.~.].=X",
"`.=XT.(.[.e X O # < 6 1 1 1 < < < < < < < < : : : : : : : : : : : : : : : : + + + + % % + + + + + : : : : : : : : : : : : : : : : : : : % % : : < < < 1 1 1 1 v C b b b b b b b b v 4 < %   ) LX(.~.].=X",
"`.=XT.!.[.E d $ @ o o @ . . o o . . . . o o o o o o o . o . . O O O $ @ @ @ . . o o . . o                   . . .     . . .     o . . . $ O $ O O O @ @ @ @ @ 3 < : < < < < < < > < + O d W Q LX/.~.!.`.",
"`.=XT.).aXpXiXE . @ . O . . .   . . . O . O O . . . . . . . O O O O O O O O O O O O O O O .       X   o X X X X . X X X         .   . . O O O O O O O @ o o o $ O O O O . . O O . O O - iXMXpXPX|.(.).=X",
"`.=X!.`._.(.VXwX  O O . O O . . O O O O O O O O O O O O O O O . . O O O O O O . . . O O O O o o o o o o . O O O O O O O . . . O O . . . O O . . . O O O O O @ O O O O .               e MXIXkX2XZXG.].=X",
"`.=XT.`.`.T.).wX  + + O O O O . . . . . . . .                 .   .                       O @ @ @ @ @ @ O + + + + + + + O O O O O O O O         .   . . O O O O O O O O O O       o o @ pXIXKX=X X(.].=X",
"`.=XT.).}.T.F._ u u y 0 y y u u u u u u u u u u u u u u u u a s s s s s s s s s a u u a s s i i s i s i s s s s s i i s u u u u u u u u u u u u y y y y y y y y y y y y y y y y y u u u iXIXKX`.W.Q.!.=X",
"`.=XT.Q.}.T.G.pXwXqXqXK.qXwXeXeXeXeXeXeXeXeXeXyXyXyXyXyXyXyXuXuXuXuXuXuXuXuXuXuXuXyXeXuXuXuXyXyXiXyXiXyXuXuXuXuXuXyXyXyXyXyXyXyXeXeXeXeXeXeXeXwXeXwXwXqXqXqXqXqXqX0.0.qXqXwXwXwXwXeXwXyXBXIXhX}.T.Q.!.=X",
"`.=XT.Q.}.T.Q. XZXsXKX_./.PXKXKXKXKXKXPXPXKXKXKXKXPXPXKXKXKXPXPXPXPXPXKXKXKXPXKXKXKXkXPXPXKXKXKXKXKXKXKXKXKXKXKXKXKXKXKXKXKXKXKXKXKXKXPXPXKXKXkXKXKXKXKXKXPXPXKXZXR.kXKXKXKXKXKXKXKXGXFXhX X`.}.T.Q.).=X",
"`.;XT.Q.}.T.Q.hXcX!.}.!. XAX3X.XhX X|.AXZX3X X.X.XPXIX|..X.XSXLXLXLXkXhX X.X3XhXhX.X(.3XCX X.X3X3X2X.X3X3X2X.X.X3X.X.X3X3X X.X3XhXkXhXkXcX3X.X).2X2X3X}.|.VXZX.X-X!.(.}. X2X|..X.X3X3X2X!.!.!.}.T.!.`.`.",
"`.;XT.Q.}.T.Q.}.-XT.Q.(.ZXHX3X'.ZXQ.CX X X=XT.).!.ZXCX!.Q.`. X2X.X.XSXcXT.G.CXCXVXG.]..XnXT.(.].;X].~.].;X).~.].;XT.!.].;XR.~.}.HXHXHXGXkX].~.!.=XcXZX!.)._..X).`.=XG.Q.`.`.(.Q.!.`.=X`.Q.!.).}.T.Q.`.}.",
"`.=XT.Q.}.T.Q.`.=XT.Q.!.}.}.`.!.2X(.`.(.`.=XT.).).3X-XT.Q.(.).`.~.(.3X-XT.Q. X2X-XQ.!.`.2XT.(.].;X].~.].=XT.Q.].=XT.).`.=XR.Q.Q. X2X X}.`.`.Q.!.=X X}.Q.).T.!.!.`.=XT.Q.`.`.(.Q.).`.=X`.Q.!.!.}.T.Q.`.`.",
"`.=XT.Q.}.T.Q.`.=XT.Q.!.T.Q.).!.=X(.Q.Q.!.=XT.Q.!.`.;XT.Q.Q.).`.~.(.`.=XT.Q.`.=X`.Q.Q.).`.T.(.`.=XT.~.(.=XT.).`.=XT.!.`.=XR.Q.Q.!.=X(.Q.(.`.Q.!.=X`.Q.Q.).T.!.!.`.=XT.Q.Q.`.(.Q.Q.`.=X`.Q.Q.Q.}.T.Q.`.=X",
"`.!.T.Q.}.T.Q.`.=XT.Q.).T.Q.Q.!.=X(.Q.Q.!.=XT.Q.!.=X;XT.(.).`.`.Q.!.`.=XT.Q.`.=X`.Q.Q.).).Q.Q.`.=XT.Q.].=XT.).`.=XT.Q.`.=XR.Q.Q.`.=XT.Q.(.`.Q.!.=X`.Q.!.).G.Q.Q.`.=XG.Q.Q.`.(.Q.Q.`.=X`.Q.).).}.T.Q.).=X",
"`.!.Q.Q.}.T.Q.`.=XT.Q.!.T.Q.).!.`.(.Q.Q.!.=XT.Q.!.`.=XT.'.!.`.`.Q.Q.).=XT.!.`.=X`.Q.Q.).).Q.!.`.=XT.Q.`.=XG.Q.`.;XT.Q.).=XR.Q.Q.`.=XT.Q.(.`.Q.!.=X`.Q.Q.).G.!.!.`.=XG.Q.Q.`.(.Q.Q.`.=X`.Q.(.).}.T.Q.!.`."
};
