/* XPM */
static char *dc53cfa26f1f49749520b2444bdce420[] = {
/* columns rows colors chars-per-pixel */
"100 100 226 2 ",
"   c #010102",
".  c #0D0602",
"X  c #08080A",
"o  c #0D0C0D",
"O  c #17140A",
"+  c #0F0F10",
"@  c #0F1011",
"#  c #111212",
"$  c #191919",
"%  c #1A2A09",
"&  c #043904",
"*  c #1E320D",
"=  c #263211",
"-  c #3B3518",
";  c #3C381B",
":  c #292825",
">  c #2F302E",
",  c #30302F",
"<  c #343532",
"1  c #363835",
"2  c #383A36",
"3  c #3B3C39",
"4  c #403B22",
"5  c #014502",
"6  c #015302",
"7  c #2A4C0A",
"8  c #2E540C",
"9  c #225A0C",
"0  c #31550D",
"q  c #32580A",
"w  c #284518",
"e  c #334C17",
"r  c #355715",
"t  c #016902",
"y  c #0B6C08",
"u  c #156F05",
"i  c #1C6F05",
"p  c #1D630B",
"a  c #017C03",
"s  c #097E06",
"d  c #147105",
"f  c #1F7709",
"g  c #21630F",
"h  c #34600C",
"j  c #39660F",
"k  c #3D690E",
"l  c #207306",
"z  c #2A7406",
"x  c #217906",
"c  c #22750C",
"v  c #2B740B",
"b  c #237A09",
"n  c #287D0B",
"m  c #36720F",
"M  c #3B730C",
"N  c #347D0D",
"B  c #3B7C0A",
"V  c #3C6615",
"C  c #366D11",
"Z  c #3C6911",
"A  c #257813",
"S  c #2A4C26",
"D  c #3A4E2A",
"F  c #3A5628",
"G  c #3F6226",
"H  c #445E1F",
"J  c #477E0F",
"K  c #436817",
"L  c #416C1C",
"P  c #457611",
"I  c #467B15",
"U  c #497B13",
"Y  c #46751A",
"T  c #427E19",
"R  c #4A7B1C",
"E  c #474527",
"W  c #5C562F",
"Q  c #5F582E",
"!  c #484637",
"~  c #42423E",
"^  c #455837",
"/  c #5C5631",
"(  c #5E5936",
")  c #61592F",
"_  c #665D33",
"`  c #615D3D",
"'  c #536427",
"]  c #487227",
"[  c #60662E",
"{  c #6D642F",
"}  c #6F6935",
"|  c #716733",
" . c #756E3A",
".. c #6A7537",
"X. c #757639",
"o. c #79783D",
"O. c #434341",
"+. c #464842",
"@. c #494A47",
"#. c #4C4D4A",
"$. c #4F514C",
"%. c #51544E",
"&. c #535C4C",
"*. c #565752",
"=. c #565952",
"-. c #595B55",
";. c #5C5E5A",
":. c #625F41",
">. c #5F615B",
",. c #636146",
"<. c #61635E",
"1. c #646661",
"2. c #666863",
"3. c #686A65",
"4. c #6C6E69",
"5. c #6E706B",
"6. c #827B3E",
"7. c #897F41",
"8. c #2D820D",
"9. c #2C8C0D",
"0. c #33830C",
"q. c #338C0E",
"w. c #3D8E0F",
"e. c #32910E",
"r. c #288614",
"t. c #2C8C10",
"y. c #348512",
"u. c #358A13",
"i. c #3D8E11",
"p. c #338A19",
"a. c #349213",
"s. c #3B9414",
"d. c #3C9817",
"f. c #34921A",
"g. c #43810D",
"h. c #4A840E",
"j. c #418E0E",
"k. c #4D8C0D",
"l. c #44920D",
"z. c #4C950E",
"x. c #4A9A0E",
"c. c #50940F",
"v. c #529D0E",
"b. c #438513",
"n. c #4A8311",
"m. c #4E8E17",
"M. c #4A8218",
"N. c #508718",
"B. c #548D1D",
"V. c #429515",
"C. c #4C9417",
"Z. c #4A9911",
"A. c #559C17",
"S. c #54931C",
"D. c #52A00E",
"F. c #4BA11B",
"G. c #55A312",
"H. c #59A416",
"J. c #5AA814",
"K. c #55A31A",
"L. c #5BA51A",
"P. c #56A91A",
"I. c #5BAC1C",
"U. c #60AF17",
"Y. c #62AD1D",
"T. c #63B31C",
"R. c #68B71D",
"E. c #67B81F",
"W. c #68B81D",
"Q. c #4DA123",
"!. c #5FA022",
"~. c #5CAC23",
"^. c #63A525",
"/. c #62AA22",
"(. c #66AC2A",
"). c #68AA2C",
"_. c #68B422",
"`. c #6CB923",
"'. c #71BB29",
"]. c #86863A",
"[. c #8A8241",
"{. c #888841",
"}. c #958A41",
"|. c #958A46",
" X c #9B8F41",
".X c #9D9241",
"XX c #9D924A",
"oX c #A29541",
"OX c #A69941",
"+X c #AC9D41",
"@X c #A29549",
"#X c #A6994D",
"$X c #AC9D4C",
"%X c #AFA241",
"&X c #AFA24E",
"*X c #B3A441",
"=X c #B4A541",
"-X c #BCAB41",
";X c #B3A44E",
":X c #AFA151",
">X c #B4A552",
",X c #BCAB52",
"<X c #CCAA41",
"1X c #D7AA41",
"2X c #DCAA41",
"3X c #C3B241",
"4X c #C8B241",
"5X c #CDB241",
"6X c #D3B241",
"7X c #D7B241",
"8X c #DCB241",
"9X c #CDBB56",
"0X c #C8B659",
"qX c #CCBA5A",
"wX c #DBBA57",
"eX c #D7BA59",
"rX c #D3BF59",
"tX c #D9BA59",
"yX c #DCBA59",
"uX c #E0BA59",
"iX c #D7C35A",
"pX c #DCC35A",
"aX c #DDC35E",
"sX c #DEC361",
"dX c #DDC364",
"fX c #E0C365",
/* pixels */
"yXpX2X8X8X8XyXpX2X8X8XyXpXpX2X8X8X8XyX2X8X8XyXyXyXpXpX2X8X8X8X8X8XyXpX2X8X8XyXyXpXpX2X8X8X8XyXyXpX2X8X8XyXyXpXpX2X8XyXyXyXyXpX2X8X8X8XyXpX2X8XyXyXyXaXpX2X8X8XyXpXpX2X8XyXyXaXpX2X8X8X8XyXyXpX2X8X8X8X8X",
"yXpXpX2X8X8XyXpX2X8X8XyXpXpX2X8X8X8XyX2X8X8XyXyXyXpXpX2X8X8XyX8X8XyXsX2XyXyXyXyXpXpX2X8X8XyXyXyXpX2X8XyXyXyXpXpX2XyX8X8XyXyXpX2X8X8X8XyXyX2X8X8XyXyXpXpX2X8XyXyXpX2X8XyXyXyXyXpX2X8X8XyXyXyXpX2X8X8X8X8X",
"yXpXpXyXyXyXyXpX2X8X8XyXpXpX2X8X8X8XyX2X8X8XyXyXyXpX2X8XyX8XyXyX8XyXaX2X8X8XyXyXpXpX2X8X8X8XyXyXpX2X8XyXyXyXpXpX2XyX8XyXyXyXpX2X8XyXyXyXyX2X8XyXyXyXpX2X8X8XyXyXyX2X8X8XyXyXpX2X2X8X8XyXyXyXpX2X8X8X8X8X",
"yXpXpX2XyXyXyXsX2X8X8XyXpXpX2X8X8X8XyX2X8X8XyXyXyXpX2X8X8XyXyX8X8XyXpX2X8X8XyXyXpXpX2X8X8X8XyXyXpX2X8X8XyXyXpXpX2X8XyXyXyXyXpX2X8X8X8XyXpX2X8X8XyXyXpX2X8X8XyXyXpX2X8X8XyXyXpX2X8X8X8XyXyXyX2X8X8X8X8X8X",
"yXpXpX2X8XyXyXsX2X8X8XyXpXpX2X8X8X8XyX2X8X8X8XyXyXyX2X8XyXyX8XyX8XyXpX2X8X8XyXyXpXpX2X8X8XyXyXyXpX2X8XyX8XyXpXpX2X8X8XyXyXyXpX2X8X8X8XyXpX2X8XyX8XyXpX2X8X8XyXyXpX2X8X8X8XyXpX2X8X8X8X8XyXyX2X8X8X8X8X8X",
"yXpXpX2XyXyXyXpX2XyXyXyXpXpX2X8X8X8XyX2X8X8X8XyXyXpX2X8X8X8XyX8X8XyX2X8X8X8XyXyXpXpX2X8X8X8XyXyXpX2X8X8XyXyXpXaX2X8X8X8XyXyXpX2X8X8XyXyXyX2XyX8XyXyXpX2X8X8XyXyXyXdX2XyXyXyXpX2X2X8X8X8XyXyX2X8X8X8X8X8X",
"yXpXpX2X8XyXyXpX2X8X8XyXpXpX2X8X8XyXyX2X8X8XyXyXyXyX2X8X8XyX8X8XyXyX2X8X8X8XyXyXpXpX2X8X8X8XyXyXpX2X8XyXyXyXyXpX2XyX8XyXyXyXpX2X8X8X8XyXpX2X8X8XyXyXpX2X8X8XyXyXsXpX2X8X8XyXyXpX2X8X8X8XyXyX2X8X8X8X8X8X",
"yXpXpX2X8XyXpXpX2X8XyXyXpXpX2X8X8XyXyX2X8X8X8XyXyXpX2X8X8XyXyX8XyXyX2X8XyXyX8XyXpXsX2X8X8X8XyXyXyX2X8X8XyXyXyXpX2X8X8XyXyXyXpX2X8X8X8XyXyXyX8X8XyXyXpX2X8X8XyXyXyXpX2X8XyXyXyXpX2XyX8XyXyXyX2X8X8X8X8X8X",
"yXpXpX2X8XyXpXpX2XyXyXyXyX2X2X8X8XyXyX2X8X8X8XyXyXpX2X8X8XyX8X8XyXyX2X8X8X8X8XyXsXaX2X8X8XyXyXyXpX2X8XyXyXyXyXpX2X8X8XyXyXyXpX2X8XyXyXyXpX2X8X8XyXyXpX2X8X8X8XyXyXaX2X8X8XyXyXyX2X8XyXyXyXyX2X8X8X8X8X8X",
"yXpXpX2X8XyXpXpX2X8XyXyXpX2X8X8XyXyXpX2X8X8X8XyXyXpX2X8X8X8X8X8XyXyX2X8X8XyXyXyXpXpX2X8X8X8XyXyXyX2X8XyXyXyXyXpX2X8XyX8XyXpXpX2X8X8XyXyXpX2XyXyX8XyXyX2X8X8X8XyXyXpXpX2XyXyXyXpX2X8X8XyXyXyX2X8X8X8X8XyX",
"yXpXpX2X8XyXpX2X2X8XyXyXaX2X8X8XyXyX2X8X8X8X8XyXyXsX2X8X8XyXyXyXyXyX2X8X8XyXyXyXpXpX2X8X8X8XyXyXyX2X8X8XyXyXyXpX2X8X8XyXyXpXpX2X8X8X8XyXpX2X8X8XyXyXpXpX2X8XyXyXyXpXpX2X8X8XyXpX2X8XyXyXyXyX2X8X8X8X8XyX",
"yXpXpX2X8XyXpX2X8X8XyXyXsX2X8XyXyXyX2X8X8X8X8XyXyXaX2X8X8XyXyXyXyXyX2X8XyXyXyXyXpXpX2X8X8X8X8XyXyX2X8XyXyXyXyXpX2X8X8X8XyXpXsX2X8X8X8XyXyX2X8X8X8XyXpXpX2X2X8XyXyXpXpXpX2XyXyXsX2X8X8XyXyXyX2X8X8X8X8XyX",
"yXpXpX2X8XyXpX2X8X8XyXyXaX2X8X8XyXyXyX8X8X8XyXyXyXpX2X8X8X8XyX8XyXyX2X8XyXyXyXyXpXpX2X8X8X8XyXyXyX2X8X8XyXyXyXpX2X8XyXyXyXpXaX2X8X8X8XyXyX2X8X8X8XyXpXpX2X2X8XyXyXyXpXpX2XyXyXsX2X8XyXyXyXyX2X8X8XyX8XyX",
"yXpXpX2X8XyXpX2X8X8X8XyXpX2X8X8X8XyX2X8X8XyX8XyXyXpX2X8X8X8XyXyXyXpX2X8X8X8XyXpXpXpX2X8X8X8XyXyXdX2X8X8XyXyXyXpX2X8X8XyXyXpXpX2X8X8X8XyXpX2X8X8X8XyXpXpX2X8XyX8XyXpXpXpX2XyXyXpX2X8X8XyXyXpX2X8X8X8X8XyX",
"yXpXpX2X8XyXpX2X8X8X8XyXpX2X8X8XyXyX2X8X8XyX8XyXyXpX2X8X8XyX8XyXyXpX2X8X8X8XyXpXpXpX2X8X8XyXyXyXaX2X8X8XyXyXyXpX2XyXyXyXyXpXpX2X8X8XyXyXyX2X8X8X8XyXpXpX2X8X8X8XyXyXpXpX2XyXyXyX2X8X8XyXyXpX2X8X8X8X8XyX",
"yXpXpX2X8XyXpX2X8X8X8XyXpX2X8XyX8XpX2X8XyXyX8XyXyXpX2X8X8XyXyXyXyXsX2X8X8X8XyXpXpXpX2X8X8X8XyXyXpX2X8X8X8XyXyXpX2X8X8XyXyXpXpX2X8X8XyXyXpX2X8X8X8XyXyXpX2X8X8X8XyXpXpXaX2X8XyXyX2X8X8XyXyXpX2X8X8X8X8XyX",
"yXpXpX2X8XyXpX2X8X8X8XyXpX2X8X8X8XpXpX8XyXyXyXyXyXpX2X8X8XyXyXyXyXsX2X8X8XyXyXpXpXpX2X8X8X8XyXyXpX2X8X8XyXyXyXpX2X8XyXyXyXpXpX2X8X8X8XyXyX2X8X8X8XyXyXpX2X8X8XyXyXpXpXpX2X8X8XyX2X8X8XyXyXpX2X8X8X8X8XyX",
"yXpXpX2X8XyXpX2X8X8X8XyXpX2X8X8X8XpXaXyXyXyX8XyXyXpX2X8XyXyX8XyXyXpX2X8X8XyXyXpXpXpX2X8X8X8XyXyXpX2X8X8XyXyXyXpX2X8XyXyXyXpXpX2X8X8XyXyXaX2X2X8XyX8XyXpX2X8X8XyXyXpXpX2X2X8X8XyX2X8X8XyXyXyX2X8X8X8X8XyX",
"yXpXpX2X8XyXpX2X8X8X8XyXpX2X8X8X8XsX2X8XyXyX8XyXyXpX2X8X8XyXyXyXyXpX2X8X8XyXyXpXpXpX2X8XyXyXyXyXpX2X8X8XyXyXyXsX2X8X8XyXyXpXpX2X8X8XyXyXyXaX2XyXyXyXyXpX2X8X8XyXyXpXpX2X8X8X8XyX2X8XyXyXyXsX2X8X8X8XyXyX",
"yXpXpX2X8XyXpX2X8X8X8XyXpX2X8X8X8XyX2X8X8XyX8XyXyXpX2X8X8XyX8XyXyXpX2X8X8XyXyXpXpXaX2X8X8X8XyXyXpX2X8X8XyXyXyXsX2X8X8X8XyXpXpX2X8X8XyXyXpXpX2X8X8X8XyXpX2X8X8XyXyXpXpX2X8X8XyXyX2X8XyXyXyXaX2X8X8XyXyXyX",
"yXpXaXyX8XyXpX2X8X8X8XyXpX2X8X8XsXyX2XyXyXyXyXyXyXpX2X8X8XyXyXyXyXpX2X8XyXyXyXpXaXdX2X8X8X8XyXyXpX2X8X8XyXyXyXpX2X8XyXyXyXpXpX2X8XyXyXyXpXpX2X8X8XyXyXpX2X8X8XyXyXpXpX2X8X8XyXyXyX8X8XyXyXpX2X8X8XyXyXyX",
"yXaXyXyX8XyXpX2X8X8X8XyX2X2X8X8XpXpX2X8XyXyX8XyXyXpX2X8X8X8X8XyXpXpX2X8XyX8XyXaXsXpX2X8X8XyXyXyXpX2X8X8XyXyXyXpX2X8XyXyXyXpXpX2X8X8XyXyXpXpX2X8X8XyXyXpX2X8X8XyXyXpXpX2X8X8X8XyX2X8X8X8XyXpX2X8X8X8X8XyX",
"yXsXaX2XyXyXpX2X8X8X8XyX2X8X8X8XpXyX2X8X8XyXyXyXpXpX2X8X8XyXyXyXpXpX2X8X8X8XyXdXaXpX2X8X8X8XyXyXpX2X8X8XyXyXyXpX2X8XyXyXyXpXpX2X8X8X8XyXyXpX2X8X8XyXyXpX2X8X8XyXyXyXpX2X8X8XyXyXyX8X8X8XyXpX2X8X8X8XyXyX",
"yXaXpXyX8XyXpX2X8X8X8XyX2X8X8X8XpXyX2X8XyX8XyXyXpXsX2X8X8XyX8XyXpXpX2X8X8XyXyXaXpX2X2X8X8X8XyXyXpX2X8X8XyXyXyXpX2X8X8X8XyXpXaX2X8X8XyXyXpXpX2X8XyXyXyXsX2X8X8XyXyXpXpX2X8X8XyXyX2X8X8X8XyXpX2X8X8X8XyXyX",
"yXpXpX2XyXyXpX2X8X8X8XyX2X8XpXyXpXyX2X8X8X8XyXyXsXaX2X8X8XyXyXyXpXpX2X8X8XyXyXpXpX2X8X8X8XyXyXyXpX2X8X8XyXyXyXpX2X8X8X8XyXaXsX2X8X8X8XyXpXpX2X8X8XyXyXsX2X8X8X8XyXpXpX2X8X8XyXyX2X8X8X8XyXpX2X8X8X8XyXyX",
"yXpXpX2X8XyXpX2X8X8X8XyX2X8X8XpXyXpX2X8X8X8XyXyXaXpX2X8X8X8XyXyXpXpX2X8X8X8XyXpXpX2X8X8XyX8XyXyXaX2X8XyXyXyXyXpX2X8X8XyXyXyXaX2X8X8XyXyXyXpX2X8X8XyXyXpX2X8X8X8XyXpXpX2X8X8XyXyX2X8X8X8XyXpX2X8X8X8XyXyX",
"yXpXpX2X8XyXpX2X8X8X8XyX2X8X8XyXpXpX2X8X8X8XyXyXpXpX2X8X8X8XyXyXpXpX2X8XyX8XyXpXpX2X8X8X8XyXyXyXsX2X8XyXyXyXyXpX2X8X8X8XyXaXpX2X8XyX8XyXyXpX2X8X8XyXyXpX2X8X8XyXyXyXpX2X8X8XyXyX2X8XyX8XyXpX2X8X8X8X8XyX",
"yXpXpX2X8XyXpX2X8X8XyXyX2X8X8X8XpXpX2X8X8X8XyXyXpXpX2X8X8X8XyXyXpXpX2X8X8XyXyXpXpX2X8X8XyX8XtXeXiX1X7X7X7XeXeXiX1X7X8X8XyXpXpX2X8X8XyXyXyXpX2X8XyX8XyXpX2X8X8X8XyXpXpX2X8X8XyXyXpXyXyXyXyXpX2X8X8X8X8XyX",
"yXpXpX2X8XyXpXyX8XyXyXyX2X8X8XpXpX2X8X8X8X8XyXyXpX2X8X8X8X8XyXyXaXaX2X8X8XyXyXpXpX2X8X8XyX-Xo                     ) 8X8XyXpXpX2X8X8X8XyXyXpX2X8X8XyXyXpX2X8X8XyXyXpXpX2X8X8XyXyXpX2XyXyXyXpX2X8X8X8X8XyX",
"yXpX2X8X8XyXpX2XyX8XyXyX2X8X8X8XpX2X8XyXyXyXyXyXpX2X8X8X8X8XyXyXdXaX2X8X8XyXpXpXpX2X8X8X#X[.M.p g M.g p M.M.Y & 8 ' |.4XyXyXpX2X8X8X8XyXyXaX2X8X8X8XyXpX2X8X8XyXyXpXsX2X8X8XyXyXpX2X8XyXyXpX2X8X8X8X8XyX",
"yXpX2X8X8XyXpX2XyXyXyXpX2X8XpX8XpX2X8X8XyXyXyXyX2X8X8X8X8X8XyXyXpX2XyX8X8XyXpXpXpX2X8XyX_ r W.t.u.R.9.t.W.R.I.6 M P   ;XtXyXpX2X8X8X8XyXyXaX2X8XyXyXyXpX2X8X8X8XyXsXsX2X2X8X8XyXyX2X8XyXyXpX2X8X8X8XyXyX",
"yXpX2X8X8XyXpX2XyXyXyXpX2X8X8X8XpXsX8X8XyXyXyXyX2X8X8XyXyXyXyXaXpX2X8XyXyXyXpXpXpX2X*X  ^._.R.t.q.R.9.9.W.R.I.t B n.M.7 / yXpX2X8X8XyXyXyXpX2X8XyXyXyXpX2X8X8X8XyXaXpXpX2X8XyXyXpXyX8XyXyXpX2X8X8X8XyXyX",
"yXpX2X8X8XyXpX2XyX8XyXpX2X8X8X8XyX2X8X8X8XyXyXpX2XpX8X8XyX8XyXpX@X X X X=XyXpXpXpXOX].R /.R.R.t.q.R.9.9.W.`.(.t C.A.h.7 W wXpX2X8X8XyXyXyXpX2X8X8XyXyXpX2X8X8X8XyXyXpXpX2X8X8XyXyX2XyX8XyXpX2X8X8XyXyXyX",
"yXpX2X8X8XyXpX2XyXyXyXpX2X8X8X8XyX2X8X8XyXyXpXpX2X8X8X8XyXyXyXsXE       7.yXpXpXpXQ V R.R.R.E.t.q.R.9.q.`.'./.t K.Y.h.7 W wXpX2X8X8X8XyXyXaX2X8XyXyXyXpX2X8X8X8XyXyXpXpX2X8X8XyXpX2X8X8XyXpX2X8X8X8XyXyX",
"pXsX2X8X8XyXpX2X8X8XyXpX2X8X8X8XyX2X8X8X8X8XyXyX2X8X8X8XyX8X>X. ^._._._.S.. qXaXpXQ V R.R.P.s I.R.R.9.u.'.`.I.t K.Y.h.7 W yXpX2X8X8X5X. . E 2X8XyXyXyXpX2X8X8XyXyXyXpXpX2X8X8XyXpX2X8X8XyXpX2X8X8X8XyXyX",
"sXsX2X8X8XyXpX2XyX8XyXpX2X8X8X8XyX2X8X8XyXyXyXyX2X8X8XyXyXOX{.I _.I.C.I.m.  qXsXpXQ V R.R.P.a I.R.R.F.Q.K.T.I.t K.Y.h.7 W yXpX2X8X-X Xq q H oX4X8XyXyXpX2X8X8X8XyXyXyXpX2X8X8XyXaX2X8X8XyXpX2X8X8XyXyXyX",
"dXpX2X8X8XyXpX2XyXyXyXpX2X8X8XyXyX2X8X8X8XyXyXyX2X8X8X8XyX; Y W.W.K.t x.g.o qXpXpXQ V R.R.P.a I.R.R.`.~.a P.I.t K.Y.h.7 W yXpX2X8X7.% n.h.U   +X8XyXyXsX2X8X8X8X8XyXyXpX2X8X8XyXyX2X8X8XyXpX2X8X8X8XyXyX",
"aXpX2X8X8XyXpX2XyX8XyXpX2X8X8XyXyX2X8X8X8XyXyXyX2X8X8X8XyX; Y W.G.l.t x.M.o qXpXpXQ V R.R.P.a I.R.R.R.I.a P.R.T.u.l h.7 / wXpXqXO B.~.t B U   +X8XyXyXaX2X8X8X8X8XyXyXpX2X8X8XyXaX2X8X8XyXpX2X8X8X8XyXyX",
"pXpXpX2X8XyXpXyXyX8XyXpX2X8X8XyXpX2X8X8X8X8XyXsX2X8X8X8XyX; Y W.V.u.0.K.S.V XX#X#X..B.R.R.P.a I.R.R.R.I.a P.R.R.u.i h.7 ( yXpX0X  S.T.t B U 0 [.#XyXyXpX2X8X8X8X8XyXpXpX2X8X8XyXpX2X8X8XyXpX2X8X8X8XyXyX",
"pXpXpX2X8XyX2X2XyX8XyXpX2X8XyXyXpX2X8X8X8XaXdXpX2X8X8XyXyX; Y W.c 0.D.H.D.v.=     /._.R.W.P.a I.R.R.R.I.a P.R.R.u.i h.7 ( yXpX0X  S.T.t B h.h.0 4 8XyXpX2X8X8XyX8XyXyXpX2X8X8XyXpX2X8X8XyXpX2X8X8X8XyXyX",
"pXpXpX2X8XyX2X8X8X8XyXpX2XyXyXyXpX2X8X8X8X8XyXpX2X8X8X8XyX; j D.d 0.D.f 8.D.n.U U 9 B W.t.a.T.R.R.R.R.I.a P.R.R.u.i N.e W yXpXqX  S.T.t j.v.h.8 - yXyXpX2X2X8X8X8XyXpXpX2X8X8XyXpX2X8X8XyXpX2X8X8X8XyXyX",
"pXpXpX2X8XyX2X8X8X8XyXpX2XyXyXyXpX2X8X8X8X8XyXpX2X8X8X8XyX; j D.d 0.D.q.q.w.h.J M T S.R.t.d.R.R.R.R.R.I.a P.R.R.y.c B.Z ' $X$X@XI A.P.t j.v.h.8 - yXyXpXpX2X8X8XyXyXpXpX2X8XyXyXyX2X8X8XyXyX2X8X8XyXyXyX",
"pXpXpX2X8XyX2X8X8X8XyXpX2X8X8XyXpX2X8X8X8X8XyXpX2X8X8X8XyX; j D.d 0.G.G.l.t g.M 5 I.W.`.f.a.R.R.R.R.R.I.a P.R.R.u.A h.h.I     w R.J.x.t j.v.h.8 - 8XyXpXpX2X8X8X8XyXfXpX2X8X8XyXyX2X8X8XyXyX2X8X8X8XyXyX",
"pXpXpX2X8XyX2X8X8X8XyXpX2X8XyXyXpX2X8X8X8X8XyXpX2X8X8X8XyX; 0 h.g.N d d 8.x.h.M 5 /.P.r.~.T.R.R.R.R.R.I.a P.R.R.y.f v.h e Y.Y.Y.G.D.x.t j.v.h.8 - yXyXyXpX2X2X8XyXyXpXpX2X8X8XyXyX2X8XyXyXyX2X8X8X8XyXyX",
"pXpX2X8X8XyX2X8X8X8XyXpX2X8X8XyXpX2X8XyXyX8XyXpX2X8X8X8X8X|.o.Z Z C z z N j.h.M 5 /.~.s I.R.R.R.R.R.P.F.V.I.R.R.V.0.j.T R Y.U.I.j.j.i.y.l.c.h.8 - yXyXyXpXpX2X8X8XyXyXpX2X8XyXyXyX2X8X8XyXyX2X8X8X8XyXyX",
"pXpX2X8X8XyX2X8X8X8XyXpX2X8X8XyXpX2X8XyXyXyXyXpX2X8X8X8X8XyX&X    0 h.n.B t g.M 5 (.P.a I.R.R.R.R.R.9.t.R.R.R.R.J.Z.t K.T.G.D.Z.t t A L.z.h.h.8 - 8XyXyXpXpX2X8XyXyXpXpX2X8X8X8XyX2X8X8XyXyXyX8X8X8XyXyX",
"pXpX2XyXyXyX2X8X8X8XyXpX2X8X8XyXpX2XyX8XyXyXyXpX2X8X8X8X8XyXiXqX<XOX% % 0 g.h.M 5 I.K.a I.R.R.R.R.R.9.t.W.R.R.R.J.x.t l.G.D.0.c Z.K.Z.d u i h.8 - yXyXyXpXpX2XyXyXyXpXpX2XpX8XpXyX2X8X8XyXyX2X8X8X8XyXyX",
"yXpX2XyXyXyX2X8X8X8XyXpX2X8X8XyXpX2X8X8XyXyXyXpX2X8X8X8X8XyXpXpX2X3X[.[.X.k k L b./.I.s.F.P.R.R.R.R.9.f.`.R.R.R.J.x.t l.x.w.0.y.L.C.w.v v v Z X.}.8X8XyXpXpX2XyXyXyXyXpX2X8XyXpXyX2X8X8X8XyX2X8X8X8XyXyX",
"yX2X8XyX8XyX2X8X8X8XyXpX2X8X8XyXpX2X8X8XyXyXyXpX2X8XyXyX8XyXpXpX2X8X8XyX;X    L R.R.W.R.9.e.R.R.R.R.a.f.R.R.R.R.J.x.t l.Z.t l.L.H.0.u h.h.U   +X8X8XyXyXpXpX2X8XyXyXpXpX2X8X8XyXsX2X8X8XyXyX2X8X8X8XyXyX",
"yX2XyXyX8XyX2X8X8XyXyXaX2X8X8XyXpX2X8X8X8XyXyXpX2X8X8XyX8XyXpXpX2X8X8X8XeX9X9X#Xw /.W.R.9.e.R.R.W.`.f.9.W.R.R.R.J.x.t l.D.Z.8.c d N g.h.r E qX1X8X8XyXyXpXpX2X8XyXyXyXpX2X8XpXsXyX2X8X8X8XyX2X8X8X8XyXyX",
"yX2X8XyX8XyX2X8X8X8XyXdX2X8X8XyXpX2X8X8X8XyXyXpX2X8XyXyX8XyXpXpX2X8X8XyXyXyXpX;X  /.R.R.9.e.R.R.`.'.F.d.K.T.R.Y.G.x.t l.v.z.0.v z C k k X.|.pX2X8X8XyXyXpXpX2X8X8XyXyXyX2X8XyXyXyX2X8XyXyXyX2X8X8XyXyXyX",
"yX2X8XyX8XyX2X8XyXyXyXpX2X8X8XyXpX2X8X8X8XyXyXpX2X8X8XyX8XyXpXpX2X8XyXyXyXpXpX;X  /.R.R.9.e.R.`.`.W.R.I.a P.T.D.D.x.t l.v.h.h.h.h.7     ;XyXpX2X8XuXyXyXpXpX2X8X8XyXyXpX2X8X8XpXyX2X8X8XyXyX2X8X8XyXyXyX",
"yX2X2XyX8XyX2X8XyXyXyXpX2X8X8XyXpX2X8X8X8XyXpXpX2X8X8XyX8XyXpXpX2X8XyXyXyXyXpX;X  /.R.R.9.e.R.R.W.R.R.I.a P.T.D.D.x.t B h.h.r * * OX5XqXeXyXpX2X8XyXyXyXyXpX2X8X8XyXyXyX2X8XyXpXyX2X8XyXyXyX2X8X8XyXyXyX",
"yXpX2XyX8XyX2X8X8XyXyXpX2X8X8XyXpX2X8X8XyXyXpXpX2X8X8X8X8XyXpXpX2X8X8XyXyXyXpX;X  /.R.R.9.e.R.R.R.R.P.F.d.I.T.D.l.i.y.g.J Z ..6.6.3XyXyX8XyXaX2X8X8XyXyXpXpX2X8X8XyXyXpX2X8X8XpXyX2X8XyXyXyX2X8X8X8XyXyX",
"yXpXyX8X8XyX2X8X8XyXyXpX2X8X8XyXpX2X8X8XyXyXpXpX2X8X8XyX8XyXpXpX2X8XyX8XyXpXpX;X  /.R.R.9.e.R.R.R.R.9.t.W.W.T.D.n A H.k.P   ;XpX2X8XyXyXyXyXsX2X8X8XyXyXpXpX2X8X8XyXyXpX2X8X8XpXyX2X8X8XyXyX2X8XyXyXyXyX",
"yXpX2XyX8XyX2X8X8XyXyXpX2X8X8XyXpX2X8XyXyXyXpXpX2X8XyXyXyXyXpXpX2X8X8XyXyXpXpX;X  /.P.9.P.T.R.R.R.R.9.9.R.R.T.D.p.c D.k.P   ;XpX2X8X8XyXyXyXaX2X8X8X8XyXyXpX2X8XyXyXyXpX2X8X8XyXyX2X8X8XpXpX2X8X8X8X8XyX",
"yXpX2X8XyXyX2X8XyXyXyXpX2X8X8XyXpX2X8X8XyXyXpXpX2X8X8X8X8XyXyXpX2X8X8XyXyXpXpX;X  /.P.a I.W.R.R.R.R.9.8.T.R.T.L.y.f D.k.P   ;XpXyX8X8X8X8XyXpX2X8XyXyXyXyXpX2X8XyXyXyXpX2X8XyXyXyX2X8X8XaXyX2X8X8X8X8XyX",
"yXpX2X8X8XyX2X8X8X8XyXpX2X8XyXyXpX2X8X8XyXyXpXpX2X8X8XyX8XyXyXpX2X8X8XyXyXpXpX;X  (.~.a I.R.R.R.R.R.8.x D.T.`.H.n f D.k.P   ;XyX2X8XyXyXyXyXpX2X8X8XyXyXyXpX2X8X8XyXyXpX2X8X8XyXyX2X8XpXdXyX2X8X8X8X8XyX",
"pXpX2X8X8XyX2X8X8XyXyXpX2XyXyXyXyX2X8X8XyXyXpXpX2X8X8X8X8X8XyXpX2X8X8XyXyXyXpX;Xo ).K.a I.R.R.R.T.G.n x D.G.H.D.n f D.k.P   ;XpX2X8XyXyX8XyXpX2X8X8XyXyXyXpX2X8XyXyXyXpX2X8X8XyXyX2X8X8XaXpX2X8X8X8X8XyX",
"pXaX2X8X8XyX2X8X8XyXyXpX2X8XyXyXpX2X8XyXyXyXyXpX2X8XyXyX8X8XyXpX2X5X;X;X0XyXpX>X@ ^.K.a I.R.R.R.T.D.c x D.D.D.D.n f D.k.P   ;XpX2X8X8XyX8XyXpX2X8X8XyX8XyXsX2X8XyXyXyXpX2X8X8X8XyX2X8X8XpXyX2X8X8X8XyXyX",
"pXpX2X8X8XyX2X8X8XyXyXpXyX8XyXyXpX2X8X8XyXyXyXpX2X8X8XyXyX8XyXpX2X%X    6.yXaX>X  ^.K.a I.R.R.R.T.D.c x D.D.D.D.n f D.k.P   ;XaX2X8X8X8X8XyXpX2X8XyXyX8XyXsX2XyXyXyXyXpX2X8X8XyXyX2X8XpXpXyX2X8X8XyXyXyX",
"pXpX2X8X8XyX2X8X8XyXpXpX2X8X8XyXpX2X8XyXyXyXyXpX2X8X8X8X8X8XyXaX .:.-.-.-._ _ ..!.u.d.I.R.R.W.J.G.D.c x D.D.D.D.n f D.k.P   >XyX2X8X8X8X8XyXpX2XyX8XyX8XyXpX2X8X8X8XyXpX2X8XpXpXyX2X8X8XyXyXyX8X8X8X8XyX",
"pXpX2X8X8XyX2X8X8XyXpXsX2X8X8XyXpX2X8X8XyXyXyXaX2X8X8X8XyX8X9X,X! #.2.2.=.< $ L R.9.a.R.R.R.R.G.D.G.c x D.D.D.D.0.8.l.h.P X >XaX2X8X8X8XyXyXpX2X8X8XyX8XyXpX2X8XyXyXyXpX2X8X8XpXpX2X8XyXyXyX2X8X8X8XyXyX",
"pXpX2X8X8XyX2X8X8XyXsXaX2X8X8XyXpX2X8X8XyXyXyXsX2X8X8XyX8X8X:X  <.2.2.2.2.2.1 ] R.9.s.R.R.R.R.J.L.H.x x D.D.D.D.D.Z.t B U # >XpX2X8X8X8XyXyXpX2X8XyXyX8XyXpX2X8XyXyXyXpX2X8XyXpXyX2X8X8X8XyX2X8X8X8X8XyX",
"pXpX2X8X8XyX2X8X8XyXsXpX2X8X8XyXpXpX2XyXyXyXyXpX2X2X8X8X8X .,.=.2.2.2.2.2.2.;.&.G S g 9.T.T.J.L.G.D.b x D.D.D.D.D.x.t B M.P [ { { { { { ,XpXpX2X8XyXyX8XyXpX2X8X8XyXyXpX2X8XaXpXyX2X8X8XyXyX2X8X8XyXyXyX",
"pXpX2X8X8XyX2X8X8XyXpXpX2X8X8XyXpXpX2X8XyXyXyXpXpX2X8X8X8X; O.2.2.4.3.2.2.2.2.-.1 1 S y P.I.L.L.x.l.8.0.D.D.D.D.D.x.t m P Y D > , , > : XX,X,X-X3X8XyXyXyXpX2X8X8XyXyXaX2X8XyXpXyX2X8XyXyXyX2X8X8XyXyXyX",
"pXpX2X8X8XyX2X8X8XyXpXpX2X8X8XyXpXpX2X8XyXyXyXpXpXpX2X8X8X; O.2.4.5.2.2.2.2.2.<.=.=.@.: m.L.H.v.l.t l.D.D.D.D.D.D.Z.t w : : =.2.2.2.2.=.1   o X - 8X8XyXyXpX2X8XyXyXyXsX2X8X8XyXpX2X8X8XyXyX2X8X8XyXyXyX",
"pXpX2X8X8XyX2X8X8XyXpXpX2X8X8XyXyXpX2X8XyX8XyXpXpXpX2X8X8X; O.4.4.2.2.2.<.-.-.-.=.=.%.@.F ] D.D.l.t l.D.D.D.D.D.Y F w $.-.-.<.2.-.-.=.2 #.;.-.=.*.} ,XyXyXpX2X8X8XyXyXaX2X8X8XpXyX2X8X8X8XpXpX8X8X8X8XyX",
"pXpX2X8X8XyX2X8X8XyXyXpX2X8X8XyXyXaX2X8X8X8XyXpXpXpX2X6X4X! %.5.2.2.2.1.>.=.=.=.=.=.=.=.3 F m.v.x.f i.Z.D.v.Z.m.^ 3 3 -.2.2.2.<.=.%.#.3 <.4.1.<.>.  $XyXyXyX2X8XyXyXyXpX2X8X8XyXyX2X8X8X8XpXpX8X8X8X8XyX",
"pXpX2X8X8XyX2X8X8XyXyXpX2X8X8XyXyXsX2X8X8X8XyXpXpXpX2X+X  2.4.2.2.2.2.-.=.=.=.=.=.=.=.=.#.O.: m.D.D.c x D.k.R < -.2.2.2.2.2.;.=.=.3 < 4.4.2.=.=.%.  $X8XyXpX2X8X8XyXyXpX2X8X8XyXyX2X8X8X8XpXpX8X8X8X8XyX",
"pXpX2X8X8XyX2X8X8X8XyXpX2X8X8X8XyXaX2X8X8X8XyXpXpXpX2X+X  1.2.2.2.2.2.-.=.=.=.=.=.$.#.#.@.~ : I k.k.l l k.H ^ -.<.2.2.2.2.-.-.%.3 #.<.4.2.2.=.=.*.3 `  .yXpX2X8XyXyXyXpX2X8X8XyXyX2X8X8X8XyX2X8X8X8X8XyX",
"pXpX2X8X8XyX2X8X8X8XyXpX2X8X8X8XyXpX2X8X8X8XyXyXpXpX2X+X  <.2.2.2.2.1.-.=.=.=.=.=.#.@.@.@.~ : K P P p p I ^ @.2.2.2.2.2.<.=.=.%.: *.2.1.1.<.=.=.*.@.< : 0XrX2X8X8XyXyXpX2X8XyXyXyX2X8X8XpXpX2X8X8X8X8XyX",
"pXsX2X8X8XyX2X8X8X8XyXpX2X8X8XyXyXpX2X8X8X8XyXyXpXpX2X$X  <.2.2.2.<.=.=.=.=.=.-.#.@.@.@.@.~ : +       X + -.2.2.2.2.2.;.=.=.=.%.: *.2.=.=.=.=.=.=.@.@.@.X #X2X8X8XyXyXpX2X8XyXyXyX2X8XyXyXpX2X8X8X8XyXyX",
"sXsX2X8X8XyX2X8X8X8XyXpX2X8X8XyXyXpX2X8X8X8XyXyXpXpX2X+X  <.2.2.;.-.=.=.=.=.-.$.@.@.@.@.@.3 # XX*X*X*X.XX *.2.2.2.2.-.-.=.=.+.~ *.<.2.=.=.*.#.#.#.@.@.@.# #X2X8X8X8XyXpX2X8X8XyXyX2X8XyXyXpX2X8X8X8X8XyX",
"yXpX2X8X8XyX2X2X8X8XyXpX2X8X8X8XyXpX2X8X8X8XyXyXaXpX2X=XW ;.;.;.%.$.$.$.%.-.#.O.O.O.O.O.O.! / 0XpX2X8X3XW =.;.;.;.-.$.$.$.$.2 < ;.;.;.$.$.$.O.O.O.O.O.#./ :X2X8XyX8XyXyX2X8X8XyXsX2X8XyXyXyX2X8X8X8X8XyX",
"yXpX2X8X8XyXpX2XyX8XyXpX2X8X8XyXyXpX2X8X8X8X8XyXsXpX2X8X8X;             @ X                .yXpXpX2X8X8XyX|               o                       X # = yXpX2X8XyXyXyXpX2X8X8XyXpX2XyXyXyXyX2X8X8X8X8XyX",
"yXpX2X8X8XyXyX2XyX8XyXpX2X8X8X8XyXpX2X8X8X8X8XyXpXpX2X8X8X>X;X;X;X*X*X*X=X;X;X;X;X*X*X*X*X-XyXpXpX2X8X8X8X,X;X;X;X*X*X*X=X>X;X;X*X*X;X;X;X;X*X*X=X=X;X;XyXpX2XyXyXyXyXpX2X8X8XyXyX2X8X8X8XyX2X8X8X8X8XyX",
"yXpX2X8X8XyXpX2XyXyXyXpXpX2X8XyXyXpX2X8X8X8X8XyXpXpX2X8XyXyX8XyXpX2X8X8XyXyXpXpXpX2X8X8XyXyXyXpXpX2X8X8X8XyXpXpXpX2X8X8X8XyXpXpX2X8X8X8XyXpX2X8X8X8X8XyXpXpX2X8X8XyXyXpX2X8XyXyXpX2X8X8X8XyX2X8X8X8X8XyX",
"yXpX2X2X8XyXpXyX8X8XyXpXpX2X8X8X8XyX2X8X8X8X8XyXpXpX2X8X8XyX8XyXpX2X8XyXyXyXpXpXpX2X8X8XyXyXyXpXpX2X8X8X8XyXpXpXpX2X8X8X8XyXyXpX2X8X8X8XyXpX2X8X8X8X8XyXpXpX2X8XyXyXyXpX2X8XyXyX2X8X8X8X8XyX2X8X8X8X8XyX",
"yXpXpX2X8XyXyX2X8X8XyXpXpX2X8X8X8XyX2X8X8X8X8XyXpXpX2X8XyXyX8XyXpX2X8XyX8XyXpXpXpX2X8X8X8XyXyXpXpX2X8X8X8XyXpXpXpX2X8X8XyXyXyXpX2X8X8X8XyXpX2X8X8X8X8XyXyXpX2X8XyX8XyXsX2X8XyXpX2X8X8X8XyXyX2X8X8X8X8XyX",
"yXpXpX2X8XyXyX2X8X8XyXpXpXpX2X8X8XyX2X8X8XyXyXyXpXpX2X8X8X8XyXyXpX2X8X8XyXyXpXpXpX2X8X8X8XyXyXpXpX2X8XyXyXyXpXpXpX2X8X8XyXyXyXpX2X8X8X8XyXpX2X8X8X8X8XyXyXpX2X8XyXyXyXpX2X8XyXpX2X8X8X8XyXyX2X8X8X8X8XyX",
"yXpXpX2X8X8XyX2X8X8XyXpXpXpX2X8X8XyX2X8XyXyXyXyXpXpX2X8X8XyXyXyXpX2X8XyXyXyXpXpXpXpX2X8XyXyXyXpXpX2X8X8XyXyXpXpX2X2X8X8X8XyXpXpX2X8X8X8XyXpX2X8X8X8X8XyXpXpX2X8XyX8XyXpX2X8XyX2X8X8X8XyXyXyXyX8X8X8XyXyX",
"yXpXpX2X8X8XyX2X8X8XyXpXpXpX2XyXyXyX2X8XyX8X8XyXpXpX2X8X8X8X8XyXpX2X8X8XyXyXpXpXpXpX2X8X8XyXyXpXpX2X8X8X8XyXpXpX2X8X8X8X8XyXpXpX2X8X8X8XyXpX2X8X8X8XyXyXpXpX2X8XyXyXyXpX2X8XyX2X8X8X8X8XyXyX2X8X8X8X8XyX",
"yXpXpX2X8X8XyX2X8XyXyXyXpXpX2X8X8XyX2X8XyX8X8XyXpXpX2X8XyXyX8XyXpX2X8XyXyXyXyXpXpXpX2X8X8XyXyXpXpX2X8X8XyXyXpXpX2X8X8X8X8XyXpXpX2X8X8X8XyXpX2X8X8X8XyXyXpXpX2XyXyXyXyXpX2X8XyX2X8X8X8X8XyXyX2X8X8X8X8XyX",
"yXpXpX2X8X8XyX2X8XyXyXyXpXpX2X8XyXyX2X8X8XyX8XyXpXpX2X8XyXyXyXyXpX2X8X8XyXyXyXpXpXpX2X8XyXyXyXpXpX2X8XyXyXyXpXpX2X8X8X8X8XyXyXyX2X8XyXyXyXpX2X8X8XyX8XyXpXpX2X8XyXyXpXpX2X8XyX2X8X8X8X8XyXyX2X8X8X8X8XyX",
"yXpXpX2X8X8XyX2X8X8XyXyXpXsX2X8X8XyX2XyXyXyX8XyXpXpX2X8X8XyX8XyXpX2X8X8X8XyXyXpXpXpX2X8X8XyXyXpXpX2X8X8XyXyXpXpX2X8X8X8XyXyXpXaX2XyX8XyXyXpX2X8X8X8XyXyXpXpX2X8XyXyXpXpX2X8XyX2X8X8X8XyXyXpX2X8X8X8X8XyX",
"yXpXpX2X8XyXyX2X8XyXyXyXaXsX2XyXyXyX2X8X8X8X8XyXpXpX2X8X8XyX8XyXpX2X8X8XyXyXyXpXpXpX2X8X8XyXyXpXpX2X8X8XyXyXpXpX2X8X8X8XyXyXpXaX2X8XyXyXyXpX2X8X8X8XyXyXpXpX2XyXyXyXyXpX2X8XyX2X8X8XyX8XyXpX2X8X8X8X8XyX",
"yXpXpX2X8X8XyX2X8X8X8XyXsXaX2X8X8XyXpX2XyXyX8XyXpXpX2X8X8X8X8XyXpX2X8X8XyXyXyXpXpXpX2X8X8XyXyXpXpX2X8X8X8XyXyXpX2X8X8XyXyXyXpXpX2X8XyXyXyXpX2X8X8X8XyXyXpXpX2XyXyXyXpXpX2X8XyX2X8X8XyX8XyXpX2X8X8X8XyXyX",
"yXpXpX2X8XyXyX2X8X8X8XyXpXpX2X8X8XyXpX2XyXyXyXyXpXpX2X8X8X8X8XyXpX2X8X8XyXyXyXpXpXpX2X8X8XyXyXpXaX2X8XyXyXyXpXpX2X8X8XyXyXyXpXpX2X8XyXyXpXpX2X8X8XyXyXpXpXpX2X8XyXyXyXpX2X8XyX2X8XyXyX8XyXpXpX2X8X8X8XyX",
"yXpXpX2XyXyXyX2X8X8X8XyXpXpX2X8X8XyXpX2X8XyX8XyXpXpX2X8X8X8X8XyXpX2X2X8X8X8XyXyXpXpX2X8X8XyXyXpXpX2X8X8XyXyXpXpX2X8X8XyXyXyXyX2X8X8X8XyXpXpX2X8X8XyXyXpXpX2X2X8X8XyXpXpX2X8XyX2X8XyXyXyXyXpXpX2X8X8XyXyX",
"yXpXpX2X8XyXyXpX2X8X8XyXpXpX2X8X8XyXpX2X8XyX8XyXyXpX2X8X8XyX8XyXpXaX2X8X8XyXyXpXpXpX2XyX8XyXyXpXpX2X8XyXyXyXpXpX2X8XyXyXyXyXpX2X8X8X8XyXyXpX2X8XyXyXyXpXpX2X8X8XyXyXpXpX2X8XyX2X8XyX8X8XyXpXpX2X8X8XyXyX",
"yXpXpX2X8XyXyXpX2X8X8XyXpXpX2X8X8XyXpX2X8X8XyXyXyXpX2X8X8XyX8XyXpXsX2X8X8X8XyXpXpXpX2X8X8XyXyXyXpX2X8X8X8XyXpXpX2X8X8XyXyXyXpX2X8X8X8XyXpXpX2X8X8XyXyXpXpX2X8XyX8XyXpX2X8X8XyX2X8X8X8X8XyXpXpX2X8X8XyXyX",
"yXpXpX2X8X8XyXpX2X8X8XyXpXpX2X8X8XyXyX2X8XyX8X8XyXpX2X8X8X8XyX8XyXpX2X8X8X8XyXpXyXpX2X8XyXyXyXyXpX2X8X8X8XyXpXpX2X8X8X8XyXyXpX2X8X8X8XyXpXpX2X8X8XyXyXyXpX2XyXyXyXyXpX2X8X8XyX2X8X8X8XyXyXpXaX2X8X8XyXyX",
"yXpXpX2X8X8XyXpX2X8X8XyXpXpX2X8X8XyXyX2XyX8XyX8XyXpX2X8X8XyXyX8XyXpX2X8X8XyXyXpXpXpX2X8X8XyXyXyXpX2X8X8XyXyXpXpX2X8X8X8XyXpXpX2X8X8X8XyXpXpX2X8X8XyXyXpXpX2X8XyXyXyXpX2X8X8XyX2X2X8XyX8XyXaXdX2X8X8XyX8X",
"yXpXpX2X8X8XyXpX2X8X8XyXpXpX2X8X8X8XyX2X8XyXyX8XyXpX2X2X8X8X8XyXyXpX2X8X8XyXyXyXpXpX2X8X8XyX8XyXpX2X8XyXyXyXyXsX2X8X8X8XyXyXpX2X8X8X8XyXyXpX2X8X8XyXyXpXpX2XyXyXyXyXpX2X8X8XyXpX2X8X8XyXyXdXaX2X8XyXyX8X",
"yXpXpX2X8X8XyXpX2X8X8XyXpXpX2X8X8XyXyX2X8X8XyXyXyXpXpX2X8X8XyXyXyXpX2X8XyX8XyXyXpXsX2X8X8XyXyXyXpX2X8X8XyXyXaXaX2X8X8X8XyXpXpX2X8XyXyXyXyXpX2X8XyXyXyXpXpX2X8XyXyXpXpX2X8XyXyXpX2X8X8XyXyXpXpX2X8X8XyX8X",
"yXpXsX2X8X8XyXpX2X8X8XyXpXpX2X8X8X8XyX2X8X8XyX8XyXpXpX2X8X8XyXyXyXpX2X8XyXyXyXpXsXsX2X8X8XyX8XyXpX2X8X8XyXyXyXpX2X8X8XyXyXpXpX2X8X8XyXyXpXpX2X8XyXyXyXpXpX2X8XyXyXpX2X2X8XyXyXpX2X8XyXyXyXpXpX2X8X8X8X8X",
"yXpXaX2X8X8XyXpX2X8X8XyXpXpX2X8X8X8XyX2X8X8XyX8XyXpXaX2X8X8X8X8XyXpX2X8X8X8XyXyXsXpX2X8X8X8X8XyXpX2X8X8XyXyXpXpX2X8X8XyXyXpXpX2X8X8X8XyXpX2X2X8XyXyXyXpX2X2X8X8XyXpX2X8XyXyXyXpX2X8X8XyXyXpXpX2X8X8X8X8X",
"yXpX2X2X8X8XyXpX2X8X8XyXpXpX2X8X8XyXyX2X8X8X8X8XyXaXdX2X8X8X8X8XyXpX2X8X8X8XyXpXpXpX2X8XyXyXyXyXpX2X8X8XyXyXpXpX2X8X8XyXyXpXpX2X8X8X8XyXpX2X8X8X8XyXyXpX2X8X8XyXyXpX2X8XyXyXpXpX2X8X8XyXyXpXpX2X8X8X8XyX",
"yXpX2X8X8X8XyXpX2X8X8XyXsXaX2X8X8X8XyX2X8X8XyX8XyXyXaX2X8X8X8X8XyXpX2X8X8X8XyXyXpXpX2X8XyX8XyXyXpX2X8X8X8XyXyXpX2X8XyXyXyXpXsX2X8X8X8XyXpX2X8X8XyXyXpXpX2X8X8XyXyXpX2X8X8XyXpXpX2X8X8X8XyXpXpX2X8X8X8XyX"
};
