/* XPM */
static char * chili_3_xpm[] = {
"90 100 2591 2",
"  	c None",
". 	c #CECD0D",
"+ 	c #F8DA31",
"@ 	c #B48A22",
"# 	c #C1AC0E",
"$ 	c #DDCD1F",
"% 	c #E9D920",
"& 	c #7F6E12",
"* 	c #5F570B",
"= 	c #BCA81C",
"- 	c #D5C21B",
"; 	c #D0C014",
"> 	c #A37F1A",
", 	c #2D2907",
"' 	c #2F3501",
") 	c #807A0C",
"! 	c #D4CB39",
"~ 	c #ADA40A",
"{ 	c #DCCC16",
"] 	c #202702",
"^ 	c #3A3A03",
"/ 	c #594E00",
"( 	c #BAB622",
"_ 	c #BEB519",
": 	c #A99F0A",
"< 	c #92581B",
"[ 	c #EE4A20",
"} 	c #FC461C",
"| 	c #EB331B",
"1 	c #0B2400",
"2 	c #323700",
"3 	c #575A02",
"4 	c #B9BE27",
"5 	c #A39F23",
"6 	c #888307",
"7 	c #73530E",
"8 	c #EB3019",
"9 	c #222601",
"0 	c #464004",
"a 	c #84850F",
"b 	c #B1B42D",
"c 	c #656905",
"d 	c #7D740D",
"e 	c #704B0E",
"f 	c #EB3219",
"g 	c #F03319",
"h 	c #273405",
"i 	c #3F3E03",
"j 	c #8A8811",
"k 	c #B9B73D",
"l 	c #534C03",
"m 	c #524700",
"n 	c #6D430F",
"o 	c #EB3C1E",
"p 	c #F2311A",
"q 	c #F3311A",
"r 	c #F7321B",
"s 	c #F12D19",
"t 	c #F13019",
"u 	c #F02F1B",
"v 	c #EF331F",
"w 	c #DF331B",
"x 	c #E32C1B",
"y 	c #E12919",
"z 	c #E42C1A",
"A 	c #DF2F1A",
"B 	c #E03119",
"C 	c #C5421E",
"D 	c #383102",
"E 	c #524F02",
"F 	c #888511",
"G 	c #686C0E",
"H 	c #5E600C",
"I 	c #483D01",
"J 	c #ED3B1D",
"K 	c #EF351A",
"L 	c #F12E1A",
"M 	c #F53117",
"N 	c #F52A13",
"O 	c #F52C12",
"P 	c #FD3217",
"Q 	c #F62F18",
"R 	c #FA2F16",
"S 	c #F62D17",
"T 	c #F12918",
"U 	c #F32919",
"V 	c #EE2E19",
"W 	c #E62E1A",
"X 	c #E42E1B",
"Y 	c #E62B18",
"Z 	c #E1281B",
"` 	c #E92619",
" .	c #DE2214",
"..	c #E02817",
"+.	c #DA2812",
"@.	c #E8321D",
"#.	c #292700",
"$.	c #423B01",
"%.	c #5F5E08",
"&.	c #ABB434",
"*.	c #545305",
"=.	c #353100",
"-.	c #263202",
";.	c #EF4922",
">.	c #EF3D17",
",.	c #F8441C",
"'.	c #FA3C16",
").	c #FC3C17",
"!.	c #FB3315",
"~.	c #FC3715",
"{.	c #FF3B15",
"].	c #FC3315",
"^.	c #FC3514",
"/.	c #FB3517",
"(.	c #F52E1B",
"_.	c #F82D19",
":.	c #F42F1B",
"<.	c #F93019",
"[.	c #EF311C",
"}.	c #E4331D",
"|.	c #EA2F1B",
"1.	c #E62B1A",
"2.	c #E92918",
"3.	c #E52918",
"4.	c #EA2716",
"5.	c #E22515",
"6.	c #E62514",
"7.	c #D92411",
"8.	c #E32D16",
"9.	c #2C2903",
"0.	c #342F01",
"a.	c #434002",
"b.	c #9EA021",
"c.	c #828424",
"d.	c #434106",
"e.	c #443C02",
"f.	c #442504",
"g.	c #FE4E1E",
"h.	c #FC521B",
"i.	c #FE4A15",
"j.	c #FE4E16",
"k.	c #FD4915",
"l.	c #FF4C16",
"m.	c #FF4918",
"n.	c #FF4117",
"o.	c #FE3D15",
"p.	c #FB3D16",
"q.	c #F63118",
"r.	c #F42C17",
"s.	c #F02E18",
"t.	c #F4311B",
"u.	c #FC3616",
"v.	c #F4301B",
"w.	c #E7331C",
"x.	c #EA2718",
"y.	c #E42215",
"z.	c #EC291A",
"A.	c #E92817",
"B.	c #ED2816",
"C.	c #E92715",
"D.	c #E02515",
"E.	c #DD2214",
"F.	c #E52814",
"G.	c #533005",
"H.	c #312B02",
"I.	c #3E3A02",
"J.	c #6F730A",
"K.	c #8C912C",
"L.	c #4F4F03",
"M.	c #373300",
"N.	c #554309",
"O.	c #5F3B06",
"P.	c #F96B1B",
"Q.	c #FF5F18",
"R.	c #FF5C17",
"S.	c #FF681A",
"T.	c #FF6319",
"U.	c #FF5A16",
"V.	c #FF4F17",
"W.	c #FF4D18",
"X.	c #FF4715",
"Y.	c #FD3A15",
"Z.	c #F82D15",
"`.	c #F52B16",
" +	c #EE2919",
".+	c #EA2C1C",
"++	c #EE301E",
"@+	c #FB2E18",
"#+	c #FF8635",
"$+	c #FF3D11",
"%+	c #EF291A",
"&+	c #E8341F",
"*+	c #F02A18",
"=+	c #E92618",
"-+	c #F22C18",
";+	c #F32F15",
">+	c #EF2E15",
",+	c #E62A14",
"'+	c #E62613",
")+	c #EB2D14",
"!+	c #172400",
"~+	c #2E2A01",
"{+	c #413F02",
"]+	c #8A8D1F",
"^+	c #B2B84A",
"/+	c #505306",
"(+	c #312F00",
"_+	c #4E4904",
":+	c #61550A",
"<+	c #F68C22",
"[+	c #FF6F1D",
"}+	c #FF6E1B",
"|+	c #FF7820",
"1+	c #FF701B",
"2+	c #FF671B",
"3+	c #FF641A",
"4+	c #FF5916",
"5+	c #FF5417",
"6+	c #FE4017",
"7+	c #F83118",
"8+	c #F42B15",
"9+	c #E92616",
"0+	c #EF2F1D",
"a+	c #F4311A",
"b+	c #FE2D0F",
"c+	c #FED068",
"d+	c #FF7A22",
"e+	c #F33019",
"f+	c #EE2C1C",
"g+	c #E82C1B",
"h+	c #F72B16",
"i+	c #FA3415",
"j+	c #F22912",
"k+	c #F62E14",
"l+	c #F93212",
"m+	c #FC3713",
"n+	c #F63112",
"o+	c #F02E0E",
"p+	c #EC320D",
"q+	c #1E1700",
"r+	c #312A00",
"s+	c #3C3801",
"t+	c #85861F",
"u+	c #CDD55E",
"v+	c #8C9231",
"w+	c #525208",
"x+	c #3F3A02",
"y+	c #5E550A",
"z+	c #62510A",
"A+	c #8A680F",
"B+	c #F09824",
"C+	c #FC8F22",
"D+	c #FF7D1E",
"E+	c #FF7C1E",
"F+	c #FF791E",
"G+	c #FF6D1B",
"H+	c #FE6317",
"I+	c #FC3D15",
"J+	c #F52E1A",
"K+	c #E92717",
"L+	c #E32418",
"M+	c #E62317",
"N+	c #EE2615",
"O+	c #FF7924",
"P+	c #FF4910",
"Q+	c #F22B19",
"R+	c #ED2A1E",
"S+	c #E82B1C",
"T+	c #E62A1D",
"U+	c #ED2F1C",
"V+	c #FC4420",
"W+	c #FF4515",
"X+	c #FD3814",
"Y+	c #FB3515",
"Z+	c #FE3613",
"`+	c #FD3B11",
" @	c #FC3A13",
".@	c #F4340E",
"+@	c #FF4417",
"@@	c #392E00",
"#@	c #2E2A00",
"$@	c #3A3500",
"%@	c #545603",
"&@	c #BECA53",
"*@	c #979C36",
"=@	c #515207",
"-@	c #3E3900",
";@	c #585506",
">@	c #585105",
",@	c #6F640E",
"'@	c #6D6112",
")@	c #403A00",
"!@	c #9A5709",
"~@	c #FD962D",
"{@	c #FF8120",
"]@	c #FF7C20",
"^@	c #FF761F",
"/@	c #FF631B",
"(@	c #FF4B18",
"_@	c #F93516",
":@	c #EF2D16",
"<@	c #E72618",
"[@	c #E12318",
"}@	c #EB2617",
"|@	c #EF2715",
"1@	c #F52C19",
"2@	c #EC2A18",
"3@	c #EB291B",
"4@	c #E9291A",
"5@	c #E62D1C",
"6@	c #E4291B",
"7@	c #E4301C",
"8@	c #EB301D",
"9@	c #EE2E1C",
"0@	c #EE2415",
"a@	c #FF5014",
"b@	c #FE3D18",
"c@	c #FF4316",
"d@	c #FF3A15",
"e@	c #FE3D16",
"f@	c #FC3F13",
"g@	c #F53D0E",
"h@	c #1B2200",
"i@	c #493800",
"j@	c #2D2900",
"k@	c #3C3A00",
"l@	c #575B06",
"m@	c #A5AE36",
"n@	c #BBC453",
"o@	c #505206",
"p@	c #393700",
"q@	c #555304",
"r@	c #605B08",
"s@	c #675810",
"t@	c #574D08",
"u@	c #85711E",
"v@	c #6D570D",
"w@	c #583F08",
"x@	c #ED932A",
"y@	c #FE841F",
"z@	c #FF7F24",
"A@	c #FF7021",
"B@	c #FF4F14",
"C@	c #F73316",
"D@	c #F83418",
"E@	c #F32C19",
"F@	c #E92419",
"G@	c #EE2717",
"H@	c #EB281B",
"I@	c #EA281C",
"J@	c #E2231B",
"K@	c #E9291B",
"L@	c #E9291E",
"M@	c #EC2A1C",
"N@	c #E72B1C",
"O@	c #EF2E1B",
"P@	c #EC2A1B",
"Q@	c #EA2C1B",
"R@	c #EC281A",
"S@	c #E62717",
"T@	c #EA2619",
"U@	c #F32D1A",
"V@	c #FD3817",
"W@	c #FD3916",
"X@	c #FA4014",
"Y@	c #FC4416",
"Z@	c #FB4813",
"`@	c #2E3100",
" #	c #544602",
".#	c #323001",
"+#	c #494A03",
"@#	c #777C13",
"##	c #898B1A",
"$#	c #8D891B",
"%#	c #858919",
"&#	c #9A9D2A",
"*#	c #483A03",
"=#	c #948D18",
"-#	c #494404",
";#	c #6B620D",
">#	c #544907",
",#	c #473C02",
"'#	c #807218",
")#	c #6B5807",
"!#	c #321400",
"~#	c #F8821D",
"{#	c #FE8420",
"]#	c #FF671C",
"^#	c #FF5A18",
"/#	c #FE4618",
"(#	c #FF4314",
"_#	c #FB3715",
":#	c #F22E16",
"<#	c #F12D17",
"[#	c #E82618",
"}#	c #EA2416",
"|#	c #E52418",
"1#	c #E32717",
"2#	c #EF2B19",
"3#	c #E6281B",
"4#	c #F9351F",
"5#	c #F6311A",
"6#	c #F12C18",
"7#	c #F02A1B",
"8#	c #E72717",
"9#	c #ED2A1A",
"0#	c #F02B17",
"a#	c #FE3C15",
"b#	c #FC4414",
"c#	c #FD4A14",
"d#	c #83390C",
"e#	c #5F4F02",
"f#	c #74660D",
"g#	c #4C4003",
"h#	c #353200",
"i#	c #6B7709",
"j#	c #474401",
"k#	c #5C5B02",
"l#	c #6D6308",
"m#	c #574E01",
"n#	c #2E1100",
"o#	c #5F1300",
"p#	c #6C1C00",
"q#	c #421700",
"r#	c #471101",
"s#	c #380400",
"t#	c #4B0900",
"u#	c #3A0600",
"v#	c #A60001",
"w#	c #F93639",
"x#	c #E3554F",
"y#	c #FEB12F",
"z#	c #FF721E",
"A#	c #FF691B",
"B#	c #FF5616",
"C#	c #FF5217",
"D#	c #FE4315",
"E#	c #FB3717",
"F#	c #F32C17",
"G#	c #EF2916",
"H#	c #EF2619",
"I#	c #F22F19",
"J#	c #ED2B19",
"K#	c #E72A1B",
"L#	c #F93517",
"M#	c #FF3812",
"N#	c #FD3915",
"O#	c #FA3115",
"P#	c #F12818",
"Q#	c #F22A16",
"R#	c #F83113",
"S#	c #FF4514",
"T#	c #F95B14",
"U#	c #FF7919",
"V#	c #442D00",
"W#	c #726303",
"X#	c #7D6F0E",
"Y#	c #321D00",
"Z#	c #381300",
"`#	c #351D00",
" $	c #361800",
".$	c #450B00",
"+$	c #410A01",
"@$	c #D00000",
"#$	c #D40001",
"$$	c #B90000",
"%$	c #CA0000",
"&$	c #CF0000",
"*$	c #E60000",
"=$	c #D30000",
"-$	c #CE0000",
";$	c #B80000",
">$	c #C90000",
",$	c #C40004",
"'$	c #EE4C5D",
")$	c #F57376",
"!$	c #FB670F",
"~$	c #FF791A",
"{$	c #FF6B19",
"]$	c #FF611B",
"^$	c #FF4E16",
"/$	c #FD3D15",
"($	c #FB3415",
"_$	c #F33118",
":$	c #F02817",
"<$	c #EF2617",
"[$	c #F33017",
"}$	c #E3291B",
"|$	c #E92A1D",
"1$	c #F82F18",
"2$	c #FF3815",
"3$	c #FE3D14",
"4$	c #FD3316",
"5$	c #FB3313",
"6$	c #FE3B14",
"7$	c #FA6316",
"8$	c #6D1300",
"9$	c #6A0500",
"0$	c #442B00",
"a$	c #352600",
"b$	c #570700",
"c$	c #640500",
"d$	c #800400",
"e$	c #7F0100",
"f$	c #C30000",
"g$	c #EB0000",
"h$	c #FF0000",
"i$	c #FD0200",
"j$	c #FE0400",
"k$	c #FC0700",
"l$	c #FC0100",
"m$	c #F10000",
"n$	c #DF0000",
"o$	c #D90000",
"p$	c #DE1C31",
"q$	c #F0626D",
"r$	c #FF7D82",
"s$	c #FB5F0F",
"t$	c #FC781D",
"u$	c #FF691C",
"v$	c #FF5A19",
"w$	c #FD4416",
"x$	c #FF3C17",
"y$	c #F93514",
"z$	c #F82B16",
"A$	c #F83719",
"B$	c #E6261A",
"C$	c #E6291C",
"D$	c #E7291C",
"E$	c #E7281C",
"F$	c #F6321E",
"G$	c #F02C1A",
"H$	c #FF3615",
"I$	c #FF4615",
"J$	c #FF5A17",
"K$	c #FE9C28",
"L$	c #A70503",
"M$	c #F00000",
"N$	c #9C0000",
"O$	c #BD0001",
"P$	c #B90100",
"Q$	c #B70000",
"R$	c #C70000",
"S$	c #DE0000",
"T$	c #F40000",
"U$	c #FF1100",
"V$	c #FF5E30",
"W$	c #FF4E2A",
"X$	c #FF0D00",
"Y$	c #FF0200",
"Z$	c #FE0000",
"`$	c #F70000",
" %	c #E20000",
".%	c #DA0000",
"+%	c #C60000",
"@%	c #BC0000",
"#%	c #ED4B5E",
"$%	c #F86269",
"%%	c #FE6679",
"&%	c #FEA631",
"*%	c #FF7520",
"=%	c #FF681D",
"-%	c #FF4F19",
";%	c #FF4317",
">%	c #FD3818",
",%	c #F83018",
"'%	c #E92819",
")%	c #E2261A",
"!%	c #E5271D",
"~%	c #E9261B",
"{%	c #E5221A",
"]%	c #FF631F",
"^%	c #F43019",
"/%	c #EB2E1D",
"(%	c #EA2517",
"_%	c #FB3016",
":%	c #FC3312",
"<%	c #FF4312",
"[%	c #FF5615",
"}%	c #FF6A18",
"|%	c #BF3809",
"1%	c #EE0901",
"2%	c #FF2700",
"3%	c #FF2803",
"4%	c #CA0001",
"5%	c #D10000",
"6%	c #D60000",
"7%	c #EE0000",
"8%	c #FF3D26",
"9%	c #FF5637",
"0%	c #FF5435",
"a%	c #FF5139",
"b%	c #FF351B",
"c%	c #FF1605",
"d%	c #FF0300",
"e%	c #F50000",
"f%	c #DC0001",
"g%	c #CC0000",
"h%	c #C50000",
"i%	c #E51B34",
"j%	c #F3535A",
"k%	c #F46162",
"l%	c #C20000",
"m%	c #FF8721",
"n%	c #FF761D",
"o%	c #FF6418",
"p%	c #FE5016",
"q%	c #FB3314",
"r%	c #F73019",
"s%	c #E1241A",
"t%	c #D8221C",
"u%	c #DD261B",
"v%	c #E7261D",
"w%	c #E6251B",
"x%	c #EC2D1D",
"y%	c #FCA03E",
"z%	c #EF2B18",
"A%	c #EE2C1B",
"B%	c #EC2619",
"C%	c #F62B18",
"D%	c #F72E16",
"E%	c #FF3415",
"F%	c #FF4713",
"G%	c #FF5B13",
"H%	c #FF7219",
"I%	c #590001",
"J%	c #FA1402",
"K%	c #FF2F03",
"L%	c #FF2400",
"M%	c #C80001",
"N%	c #E30000",
"O%	c #D40000",
"P%	c #E70000",
"Q%	c #FF1C0B",
"R%	c #FF7A61",
"S%	c #FF9F81",
"T%	c #FF9B7D",
"U%	c #FFA98C",
"V%	c #FFA082",
"W%	c #FF6042",
"X%	c #FF2A0B",
"Y%	c #FF1402",
"Z%	c #FC0500",
"`%	c #E50000",
" &	c #B30001",
".&	c #EE414F",
"+&	c #F45C63",
"@&	c #F87C77",
"#&	c #F34410",
"$&	c #FF701F",
"%&	c #FF5C16",
"&&	c #FF3A17",
"*&	c #F62A17",
"=&	c #E2251A",
"-&	c #D92019",
";&	c #E4271B",
">&	c #E4241A",
",&	c #E5271A",
"'&	c #FC3618",
")&	c #F12A17",
"!&	c #FA2C17",
"~&	c #FB3218",
"{&	c #FD3413",
"]&	c #FF4B14",
"^&	c #FF6517",
"/&	c #FD9423",
"(&	c #BC0002",
"_&	c #F71000",
":&	c #FF3201",
"<&	c #FF1B00",
"[&	c #CB0000",
"}&	c #E10001",
"|&	c #EB0301",
"1&	c #F80000",
"2&	c #FF3E29",
"3&	c #FF8365",
"4&	c #FFA080",
"5&	c #FFBCA2",
"6&	c #FFCCAD",
"7&	c #FFCFAE",
"8&	c #FF9272",
"9&	c #FF2507",
"0&	c #FF240A",
"a&	c #FD0802",
"b&	c #EA0000",
"c&	c #DC0000",
"d&	c #E1122B",
"e&	c #EE4C56",
"f&	c #F15661",
"g&	c #D50A23",
"h&	c #FDA630",
"i&	c #FF7522",
"j&	c #FF6519",
"k&	c #FF4A15",
"l&	c #FF4116",
"m&	c #DB221A",
"n&	c #E6281C",
"o&	c #E3271A",
"p&	c #F12C1B",
"q&	c #F52F1D",
"r&	c #F52B1C",
"s&	c #EE2819",
"t&	c #F42815",
"u&	c #FC3015",
"v&	c #FE3714",
"w&	c #FF5514",
"x&	c #FF7319",
"y&	c #FDA728",
"z&	c #F90401",
"A&	c #F90A00",
"B&	c #FF3603",
"C&	c #FE2102",
"D&	c #E10100",
"E&	c #F20501",
"F&	c #DD0201",
"G&	c #ED0000",
"H&	c #FC0000",
"I&	c #FF462E",
"J&	c #FF6E51",
"K&	c #FF9C7F",
"L&	c #FEC3A5",
"M&	c #FECBAF",
"N&	c #FFC0A4",
"O&	c #FF9C7E",
"P&	c #FF2408",
"Q&	c #FF1C04",
"R&	c #FF0B00",
"S&	c #EC0000",
"T&	c #BD0000",
"U&	c #E33047",
"V&	c #EE6064",
"W&	c #F2495D",
"X&	c #D41100",
"Y&	c #FF7A20",
"Z&	c #FF6E1A",
"`&	c #FF5316",
" *	c #FF4614",
".*	c #F22D1A",
"+*	c #E6261B",
"@*	c #EC2C1C",
"#*	c #E4271A",
"$*	c #EC2C1A",
"%*	c #F32A1B",
"&*	c #F12C1A",
"**	c #F42617",
"=*	c #F72A17",
"-*	c #FE2F16",
";*	c #FF3715",
">*	c #FF7B1B",
",*	c #FCA727",
"'*	c #FA0502",
")*	c #F40600",
"!*	c #FF3302",
"~*	c #FF1C00",
"{*	c #CD0000",
"]*	c #E10201",
"^*	c #EC0301",
"/*	c #E50100",
"(*	c #F90000",
"_*	c #FF1A0A",
":*	c #FF6F53",
"<*	c #FF9374",
"[*	c #FFC3A4",
"}*	c #FFCEB1",
"|*	c #FEC7A7",
"1*	c #FFAF91",
"2*	c #FF4729",
"3*	c #FF1701",
"4*	c #FD0502",
"5*	c #ED0100",
"6*	c #BB0000",
"7*	c #B60000",
"8*	c #D10F2A",
"9*	c #EB535D",
"0*	c #EA4A5C",
"a*	c #CC000C",
"b*	c #FF7E22",
"c*	c #FF711D",
"d*	c #FF5918",
"e*	c #FF4D14",
"f*	c #FF3D16",
"g*	c #E92A1A",
"h*	c #EC2D1A",
"i*	c #E82A1A",
"j*	c #E6281D",
"k*	c #F02B19",
"l*	c #EB2317",
"m*	c #E92119",
"n*	c #F32818",
"o*	c #F82C17",
"p*	c #FE3114",
"q*	c #FF3F14",
"r*	c #FF651B",
"s*	c #FF821B",
"t*	c #FE9C27",
"u*	c #E90700",
"v*	c #D60300",
"w*	c #FD2300",
"x*	c #F91E00",
"y*	c #E10000",
"z*	c #FF1204",
"A*	c #FF6C50",
"B*	c #FF765A",
"C*	c #FF8B6E",
"D*	c #FFB495",
"E*	c #FEBFA2",
"F*	c #FFC6AC",
"G*	c #FF5F39",
"H*	c #FF1E09",
"I*	c #EF0000",
"J*	c #C10000",
"K*	c #B70002",
"L*	c #B5000B",
"M*	c #E04750",
"N*	c #E14859",
"O*	c #DE314C",
"P*	c #FDA32F",
"Q*	c #FF751B",
"R*	c #FF621A",
"S*	c #FF5416",
"T*	c #FF4215",
"U*	c #F32F17",
"V*	c #EE2B1B",
"W*	c #E7291D",
"X*	c #DF291D",
"Y*	c #DC281E",
"Z*	c #EC2D1C",
"`*	c #FB3516",
" =	c #EB2016",
".=	c #EF2618",
"+=	c #F92B16",
"@=	c #FE3614",
"#=	c #FF3D13",
"$=	c #FF6318",
"%=	c #FF831D",
"&=	c #FD841D",
"*=	c #DC0200",
"==	c #BA0000",
"-=	c #FA1100",
";=	c #F31200",
">=	c #BE0000",
",=	c #E80000",
"'=	c #F60000",
")=	c #FF1405",
"!=	c #FF553B",
"~=	c #FF8D6F",
"{=	c #FF8062",
"]=	c #FF6643",
"^=	c #FF775B",
"/=	c #FF8265",
"(=	c #FF4A23",
"_=	c #FF250A",
":=	c #E40000",
"<=	c #D50000",
"[=	c #C40000",
"}=	c #B30000",
"|=	c #AD0005",
"1=	c #DC3648",
"2=	c #DD4356",
"3=	c #D9374F",
"4=	c #F0370A",
"5=	c #FF751A",
"6=	c #FF651A",
"7=	c #FF5715",
"8=	c #F73118",
"9=	c #EA2819",
"0=	c #E42519",
"a=	c #E7261A",
"b=	c #E62719",
"c=	c #E2281C",
"d=	c #E0281C",
"e=	c #E52E1D",
"f=	c #EC2D19",
"g=	c #F42B18",
"h=	c #EE2617",
"i=	c #F92F16",
"j=	c #FD3715",
"k=	c #FF3F13",
"l=	c #FF6218",
"m=	c #FF7F1C",
"n=	c #FE8B1F",
"o=	c #F30700",
"p=	c #F40C00",
"q=	c #BF0000",
"r=	c #D80000",
"s=	c #D70000",
"t=	c #FF1406",
"u=	c #FF5539",
"v=	c #FF5C3B",
"w=	c #FF7E5D",
"x=	c #FF6143",
"y=	c #FF4323",
"z=	c #FF341C",
"A=	c #FF2508",
"B=	c #FF1203",
"C=	c #FD0000",
"D=	c #B20000",
"E=	c #AD0003",
"F=	c #D3223D",
"G=	c #DA3D52",
"H=	c #D8364D",
"I=	c #A30002",
"J=	c #FF7A1A",
"K=	c #FF5D19",
"L=	c #FF4914",
"M=	c #F83417",
"N=	c #EC2719",
"O=	c #EB281A",
"P=	c #E02017",
"Q=	c #EA2A1B",
"R=	c #F7311C",
"S=	c #E92E1F",
"T=	c #E8291D",
"U=	c #E82D1E",
"V=	c #EA2B1A",
"W=	c #E82D1A",
"X=	c #F52F1E",
"Y=	c #ED2618",
"Z=	c #F02A1A",
"`=	c #FC3B14",
" -	c #FF4613",
".-	c #FF6417",
"+-	c #FE811D",
"@-	c #FFA12B",
"#-	c #D90100",
"$-	c #F70401",
"%-	c #D80001",
"&-	c #FF0800",
"*-	c #FF4D2E",
"=-	c #FF5C3D",
"--	c #FE6B4E",
";-	c #FF4529",
">-	c #FF200B",
",-	c #FF0901",
"'-	c #FE0E00",
")-	c #FF0E00",
"!-	c #FB0100",
"~-	c #AF0000",
"{-	c #AB0000",
"]-	c #CE0F33",
"^-	c #D33249",
"/-	c #D63E52",
"(-	c #B4000C",
"_-	c #FC9E26",
":-	c #FF6219",
"<-	c #FF4E15",
"[-	c #FB3A14",
"}-	c #ED2C1A",
"|-	c #EB2918",
"1-	c #EC2417",
"2-	c #F32B16",
"3-	c #FE421D",
"4-	c #E72619",
"5-	c #E8281B",
"6-	c #ED291B",
"7-	c #DF2B1D",
"8-	c #E92816",
"9-	c #EC2B1D",
"0-	c #ED2C1C",
"a-	c #F02D1C",
"b-	c #F42818",
"c-	c #FA3414",
"d-	c #FF4712",
"e-	c #FF6818",
"f-	c #FF801B",
"g-	c #FFAF2C",
"h-	c #C80000",
"i-	c #EF0301",
"j-	c #CB0100",
"k-	c #D20000",
"l-	c #FF0500",
"m-	c #FF3417",
"n-	c #FE4226",
"o-	c #FF4226",
"p-	c #FF2B12",
"q-	c #FF4C2F",
"r-	c #FF3116",
"s-	c #FF1201",
"t-	c #FE0D00",
"u-	c #AA0001",
"v-	c #C80B2D",
"w-	c #CE2F48",
"x-	c #D53A51",
"y-	c #C50823",
"z-	c #FF7D17",
"A-	c #FF721B",
"B-	c #FF661D",
"C-	c #FF5315",
"D-	c #FC4115",
"E-	c #F53017",
"F-	c #F22D17",
"G-	c #F62A18",
"H-	c #F12915",
"I-	c #EC2519",
"J-	c #F02F1A",
"K-	c #E42A1E",
"L-	c #E6271C",
"M-	c #E7271A",
"N-	c #F22B1C",
"O-	c #F12E1C",
"P-	c #ED271A",
"Q-	c #EE271A",
"R-	c #EA281A",
"S-	c #EE291B",
"T-	c #E72318",
"U-	c #FA3317",
"V-	c #FD3514",
"W-	c #FF4413",
"X-	c #FF6618",
"Y-	c #FF791B",
"Z-	c #FFB531",
"`-	c #C90100",
" ;	c #D60001",
".;	c #FF1404",
"+;	c #FE2E0E",
"@;	c #FE441C",
"#;	c #FE5F39",
"$;	c #FF7D5E",
"%;	c #FF8768",
"&;	c #FE1703",
"*;	c #FE0300",
"=;	c #A70000",
"-;	c #BE0524",
";;	c #CC2B43",
">;	c #CE3149",
",;	c #C2042F",
"';	c #BC0600",
");	c #FF711A",
"!;	c #FF6A1A",
"~;	c #FF5819",
"{;	c #FE4913",
"];	c #FD3E16",
"^;	c #F63116",
"/;	c #F42C16",
"(;	c #F12A16",
"_;	c #F02617",
":;	c #EC2917",
"<;	c #E4271E",
"[;	c #F1281A",
"};	c #E12B1E",
"|;	c #F12718",
"1;	c #EF2919",
"2;	c #EB2819",
"3;	c #EA2519",
"4;	c #E32118",
"5;	c #FF3A16",
"6;	c #FC2F12",
"7;	c #FF6616",
"8;	c #FD9A27",
"9;	c #B50000",
"0;	c #DB0000",
"a;	c #FE1001",
"b;	c #FD220A",
"c;	c #FE2F11",
"d;	c #FE5029",
"e;	c #FF6646",
"f;	c #FF7D5F",
"g;	c #FF270A",
"h;	c #FB0200",
"i;	c #A90000",
"j;	c #B80421",
"k;	c #CA2642",
"l;	c #CB2C47",
"m;	c #C60935",
"n;	c #A20000",
"o;	c #FF4F16",
"p;	c #FD4415",
"q;	c #FE3313",
"r;	c #F92F15",
"s;	c #F62B16",
"t;	c #EF2518",
"u;	c #F42C19",
"v;	c #E2281A",
"w;	c #E02419",
"x;	c #F52D1A",
"y;	c #E32215",
"z;	c #F42B16",
"A;	c #F52918",
"B;	c #EF2719",
"C;	c #EE2719",
"D;	c #ED2719",
"E;	c #FD3E15",
"F;	c #FC3115",
"G;	c #FF4014",
"H;	c #FF6617",
"I;	c #FF771C",
"J;	c #FE891D",
"K;	c #AE0000",
"L;	c #FD0400",
"M;	c #FD1804",
"N;	c #FF1B06",
"O;	c #FF1D07",
"P;	c #FF1D08",
"Q;	c #FF210B",
"R;	c #FF3916",
"S;	c #FC0800",
"T;	c #F20000",
"U;	c #E90000",
"V;	c #C40002",
"W;	c #A40000",
"X;	c #B80022",
"Y;	c #CE2943",
"Z;	c #CD2C48",
"`;	c #CD0C3B",
" >	c #A70004",
".>	c #FF6F1C",
"+>	c #FF5D18",
"@>	c #FE4514",
"#>	c #FB3416",
"$>	c #F72C17",
"%>	c #EB2517",
"&>	c #F12A19",
"*>	c #E42A1D",
"=>	c #E7251B",
"->	c #E5241A",
";>	c #E52518",
">>	c #F42812",
",>	c #F72A16",
"'>	c #EB2217",
")>	c #ED2516",
"!>	c #EB2516",
"~>	c #EC2816",
"{>	c #F62B14",
"]>	c #F93116",
"^>	c #FF3D14",
"/>	c #FF6015",
"(>	c #FF761C",
"_>	c #FF821E",
":>	c #C10001",
"<>	c #FD1001",
"[>	c #FF1902",
"}>	c #FF0F00",
"|>	c #FF1F06",
"1>	c #FD1300",
"2>	c #B40000",
"3>	c #AD0000",
"4>	c #BD001F",
"5>	c #CE2C45",
"6>	c #D3364E",
"7>	c #C30935",
"8>	c #B30100",
"9>	c #FF7418",
"0>	c #FF6F1A",
"a>	c #FF6119",
"b>	c #FD4F1A",
"c>	c #FD4313",
"d>	c #FE3A17",
"e>	c #FA3516",
"f>	c #F93215",
"g>	c #EA2919",
"h>	c #E82719",
"i>	c #E5281B",
"j>	c #ED2717",
"k>	c #E7271C",
"l>	c #FC2F19",
"m>	c #F72E14",
"n>	c #F02718",
"o>	c #EC2217",
"p>	c #F22916",
"q>	c #F73116",
"r>	c #FB3D14",
"s>	c #FF6016",
"t>	c #FF771B",
"u>	c #FF8522",
"v>	c #E70800",
"w>	c #B00000",
"x>	c #FD0900",
"y>	c #FE0A00",
"z>	c #FE0900",
"A>	c #F30000",
"B>	c #E00000",
"C>	c #C60001",
"D>	c #AC0000",
"E>	c #C50023",
"F>	c #D43C51",
"G>	c #B7022C",
"H>	c #B90101",
"I>	c #FF7A18",
"J>	c #FF701C",
"K>	c #FF661A",
"L>	c #FE5C1A",
"M>	c #FF4D15",
"N>	c #FE4016",
"O>	c #FC3916",
"P>	c #E3251B",
"Q>	c #EE2918",
"R>	c #E92218",
"S>	c #E1281D",
"T>	c #F72D15",
"U>	c #FF5016",
"V>	c #F52914",
"W>	c #F22815",
"X>	c #F12815",
"Y>	c #FA3016",
"Z>	c #FF3C14",
"`>	c #FF5913",
" ,	c #FF781B",
".,	c #FF8A21",
"+,	c #FB5B0E",
"@,	c #AA0000",
"#,	c #C70001",
"$,	c #FA0200",
"%,	c #FD0A00",
"&,	c #FE1200",
"*,	c #FE1C08",
"=,	c #FE1303",
"-,	c #C30002",
";,	c #A60000",
">,	c #C70428",
",,	c #D2364E",
"',	c #D23C51",
"),	c #B3001A",
"!,	c #BB0302",
"~,	c #FF7F1B",
"{,	c #FF731C",
"],	c #FF6C19",
"^,	c #FF5D16",
"/,	c #FF4A14",
"(,	c #FE4115",
"_,	c #FB3817",
":,	c #FC3316",
"<,	c #ED2518",
"[,	c #E32518",
"},	c #DF2419",
"|,	c #EA2717",
"1,	c #E72A1C",
"2,	c #E4271C",
"3,	c #F83014",
"4,	c #F72B17",
"5,	c #F32E17",
"6,	c #F52C16",
"7,	c #FC3816",
"8,	c #FF5F15",
"9,	c #FF721C",
"0,	c #FF8C23",
"a,	c #FFA322",
"b,	c #CF0201",
"c,	c #F90400",
"d,	c #FB0D00",
"e,	c #FD1400",
"f,	c #FF280A",
"g,	c #CB1235",
"h,	c #CE2F4B",
"i,	c #D03A50",
"j,	c #A40012",
"k,	c #B20201",
"l,	c #FF8016",
"m,	c #FF7119",
"n,	c #FE4C17",
"o,	c #FE4214",
"p,	c #FC3915",
"q,	c #E32419",
"r,	c #E92818",
"s,	c #F02818",
"t,	c #E02418",
"u,	c #E7281B",
"v,	c #E8291C",
"w,	c #F02A17",
"x,	c #F32A17",
"y,	c #F93217",
"z,	c #FC3A14",
"A,	c #FF6113",
"B,	c #FF751D",
"C,	c #FF8A22",
"D,	c #FDB229",
"E,	c #D60500",
"F,	c #BA0100",
"G,	c #C20001",
"H,	c #B20001",
"I,	c #FB0F00",
"J,	c #FC0E01",
"K,	c #FD1E05",
"L,	c #FD1603",
"M,	c #FB0000",
"N,	c #C00001",
"O,	c #CF1538",
"P,	c #CE3049",
"Q,	c #CD304A",
"R,	c #980006",
"S,	c #B50201",
"T,	c #FF8216",
"U,	c #FF7118",
"V,	c #FF6B1A",
"W,	c #FF581A",
"X,	c #FF4913",
"Y,	c #F12B17",
"Z,	c #EA2918",
"`,	c #EF2819",
" '	c #DC241A",
".'	c #E62B1D",
"+'	c #F62A1A",
"@'	c #ED2617",
"#'	c #F42918",
"$'	c #F83215",
"%'	c #FF6416",
"&'	c #FF9027",
"*'	c #FCB02D",
"='	c #E80100",
"-'	c #FA0601",
";'	c #FD1301",
">'	c #FF1A06",
",'	c #FF1001",
"''	c #F90300",
")'	c #C30001",
"!'	c #C81132",
"~'	c #CE2945",
"{'	c #C21A3A",
"]'	c #8E0003",
"^'	c #BA0200",
"/'	c #FF8B1D",
"('	c #FF701A",
"_'	c #FE731D",
":'	c #FF6C1D",
"<'	c #FF6A1C",
"['	c #FF5617",
"}'	c #FE3C13",
"|'	c #F72E17",
"1'	c #F52D18",
"2'	c #F4291C",
"3'	c #E0251B",
"4'	c #E52B1B",
"5'	c #E7271B",
"6'	c #ED2419",
"7'	c #EA2215",
"8'	c #FF3B12",
"9'	c #FE6217",
"0'	c #FD8E25",
"a'	c #FE9F2A",
"b'	c #F00300",
"c'	c #FE0C00",
"d'	c #FF1601",
"e'	c #FF1804",
"f'	c #C80F2F",
"g'	c #C61D3C",
"h'	c #B7072C",
"i'	c #8C0002",
"j'	c #B90300",
"k'	c #FF861C",
"l'	c #FF7217",
"m'	c #FF741B",
"n'	c #FF8024",
"o'	c #FF7E27",
"p'	c #FF7624",
"q'	c #FF611C",
"r'	c #FD4613",
"s'	c #F22B1A",
"t'	c #DD271C",
"u'	c #E62A1B",
"v'	c #EB2919",
"w'	c #F02819",
"x'	c #ED2517",
"y'	c #F92B17",
"z'	c #FD3315",
"A'	c #FF5E15",
"B'	c #FE7A21",
"C'	c #FF9028",
"D'	c #FF9C2C",
"E'	c #FB2401",
"F'	c #B10000",
"G'	c #FE0C02",
"H'	c #FD280F",
"I'	c #FE3F20",
"J'	c #FF3A1F",
"K'	c #FC1503",
"L'	c #A20003",
"M'	c #C40829",
"N'	c #C10E32",
"O'	c #B0011D",
"P'	c #890001",
"Q'	c #BC0700",
"R'	c #FF811A",
"S'	c #FF791C",
"T'	c #FF7C21",
"U'	c #FF8B2D",
"V'	c #FD842C",
"W'	c #FF7422",
"X'	c #FF5F19",
"Y'	c #FE4A14",
"Z'	c #FC3414",
"`'	c #EF2816",
" )	c #E8251A",
".)	c #F0291A",
"+)	c #EC2A1A",
"@)	c #F62E1C",
"#)	c #FE4915",
"$)	c #FC3114",
"%)	c #FD3414",
"&)	c #FF3412",
"*)	c #FF5613",
"=)	c #FF711E",
"-)	c #FF922D",
";)	c #FDA22E",
">)	c #FFA024",
",)	c #EC0101",
"')	c #FF603E",
"))	c #FF7451",
"!)	c #FF5636",
"~)	c #FE290E",
"{)	c #F80200",
"])	c #BC0001",
"^)	c #A60002",
"/)	c #B9001B",
"()	c #B30020",
"_)	c #A70017",
":)	c #880001",
"<)	c #FF7B1A",
"[)	c #FF8827",
"})	c #FF9331",
"|)	c #FD8B29",
"1)	c #FF761E",
"2)	c #FD6316",
"3)	c #FE4213",
"4)	c #F52B17",
"5)	c #E5251B",
"6)	c #DF221A",
"7)	c #DE261C",
"8)	c #E02C1F",
"9)	c #EA2F1C",
"0)	c #F02B1B",
"a)	c #EE2B19",
"b)	c #F62F1B",
"c)	c #E92316",
"d)	c #F52B18",
"e)	c #FE3413",
"f)	c #FD3114",
"g)	c #FB3115",
"h)	c #FE3C14",
"i)	c #FF5614",
"j)	c #FF8B29",
"k)	c #FD9E2E",
"l)	c #FED94F",
"m)	c #EF0300",
"n)	c #E50300",
"o)	c #EA0400",
"p)	c #F80100",
"q)	c #FD4C2E",
"r)	c #FF815E",
"s)	c #FF5635",
"t)	c #B80002",
"u)	c #A80000",
"v)	c #A40001",
"w)	c #B6001A",
"x)	c #A9001A",
"y)	c #A80015",
"z)	c #8A0001",
"A)	c #FF771A",
"B)	c #FF9030",
"C)	c #FF9A3B",
"D)	c #FE8326",
"E)	c #FF6817",
"F)	c #FC3812",
"G)	c #F02919",
"H)	c #DA2019",
"I)	c #DB251C",
"J)	c #DD251D",
"K)	c #E52A1C",
"L)	c #E32A1E",
"M)	c #F52E1C",
"N)	c #E82518",
"O)	c #F52815",
"P)	c #FC3116",
"Q)	c #FA2B13",
"R)	c #FC3416",
"S)	c #FE3414",
"T)	c #FF5012",
"U)	c #FF741D",
"V)	c #FF8727",
"W)	c #FF9B2D",
"X)	c #FFBC37",
"Y)	c #EB0200",
"Z)	c #F40900",
"`)	c #EE0801",
" !	c #F50500",
".!	c #FD0F05",
"+!	c #FF341A",
"@!	c #FF4427",
"#!	c #FF3016",
"$!	c #A20006",
"%!	c #B2001A",
"&!	c #AB001A",
"*!	c #A50013",
"=!	c #930000",
"-!	c #B10200",
";!	c #FF8A2A",
">!	c #FF9939",
",!	c #FF731D",
"'!	c #FF5513",
")!	c #FF4D12",
"!!	c #FD4014",
"~!	c #F63015",
"{!	c #E4221A",
"]!	c #D81F1C",
"^!	c #DB271C",
"/!	c #E2271D",
"(!	c #E0291A",
"_!	c #F42814",
":!	c #F31F15",
"<!	c #F32615",
"[!	c #FB2D13",
"}!	c #FF6924",
"|!	c #FB2D16",
"1!	c #FB3514",
"2!	c #FF3D12",
"3!	c #FF5712",
"4!	c #FF731E",
"5!	c #FE8B28",
"6!	c #FF962A",
"7!	c #FF992A",
"8!	c #FB0700",
"9!	c #ED0400",
"0!	c #FC0400",
"a!	c #FE1C03",
"b!	c #FF2008",
"c!	c #FE1604",
"d!	c #AE0001",
"e!	c #A00000",
"f!	c #AA000E",
"g!	c #B20020",
"h!	c #AC001B",
"i!	c #A00012",
"j!	c #A50000",
"k!	c #FF872C",
"l!	c #FF822B",
"m!	c #FF5C1B",
"n!	c #FB3F16",
"o!	c #FE4717",
"p!	c #F42D19",
"q!	c #E1221A",
"r!	c #D92319",
"s!	c #DB2119",
"t!	c #D9241B",
"u!	c #DD231A",
"v!	c #FF4418",
"w!	c #FF7218",
"x!	c #F92A14",
"y!	c #FC2D16",
"z!	c #FA3216",
"A!	c #FC3313",
"B!	c #FE3813",
"C!	c #FD3F12",
"D!	c #FE7421",
"E!	c #FF8928",
"F!	c #FF9C34",
"G!	c #FF9B2A",
"H!	c #FC0C00",
"I!	c #EB0400",
"J!	c #FE0800",
"K!	c #FB1303",
"L!	c #FD1003",
"M!	c #9D0000",
"N!	c #B2011E",
"O!	c #BA052A",
"P!	c #AE0021",
"Q!	c #9F000F",
"R!	c #B00001",
"S!	c #FF721D",
"T!	c #FE4D18",
"U!	c #FA3918",
"V!	c #FA3313",
"W!	c #DD221B",
"X!	c #DE251A",
"Y!	c #DD221A",
"Z!	c #DB221B",
"`!	c #E2261D",
" ~	c #E22C1D",
".~	c #F92315",
"+~	c #FB9227",
"@~	c #FF3313",
"#~	c #FA3517",
"$~	c #F93214",
"%~	c #FD3517",
"&~	c #FB3714",
"*~	c #FE7220",
"=~	c #FF8C25",
"-~	c #FEA030",
";~	c #FFA230",
">~	c #F40500",
",~	c #FF1500",
"'~	c #E20001",
")~	c #F00400",
"!~	c #BB0001",
"~~	c #FE0801",
"{~	c #FF2310",
"]~	c #FF2B17",
"^~	c #FF1207",
"/~	c #FC0300",
"(~	c #A10000",
"_~	c #9D0004",
":~	c #BA0929",
"<~	c #BE0D2E",
"[~	c #B30425",
"}~	c #950009",
"|~	c #FF7E1F",
"1~	c #FF8328",
"2~	c #FF6E1E",
"3~	c #FD4B17",
"4~	c #F93817",
"5~	c #FD3E14",
"6~	c #E62516",
"7~	c #E4251C",
"8~	c #E0251A",
"9~	c #E1261E",
"0~	c #F42B1D",
"a~	c #F62511",
"b~	c #FF4015",
"c~	c #F92D16",
"d~	c #FD3A14",
"e~	c #FE3A11",
"f~	c #FF5115",
"g~	c #FF8824",
"h~	c #FE9B2E",
"i~	c #FFA433",
"j~	c #FE2906",
"k~	c #F60D00",
"l~	c #EC0400",
"m~	c #FF0600",
"n~	c #FE2413",
"o~	c #FF452F",
"p~	c #FF5137",
"q~	c #FF321B",
"r~	c #FA0400",
"s~	c #9F0001",
"t~	c #A20107",
"u~	c #C10D2F",
"v~	c #BF0E32",
"w~	c #B10126",
"x~	c #930004",
"y~	c #D30700",
"z~	c #FF7F1F",
"A~	c #FF7C24",
"B~	c #FF631A",
"C~	c #FC4215",
"D~	c #FA3615",
"E~	c #FF4617",
"F~	c #F82E16",
"G~	c #EB2717",
"H~	c #D82119",
"I~	c #E02319",
"J~	c #E5241B",
"K~	c #E22A1C",
"L~	c #EF2E1D",
"M~	c #F32312",
"N~	c #F92B15",
"O~	c #F92C13",
"P~	c #FF4917",
"Q~	c #FF4415",
"R~	c #FF3A12",
"S~	c #FF6217",
"T~	c #FF8321",
"U~	c #FF982E",
"V~	c #FEA32F",
"W~	c #FF5714",
"X~	c #FE1300",
"Y~	c #F91800",
"Z~	c #E60301",
"`~	c #C00000",
" {	c #FF3925",
".{	c #FF6D51",
"+{	c #FF8C6C",
"@{	c #FE3C28",
"#{	c #FA0C03",
"${	c #B80001",
"%{	c #9B0002",
"&{	c #A5010C",
"*{	c #C11033",
"={	c #BE1132",
"-{	c #B10023",
";{	c #8D0101",
">{	c #F03306",
",{	c #FF7E20",
"'{	c #FF5814",
"){	c #FC4015",
"!{	c #F93B19",
"~{	c #F93413",
"{{	c #DC2019",
"]{	c #E32218",
"^{	c #EC2617",
"/{	c #F62B19",
"({	c #EC2F19",
"_{	c #E02B1D",
":{	c #EB2A1D",
"<{	c #EE2B1A",
"[{	c #FB2F13",
"}{	c #FF6421",
"|{	c #FF4912",
"1{	c #FF5214",
"2{	c #FF5E18",
"3{	c #FF8023",
"4{	c #FF952B",
"5{	c #FF9B2F",
"6{	c #FF8724",
"7{	c #F91200",
"8{	c #FB1B00",
"9{	c #E30200",
"0{	c #C40001",
"a{	c #DD0000",
"b{	c #FE200A",
"c{	c #FF583E",
"d{	c #FF7D64",
"e{	c #FE9B83",
"f{	c #FE4327",
"g{	c #FC0B01",
"h{	c #A00002",
"i{	c #AB0118",
"j{	c #BD1231",
"k{	c #B90D31",
"l{	c #A3001D",
"m{	c #870001",
"n{	c #FF5C0C",
"o{	c #FF711B",
"p{	c #FF6115",
"q{	c #FF4B15",
"r{	c #FD3C15",
"s{	c #F73117",
"t{	c #EC2C19",
"u{	c #E42416",
"v{	c #E12017",
"w{	c #E72317",
"x{	c #EC2117",
"y{	c #FE4818",
"z{	c #FA5019",
"A{	c #E02218",
"B{	c #ED2C1E",
"C{	c #ED2B1C",
"D{	c #F02F1E",
"E{	c #FA2B16",
"F{	c #FF4315",
"G{	c #FE691F",
"H{	c #FF5C18",
"I{	c #FF5313",
"J{	c #FE6218",
"K{	c #FF8125",
"L{	c #FF962D",
"M{	c #FF8623",
"N{	c #FB1100",
"O{	c #E00200",
"P{	c #C70100",
"Q{	c #FF2D15",
"R{	c #FF644B",
"S{	c #FF735A",
"T{	c #FF6E56",
"U{	c #FE4629",
"V{	c #9E0003",
"W{	c #AB051F",
"X{	c #B90F2F",
"Y{	c #B30729",
"Z{	c #8D000B",
"`{	c #880000",
" ]	c #AE0101",
".]	c #FF6919",
"+]	c #FF5A15",
"@]	c #FF4C15",
"#]	c #FB3915",
"$]	c #EC2716",
"%]	c #E72117",
"&]	c #F12A14",
"*]	c #F12615",
"=]	c #FB3C15",
"-]	c #E92212",
";]	c #EA261B",
">]	c #F82918",
",]	c #FD6B23",
"']	c #FF6019",
")]	c #FF5815",
"!]	c #FF8227",
"~]	c #FF9126",
"{]	c #FF9C2D",
"]]	c #FC6519",
"^]	c #FA1D00",
"/]	c #FE1C00",
"(]	c #FD170C",
"_]	c #FF4834",
":]	c #FE7B62",
"<]	c #FF755C",
"[]	c #FE674C",
"}]	c #FF3219",
"|]	c #AC0001",
"1]	c #9E0100",
"2]	c #9A0006",
"3]	c #B30527",
"4]	c #B7072F",
"5]	c #A3011E",
"6]	c #840004",
"7]	c #940000",
"8]	c #960002",
"9]	c #FF7917",
"0]	c #FF6619",
"a]	c #FF5B17",
"b]	c #FF4D19",
"c]	c #F43216",
"d]	c #E82818",
"e]	c #E12418",
"f]	c #E72617",
"g]	c #ED2716",
"h]	c #F32817",
"i]	c #F63218",
"j]	c #F93118",
"k]	c #ED2C1B",
"l]	c #F42816",
"m]	c #FF3711",
"n]	c #FF5E17",
"o]	c #FF6017",
"p]	c #FF7B24",
"q]	c #FF8D23",
"r]	c #FF9023",
"s]	c #FB2B0B",
"t]	c #FD1A00",
"u]	c #FF3F2A",
"v]	c #FF6652",
"w]	c #FF876E",
"x]	c #FF816B",
"y]	c #FF583D",
"z]	c #A90001",
"A]	c #9B0001",
"B]	c #9D000E",
"C]	c #B4032B",
"D]	c #A90125",
"E]	c #91000B",
"F]	c #7E0001",
"G]	c #970000",
"H]	c #FF7B17",
"I]	c #EE2B16",
"J]	c #DF2318",
"K]	c #DE2417",
"L]	c #E72417",
"M]	c #EC2418",
"N]	c #F32B19",
"O]	c #EF2A1B",
"P]	c #DE241B",
"Q]	c #F62D1C",
"R]	c #FE3919",
"S]	c #F22817",
"T]	c #EE2419",
"U]	c #E9271A",
"V]	c #F5291A",
"W]	c #F92C16",
"X]	c #FF4612",
"Y]	c #FD621A",
"Z]	c #FF5112",
"`]	c #FF6118",
" ^	c #FF7921",
".^	c #FF8723",
"+^	c #FF8820",
"@^	c #FA0703",
"#^	c #FF1400",
"$^	c #FC0900",
"%^	c #FE241A",
"&^	c #FF614B",
"*^	c #FF7561",
"=^	c #FE8C75",
"-^	c #FE7760",
";^	c #FE4B31",
">^	c #9A0002",
",^	c #AB001D",
"'^	c #AC0124",
")^	c #9A0019",
"!^	c #850000",
"~^	c #850001",
"{^	c #A30000",
"]^	c #F42904",
"^^	c #FF7819",
"/^	c #FF5718",
"(^	c #FD4017",
"_^	c #E02219",
":^	c #EF2718",
"<^	c #E22219",
"[^	c #DF251B",
"}^	c #E0281E",
"|^	c #DC3221",
"1^	c #EA301C",
"2^	c #E5291C",
"3^	c #F72D12",
"4^	c #F0271A",
"5^	c #EB2A18",
"6^	c #FC3213",
"7^	c #FF5D1C",
"8^	c #FF6A1F",
"9^	c #FF5B16",
"0^	c #FF851B",
"a^	c #FF881E",
"b^	c #FA0000",
"c^	c #FE3922",
"d^	c #FF755F",
"e^	c #FF9780",
"f^	c #FF7C62",
"g^	c #FF725A",
"h^	c #FF331F",
"i^	c #FD0A02",
"j^	c #E90002",
"k^	c #9C0101",
"l^	c #9C0007",
"m^	c #B30023",
"n^	c #9C0016",
"o^	c #920010",
"p^	c #8A0000",
"q^	c #890000",
"r^	c #FF5D17",
"s^	c #FF5419",
"t^	c #F93218",
"u^	c #E42618",
"v^	c #DE241A",
"w^	c #E42516",
"x^	c #F52D1B",
"y^	c #E2261E",
"z^	c #DD281E",
"A^	c #DC291E",
"B^	c #F23720",
"C^	c #F53919",
"D^	c #EB2E1F",
"E^	c #E8281A",
"F^	c #F12016",
"G^	c #FF3717",
"H^	c #FC3219",
"I^	c #F63017",
"J^	c #FE4414",
"K^	c #FF6923",
"L^	c #FE681C",
"M^	c #FF5213",
"N^	c #FF821A",
"O^	c #FF811D",
"P^	c #F10102",
"Q^	c #FE3625",
"R^	c #FF866D",
"S^	c #FF7C64",
"T^	c #FF7960",
"U^	c #FF614A",
"V^	c #FC2011",
"W^	c #A0000F",
"X^	c #A5001A",
"Y^	c #96000E",
"Z^	c #8A0002",
"`^	c #8E0000",
" /	c #9D0001",
"./	c #FF9524",
"+/	c #FF731B",
"@/	c #FF5B1A",
"#/	c #FF4217",
"$/	c #F22514",
"%/	c #E92617",
"&/	c #EA2817",
"*/	c #F22917",
"=/	c #F72F19",
"-/	c #E2261B",
";/	c #DD291E",
">/	c #F43B1B",
",/	c #E72A1D",
"'/	c #FA3116",
")/	c #FD3D18",
"!/	c #FA3212",
"~/	c #FB3713",
"{/	c #FF6423",
"]/	c #FE601D",
"^/	c #FF4A12",
"//	c #FF5413",
"(/	c #FF6216",
"_/	c #FF8D20",
":/	c #F70301",
"</	c #FD0600",
"[/	c #E30100",
"}/	c #FB0001",
"|/	c #FE3D26",
"1/	c #FF6D52",
"2/	c #FF6D55",
"3/	c #FF5B42",
"4/	c #FF3A27",
"5/	c #F40B06",
"6/	c #D10001",
"7/	c #A90002",
"8/	c #A30004",
"9/	c #A0000A",
"0/	c #A30011",
"a/	c #92000C",
"b/	c #8B0007",
"c/	c #900000",
"d/	c #FF7E1C",
"e/	c #FF6917",
"f/	c #FF5415",
"g/	c #FD3415",
"h/	c #E82617",
"i/	c #F3291A",
"j/	c #E2241B",
"k/	c #FF3714",
"l/	c #FF4114",
"m/	c #FF5516",
"n/	c #FF4810",
"o/	c #FD4311",
"p/	c #FF4113",
"q/	c #FE7C22",
"r/	c #FF7517",
"s/	c #FC5909",
"t/	c #F80300",
"u/	c #F40001",
"v/	c #FE0302",
"w/	c #FF0F05",
"x/	c #FF210F",
"y/	c #FF4D33",
"z/	c #FE583F",
"A/	c #FF5440",
"B/	c #FF3518",
"C/	c #FC0600",
"D/	c #A90003",
"E/	c #A8000D",
"F/	c #A10010",
"G/	c #A00013",
"H/	c #9B0011",
"I/	c #8F0008",
"J/	c #870000",
"K/	c #C90001",
"L/	c #EB0B01",
"M/	c #FF6114",
"N/	c #FF4E18",
"O/	c #FD3113",
"P/	c #F72915",
"Q/	c #F22A19",
"R/	c #F02717",
"S/	c #F02A19",
"T/	c #EA271B",
"U/	c #D9221A",
"V/	c #DC271D",
"W/	c #DE271C",
"X/	c #FF4216",
"Y/	c #FC3813",
"Z/	c #FB3513",
"`/	c #FF6D18",
" (	c #FD871C",
".(	c #F80302",
"+(	c #F90100",
"@(	c #FE0101",
"#(	c #FDC0A9",
"$(	c #FF9A81",
"%(	c #FF533D",
"&(	c #FE2915",
"*(	c #FC1307",
"=(	c #F70700",
"-(	c #E60001",
";(	c #B10002",
">(	c #B00015",
",(	c #AB0018",
"'(	c #A60119",
")(	c #97000C",
"!(	c #95000A",
"~(	c #8E0002",
"{(	c #990000",
"](	c #E70100",
"^(	c #FA0E00",
"/(	c #D50300",
"((	c #FD9629",
"_(	c #FF501A",
":(	c #FF3813",
"<(	c #F72814",
"[(	c #F12516",
"}(	c #E32217",
"|(	c #DF2219",
"1(	c #DD2519",
"2(	c #E0261C",
"3(	c #E02718",
"4(	c #ED2E1B",
"5(	c #F72C14",
"6(	c #FA2F13",
"7(	c #FB3015",
"8(	c #FF3E12",
"9(	c #FF5912",
"0(	c #FE590F",
"a(	c #F50A01",
"b(	c #FF1206",
"c(	c #FF6E53",
"d(	c #FFC3B0",
"e(	c #FED2B7",
"f(	c #FF513C",
"g(	c #FE0500",
"h(	c #AD0014",
"i(	c #B1011F",
"j(	c #AD001E",
"k(	c #9B0012",
"l(	c #8D0006",
"m(	c #880003",
"n(	c #FF2000",
"o(	c #FF2500",
"p(	c #FF9F2D",
"q(	c #FF6F18",
"r(	c #FF3810",
"s(	c #FC3013",
"t(	c #EB2B1A",
"u(	c #D7241C",
"v(	c #DF231B",
"w(	c #E3271C",
"x(	c #E4261A",
"y(	c #E7291B",
"z(	c #FE3314",
"A(	c #ED2D1B",
"B(	c #F82A19",
"C(	c #F62815",
"D(	c #FE3D11",
"E(	c #FF5A14",
"F(	c #FF5210",
"G(	c #FC1F06",
"H(	c #F60001",
"I(	c #FF4A36",
"J(	c #FD836D",
"K(	c #FF543D",
"L(	c #FC0405",
"M(	c #B00008",
"N(	c #B40220",
"O(	c #AD001F",
"P(	c #A50017",
"Q(	c #890006",
"R(	c #8C0000",
"S(	c #FC1700",
"T(	c #FF1E00",
"U(	c #FB1900",
"V(	c #FE2804",
"W(	c #FF8C27",
"X(	c #FF5716",
"Y(	c #FF4211",
"Z(	c #DB241A",
"`(	c #DC231A",
" _	c #E3261A",
"._	c #E7271D",
"+_	c #E2271B",
"@_	c #E4281B",
"#_	c #EC291B",
"$_	c #ED2514",
"%_	c #F42513",
"&_	c #FC2F16",
"*_	c #FE3511",
"=_	c #FF430D",
"-_	c #FF3A0A",
";_	c #FA0100",
">_	c #FF2717",
",_	c #FF3825",
"'_	c #FE1C0D",
")_	c #FD0101",
"!_	c #AF0001",
"~_	c #AA0006",
"{_	c #B2000C",
"]_	c #B30018",
"^_	c #B00122",
"/_	c #A60019",
"(_	c #900005",
"__	c #910000",
":_	c #D90201",
"<_	c #FDA12E",
"[_	c #FF5C14",
"}_	c #F32914",
"|_	c #E12117",
"1_	c #DE2219",
"2_	c #E0231A",
"3_	c #E12519",
"4_	c #E4291C",
"5_	c #F12E1B",
"6_	c #EE2817",
"7_	c #F32513",
"8_	c #FE2F0F",
"9_	c #FA0D03",
"0_	c #EF0202",
"a_	c #F80101",
"b_	c #FA0001",
"c_	c #FF0100",
"d_	c #FF0903",
"e_	c #FF190F",
"f_	c #FF523F",
"g_	c #FD553D",
"h_	c #FF432C",
"i_	c #F70502",
"j_	c #B30009",
"k_	c #B1000F",
"l_	c #AC0016",
"m_	c #AF031B",
"n_	c #B60223",
"o_	c #90000B",
"p_	c #FC1100",
"q_	c #FF1800",
"r_	c #FF2101",
"s_	c #E90300",
"t_	c #FF761A",
"u_	c #FF651C",
"v_	c #EE2315",
"w_	c #E92116",
"x_	c #F22518",
"y_	c #EE2217",
"z_	c #E5261B",
"A_	c #E52A1D",
"B_	c #ED2615",
"C_	c #F42A17",
"D_	c #FC0B06",
"E_	c #FE0100",
"F_	c #FF8D6A",
"G_	c #FFC6A5",
"H_	c #FF8E76",
"I_	c #FF7A64",
"J_	c #FF1509",
"K_	c #F90202",
"L_	c #EA0002",
"M_	c #B70005",
"N_	c #B4000D",
"O_	c #B20013",
"P_	c #B30222",
"Q_	c #AE0121",
"R_	c #95000D",
"S_	c #FE1B00",
"T_	c #FF1300",
"U_	c #E30800",
"V_	c #FD9827",
"W_	c #FF8924",
"X_	c #FF7619",
"Y_	c #FF621D",
"Z_	c #ED2417",
"`_	c #EC1E15",
" :	c #FF6221",
".:	c #FB3816",
"+:	c #EF2616",
"@:	c #E9291C",
"#:	c #E62A1C",
"$:	c #F32E19",
"%:	c #FA3110",
"&:	c #F60C04",
"*:	c #FF0101",
"=:	c #FF5741",
"-:	c #FFB09A",
";:	c #FFC6AD",
">:	c #FFBCA6",
",:	c #FF9E86",
"':	c #FF2F1E",
"):	c #BD0104",
"!:	c #B40008",
"~:	c #AF0016",
"{:	c #A8011B",
"]:	c #A90120",
"^:	c #A90020",
"/:	c #850002",
"(:	c #960001",
"_:	c #F70D00",
"::	c #FE1502",
"<:	c #FF9A2B",
"[:	c #FF8026",
"}:	c #FE6819",
"|:	c #FF4F11",
"1:	c #FF3311",
"2:	c #FF2E11",
"3:	c #FF3D0F",
"4:	c #FD9E36",
"5:	c #FC2A14",
"6:	c #E42B1F",
"7:	c #F02713",
"8:	c #DD0703",
"9:	c #FA0305",
"0:	c #FE0200",
"a:	c #FF7E60",
"b:	c #FFC3A5",
"c:	c #FFC2A9",
"d:	c #FFBAA3",
"e:	c #FFA485",
"f:	c #FF3529",
"g:	c #B50009",
"h:	c #B20011",
"i:	c #B10015",
"j:	c #A9011A",
"k:	c #A6001B",
"l:	c #9B0017",
"m:	c #8A0003",
"n:	c #840001",
"o:	c #860000",
"p:	c #F70B00",
"q:	c #F50B00",
"r:	c #FFA72B",
"s:	c #FD9024",
"t:	c #FF882A",
"u:	c #FF6C1A",
"v:	c #FF5B10",
"w:	c #FF4610",
"x:	c #FF4812",
"y:	c #FFD17B",
"z:	c #EE2019",
"A:	c #E7281E",
"B:	c #F0311A",
"C:	c #F80403",
"D:	c #F90503",
"E:	c #FD0402",
"F:	c #FFBFA0",
"G:	c #FD957C",
"H:	c #FF5E4C",
"I:	c #FF3424",
"J:	c #FC0402",
"K:	c #C00002",
"L:	c #B70006",
"M:	c #AF000E",
"N:	c #B00014",
"O:	c #AE0017",
"P:	c #A50018",
"Q:	c #A5001C",
"R:	c #A1001B",
"S:	c #9B001A",
"T:	c #8C000C",
"U:	c #8A0004",
"V:	c #920000",
"W:	c #EA0300",
"X:	c #FA1400",
"Y:	c #FF8B1E",
"Z:	c #FE851F",
"`:	c #FF761B",
" <	c #FF6719",
".<	c #FF5310",
"+<	c #FF4B10",
"@<	c #FF4B13",
"#<	c #FF3F11",
"$<	c #EB211D",
"%<	c #DD211C",
"&<	c #E32A20",
"*<	c #F33518",
"=<	c #F13519",
"-<	c #B60002",
";<	c #AF0004",
"><	c #AF0012",
",<	c #AB0019",
"'<	c #A6001D",
")<	c #A10019",
"!<	c #A1001C",
"~<	c #A2001B",
"{<	c #980016",
"]<	c #91000F",
"^<	c #860007",
"/<	c #7D0001",
"(<	c #800000",
"_<	c #840000",
":<	c #8D0000",
"<<	c #9E0000",
"[<	c #D00100",
"}<	c #FF8C20",
"|<	c #FF841F",
"1<	c #FF6B17",
"2<	c #FF5D14",
"3<	c #FF4D0F",
"4<	c #FD5818",
"5<	c #FF4512",
"6<	c #F93312",
"7<	c #E72319",
"8<	c #DF291E",
"9<	c #E62D21",
"0<	c #F63419",
"a<	c #FF511A",
"b<	c #A00001",
"c<	c #9F0002",
"d<	c #9E0002",
"e<	c #9F000D",
"f<	c #A30019",
"g<	c #A3001A",
"h<	c #9D001B",
"i<	c #990017",
"j<	c #960015",
"k<	c #920013",
"l<	c #880008",
"m<	c #830005",
"n<	c #7D0002",
"o<	c #7C0000",
"p<	c #820000",
"q<	c #FB961F",
"r<	c #FF7D1D",
"s<	c #FF6B14",
"t<	c #FF5914",
"u<	c #FF5111",
"v<	c #FF480F",
"w<	c #FB3114",
"x<	c #EC261A",
"y<	c #E0291E",
"z<	c #E22A1D",
"A<	c #EA2B19",
"B<	c #F75117",
"C<	c #840102",
"D<	c #830001",
"E<	c #7F0000",
"F<	c #810000",
"G<	c #7E0100",
"H<	c #8B0000",
"I<	c #8E0004",
"J<	c #8C000B",
"K<	c #8D000A",
"L<	c #8A000B",
"M<	c #8A0007",
"N<	c #800003",
"O<	c #7B0001",
"P<	c #950002",
"Q<	c #FF4905",
"R<	c #FF7618",
"S<	c #FF6B16",
"T<	c #FF5F12",
"U<	c #FF5510",
"V<	c #FE4C15",
"W<	c #FE4112",
"X<	c #F92D14",
"Y<	c #EA2417",
"Z<	c #EB2117",
"`<	c #E32A1D",
" [	c #FA4317",
".[	c #740102",
"+[	c #780000",
"@[	c #6E0000",
"#[	c #6C0000",
"$[	c #750000",
"%[	c #720000",
"&[	c #750100",
"*[	c #760000",
"=[	c #750001",
"-[	c #760002",
";[	c #760004",
">[	c #7A0000",
",[	c #7E0000",
"'[	c #FF560D",
")[	c #FE6617",
"![	c #FF5110",
"~[	c #FF4411",
"{[	c #FA3612",
"][	c #ED2A18",
"^[	c #DF241A",
"/[	c #EC2C17",
"([	c #F63714",
"_[	c #F02F11",
":[	c #6D0000",
"<[	c #6F0000",
"[[	c #730000",
"}[	c #730001",
"|[	c #740000",
"1[	c #720100",
"2[	c #7D0000",
"3[	c #9F0000",
"4[	c #FF6610",
"5[	c #FF5D11",
"6[	c #FF4E13",
"7[	c #FF4210",
"8[	c #FF3B10",
"9[	c #FD3411",
"0[	c #FD3314",
"a[	c #F82914",
"b[	c #EB2A1B",
"c[	c #E5271C",
"d[	c #E5291B",
"e[	c #E82D1B",
"f[	c #F73319",
"g[	c #FE491E",
"h[	c #960102",
"i[	c #900002",
"j[	c #8C0001",
"k[	c #7B0000",
"l[	c #960000",
"m[	c #FF6C12",
"n[	c #FA3914",
"o[	c #F83016",
"p[	c #E9281A",
"q[	c #E32116",
"r[	c #FC5020",
"s[	c #E12D1D",
"t[	c #DA2918",
"u[	c #E82C12",
"v[	c #F43113",
"w[	c #FA3F11",
"x[	c #DD0100",
"y[	c #F20900",
"z[	c #DA0201",
"A[	c #9B0000",
"B[	c #9E0001",
"C[	c #980000",
"D[	c #C10300",
"E[	c #FF6012",
"F[	c #FE590E",
"G[	c #FD4512",
"H[	c #F83315",
"I[	c #ED2718",
"J[	c #E6231A",
"K[	c #DC2219",
"L[	c #DE1F17",
"M[	c #E32219",
"N[	c #FD351A",
"O[	c #E82B15",
"P[	c #ED2A11",
"Q[	c #FB4F13",
"R[	c #DC1207",
"S[	c #BC0301",
"T[	c #D90300",
"U[	c #D50301",
"V[	c #D10200",
"W[	c #C60200",
"X[	c #CC0101",
"Y[	c #F62A02",
"Z[	c #FF781A",
"`[	c #FF5610",
" }	c #FD4F11",
".}	c #FF4710",
"+}	c #FD420F",
"@}	c #FB3913",
"#}	c #F83011",
"$}	c #F42A16",
"%}	c #EE2718",
"&}	c #E52419",
"*}	c #E5231B",
"=}	c #E1271C",
"-}	c #E93321",
";}	c #DE2B19",
">}	c #DE2718",
",}	c #E82D18",
"'}	c #F83912",
")}	c #FC4814",
"!}	c #FD5A17",
"~}	c #FC360C",
"{}	c #E91A09",
"]}	c #D20601",
"^}	c #D00703",
"/}	c #D10804",
"(}	c #CE0500",
"_}	c #EB1300",
":}	c #F61A01",
"<}	c #FF6111",
"[}	c #FE5B14",
"}}	c #FD5010",
"|}	c #FE5413",
"1}	c #FF4C12",
"2}	c #FD3C12",
"3}	c #F93614",
"4}	c #F53015",
"5}	c #F43119",
"6}	c #F13119",
"7}	c #E6271A",
"8}	c #E52D1D",
"9}	c #DD2817",
"0}	c #DC2316",
"a}	c #EC2A13",
"b}	c #F93C14",
"c}	c #FE3E0F",
"d}	c #FF4D13",
"e}	c #FF5311",
"f}	c #FE5410",
"g}	c #FD5311",
"h}	c #FF4C10",
"i}	c #FE4411",
"j}	c #F9400F",
"k}	c #F63B12",
"l}	c #F93714",
"m}	c #F32E14",
"n}	c #F02A16",
"o}	c #E62417",
"p}	c #E92A1B",
"q}	c #E52719",
"r}	c #DB2919",
"s}	c #DE2919",
"t}	c #E12819",
"u}	c #ED2C17",
"v}	c #F53115",
"w}	c #F63416",
"x}	c #FB3B14",
"y}	c #FD4011",
"z}	c #FD4010",
"A}	c #FC3C13",
"B}	c #F83714",
"C}	c #EF3016",
"D}	c #E7281A",
"E}	c #E92B19",
"F}	c #E42718",
"G}	c #E0241A",
"H}	c #DF261B",
"I}	c #DD291D",
"J}	c #E0291B",
"K}	c #E02D1E",
"L}	c #DD2919",
"M}	c #E02616",
"N}	c #E02114",
"O}	c #E32617",
"P}	c #EB2916",
"Q}	c #EF2D17",
"R}	c #F73113",
"S}	c #F73213",
"T}	c #F32B13",
"U}	c #ED2917",
"V}	c #E82917",
"W}	c #E42419",
"X}	c #E32619",
"Y}	c #E3281C",
"Z}	c #E1281A",
"`}	c #E22819",
" |	c #DE2518",
".|	c #F02917",
"+|	c #F22A17",
"@|	c #E82318",
"#|	c #E12417",
"$|	c #E1251A",
"%|	c #D92C1E",
"&|	c #DA2A1B",
"*|	c #DF2B1B",
"=|	c #DD2A1B",
"-|	c #E12E1C",
";|	c #DF2B1A",
">|	c #DF2C1B",
",|	c #DD2E1B",
"'|	c #DE2D1C",
"                                                                                                                                                                                    ",
"                                                                                                                                                                                    ",
"                                                                                                                                                                                    ",
"                                                                                                                                                                                    ",
"                                                                                                                                                                                    ",
"                                                                . +                                                                                                                 ",
"                                                              @ # $ %                                                                                                               ",
"                                                              & * = - ; >                                                                                                           ",
"                                                              , ' ) ! ~ {                                                                                                           ",
"                                                                ] ^ / ( _ : <                                                                                                       ",
"                                      [ } |                       1 2 3 4 5 6 7                                                                                                     ",
"                                        8                           9 0 a b c d e                     f g                                                                           ",
"                                                                      h i j k l m n       o     p q r s t u v                                                                       ",
"                                                    w       x y z A B C D E F G H I     J K L M N O P Q R S T U V                                                                   ",
"                                                      W X Y Z `  ...+.@.#.$.%.&.*.=.-.;.>.,.'.).!.~.{.].^./.(._.:.        <.[.                                                      ",
"                                                    }.|.1.2.3.4.5.6.7.8.9.0.a.b.c.d.e.f.g.h.i.j.k.l.m.n.o.p.q.r.s.t.      u.v.                                                      ",
"                                                    w.x.y.z.A.B.C.D.E.F.G.H.I.J.K.L.M.N.O.P.Q.R.S.T.U.V.W.X.Y.Z.`. +.+++@+#+$+%+ +                                                  ",
"                                                    &+*+=+-+*+;+>+,+'+)+!+~+{+]+^+/+(+_+:+<+[+}+|+1+2+3+4+5+6+7+8+9+0+a+b+c+d+e+f+                                                  ",
"                                                    g+h+i+j+k+l+m+n+o+p+q+r+s+t+u+v+w+x+y+z+A+B+C+D+E+F+G+H+5+I+J+K+L+M+N+O+P+Q+R+S+T+                                              ",
"                                                    U+V+W+X+Y+Z+`+ @.@+@@@#@$@%@&@*@=@-@;@>@,@'@)@!@~@{@]@^@/@(@_@:@<@[@}@|@1@2@3@4@T+5@6@                                          ",
"                                        7@        8@9@0@a@b@c@d@e@f@g@h@i@j@k@l@m@n@o@p@q@r@s@t@u@v@w@x@y@z@A@B@+@C@D@E@F@G@H@I@J@K@L@M@N@                                          ",
"                                          O@P@Q@  R@S@T@U@V@W@X@Y@Z@`@ #$@.#+#@###$#%#&#*#=#-#;#>#,#'#)#!#~#{#]#^#/#(#_#:#<#[#}#|#1#2#3@3#                                          ",
"                                            4#5#6#7#8#9#A.0#a#b#c#d#e#f#g#h#i#j#k#l#m#n#o#p#q#r#s#t#u#v#w#x#y#z#A#B#C#D#E#_@F#G#H#I#J#M@K#                                          ",
"                                              L#M#N#O#P#Q#R#S#T#U#V#W#X#Y#Z#`# $.$+$@$#$$$%$&$*$=$-$;$>$,$'$)$!$~${$]$^$/$($_$:$<$[$v.}$|$                                          ",
"                                                1$2$3$4$5$6$^$7$8$9$0$a$b$c$d$e$f$g$h$i$j$k$h$l$m$n$o$&$>$p$q$r$s$t$u$v$w$x$y$z$r.A$B$C$D$E$                                        ",
"                                              F$G$R H$Z+I$(#J$K$L$M$@$N$O$P$Q$R$S$T$U$V$W$X$Y$Z$`$T$ %.%+%@%#%$%%%&%*%=%-%;%d@>%,%'%)%!%~%{%  ]%^%                                  ",
"                                              /%(%`._%:%<%[%}%|%1%2%3%4%*$5%@$6%7%Y$8%9%0%a%b%c%X$d%e%f%g%h%i%j%k%l%m%n%o%p%/$q%r%s%t%u%v%w%x%y%z%                                  ",
"                                            A%  B%C%D%E%F%G%H%I%J%K%L%M%N%N%O%P%T$Q%R%S%T%U%V%W%X%Y%Z%`%O%%$ &.&+&@&#&D+$&%&I$&&*&=&-&;&>&  ,&'&                                    ",
"                                                )&!&~&{&]&^&/&(&_&:&<&[&}&|&o$7%1&2&3&4&5&6&7&8&9&0&a&b&c&%$Q$d&e&f&g&h&i&j&k&l&D%=+m&)%n&    o&                                    ",
"                                          p&q&r&s&t&u&v&w&x&y&z&A&B&C&[&D&E&F&G&H&I&J&K&L&M&N&O&P&Q&R&S&f%-$T& &U&V&W&X&Y&Z&`& *N#.*+*@*#*                                          ",
"                                        $*V %*&***=*-*;*R.>*,*'*)*!*~*{*]*^*/*G&(*_*:*<*[*}*|*1*2*3*4*5*c&@$6*7*8*9*0*a*b*c*d*e*f*^%g*h*i*j*                                        ",
"                                          k*l*m*n*o*p*q*r*s*t*u*v*w*x*h%o$y*P%S&(*z*A*B*C*D*E*F*G*H*H&I*`%=$J*K*L*M*N*O*P*Q*R*S*T*U*V*B$W*            X*Y*                          ",
"                                          Z*`* =.=+=@=#=$=%=&=*===-=;=>=O%o$S$,='=)=!=~={=]=^=/=(=_=H&7%:=<=[=}=|=1=2=3=4=5=6=7=X.8=9=0=a=b=          c=d=                          ",
"                                  e=        f=g=h=i=j=k=l=m=n=<=>=o=p=q=@$r=s=:=`$t=u=v=w=x=y=z=A=B=C=7%N%s=R$D=E=F=G=H=I=J=S.K=L=M=N=O=P=Q=  R=S=    T=U=                          ",
"                                  V=W=        X=Y=Z=`= -.-+-@-#-J*.%$-J*-$-$%-:=S&&-*-=---;->-,-'-)-!-G&*$s=R$~-{-]-^-/-(-_-G+:-<-[-}-|-E@1-2-3-4-    5-6-7-                        ",
"                                    8-9-  0-a-S+b-`.c-d-e-f-g-.%h-+%i-f$[&j-k-S$b&l-m-n-o-p-q-r-s-t-(*7%:=.%+%D=u-v-w-x-y-z-A-B-C-D-E-F-G-H-(%I-J-K-L-M-N-                          ",
"                                    O-P-Q-P@R-S-T-U-V-W-X-Y-Z-`--$;$S& ;f$>$-$c&`%e%.;+;@;#;$;%;&;*;`$G&*$o$h%~-=;-;;;>;,;';);!;~;{;];^;($/;(;_;:;T+<;U@[;};                        ",
"                                      |;1; +2;3;4;5;6;(#7;~$8;;$g%9;6%0;l%f$h-o$y*M$a;b;c;d;e;f;g;h;T$g$:=o$h%}=i;j;k;l;m;n;);!;v$o;p;c-q;r;s;t;u;v;w;x;y;                          ",
"                                      z;A;B;C;D;C;E;F;G;H;I;J;K;{*Q$Q$n$@%f$h%=$c&b&L;M;N;O;P;Q;R;S;T;U;y*s=V;D=W;X;Y;Z;`; >H%.>+>S*@>v&{.#>$>%>&>*>=>->;>                          ",
"                                      >>,>'>)>!>~>{>]>^>/>(>_>l%%$====c&T&6*:>&$s=P%H&<>[>}>R&|>5;1>'=b&S$=$R$2>3>4>5>6>7>8>9>0>a>U.b>c>d>e>f>g>h>i>j>|#k>                          ",
"                                        G-l>m>n>o>p>q>r>s>t>u>v>[&6*w>s=6*$$q=%$6%n$`$L;x>y>&-a;|>z>A>U;B>=$C>7*D>E>>;F>G>H>I>J>K>L>M>L=N>O>f>G#B$P>Q>R>S>                          ",
"                                          T>U>V>W>X>Y>Z>`> ,.,+,-$@%@,{*T&2>@%#,5%c&I*$,%,&,*,=,l-C=A>g$0;5%-,9;;,>,,,',),!,~,{,],^,j./,(,_,:,<,[,},|,x.                            ",
"                                        1,2,3,4,5,6,($7,8,9,0,a,b,7*W;@%f$9;$$C>5%o$M$c,d,e,A=f,l$`$I*b&n$5%J*~-W;g,h,i,j,k,l,m,!;R.B#n,o,p,f>(;q,r,s,t,                            ",
"                                        u,v,x.w,:$x,y,z,A,B,C,D,E,F,@,}=G,H,9;h%-$r=m$c,I,J,K,L,M,'=S&,=0;&$N,3>W;O,P,Q,R,S,T,U,V,l=^,W,X,7,R#Y,Z,&*`, '                            ",
"                                        .'=&T@+'@'#'$'Z>%'t>&'*'='[=}=w>J*w>D=+%O%.%T$-';'&;>','''e%S&N%o$-$)'K;n;!'~'{']'^'/'H%('_':'<'['}'N#|'1'2'3'                              ",
"                                        4'5'9=6'7'o*F;8'9'(>0'a'b'R$q=~-%$w>w>[=5%r=T;(*c'd'Q&e'k$A>P%n$s={*:>K;I=f'g'h'i'j'k'l'm'n'o'p'q'r'6$`.s'P#t'                              ",
"                                      g*u'N=v'w'x'y'z'M#A'B'C'D'E'5%>$D=k-}=F'==g%r=m$`$G'H'I'J'K'e%`%c&k-g%N,K;L'M'N'O'P'Q'R'S'T'U'V'W'X'Y'Z'`'(; )*>                              ",
"                                      .)+)@)=+(;#)$)%)&)*)=)-);)>),)s=D=,=2>F'6*R$O%I*1&=,')))!)~){),=r=-$>$]){-^)/)()_):)P$<)[)})|)1)2)U>3)4)5)6)7)  8)                            ",
"                                    9)0)a)b)c)d)e)f)g)h)i)z#j)k)l)m)n);$o)7*2>T&%$6%M$p)B=q)r)s)z*T;N%O%{*h-t)u)v)w)x)y)z)D=A)B)C)D)E)`>I$F)G)H)I)J)K)L)                            ",
"                                      s,  M)N)O)P)Q)R)S)T)U)V)W)X)Y)Z)l%`)$$Q$J*g%o$G& !.!+!@!#!h;G& %O%%$h%2>=;$!%!&!*!=!-!S';!>!,!'!)!!!~!{!]!^!/!(!                              ",
"                                        _!:!<![!}!|!1!2!3!4!5!6!7!M$8![=9!6*9;R$k-S$7%`$0!a!b!c!'=*$.%5%+%>=d!e!f!g!h!i!j!j!9>k!l!m!n!o!p!q!r!s!t!u!                                ",
"                                        v!w!x!y!z!A!B!C!w&D!E!F!G!A>H!&$I!@%$$+%O%n$T;1&J!K!L!Z%I* %=$[&l%==@,M!N!O!P!Q!R!M!5=o'S!T!U!V!N)W!X!Y!Z!`! ~                              ",
"                                        .~+~@~#~$~%~&~2!i)*~=~-~;~>~,~'~)~!~6*h--$B>e%~~{~]~^~/~S&y*=$R$@%F'(~_~:~<~[~}~9;2>|~1~2~3~4~5~:,6~u!7~8~9~X*                              ",
"                                        0~a~b~h+c~E;d~e~f~{$g~h~i~j~&,k~l~q=>=h%=$U;m~n~o~p~q~r~7%.%@$h%==@,s~t~u~v~w~x~7*y~z~A~B~C~D~E~F~G~H~I~N=J~K~                              ",
"                                          L~M~N~O~P~Q~R~<-S~T~U~V~W~X~Y~Z~`~+%#,r=M$)= {.{+{@{#{b&.%g%J*${i;%{&{*{={-{;{F,>{,{.>'{){!{~{r.v'{{]{^{/{({#*_{                          ",
"                                          :{<{1;[{k&}{|{1{2{3{4{5{6{7{8{9{0{h-R$a{`$b{c{d{e{f{g{,=.%g%>=Q$i;h{i{j{k{l{m{Q$n{o{p{q{r{s{t{Q u{v{w{x{y{z{A{                            ",
"                                      B{C{D{2;+)E{F{G{H{I{J{K{L{W)M{N{8{O{P{P{>$*$!-Q{R{S{T{U{g{P%<=h-6*w>j!V{W{X{Y{Z{`{ ]R'.]+]@]#]U*#*$]|-%]&]*]=]-]u%                            ",
"                                          9@R-;]>]M#,]']M>)]!]~]{]]]^]/]5%{*h-<=G&(]_]:]<][]}]M, %=$h%Q$|]1]2]3]4]5]6]7]8]9]0]a]b]c]d]e]f]%>g]h]i]j]                                ",
"                                          k]T U l]m]n]o])!%&p]q]r]s]t],~4%[&{*N%(*u]v]w]x]y]H*1&S$-$`~w>z]A]B]C]D]E]F]G]K;H]j&[%P~I]J]K]L]M]X>N]O]P]                                ",
"                                  Q]R]S]T]U]Y,V]W]X]Y]:-Z]`] ^.^+^@^#^$^g%@$-$m$%^&^*^=^-^;^L,M$s=h-;$D>(~>^,^'^)^!^~^{^]^^^$=/^(^2._^[@_;:^`'<^[^}^                                ",
"                          |^|.1^  2^^%3^|;4^L]5^6^7^8^9^'{S.,{0^a^m$}>/~6%=$0;b^c^d^e^f^g^h^i^j^{*6*w>v#k^l^m^n^o^p^q^{-J;Y-r^s^t^u^v^w^$]`.x^y^z^A^                                ",
"                            B^C^D^  E^F^G^H^@'I^J^K^L^M^`>X-F+N^O^P^J!m$a{a{T$j$Q^R^S^T^U^V^e%S$#,7*{-(~%{W^X^Y^Z^`^ /;$./+/@/#/$/%/f]&/*/=/P]-/;/                                  ",
"                              >/,/      '/)/!/~/W.{/]/^///(/A)f-_/:/</}&[/b&}/d%|/1/2/3/4/5/G&6/==K;7/8/9/0/a/b/c/D>~-h%d/e/f/g/{>h/=+[#i/ )j/#*                                    ",
"                                        S-'&k/l/m/n/o/p/T)a>q/r/s/t/p)*$u/v/w/x/y/z/A/B/C/:=<=l%D=D/E/F/G/H/I/J/c/0;K/L/m,M/N/O/P/Q/R/S/T/U/V/W/                                    ",
"                                            r'X/3$Y/Z/M#1{']`/ (.(+(S&u/@(,'#($(%(&(*(=(-(-$[=9;;(>(,('()(!(~({(](^(/(((c*$=_(:(<([(}(|(1(2(    3(                                  ",
"                                          4(Q/Y>5(6(7(8(r^9(0(a(1&T$M$'=b(c(d(e(f(g(m$S$5%>=== &h(i(j(k(l(m(G]W;n(o(f%p(q(X-W-r(s(t(u(v(w(x(y(.)z(/{                                ",
"                                            A(T B(C(T>D(E(F(G(`$H(H(e%(*d%I(J(K(L(T$0;[&J*~-2>M(N(O(P(Q(R(q^;,S(T(U(V(W(0]X(Y(z(8+Z(`( _._+_@_#_                                    ",
"                                              N)$_%_&_*_=_-_'=;_(*b^Z$L;>_,_'_)_A>0;h-==!_~_{_]_^_/_(_q^p^__:_~*o(0{<_g~[_d*m]}_|_1_2_3_-/+*4_                                      ",
"                                              5_6_7_Z/8_9_0_a_b_c_d_e_f_g_h_i_G&o$J* &j_k_l_m_n_,^o_:)!^R(G]p_q_r_s_q]t_.-u_y!v_w_x_y_T@z_A_                                        ",
"                                                B_C_$~D_E_A>!-h$F_G_H_I_J_K_L_=$G,M_N_O_l_,^P_Q_R_:)!^J/N$[/S_T_U_V_W_X_S.Y_y'Z_`_ :.:+:@:#:                                        ",
"                                                $:%:&:d%*:z*=:-:;:>:,:':T$,=O%):!:k_~:_){:]:^:H//:!^!^(:)'_:::o) &<:B)[:}:|:1:2:3:4:5:~%6:                                          ",
"                                                7:8:9:0:a:b:c:d:e:f:g(m$a{%$(&g:h:i:j:k:l{l:R_m:n:o:=!>=5*p:q:(~r:s:t:u:v:w:8(x:y:S*z:A:                                            ",
"                                              B:1!C:D:E:F:G:H:I:J:'=c&g%K:L:M:N:O:P:Q:R:S:T:U:m{`{V:j!=$a{W:2>X:Y:Z:`: <.<+<@< *#<$<%<&<                                            ",
"                                              *<=<R$P%N%e%T$M$N%s=)'-<;<><,<'<)<!<~<{<]<^</<(<_<:<<<@%[&[<>$F'}<|<^^1<2<3<4<5<6<7<8<9<                                              ",
"                                              0<a<~^<<e!w>@,F'i;b<c<d<e<f<g<h<i<j<k<l<m<n<o<p<`{{(K;`~l%6*n;q<r<Q*s<3+t<u<v<w<x<]{y<z<                                              ",
"                                              A<B<C<D<E<F<G<e$H<:<H<R(I<J<K<L<o_M<N<E<o<O<E<H<P<;,;$@%2>~-Q<R<S<T<U<`&V<W<X<Y<Z<'%`<                                                ",
"                                                E- [.[+[@[#[#[$[%[&[*[=[-[;[-[+[>[+[+[o<,[_<G]v)w>w>K;(:'[E))[![+<X]~[{[H-][^[2^*>                                                  ",
"                                                /[([_[F<,[:[<[*[%[[[[[}[[[|[1[*[*[+[2[E<J/3[D>9;7*u)j!4[5[*)6[7[8[9[0[a[|;b[c[d[                                                    ",
"                                                  e[f[g[@[`^h[N$i[j[`^R(2[,[k[,[>[,[p<l[K;f$>$`~l[n;m[3!I{<%n[o[1'B.p[q[r[w's[                                                      ",
"                                                    t[u[v[w[p<(~;$x[y[z[n;A[B[{^D>W;7*h-:=[&C[D[E[F[|:G[D(H[G@I[J[K[L[M[N[P@                                                        ",
"                                                        O[P[Q[R[<<W;S[T[U[V[W[X[g%@%{^p<+[Y[Z[`[ }.}+}@}#}$}%}&}*}  =}  -}                                                          ",
"                                                        ;}>},}'})}!}~}{}]}^}/}(}_}:}<}[}}}6[|}1}2}3}4}5}6}s 7}3#8}                                                                  ",
"                                                            9}0}a}b}c}d-d}a@M^e}f}g}h}i}j}k}l}m}n}|-o}p}q}2^                                                                        ",
"                                                              r}s}t}u}v}w}#]x}y}z}A}B}c]C}D}E}F}G}v(H}I}J}K}                                                                        ",
"                                                                  L}M}N}O}P}Q}R}S}T}U}V}W}},3_X}Y}Z}`}                                                                              ",
"                                                                      v; |e][@.|+|@|o}#|P>G}$|@_                                                                                    ",
"                                                                          %|&|*|=|-|;|>|,|'|                                                                                        ",
"                                                                                                                                                                                    ",
"                                                                                                                                                                                    ",
"                                                                                                                                                                                    ",
"                                                                                                                                                                                    ",
"                                                                                                                                                                                    ",
"                                                                                                                                                                                    ",
"                                                                                                                                                                                    ",
"                                                                                                                                                                                    ",
"                                                                                                                                                                                    ",
"                                                                                                                                                                                    ",
"                                                                                                                                                                                    ",
"                                                                                                                                                                                    ",
"                                                                                                                                                                                    "};
