/* XPM */
static char * chili_1_xpm[] = {
"90 100 2624 2",
"  	c None",
". 	c #E0CB32",
"+ 	c #F3DB19",
"@ 	c #A79215",
"# 	c #C8CB21",
"$ 	c #DEDE17",
"% 	c #D6C708",
"& 	c #E3CA0E",
"* 	c #D4CD0E",
"= 	c #DEDC38",
"- 	c #CECB27",
"; 	c #888903",
"> 	c #787503",
", 	c #555C00",
"' 	c #4F5403",
") 	c #5B6A07",
"! 	c #5D5907",
"~ 	c #E0EC3B",
"{ 	c #838404",
"] 	c #595B01",
"^ 	c #4B4F00",
"/ 	c #444401",
"( 	c #515101",
"_ 	c #404700",
": 	c #2C4305",
"< 	c #83A418",
"[ 	c #7E8306",
"} 	c #504902",
"| 	c #3B3C00",
"1 	c #353400",
"2 	c #363400",
"3 	c #283000",
"4 	c #443402",
"5 	c #5F760F",
"6 	c #999A1E",
"7 	c #413F00",
"8 	c #373600",
"9 	c #3B3700",
"0 	c #252D00",
"a 	c #332D02",
"b 	c #94961D",
"c 	c #5F5707",
"d 	c #383400",
"e 	c #352E00",
"f 	c #342B00",
"g 	c #2B2B01",
"h 	c #5D780F",
"i 	c #6B6C0E",
"j 	c #3F3801",
"k 	c #363201",
"l 	c #2A2200",
"m 	c #102200",
"n 	c #C34315",
"o 	c #868522",
"p 	c #565800",
"q 	c #4D4300",
"r 	c #302900",
"s 	c #372E00",
"t 	c #942F0C",
"u 	c #E13118",
"v 	c #DC3219",
"w 	c #DE361F",
"x 	c #EB361B",
"y 	c #E9381A",
"z 	c #E8361C",
"A 	c #E8371E",
"B 	c #E7381C",
"C 	c #EB391A",
"D 	c #E42815",
"E 	c #988224",
"F 	c #555A07",
"G 	c #3C3B00",
"H 	c #463E03",
"I 	c #352901",
"J 	c #1B1E00",
"K 	c #EB271A",
"L 	c #E22B18",
"M 	c #DF2816",
"N 	c #E7321A",
"O 	c #E2311B",
"P 	c #E0301A",
"Q 	c #E72E1A",
"R 	c #EC2E19",
"S 	c #EC2D1B",
"T 	c #EC2C17",
"U 	c #ED2D18",
"V 	c #EE2C17",
"W 	c #EC2D18",
"X 	c #E72616",
"Y 	c #E52417",
"Z 	c #E82517",
"` 	c #EB2715",
" .	c #E72A1A",
"..	c #973B0D",
"+.	c #766318",
"@.	c #A2993A",
"#.	c #605C0A",
"$.	c #322B00",
"%.	c #453501",
"&.	c #1B2201",
"*.	c #ED2E16",
"=.	c #E82818",
"-.	c #E92D18",
";.	c #EF2917",
">.	c #EC2817",
",.	c #E42C17",
"'.	c #E12C1D",
").	c #E32B1B",
"!.	c #EC2E1B",
"~.	c #EC2B16",
"{.	c #F13118",
"].	c #F22E15",
"^.	c #EC2E18",
"/.	c #EB2D17",
"(.	c #F52D17",
"_.	c #F82B16",
":.	c #F52D16",
"<.	c #EC2916",
"[.	c #EE2C19",
"}.	c #F42E15",
"|.	c #F12916",
"1.	c #F02A18",
"2.	c #405B0D",
"3.	c #413E05",
"4.	c #9B933B",
"5.	c #7F7A17",
"6.	c #3F3002",
"7.	c #392D06",
"8.	c #F23417",
"9.	c #EE2D17",
"0.	c #F03017",
"a.	c #F63018",
"b.	c #F32B19",
"c.	c #ED3116",
"d.	c #E92E18",
"e.	c #E72B18",
"f.	c #E5331B",
"g.	c #EF3119",
"h.	c #F23018",
"i.	c #F32C16",
"j.	c #F62E15",
"k.	c #F42E14",
"l.	c #EF2F15",
"m.	c #F13117",
"n.	c #FD3716",
"o.	c #FE3316",
"p.	c #FD3015",
"q.	c #F73417",
"r.	c #F63513",
"s.	c #F63316",
"t.	c #F72E16",
"u.	c #F03315",
"v.	c #605709",
"w.	c #6C6E16",
"x.	c #3E3D07",
"y.	c #7B7920",
"z.	c #3A3100",
"A.	c #403004",
"B.	c #3E2C06",
"C.	c #F54218",
"D.	c #F43619",
"E.	c #F53518",
"F.	c #FB3615",
"G.	c #F53117",
"H.	c #EA2E1C",
"I.	c #E82C17",
"J.	c #EA321C",
"K.	c #F12C17",
"L.	c #F8331A",
"M.	c #FD3116",
"N.	c #FF3615",
"O.	c #FF3614",
"P.	c #FC3614",
"Q.	c #FF4114",
"R.	c #FF4316",
"S.	c #FF4116",
"T.	c #FF3B16",
"U.	c #FF4418",
"V.	c #FE4417",
"W.	c #FF3D13",
"X.	c #FD4613",
"Y.	c #54550A",
"Z.	c #514F0A",
"`.	c #ACAC48",
" +	c #949538",
".+	c #464505",
"++	c #372F00",
"@+	c #3E3602",
"#+	c #464107",
"$+	c #FE6824",
"%+	c #FD521E",
"&+	c #FF461A",
"*+	c #FF4A15",
"=+	c #FF4417",
"-+	c #FC3B15",
";+	c #FB3818",
">+	c #F32E18",
",+	c #EC301B",
"'+	c #EE331F",
")+	c #EB311E",
"!+	c #F02D19",
"~+	c #F63217",
"{+	c #FF3814",
"]+	c #FF3D15",
"^+	c #FF4917",
"/+	c #FF5019",
"(+	c #FF5118",
"_+	c #FF5018",
":+	c #FF4A19",
"<+	c #FF5717",
"[+	c #FF5A19",
"}+	c #FC4A12",
"|+	c #DC5A0E",
"1+	c #4D4801",
"2+	c #747318",
"3+	c #6A6A18",
"4+	c #5A5C15",
"5+	c #454405",
"6+	c #3B3601",
"7+	c #373301",
"8+	c #5F4B09",
"9+	c #884610",
"0+	c #FE6823",
"a+	c #FF4F1B",
"b+	c #FF571A",
"c+	c #FF4E18",
"d+	c #FE441A",
"e+	c #FF4019",
"f+	c #EF2F18",
"g+	c #EB2E1C",
"h+	c #EC311C",
"i+	c #E52D19",
"j+	c #E72F1C",
"k+	c #F1311B",
"l+	c #F3311B",
"m+	c #F3311A",
"n+	c #FA3217",
"o+	c #FD3818",
"p+	c #FD3C14",
"q+	c #FF4513",
"r+	c #FF4B16",
"s+	c #FF5316",
"t+	c #FF5F16",
"u+	c #FF5919",
"v+	c #FF641A",
"w+	c #FF651E",
"x+	c #FF6B1E",
"y+	c #FF7C1F",
"z+	c #3A3B00",
"A+	c #444202",
"B+	c #63620B",
"C+	c #848121",
"D+	c #7A7A22",
"E+	c #73761C",
"F+	c #707316",
"G+	c #3E3802",
"H+	c #342B01",
"I+	c #4E4305",
"J+	c #443B02",
"K+	c #DD6017",
"L+	c #FF631C",
"M+	c #FF5D17",
"N+	c #FC4D19",
"O+	c #F93D18",
"P+	c #F0321B",
"Q+	c #F0291A",
"R+	c #F52D19",
"S+	c #EF2C18",
"T+	c #F22E1B",
"U+	c #F12F1A",
"V+	c #E82C1A",
"W+	c #E62E1D",
"X+	c #E2301B",
"Y+	c #F3301B",
"Z+	c #F4301B",
"`+	c #F5311B",
" @	c #F93318",
".@	c #FE3C18",
"+@	c #FF4118",
"@@	c #FF4716",
"#@	c #FF4E16",
"$@	c #FF5617",
"%@	c #FF5F18",
"&@	c #FF6D1B",
"*@	c #FF6A1E",
"=@	c #FF6D1C",
"-@	c #FE751E",
";@	c #D0680D",
">@	c #69590B",
",@	c #5C5A05",
"'@	c #555203",
")@	c #777715",
"!@	c #C3C254",
"~@	c #848626",
"{@	c #676910",
"]@	c #545407",
"^@	c #3B3500",
"/@	c #393100",
"(@	c #393001",
"_@	c #493D02",
":@	c #534008",
"<@	c #F7781F",
"[@	c #FF721B",
"}@	c #FF681C",
"|@	c #FE5418",
"1@	c #FC491B",
"2@	c #FB3A19",
"3@	c #F32B18",
"4@	c #F62F18",
"5@	c #FC3B1B",
"6@	c #F62818",
"7@	c #F63317",
"8@	c #EE2D18",
"9@	c #E82E1F",
"0@	c #EE321C",
"a@	c #F42F1B",
"b@	c #F7301A",
"c@	c #FA3819",
"d@	c #FA3517",
"e@	c #FD4216",
"f@	c #FF4D17",
"g@	c #FF5217",
"h@	c #FF5B18",
"i@	c #FF6117",
"j@	c #FF6818",
"k@	c #FC771D",
"l@	c #FF6A1A",
"m@	c #6C4E0A",
"n@	c #4C4302",
"o@	c #5F4D07",
"p@	c #625708",
"q@	c #585106",
"r@	c #767412",
"s@	c #6F6E11",
"t@	c #6B670E",
"u@	c #6D6B12",
"v@	c #61610A",
"w@	c #5C5C08",
"x@	c #413C00",
"y@	c #3E3803",
"z@	c #473F04",
"A@	c #3C3700",
"B@	c #564609",
"C@	c #674309",
"D@	c #FF8223",
"E@	c #FF781E",
"F@	c #FF631E",
"G@	c #FE561E",
"H@	c #FF491A",
"I@	c #F73419",
"J@	c #F93117",
"K@	c #FA3218",
"L@	c #F92F16",
"M@	c #FF551D",
"N@	c #EF301B",
"O@	c #F2311B",
"P@	c #F3301D",
"Q@	c #F02F1B",
"R@	c #EC2B19",
"S@	c #F12A1A",
"T@	c #F92F18",
"U@	c #FC3416",
"V@	c #FA3417",
"W@	c #FF5314",
"X@	c #FF5F15",
"Y@	c #FF661A",
"Z@	c #FF6C19",
"`@	c #FA7119",
" #	c #6B2806",
".#	c #3F2E00",
"+#	c #755107",
"@#	c #5C5002",
"##	c #483B00",
"$#	c #5B5105",
"%#	c #545805",
"&#	c #575B08",
"*#	c #A39F2D",
"=#	c #C7BE41",
"-#	c #A8A82E",
";#	c #ACA92B",
">#	c #606106",
",#	c #423A01",
"'#	c #433C04",
")#	c #252100",
"!#	c #5C500B",
"~#	c #554507",
"{#	c #58450B",
"]#	c #543505",
"^#	c #FF882A",
"/#	c #FE6D1D",
"(#	c #FE621B",
"_#	c #FF581B",
":#	c #FF4415",
"<#	c #FF4318",
"[#	c #F93517",
"}#	c #FE321A",
"|#	c #FF481B",
"1#	c #F72D16",
"2#	c #EE2919",
"3#	c #E62E1B",
"4#	c #F32C1C",
"5#	c #F02D1B",
"6#	c #ED2616",
"7#	c #FB3316",
"8#	c #FE3A17",
"9#	c #FF5318",
"0#	c #FF631A",
"a#	c #FF6D1A",
"b#	c #FF761A",
"c#	c #FF7F1D",
"d#	c #E64610",
"e#	c #E70102",
"f#	c #D10203",
"g#	c #D00002",
"h#	c #CD0002",
"i#	c #7E0C00",
"j#	c #502C00",
"k#	c #5F5D05",
"l#	c #576305",
"m#	c #535A03",
"n#	c #221E00",
"o#	c #404200",
"p#	c #403C00",
"q#	c #6C6104",
"r#	c #494301",
"s#	c #554D06",
"t#	c #473E02",
"u#	c #3C3202",
"v#	c #3C3204",
"w#	c #473B02",
"x#	c #564106",
"y#	c #322802",
"z#	c #FC8021",
"A#	c #FF671B",
"B#	c #FE5819",
"C#	c #FF4615",
"D#	c #F93A16",
"E#	c #F52F18",
"F#	c #F52C19",
"G#	c #FE3D1A",
"H#	c #F12D1D",
"I#	c #E5281B",
"J#	c #E82F1C",
"K#	c #F22A18",
"L#	c #EB2015",
"M#	c #F82E17",
"N#	c #F32816",
"O#	c #F82915",
"P#	c #FC3315",
"Q#	c #FE3B13",
"R#	c #FF4517",
"S#	c #FF5E16",
"T#	c #FF701C",
"U#	c #FF801F",
"V#	c #FF8A20",
"W#	c #F71706",
"X#	c #FA0E00",
"Y#	c #F40000",
"Z#	c #FA0300",
"`#	c #F90600",
" $	c #FA0400",
".$	c #FC1000",
"+$	c #FE0901",
"@$	c #F50001",
"#$	c #F00002",
"$$	c #F20002",
"%$	c #DB0700",
"&$	c #C30500",
"*$	c #AA0200",
"=$	c #660300",
"-$	c #472000",
";$	c #3E3503",
">$	c #474303",
",$	c #493E04",
"'$	c #3E3201",
")$	c #3F3702",
"!$	c #584407",
"~$	c #513E07",
"{$	c #481200",
"]$	c #F9751C",
"^$	c #FC6418",
"/$	c #FB4416",
"($	c #F33316",
"_$	c #EE2C18",
":$	c #EE2B19",
"<$	c #E42517",
"[$	c #EA2C1D",
"}$	c #E82D1C",
"|$	c #E72F1D",
"1$	c #EC2F1B",
"2$	c #F12C1C",
"3$	c #FB381A",
"4$	c #FF3914",
"5$	c #FE3116",
"6$	c #FB3214",
"7$	c #FF3E14",
"8$	c #FF4C14",
"9$	c #FF5818",
"0$	c #FF6B1B",
"a$	c #FF7921",
"b$	c #FF8624",
"c$	c #FFAF32",
"d$	c #FE0300",
"e$	c #FF0D00",
"f$	c #FE0800",
"g$	c #FC0300",
"h$	c #F90601",
"i$	c #FF0800",
"j$	c #FF4616",
"k$	c #FF3508",
"l$	c #FF0100",
"m$	c #FF1C03",
"n$	c #FE6A3E",
"o$	c #FB5235",
"p$	c #FF1703",
"q$	c #FB0901",
"r$	c #E10000",
"s$	c #D30000",
"t$	c #BA0000",
"u$	c #5D0A00",
"v$	c #3A2501",
"w$	c #564406",
"x$	c #4B3803",
"y$	c #322200",
"z$	c #483502",
"A$	c #5C5811",
"B$	c #711B06",
"C$	c #9F1F01",
"D$	c #FD6617",
"E$	c #FD4F16",
"F$	c #F73C17",
"G$	c #EF2E16",
"H$	c #E6281A",
"I$	c #E2251B",
"J$	c #E82B1B",
"K$	c #E82C1F",
"L$	c #E82C1D",
"M$	c #E72E1E",
"N$	c #F02E1B",
"O$	c #F9351C",
"P$	c #FF3D16",
"Q$	c #FF3A16",
"R$	c #FF3B13",
"S$	c #FF4614",
"T$	c #FF5518",
"U$	c #FF691C",
"V$	c #FF791E",
"W$	c #FF8322",
"X$	c #FEAA34",
"Y$	c #F90000",
"Z$	c #FF0F00",
"`$	c #FF0500",
" %	c #FA0200",
".%	c #FA0000",
"+%	c #FD0400",
"@%	c #FF2E06",
"#%	c #FF4113",
"$%	c #FF0E00",
"%%	c #FF0B00",
"&%	c #FF5B38",
"*%	c #FF7C5E",
"=%	c #FF3317",
"-%	c #FD0700",
";%	c #F70601",
">%	c #E90000",
",%	c #E30000",
"'%	c #DC0000",
")%	c #BE0002",
"!%	c #8D0001",
"~%	c #4A0100",
"{%	c #540400",
"]%	c #810100",
"^%	c #8F0000",
"/%	c #A8000C",
"(%	c #E67674",
"_%	c #B52E39",
":%	c #FD8924",
"<%	c #FF5718",
"[%	c #FC4917",
"}%	c #F53616",
"|%	c #E92917",
"1%	c #E32519",
"2%	c #E6281C",
"3%	c #EC2C1E",
"4%	c #E6291C",
"5%	c #EF2B1C",
"6%	c #EF291D",
"7%	c #F02C1E",
"8%	c #ED291B",
"9%	c #EB2819",
"0%	c #F52919",
"a%	c #FB2E17",
"b%	c #FF3612",
"c%	c #FF3716",
"d%	c #FF4D14",
"e%	c #FF7720",
"f%	c #FF8024",
"g%	c #FE8D24",
"h%	c #F00000",
"i%	c #FF1501",
"j%	c #FC0900",
"k%	c #F20000",
"l%	c #ED0000",
"m%	c #F60000",
"n%	c #FF0700",
"o%	c #FF3F18",
"p%	c #FF3917",
"q%	c #FF290B",
"r%	c #FF2711",
"s%	c #FF6446",
"t%	c #FF9A85",
"u%	c #FF957B",
"v%	c #FE1F10",
"w%	c #F70000",
"x%	c #F10001",
"y%	c #E60000",
"z%	c #D70000",
"A%	c #CF0000",
"B%	c #BE0000",
"C%	c #BF0000",
"D%	c #BD0003",
"E%	c #AC0001",
"F%	c #A90002",
"G%	c #DE455C",
"H%	c #E45666",
"I%	c #BD0213",
"J%	c #FF6517",
"K%	c #FD5718",
"L%	c #FD3F15",
"M%	c #F12D16",
"N%	c #E92719",
"O%	c #E3271A",
"P%	c #E9271B",
"Q%	c #EA261A",
"R%	c #EB2718",
"S%	c #FA3413",
"T%	c #FB3E15",
"U%	c #F12B1D",
"V%	c #F42B1A",
"W%	c #F42B1B",
"X%	c #ED281C",
"Y%	c #EB2519",
"Z%	c #F0251A",
"`%	c #F92917",
" &	c #FF4012",
".&	c #FF5915",
"+&	c #FF7721",
"@&	c #FF8124",
"#&	c #FF8B27",
"$&	c #FFB736",
"%&	c #FE0900",
"&&	c #FF0900",
"*&	c #F10000",
"=&	c #FA0100",
"-&	c #FF0600",
";&	c #FF3C19",
">&	c #FF5432",
",&	c #FF7754",
"'&	c #FF6B4F",
")&	c #FF644E",
"!&	c #FF7157",
"~&	c #FF5640",
"{&	c #FD482C",
"]&	c #FE0A04",
"^&	c #E70000",
"/&	c #DB0001",
"(&	c #C10001",
"_&	c #C50001",
":&	c #C00004",
"<&	c #B50001",
"[&	c #A70001",
"}&	c #CE1A3E",
"|&	c #E6616D",
"1&	c #E03E52",
"2&	c #FF8A24",
"3&	c #FC5D17",
"4&	c #FF4A18",
"5&	c #FA3317",
"6&	c #E92718",
"7&	c #E5271A",
"8&	c #E8241A",
"9&	c #E22518",
"0&	c #F84C1C",
"a&	c #FA9B33",
"b&	c #FE2B13",
"c&	c #F32F1F",
"d&	c #F42918",
"e&	c #F02218",
"f&	c #EF2314",
"g&	c #F22416",
"h&	c #F42516",
"i&	c #FA2914",
"j&	c #FF4914",
"k&	c #FF6519",
"l&	c #FF8321",
"m&	c #FF8B2A",
"n&	c #FF8D2A",
"o&	c #F10E00",
"p&	c #E40000",
"q&	c #E80001",
"r&	c #E80000",
"s&	c #FF1100",
"t&	c #FF492D",
"u&	c #FF9E82",
"v&	c #FFC8AE",
"w&	c #FFB192",
"x&	c #FF4531",
"y&	c #FF3927",
"z&	c #FF3E2B",
"A&	c #FC0E04",
"B&	c #F50000",
"C&	c #EF0100",
"D&	c #EC0000",
"E&	c #E80204",
"F&	c #DC0002",
"G&	c #D50000",
"H&	c #C40000",
"I&	c #C20003",
"J&	c #BA0002",
"K&	c #BC0001",
"L&	c #AB0001",
"M&	c #BB000D",
"N&	c #E55362",
"O&	c #E35666",
"P&	c #D41500",
"Q&	c #FD6017",
"R&	c #FF5317",
"S&	c #FD3D14",
"T&	c #F02817",
"U&	c #E7271A",
"V&	c #E82619",
"W&	c #E22219",
"X&	c #E82317",
"Y&	c #EA281B",
"Z&	c #E52F1E",
"`&	c #F62D1A",
" *	c #FF3818",
".*	c #F62F1E",
"+*	c #F3291C",
"@*	c #EB2416",
"#*	c #F02217",
"$*	c #F42816",
"%*	c #F42715",
"&*	c #F62416",
"**	c #FB2A15",
"=*	c #FF4014",
"-*	c #FF5414",
";*	c #FF731D",
">*	c #FF932C",
",*	c #FDB43B",
"'*	c #FB0900",
")*	c #DF0000",
"!*	c #FE0000",
"~*	c #FF2E13",
"{*	c #FF7A5C",
"]*	c #FFBBA1",
"^*	c #FFD1B5",
"/*	c #FFBEA3",
"(*	c #FF8B73",
"_*	c #FF422C",
":*	c #FF2415",
"<*	c #EE0001",
"[*	c #EF0000",
"}*	c #F31413",
"|*	c #F0191A",
"1*	c #E00001",
"2*	c #D60000",
"3*	c #C30001",
"4*	c #C40004",
"5*	c #BB0003",
"6*	c #C20005",
"7*	c #A90000",
"8*	c #B20006",
"9*	c #E4465C",
"0*	c #E55F6C",
"a*	c #BC000B",
"b*	c #FF8122",
"c*	c #FF5C17",
"d*	c #F72D19",
"e*	c #EA2818",
"f*	c #E4261A",
"g*	c #E42318",
"h*	c #E92418",
"i*	c #F22A1B",
"j*	c #E92C1B",
"k*	c #E72A1D",
"l*	c #F4301E",
"m*	c #F22E1E",
"n*	c #EF2716",
"o*	c #F32416",
"p*	c #F22717",
"q*	c #F52A14",
"r*	c #F72A16",
"s*	c #F72516",
"t*	c #FF2E15",
"u*	c #FF4812",
"v*	c #FF8326",
"w*	c #FF932B",
"x*	c #FF952C",
"y*	c #FA0500",
"z*	c #E70100",
"A*	c #E50000",
"B*	c #FC0100",
"C*	c #FF3A23",
"D*	c #FF876A",
"E*	c #FFC7AA",
"F*	c #FFD2B7",
"G*	c #FFD6B9",
"H*	c #FFAC91",
"I*	c #FF402D",
"J*	c #F80000",
"K*	c #F00100",
"L*	c #F61110",
"M*	c #F73332",
"N*	c #F53433",
"O*	c #E50206",
"P*	c #D40000",
"Q*	c #C40002",
"R*	c #BF0006",
"S*	c #BE0007",
"T*	c #CB0013",
"U*	c #A40004",
"V*	c #B30006",
"W*	c #E5435A",
"X*	c #E55C69",
"Y*	c #E12547",
"Z*	c #FF6016",
"`*	c #FF681B",
" =	c #FF5116",
".=	c #FD3416",
"+=	c #EF2A18",
"@=	c #E8261A",
"#=	c #E82417",
"$=	c #E82018",
"%=	c #ED261A",
"&=	c #ED2919",
"*=	c #E82A1B",
"==	c #E72D1B",
"-=	c #EF2E1C",
";=	c #F02F1E",
">=	c #F12E1D",
",=	c #F22D1D",
"'=	c #F72916",
")=	c #FC2D18",
"!=	c #F92B16",
"~=	c #F62616",
"{=	c #F82C16",
"]=	c #FE2F16",
"^=	c #FF3A13",
"/=	c #FF5013",
"(=	c #FF741C",
"_=	c #FF8E26",
":=	c #FF992A",
"<=	c #FCBF35",
"[=	c #F90400",
"}=	c #F90100",
"|=	c #DE0000",
"1=	c #FF0501",
"2=	c #FF482D",
"3=	c #FF7457",
"4=	c #FFBEA4",
"5=	c #FFDEC6",
"6=	c #FFD7C1",
"7=	c #FFB49B",
"8=	c #FF8670",
"9=	c #FF3628",
"0=	c #F70101",
"a=	c #ED0002",
"b=	c #F61D20",
"c=	c #F8453E",
"d=	c #F23F3D",
"e=	c #F01411",
"f=	c #D40001",
"g=	c #C30000",
"h=	c #BC0003",
"i=	c #C4000B",
"j=	c #CA011F",
"k=	c #A00001",
"l=	c #AB0005",
"m=	c #E7566A",
"n=	c #E25B6D",
"o=	c #E42D50",
"p=	c #D41001",
"q=	c #FF6919",
"r=	c #F93917",
"s=	c #F42E17",
"t=	c #EC2718",
"u=	c #E72519",
"v=	c #EC2519",
"w=	c #EE2718",
"x=	c #E92619",
"y=	c #EA291B",
"z=	c #F12C19",
"A=	c #EC2F1C",
"B=	c #F22E1D",
"C=	c #F32F1E",
"D=	c #F82917",
"E=	c #FF2D17",
"F=	c #FE2A15",
"G=	c #F82C15",
"H=	c #F92D16",
"I=	c #FC3215",
"J=	c #FF4514",
"K=	c #FF5D19",
"L=	c #FF781C",
"M=	c #FF9127",
"N=	c #FF9929",
"O=	c #FF4411",
"P=	c #FB0602",
"Q=	c #F70100",
"R=	c #FF472C",
"S=	c #FF775A",
"T=	c #FFA388",
"U=	c #FFC2A8",
"V=	c #FFA48D",
"W=	c #FF6F56",
"X=	c #FE3121",
"Y=	c #F40001",
"Z=	c #EE0004",
"`=	c #F63231",
" -	c #F85048",
".-	c #EF4744",
"+-	c #EB0607",
"@-	c #D20000",
"#-	c #BD0001",
"$-	c #C4000D",
"%-	c #C5001A",
"&-	c #9F0000",
"*-	c #A70003",
"=-	c #E2495D",
"--	c #E35868",
";-	c #E43058",
">-	c #BF0200",
",-	c #FF721E",
"'-	c #FF5E19",
")-	c #FF3D17",
"!-	c #F83016",
"~-	c #F02A17",
"{-	c #E72719",
"]-	c #E4231B",
"^-	c #EB2418",
"/-	c #EC2619",
"(-	c #EA2A1D",
"_-	c #F63721",
":-	c #F02B1C",
"<-	c #F42517",
"[-	c #FE2812",
"}-	c #FF3215",
"|-	c #FB2A12",
"1-	c #FE2E14",
"2-	c #FC3613",
"3-	c #FF4913",
"4-	c #FF761B",
"5-	c #FF942B",
"6-	c #FE9023",
"7-	c #F90401",
"8-	c #F70301",
"9-	c #E20000",
"0-	c #FF260D",
"a-	c #FF5032",
"b-	c #FF7150",
"c-	c #FF8A6E",
"d-	c #FF997D",
"e-	c #FF846E",
"f-	c #FF6A51",
"g-	c #FF6447",
"h-	c #FD160C",
"i-	c #EF0003",
"j-	c #EA0104",
"k-	c #F32B2B",
"l-	c #F85149",
"m-	c #F03C3B",
"n-	c #DF0105",
"o-	c #CA0000",
"p-	c #BE0001",
"q-	c #BB0002",
"r-	c #B60007",
"s-	c #B8000C",
"t-	c #9A0000",
"u-	c #9B0105",
"v-	c #DB3D56",
"w-	c #DF5465",
"x-	c #DE3055",
"y-	c #B90000",
"z-	c #FF7D1D",
"A-	c #FF6217",
"B-	c #FF3E15",
"C-	c #F93518",
"D-	c #ED2918",
"E-	c #EA2718",
"F-	c #E72419",
"G-	c #EA2218",
"H-	c #E9251A",
"I-	c #E7231A",
"J-	c #F2331F",
"K-	c #F12C1D",
"L-	c #F31E15",
"M-	c #FC2A14",
"N-	c #FF3516",
"O-	c #FD2812",
"P-	c #FE3111",
"Q-	c #FE3714",
"R-	c #FF691A",
"S-	c #FF7B1F",
"T-	c #FF962A",
"U-	c #FFA727",
"V-	c #F10201",
"W-	c #F30101",
"X-	c #DE0001",
"Y-	c #FF3417",
"Z-	c #FF5233",
"`-	c #FF785A",
" ;	c #FF9D82",
".;	c #FF9378",
"+;	c #FF6D52",
"@;	c #FF644B",
"#;	c #FF442B",
"$;	c #FC0201",
"%;	c #E70002",
"&;	c #F42025",
"*;	c #F5403D",
"=;	c #EC2F30",
"-;	c #B70001",
";;	c #B20004",
">;	c #AA0004",
",;	c #930000",
"';	c #9E0008",
");	c #D4314C",
"!;	c #D9485A",
"~;	c #D9224A",
"{;	c #BA0001",
"];	c #FF8822",
"^;	c #FF6418",
"/;	c #FF4217",
"(;	c #FC3816",
"_;	c #F12D19",
":;	c #E7241A",
"<;	c #E42417",
"[;	c #E92219",
"};	c #F02818",
"|;	c #E5241A",
"1;	c #E92F1F",
"2;	c #F42D1D",
"3;	c #F22C1B",
"4;	c #ED2013",
"5;	c #FF2A15",
"6;	c #FF2F15",
"7;	c #FB3015",
"8;	c #FF3915",
"9;	c #FF4E19",
"0;	c #FF9328",
"a;	c #FBB62B",
"b;	c #F10701",
"c;	c #F00300",
"d;	c #DB0002",
"e;	c #EB0000",
"f;	c #FE341C",
"g;	c #FF6345",
"h;	c #FFA181",
"i;	c #FFB399",
"j;	c #FFAC92",
"k;	c #FF7056",
"l;	c #FF5639",
"m;	c #FF2212",
"n;	c #F90001",
"o;	c #E60002",
"p;	c #F1151A",
"q;	c #F23031",
"r;	c #E71920",
"s;	c #CD0000",
"t;	c #B70000",
"u;	c #B90002",
"v;	c #B00004",
"w;	c #A20001",
"x;	c #910000",
"y;	c #A1020A",
"z;	c #D02B47",
"A;	c #DA4A5B",
"B;	c #CD103D",
"C;	c #BA0101",
"D;	c #FF8D23",
"E;	c #FF681A",
"F;	c #FC3818",
"G;	c #F52D1A",
"H;	c #E32318",
"I;	c #EE261A",
"J;	c #F22919",
"K;	c #ED261B",
"L;	c #EA311F",
"M;	c #F42E1D",
"N;	c #ED1F16",
"O;	c #FC2E14",
"P;	c #FA2A15",
"Q;	c #FB2E14",
"R;	c #FD3115",
"S;	c #FF4916",
"T;	c #FE6C1A",
"U;	c #FF8C23",
"V;	c #FA6811",
"W;	c #F30200",
"X;	c #F30401",
"Y;	c #D90000",
"Z;	c #E00000",
"`;	c #FD0601",
" >	c #FF876E",
".>	c #FECBB0",
"+>	c #FFCCAF",
"@>	c #FFC7A9",
"#>	c #FF6F53",
"$>	c #FC4529",
"%>	c #FD1303",
"&>	c #E50107",
"*>	c #EC1A22",
"=>	c #D30005",
"->	c #C20000",
";>	c #B40000",
">>	c #B40003",
",>	c #AA0005",
"'>	c #9D0002",
")>	c #9F000C",
"!>	c #CC2943",
"~>	c #CE3148",
"{>	c #BB051A",
"]>	c #C70303",
"^>	c #FE9025",
"/>	c #FE6B1B",
"(>	c #FF4C15",
"_>	c #FD3515",
":>	c #E62619",
"<>	c #E22218",
"[>	c #EA2418",
"}>	c #F32918",
"|>	c #EF2518",
"1>	c #FD3C1A",
"2>	c #F32E1E",
"3>	c #EF2819",
"4>	c #F32419",
"5>	c #FB2B17",
"6>	c #F82916",
"7>	c #FD3016",
"8>	c #FD3017",
"9>	c #FF6618",
"0>	c #FF7C20",
"a>	c #FF8D24",
"b>	c #F80600",
"c>	c #EF0500",
"d>	c #FA0F03",
"e>	c #D50001",
"f>	c #DA0000",
"g>	c #FE0B02",
"h>	c #FF220D",
"i>	c #FF6A4C",
"j>	c #FF9C7A",
"k>	c #FFAE91",
"l>	c #FFB193",
"m>	c #FF684F",
"n>	c #FE4727",
"o>	c #FC0400",
"p>	c #F20001",
"q>	c #E30001",
"r>	c #DB0000",
"s>	c #D70003",
"t>	c #C80000",
"u>	c #BC0000",
"v>	c #B50000",
"w>	c #B30001",
"x>	c #B00002",
"y>	c #A70002",
"z>	c #940000",
"A>	c #A70112",
"B>	c #C41E3A",
"C>	c #C31235",
"D>	c #B20008",
"E>	c #C50300",
"F>	c #FF8A25",
"G>	c #FF711D",
"H>	c #F73017",
"I>	c #F42717",
"J>	c #FB3217",
"K>	c #F22518",
"L>	c #E5251B",
"M>	c #EF2E1D",
"N>	c #EF2C1B",
"O>	c #EF2415",
"P>	c #F32318",
"Q>	c #F22515",
"R>	c #F72614",
"S>	c #FE3115",
"T>	c #FF4115",
"U>	c #FF801E",
"V>	c #F70F01",
"W>	c #F91406",
"X>	c #D80000",
"Y>	c #FD0300",
"Z>	c #FF3118",
"`>	c #FF361A",
" ,	c #FF6144",
".,	c #FF8D71",
"+,	c #FF8062",
"@,	c #FF4C33",
"#,	c #EC0002",
"$,	c #C90000",
"%,	c #B20000",
"&,	c #B10001",
"*,	c #A90003",
"=,	c #A10104",
"-,	c #900000",
";,	c #A80112",
">,	c #C81836",
",,	c #C40F31",
"',	c #AF0007",
"),	c #C10000",
"!,	c #FF7B1B",
"~,	c #FF771E",
"{,	c #FF5F1A",
"],	c #FB3314",
"^,	c #F93317",
"/,	c #F63017",
"(,	c #FD361A",
"_,	c #F02617",
":,	c #EA291D",
"<,	c #F12F1E",
"[,	c #ED291A",
"},	c #EE211A",
"|,	c #EB2017",
"1,	c #EF2817",
"2,	c #F92D15",
"3,	c #FF3214",
"4,	c #FE3616",
"5,	c #FF4414",
"6,	c #FF621B",
"7,	c #FF861F",
"8,	c #FF8E23",
"9,	c #EC0400",
"0,	c #FE3306",
"a,	c #FA1103",
"b,	c #FF0801",
"c,	c #FE3718",
"d,	c #FF1C0C",
"e,	c #FF5135",
"f,	c #FF5A3B",
"g,	c #FF371E",
"h,	c #FC0200",
"i,	c #EE0000",
"j,	c #B10000",
"k,	c #AE0001",
"l,	c #A00000",
"m,	c #9A0001",
"n,	c #A9000F",
"o,	c #C00D2B",
"p,	c #B60221",
"q,	c #FF7819",
"r,	c #FF7A1F",
"s,	c #FB3515",
"t,	c #FD3915",
"u,	c #FE3B17",
"v,	c #EE2214",
"w,	c #F02E1F",
"x,	c #EF2919",
"y,	c #EB2419",
"z,	c #EB2216",
"A,	c #F42914",
"B,	c #FA3117",
"C,	c #FE3916",
"D,	c #FF4815",
"E,	c #FF661B",
"F,	c #FF871F",
"G,	c #FF9825",
"H,	c #F10401",
"I,	c #FD470B",
"J,	c #F30A01",
"K,	c #FF0D03",
"L,	c #FF3418",
"M,	c #FF2312",
"N,	c #FF2109",
"O,	c #FF3015",
"P,	c #FE0E02",
"Q,	c #F60100",
"R,	c #BD0000",
"S,	c #B60001",
"T,	c #AF0000",
"U,	c #A80000",
"V,	c #940001",
"W,	c #AE000D",
"X,	c #BA0522",
"Y,	c #A80212",
"Z,	c #EA1203",
"`,	c #FF8226",
" '	c #FF671D",
".'	c #FF5115",
"+'	c #FE4115",
"@'	c #FE3B15",
"#'	c #FC3A17",
"$'	c #EE2A1A",
"%'	c #F1291A",
"&'	c #ED2216",
"*'	c #F22417",
"='	c #F92717",
"-'	c #FC3214",
";'	c #FF3D14",
">'	c #FF5114",
",'	c #FF6E1B",
"''	c #FF8B21",
")'	c #FFB32F",
"!'	c #F50400",
"~'	c #FF3F05",
"{'	c #E00202",
"]'	c #D10000",
"^'	c #D20001",
"/'	c #FD0000",
"('	c #FF1B0A",
"_'	c #FF583C",
":'	c #FE422A",
"<'	c #FF1809",
"['	c #FF0B03",
"}'	c #C60000",
"|'	c #AA0000",
"1'	c #A20000",
"2'	c #9B0002",
"3'	c #8C0000",
"4'	c #9C0002",
"5'	c #AC0011",
"6'	c #B4021A",
"7'	c #A80006",
"8'	c #C30202",
"9'	c #FF620F",
"0'	c #FF8524",
"a'	c #FF8D2D",
"b'	c #FF6118",
"c'	c #FF4612",
"d'	c #FE4815",
"e'	c #FF4713",
"f'	c #FF4013",
"g'	c #FB3416",
"h'	c #F62D1B",
"i'	c #F42214",
"j'	c #F92815",
"k'	c #FE3315",
"l'	c #FF3C15",
"m'	c #FF731C",
"n'	c #FF8A1E",
"o'	c #FD9F26",
"p'	c #F60600",
"q'	c #FF2303",
"r'	c #CE0000",
"s'	c #FF0000",
"t'	c #FF2B15",
"u'	c #FF7359",
"v'	c #FF5E43",
"w'	c #FF3F28",
"x'	c #FF180A",
"y'	c #F80001",
"z'	c #DD0000",
"A'	c #DA0001",
"B'	c #D30001",
"C'	c #C00000",
"D'	c #AD0000",
"E'	c #A80001",
"F'	c #9C0000",
"G'	c #950001",
"H'	c #8D0000",
"I'	c #AC000E",
"J'	c #B40010",
"K'	c #BE0101",
"L'	c #FF9420",
"M'	c #FF8B28",
"N'	c #FF8B2B",
"O'	c #FF7620",
"P'	c #FE6619",
"Q'	c #FE4E12",
"R'	c #FF4E15",
"S'	c #FF4813",
"T'	c #FE3B14",
"U'	c #F62C16",
"V'	c #EE2B1D",
"W'	c #EA2A1B",
"X'	c #EE2918",
"Y'	c #F32819",
"Z'	c #EF2618",
"`'	c #ED2417",
" )	c #F52414",
".)	c #FF2D14",
"+)	c #FC2F16",
"@)	c #FF4412",
"#)	c #FF861B",
"$)	c #FF2E04",
"%)	c #FE3502",
"&)	c #F60F01",
"*)	c #D10001",
"=)	c #D00000",
"-)	c #EA0001",
";)	c #FB0100",
">)	c #FF3315",
",)	c #FF452A",
"')	c #FF5235",
"))	c #FF7156",
"!)	c #FF2A16",
"~)	c #D00001",
"{)	c #C80001",
"])	c #BB0000",
"^)	c #B30000",
"/)	c #980000",
"()	c #8C0001",
"_)	c #920000",
":)	c #B4000A",
"<)	c #B10005",
"[)	c #B20105",
"})	c #C00002",
"|)	c #C30003",
"1)	c #FF8D29",
"2)	c #FF9432",
"3)	c #FF6619",
"4)	c #FF5311",
"5)	c #FE4F18",
"6)	c #EC2719",
"7)	c #E8251A",
"8)	c #EE2B1B",
"9)	c #ED2A1A",
"0)	c #F32516",
"a)	c #EF2516",
"b)	c #F12017",
"c)	c #F72713",
"d)	c #FC2B13",
"e)	c #FD3013",
"f)	c #FF3813",
"g)	c #FF4E14",
"h)	c #FF6B18",
"i)	c #FF8020",
"j)	c #FF871B",
"k)	c #F60400",
"l)	c #FF4808",
"m)	c #E60301",
"n)	c #FF1F0A",
"o)	c #FF2A0F",
"p)	c #FF210E",
"q)	c #FE3D20",
"r)	c #FE3C1C",
"s)	c #FE1C0A",
"t)	c #F30000",
"u)	c #CB0000",
"v)	c #C20001",
"w)	c #B80000",
"x)	c #AC0000",
"y)	c #A10000",
"z)	c #9B0000",
"A)	c #8E0000",
"B)	c #8C0100",
"C)	c #990000",
"D)	c #B50007",
"E)	c #AF0102",
"F)	c #DF0500",
"G)	c #FD922C",
"H)	c #FF902F",
"I)	c #FF9330",
"J)	c #FF781B",
"K)	c #FF4E13",
"L)	c #FF4611",
"M)	c #E92417",
"N)	c #E7261A",
"O)	c #EF2C1C",
"P)	c #F02A1B",
"Q)	c #F52916",
"R)	c #F32817",
"S)	c #FB2816",
"T)	c #FF2A11",
"U)	c #FD3215",
"V)	c #FF3E16",
"W)	c #FF5514",
"X)	c #FF731B",
"Y)	c #FC971E",
"Z)	c #FE4D08",
"`)	c #D10100",
" !	c #FF270F",
".!	c #FF0B01",
"+!	c #FF1D03",
"@!	c #FF1301",
"#!	c #FE0301",
"$!	c #EA0000",
"%!	c #8B0002",
"&!	c #8B0000",
"*!	c #B90005",
"=!	c #FF5511",
"-!	c #FF9632",
";!	c #FF9C36",
">!	c #FF9E3B",
",!	c #FF721C",
"'!	c #FF4416",
")!	c #FC3E14",
"!!	c #EC2418",
"~!	c #E32217",
"{!	c #EA281C",
"]!	c #F32B1A",
"^!	c #F42617",
"/!	c #FF782C",
"(!	c #FD2A13",
"_!	c #F72112",
":!	c #FD2813",
"<!	c #FF3412",
"[!	c #FF4214",
"}!	c #FF5F14",
"|!	c #FF731A",
"1!	c #FFA023",
"2!	c #F00500",
"3!	c #D80001",
"4!	c #FF6649",
"5!	c #FE492E",
"6!	c #FF0A03",
"7!	c #F80100",
"8!	c #C70000",
"9!	c #B00000",
"0!	c #A60000",
"a!	c #9E0000",
"b!	c #8A0000",
"c!	c #C40100",
"d!	c #D70302",
"e!	c #FFAF2E",
"f!	c #FF982F",
"g!	c #FF9C39",
"h!	c #FF5E17",
"i!	c #FC4514",
"j!	c #FC3915",
"k!	c #E92818",
"l!	c #E52519",
"m!	c #E0211A",
"n!	c #E42319",
"o!	c #E52B1E",
"p!	c #F92A18",
"q!	c #F02517",
"r!	c #F82618",
"s!	c #FE2A13",
"t!	c #FE2416",
"u!	c #FB2413",
"v!	c #FE3815",
"w!	c #FF6616",
"x!	c #FF791D",
"y!	c #FF8520",
"z!	c #FF8C17",
"A!	c #F10300",
"B!	c #FF0400",
"C!	c #FF3D23",
"D!	c #FF8368",
"E!	c #FF5437",
"F!	c #FF1004",
"G!	c #FE0101",
"H!	c #A40000",
"I!	c #890000",
"J!	c #E90900",
"K!	c #FF9A29",
"L!	c #FF9731",
"M!	c #FF9835",
"N!	c #FF7D25",
"O!	c #FF4C17",
"P!	c #FC3C15",
"Q!	c #F53018",
"R!	c #E0251A",
"S!	c #E12119",
"T!	c #E1211B",
"U!	c #E42519",
"V!	c #E7251C",
"W!	c #E62B1D",
"X!	c #E62A1D",
"Y!	c #FB2F19",
"Z!	c #F92617",
"`!	c #FA2816",
" ~	c #FD2F16",
".~	c #FE3919",
"+~	c #FD2A11",
"@~	c #FF2D13",
"#~	c #FF3C14",
"$~	c #FF7319",
"%~	c #FF8421",
"&~	c #FF8722",
"*~	c #FE2E04",
"=~	c #F50500",
"-~	c #FB0500",
";~	c #FF1508",
">~	c #FF664B",
",~	c #FF997F",
"'~	c #FF5B3D",
")~	c #FF0C01",
"!~	c #FE0100",
"~~	c #FB0000",
"{~	c #E60001",
"]~	c #970000",
"^~	c #8F0100",
"/~	c #C70001",
"(~	c #D30300",
"_~	c #EC0100",
":~	c #FF671A",
"<~	c #F53017",
"[~	c #E9271A",
"}~	c #DC2219",
"|~	c #DE211B",
"1~	c #E2221B",
"2~	c #E32419",
"3~	c #E4251A",
"4~	c #E1271A",
"5~	c #E42B1D",
"6~	c #FD361E",
"7~	c #FC2E16",
"8~	c #F82918",
"9~	c #FF2715",
"0~	c #FF6823",
"a~	c #FF2912",
"b~	c #FF2E11",
"c~	c #FE3F11",
"d~	c #FF6218",
"e~	c #FF8B24",
"f~	c #FF9F2C",
"g~	c #F30100",
"h~	c #DC0001",
"i~	c #FF2412",
"j~	c #FF5C3F",
"k~	c #FF9A83",
"l~	c #FFA68D",
"m~	c #FF5A40",
"n~	c #FF0C06",
"o~	c #CC0000",
"p~	c #C50000",
"q~	c #A30002",
"r~	c #950000",
"s~	c #EA0600",
"t~	c #FF952D",
"u~	c #FF8528",
"v~	c #FF6F1D",
"w~	c #F72F17",
"x~	c #E0231B",
"y~	c #D8211C",
"z~	c #DA231A",
"A~	c #DD2419",
"B~	c #E2251C",
"C~	c #E3261B",
"D~	c #E3261C",
"E~	c #E42A20",
"F~	c #FF2E18",
"G~	c #F82819",
"H~	c #F92716",
"I~	c #F92918",
"J~	c #FF2816",
"K~	c #FF3115",
"L~	c #FF3211",
"M~	c #FF3A12",
"N~	c #FF4B12",
"O~	c #FF5A1A",
"P~	c #FF7C24",
"Q~	c #FF992E",
"R~	c #FFA235",
"S~	c #FDE558",
"T~	c #F90300",
"U~	c #FF0201",
"V~	c #FD5740",
"W~	c #FF8970",
"X~	c #FE9881",
"Y~	c #FFA78E",
"Z~	c #FF6B55",
"`~	c #FF0806",
" {	c #FC0500",
".{	c #B60000",
"+{	c #E00100",
"@{	c #E80502",
"#{	c #FDB941",
"${	c #FF8A28",
"%{	c #FF751F",
"&{	c #FF5D15",
"*{	c #FD3A15",
"={	c #EE2617",
"-{	c #D8221B",
";{	c #D4211A",
">{	c #E4271B",
",{	c #E3241B",
"'{	c #E0261C",
"){	c #E4271C",
"!{	c #FC521B",
"~{	c #FB2715",
"{{	c #FB2516",
"]{	c #FE2C16",
"^{	c #FF2B12",
"/{	c #FF4212",
"({	c #FF5619",
"_{	c #FF7823",
":{	c #FF9E3A",
"<{	c #FFB243",
"[{	c #FFB13D",
"}{	c #F92304",
"|{	c #FE0B00",
"1{	c #FF190A",
"2{	c #FF7B64",
"3{	c #FF9780",
"4{	c #FFBDA4",
"5{	c #FE7D69",
"6{	c #FD2618",
"7{	c #A70000",
"8{	c #9D0000",
"9{	c #C70100",
"0{	c #E50200",
"a{	c #FF3408",
"b{	c #FF9329",
"c{	c #FF8525",
"d{	c #FF6C18",
"e{	c #F73117",
"f{	c #E12217",
"g{	c #D91E1B",
"h{	c #DE1F1A",
"i{	c #FE3818",
"j{	c #E6231B",
"k{	c #DF221A",
"l{	c #E9261A",
"m{	c #E6261A",
"n{	c #F53220",
"o{	c #FF2F17",
"p{	c #FD2413",
"q{	c #FE2D14",
"r{	c #FA2516",
"s{	c #FE2A16",
"t{	c #FC2915",
"u{	c #FF5715",
"v{	c #FF7120",
"w{	c #FF9539",
"x{	c #FFA945",
"y{	c #FEB343",
"z{	c #FFBE41",
"A{	c #FB0002",
"B{	c #FF0300",
"C{	c #FF3D28",
"D{	c #FF9784",
"E{	c #FF8F78",
"F{	c #FF8E75",
"G{	c #FF3328",
"H{	c #FF0101",
"I{	c #E40300",
"J{	c #FCAA31",
"K{	c #FF8F27",
"L{	c #FF7D20",
"M{	c #DF1F19",
"N{	c #D81F19",
"O{	c #E4211A",
"P{	c #E3211C",
"Q{	c #E72517",
"R{	c #F6301C",
"S{	c #F52918",
"T{	c #FA2C12",
"U{	c #F92A14",
"V{	c #FC2C15",
"W{	c #FE2914",
"X{	c #FF3613",
"Y{	c #FF5014",
"Z{	c #FF651F",
"`{	c #FF7D27",
" ]	c #FF9A37",
".]	c #FFA63D",
"+]	c #FFAC3A",
"@]	c #FFAD29",
"#]	c #F90500",
"$]	c #E30100",
"%]	c #FC0000",
"&]	c #FD2B15",
"*]	c #FF6C53",
"=]	c #FF8772",
"-]	c #FF705B",
";]	c #FF2A1C",
">]	c #AE0000",
",]	c #930001",
"']	c #E20200",
")]	c #FE1901",
"!]	c #FF851F",
"~]	c #FF701D",
"{]	c #F62F16",
"]]	c #E52415",
"^]	c #DC2018",
"/]	c #E11F19",
"(]	c #FC2F18",
"_]	c #E92316",
":]	c #E3211A",
"<]	c #E42219",
"[]	c #E62217",
"}]	c #E72318",
"|]	c #F3311C",
"1]	c #FA2B1A",
"2]	c #F62919",
"3]	c #F42615",
"4]	c #FB2D17",
"5]	c #FE3314",
"6]	c #FF5F17",
"7]	c #FF8F2C",
"8]	c #FFA23E",
"9]	c #FFA23A",
"0]	c #FCC037",
"a]	c #F20100",
"b]	c #FF0904",
"c]	c #FF634A",
"d]	c #FE8A74",
"e]	c #FF614D",
"f]	c #FE3724",
"g]	c #E90001",
"h]	c #A80003",
"i]	c #A30004",
"j]	c #FDB132",
"k]	c #FF8825",
"l]	c #FF7B20",
"m]	c #FF5D16",
"n]	c #FF3F16",
"o]	c #F62714",
"p]	c #FE2F17",
"q]	c #EB2218",
"r]	c #E2231A",
"s]	c #DE201A",
"t]	c #EB261B",
"u]	c #E3221A",
"v]	c #E0261D",
"w]	c #F53320",
"x]	c #F62918",
"y]	c #FA2918",
"z]	c #F52A18",
"A]	c #F52915",
"B]	c #FF3E13",
"C]	c #FF4912",
"D]	c #FF721D",
"E]	c #FF9934",
"F]	c #FF932D",
"G]	c #F31904",
"H]	c #F10202",
"I]	c #FF8A6F",
"J]	c #FE9176",
"K]	c #FF806B",
"L]	c #FF2819",
"M]	c #FB0200",
"N]	c #A50000",
"O]	c #AB0003",
"P]	c #9C0001",
"Q]	c #FF6513",
"R]	c #FF7E1E",
"S]	c #FE3419",
"T]	c #FE3318",
"U]	c #FA3116",
"V]	c #E12118",
"W]	c #E5211A",
"X]	c #E92319",
"Y]	c #E72717",
"Z]	c #F72E1B",
"`]	c #FD2C18",
" ^	c #FC2B19",
".^	c #FA3114",
"+^	c #FF3C12",
"@^	c #FE4814",
"#^	c #FF5A15",
"$^	c #FF8022",
"%^	c #FC9C29",
"&^	c #E40100",
"*^	c #F80200",
"=^	c #FD0001",
"-^	c #FF866D",
";^	c #FFB7A0",
">^	c #FFBDA3",
",^	c #FF634E",
"'^	c #FD0702",
")^	c #AB0000",
"!^	c #B10010",
"~^	c #9C0004",
"{^	c #860000",
"]^	c #FF9F2A",
"^^	c #FF7C1D",
"/^	c #FF731E",
"(^	c #FF641C",
"_^	c #FF4817",
":^	c #FE3E16",
"<^	c #DC1E17",
"[^	c #E2231C",
"}^	c #E6251A",
"|^	c #E4221B",
"1^	c #F52C17",
"2^	c #F93017",
"3^	c #FE2D18",
"4^	c #FA2B16",
"5^	c #FE3812",
"6^	c #FF5516",
"7^	c #FF6219",
"8^	c #FF751D",
"9^	c #FF8120",
"0^	c #FF8424",
"a^	c #FF871C",
"b^	c #F91301",
"c^	c #E40101",
"d^	c #FD0100",
"e^	c #FF4131",
"f^	c #FFAA8E",
"g^	c #FFAF99",
"h^	c #FF7B67",
"i^	c #FF412B",
"j^	c #CF0002",
"k^	c #A70005",
"l^	c #A10007",
"m^	c #880001",
"n^	c #870000",
"o^	c #FF7C1A",
"p^	c #FF5816",
"q^	c #FE4013",
"r^	c #FD3815",
"s^	c #FC3317",
"t^	c #E52019",
"u^	c #E1211A",
"v^	c #E22318",
"w^	c #ED271A",
"x^	c #E92519",
"y^	c #E6241B",
"z^	c #F12E1B",
"A^	c #FB2D14",
"B^	c #FE3A11",
"C^	c #FF5C15",
"D^	c #FF7B1D",
"E^	c #FFA32E",
"F^	c #FF1006",
"G^	c #FF6650",
"H^	c #FF907A",
"I^	c #FF6752",
"J^	c #FF3523",
"K^	c #FF0401",
"L^	c #9E0002",
"M^	c #860101",
"N^	c #F20200",
"O^	c #EE0300",
"P^	c #FF8A23",
"Q^	c #FF8320",
"R^	c #FF671C",
"S^	c #FF3F15",
"T^	c #FD3214",
"U^	c #E51F19",
"V^	c #EA2219",
"W^	c #E42418",
"X^	c #E6271E",
"Y^	c #F3311E",
"Z^	c #F32F1C",
"`^	c #F92812",
" /	c #FA2D17",
"./	c #FD2D14",
"+/	c #FD2D12",
"@/	c #FF4C13",
"#/	c #FE5D17",
"$/	c #FF6D19",
"%/	c #FF751A",
"&/	c #FF801B",
"*/	c #FCB82F",
"=/	c #FE341F",
"-/	c #FF7560",
";/	c #FE6B51",
">/	c #FE2E17",
",/	c #FB0401",
"'/	c #C00001",
")/	c #A30000",
"!/	c #E70201",
"~/	c #FF8621",
"{/	c #FF6D1D",
"]/	c #FF6523",
"^/	c #FF501C",
"//	c #FA3016",
"(/	c #F12818",
"_/	c #F42A18",
":/	c #F22818",
"</	c #EB271C",
"[/	c #E3251A",
"}/	c #F4341F",
"|/	c #F92A17",
"1/	c #FC2E15",
"2/	c #FF3714",
"3/	c #FE4513",
"4/	c #FF5213",
"5/	c #FF6417",
"6/	c #FF7019",
"7/	c #FB5211",
"8/	c #F90200",
"9/	c #FE0F01",
"0/	c #FC4124",
"a/	c #FF4B35",
"b/	c #FF513C",
"c/	c #FF1206",
"d/	c #FB0300",
"e/	c #F50103",
"f/	c #880000",
"g/	c #8E0001",
"h/	c #FC0700",
"i/	c #F50101",
"j/	c #FDB23A",
"k/	c #FF8522",
"l/	c #FF6F1A",
"m/	c #FF641B",
"n/	c #FF5E1D",
"o/	c #FF3F17",
"p/	c #FC3516",
"q/	c #F72E17",
"r/	c #E62219",
"s/	c #E3231C",
"t/	c #E32319",
"u/	c #F52F1D",
"v/	c #F62F1D",
"w/	c #FF3616",
"x/	c #FF4314",
"y/	c #FF5210",
"z/	c #FF6214",
"A/	c #FF6A18",
"B/	c #FF921A",
"C/	c #F01000",
"D/	c #FF1904",
"E/	c #FF5030",
"F/	c #FF3D29",
"G/	c #FD2C13",
"H/	c #A20002",
"I/	c #850000",
"J/	c #F40301",
"K/	c #F20300",
"L/	c #FBDD59",
"M/	c #FF9C31",
"N/	c #FF8926",
"O/	c #FF6C1C",
"P/	c #FF3F14",
"Q/	c #FD3717",
"R/	c #F82E16",
"S/	c #F52B16",
"T/	c #ED2818",
"U/	c #EC291C",
"V/	c #E2231B",
"W/	c #E22B1D",
"X/	c #F4301C",
"Y/	c #F6311F",
"Z/	c #FF3918",
"`/	c #FF4715",
" (	c #FF5017",
".(	c #FF5A11",
"+(	c #FF7C19",
"@(	c #F30700",
"#(	c #FF3B23",
"$(	c #FF7459",
"%(	c #FF664E",
"&(	c #FE190D",
"*(	c #880002",
"=(	c #F30301",
"-(	c #FF0C00",
";(	c #FE0D00",
">(	c #FC0502",
",(	c #E60101",
"'(	c #FCD44B",
")(	c #FEB141",
"!(	c #FE9C35",
"~(	c #FF791C",
"{(	c #FF6515",
"](	c #FF5614",
"^(	c #FE4716",
"/(	c #FE3A15",
"((	c #F52C16",
"_(	c #F22A17",
":(	c #E2211A",
"<(	c #DE2318",
"[(	c #E2291D",
"}(	c #FA381F",
"|(	c #F5321E",
"1(	c #F5311E",
"2(	c #FF5815",
"3(	c #FF400A",
"4(	c #F70200",
"5(	c #FF0200",
"6(	c #FB4124",
"7(	c #FF6145",
"8(	c #FE7E67",
"9(	c #FF7D64",
"0(	c #FE4935",
"a(	c #FF0A04",
"b(	c #EB0200",
"c(	c #FC0B00",
"d(	c #FD0D01",
"e(	c #DD0100",
"f(	c #FEA532",
"g(	c #FFAF42",
"h(	c #FFA53C",
"i(	c #FF9D38",
"j(	c #FF771D",
"k(	c #FF6716",
"l(	c #FD4914",
"m(	c #FC3B13",
"n(	c #F52B15",
"o(	c #EF2818",
"p(	c #E72018",
"q(	c #E7281C",
"r(	c #EC2E1D",
"s(	c #F8331F",
"t(	c #FD4017",
"u(	c #FF6E1C",
"v(	c #FF1307",
"w(	c #FF593E",
"x(	c #FF886E",
"y(	c #FFAC93",
"z(	c #FF8B71",
"A(	c #FE3D25",
"B(	c #CA0001",
"C(	c #AA0002",
"D(	c #960000",
"E(	c #F80800",
"F(	c #FE1400",
"G(	c #FF6715",
"H(	c #FFB742",
"I(	c #FFA83C",
"J(	c #FF9C35",
"K(	c #FF902D",
"L(	c #FF7219",
"M(	c #FF5F12",
"N(	c #FE4B15",
"O(	c #FF4215",
"P(	c #FE3613",
"Q(	c #F12918",
"R(	c #E8271A",
"S(	c #ED291C",
"T(	c #FB391E",
"U(	c #FA1106",
"V(	c #FD0101",
"W(	c #FF0001",
"X(	c #FF1B0E",
"Y(	c #FF8A71",
"Z(	c #FFCCB6",
"`(	c #FF8E74",
" _	c #FF5E49",
"._	c #FF1C0F",
"+_	c #EC0001",
"@_	c #E30101",
"#_	c #A60001",
"$_	c #FB0E00",
"%_	c #FF0A00",
"&_	c #F50200",
"*_	c #FFB53E",
"=_	c #FFB442",
"-_	c #FFA138",
";_	c #FF6915",
">_	c #FF5B11",
",_	c #FF5616",
"'_	c #FF5015",
")_	c #FD3514",
"!_	c #F83014",
"~_	c #EE281B",
"{_	c #E62519",
"]_	c #F51910",
"^_	c #FA0402",
"/_	c #FF0103",
"(_	c #FF0503",
"__	c #FF482F",
":_	c #FF9C80",
"<_	c #FF7D5B",
"[_	c #FF4829",
"}_	c #E50001",
"|_	c #BF0001",
"1_	c #FE0E01",
"2_	c #FD1101",
"3_	c #FFDD57",
"4_	c #FFB346",
"5_	c #FFA93E",
"6_	c #FF9531",
"7_	c #FF5111",
"8_	c #FE4D13",
"9_	c #FF4712",
"0_	c #FF3F12",
"a_	c #FE4116",
"b_	c #FA381B",
"c_	c #E72819",
"d_	c #E9281A",
"e_	c #E82A1C",
"f_	c #EF0507",
"g_	c #FA0407",
"h_	c #FF3B27",
"i_	c #FF5034",
"j_	c #FF210F",
"k_	c #FD2515",
"l_	c #FF503D",
"m_	c #FF291C",
"n_	c #FD0B00",
"o_	c #FE0E00",
"p_	c #F90700",
"q_	c #FFC644",
"r_	c #FFB040",
"s_	c #FFAB42",
"t_	c #FF9B34",
"u_	c #FF8626",
"v_	c #FF781D",
"w_	c #FF6213",
"x_	c #FF4A11",
"y_	c #FF410F",
"z_	c #FD3F12",
"A_	c #FE4112",
"B_	c #FF6121",
"C_	c #FF4718",
"D_	c #EF2A19",
"E_	c #EE2816",
"F_	c #F52F1B",
"G_	c #ED0E12",
"H_	c #F20106",
"I_	c #FE0C06",
"J_	c #FC3118",
"K_	c #FFCEB5",
"L_	c #FFF1E0",
"M_	c #FFF5E3",
"N_	c #FFD1B6",
"O_	c #FE4F33",
"P_	c #FF0F04",
"Q_	c #F50100",
"R_	c #C50100",
"S_	c #FB0C00",
"T_	c #FA0600",
"U_	c #F21201",
"V_	c #FEC044",
"W_	c #FFA93B",
"X_	c #FFA83B",
"Y_	c #FF8E29",
"Z_	c #FF7C1B",
"`_	c #FF6917",
" :	c #FF5211",
".:	c #FF470F",
"+:	c #FD3914",
"@:	c #FA2F14",
"#:	c #F52C18",
"$:	c #F93113",
"%:	c #F72315",
"&:	c #E82318",
"*:	c #EB2818",
"=:	c #D0080D",
"-:	c #F90505",
";:	c #FD1707",
">:	c #FE7E55",
",:	c #FDB49C",
"':	c #FF917C",
"):	c #FF866F",
"!:	c #FF9879",
"~:	c #FE3D26",
"{:	c #F80300",
"]:	c #9E0001",
"^:	c #870001",
"/:	c #FD1A00",
"(:	c #BB0100",
"_:	c #FB2207",
"::	c #FFA52C",
"<:	c #FF8F29",
"[:	c #FF9231",
"}:	c #FF8726",
"|:	c #FF711C",
"1:	c #FF6318",
"2:	c #FF5012",
"3:	c #FB3414",
"4:	c #E42419",
"5:	c #E0241C",
"6:	c #E6271C",
"7:	c #E4241D",
"8:	c #DD201B",
"9:	c #E0261A",
"0:	c #E2261D",
"a:	c #C10105",
"b:	c #E60202",
"c:	c #FC0A04",
"d:	c #FC0602",
"e:	c #FB0400",
"f:	c #990001",
"g:	c #910001",
"h:	c #FB0700",
"i:	c #FD0900",
"j:	c #FA0800",
"k:	c #F51E02",
"l:	c #FE8F1F",
"m:	c #FF972A",
"n:	c #FF7D22",
"o:	c #FF7218",
"p:	c #FF6813",
"q:	c #FF5415",
"r:	c #FD3414",
"s:	c #F32B16",
"t:	c #DE2119",
"u:	c #D9201A",
"v:	c #D9241A",
"w:	c #DB251B",
"x:	c #D9231B",
"y:	c #E1271C",
"z:	c #950807",
"A:	c #AC0104",
"B:	c #BE0100",
"C:	c #9D0001",
"D:	c #900002",
"E:	c #CF0001",
"F:	c #F10700",
"G:	c #F60A00",
"H:	c #E60100",
"I:	c #FF5C11",
"J:	c #FF7A1D",
"K:	c #FF7E23",
"L:	c #FF822B",
"M:	c #FF5C1B",
"N:	c #FF3B15",
"O:	c #FF3A15",
"P:	c #FA3815",
"Q:	c #EB2B18",
"R:	c #D8221A",
"S:	c #D41F1C",
"T:	c #D3221D",
"U:	c #D4241E",
"V:	c #DA231E",
"W:	c #E0221A",
"X:	c #E02C1E",
"Y:	c #870204",
"Z:	c #8B0100",
"`:	c #820000",
" <	c #800000",
".<	c #810000",
"+<	c #890001",
"@<	c #FF3304",
"#<	c #FD0E00",
"$<	c #FD0A00",
"%<	c #FB0801",
"&<	c #E50700",
"*<	c #FF7317",
"=<	c #FF7919",
"-<	c #FF6A1B",
";<	c #FF5914",
"><	c #FE3513",
",<	c #EB2518",
"'<	c #D72019",
")<	c #D3201C",
"!<	c #D6241C",
"~<	c #DB241B",
"{<	c #DD211B",
"]<	c #DD221A",
"^<	c #880805",
"/<	c #7C0000",
"(<	c #720000",
"_<	c #730000",
":<	c #760000",
"<<	c #780000",
"[<	c #7B0000",
"}<	c #7E0000",
"|<	c #820001",
"1<	c #840000",
"2<	c #7E0001",
"3<	c #820101",
"4<	c #FE3002",
"5<	c #FE2201",
"6<	c #FD0C00",
"7<	c #F90900",
"8<	c #F01200",
"9<	c #FE7217",
"0<	c #FF751C",
"a<	c #FF701B",
"b<	c #FF4613",
"c<	c #FF3514",
"d<	c #FF521C",
"e<	c #FF4A1B",
"f<	c #FC3116",
"g<	c #E92419",
"h<	c #D71E19",
"i<	c #DC1E1C",
"j<	c #D4231B",
"k<	c #D5221C",
"l<	c #DC221D",
"m<	c #E0241E",
"n<	c #E52A1E",
"o<	c #750002",
"p<	c #7A0000",
"q<	c #770000",
"r<	c #700000",
"s<	c #710000",
"t<	c #740001",
"u<	c #7D0000",
"v<	c #830000",
"w<	c #F71100",
"x<	c #FE2E03",
"y<	c #FF2000",
"z<	c #FD0F01",
"A<	c #F22304",
"B<	c #FF7818",
"C<	c #FF7017",
"D<	c #FF6116",
"E<	c #FF5B14",
"F<	c #FF4814",
"G<	c #FC3C17",
"H<	c #FA3315",
"I<	c #FA2E16",
"J<	c #F42A17",
"K<	c #F32617",
"L<	c #F92F15",
"M<	c #FF6021",
"N<	c #F62618",
"O<	c #E7211A",
"P<	c #DC211C",
"Q<	c #DF231B",
"R<	c #E3261D",
"S<	c #E0271E",
"T<	c #E0261B",
"U<	c #D6271B",
"V<	c #840402",
"W<	c #910100",
"X<	c #B90001",
"Y<	c #E40200",
"Z<	c #F91200",
"`<	c #FD1D00",
" [	c #FB1101",
".[	c #F30400",
"+[	c #CD0200",
"@[	c #AF0002",
"#[	c #F11B02",
"$[	c #FE7817",
"%[	c #FF7117",
"&[	c #FF6317",
"*[	c #FD4413",
"=[	c #FC3B14",
"-[	c #F43117",
";[	c #EF2B16",
">[	c #EC2617",
",[	c #EA2417",
"'[	c #EC2517",
")[	c #F43119",
"![	c #EB281A",
"~[	c #E4291E",
"{[	c #E0281D",
"][	c #E2261B",
"^[	c #DF261C",
"/[	c #E0291D",
"([	c #9A100C",
"_[	c #7C0406",
":[	c #A20100",
"<[	c #BC0203",
"[[	c #CF0400",
"}[	c #C60303",
"|[	c #C60202",
"1[	c #C10300",
"2[	c #D10201",
"3[	c #D60001",
"4[	c #D30200",
"5[	c #E00200",
"6[	c #E30200",
"7[	c #EA0200",
"8[	c #F30A00",
"9[	c #F80A01",
"0[	c #FC0800",
"a[	c #EB0001",
"b[	c #B00100",
"c[	c #FD3505",
"d[	c #FF771A",
"e[	c #FF711A",
"f[	c #FF6819",
"g[	c #FF5714",
"h[	c #FF4A16",
"i[	c #FC4314",
"j[	c #FD3415",
"k[	c #F62F19",
"l[	c #EA2C1C",
"m[	c #E12619",
"n[	c #DA2119",
"o[	c #DA211B",
"p[	c #DB231B",
"q[	c #DE241B",
"r[	c #E0281E",
"s[	c #E2271F",
"t[	c #E1261C",
"u[	c #DD2A1B",
"v[	c #E02D1F",
"w[	c #B1140F",
"x[	c #750001",
"y[	c #900200",
"z[	c #AF0201",
"A[	c #BA0202",
"B[	c #EF0400",
"C[	c #FA0B00",
"D[	c #FC0C00",
"E[	c #F30B01",
"F[	c #A20201",
"G[	c #A10100",
"H[	c #FB1D00",
"I[	c #FF7113",
"J[	c #FE7D18",
"K[	c #FF7519",
"L[	c #FF5B19",
"M[	c #FE3814",
"N[	c #F83315",
"O[	c #EF2A16",
"P[	c #DF2419",
"Q[	c #DA231B",
"R[	c #D8211A",
"S[	c #D6201B",
"T[	c #D92019",
"U[	c #E0241B",
"V[	c #DE261E",
"W[	c #E0291C",
"X[	c #E0281C",
"Y[	c #AD0A07",
"Z[	c #9B0504",
"`[	c #760001",
" }	c #8E0002",
".}	c #7F0201",
"+}	c #FB2404",
"@}	c #FF6212",
"#}	c #F8811D",
"$}	c #FF821F",
"%}	c #FF7D1E",
"&}	c #FF791F",
"*}	c #FF741A",
"=}	c #FF701A",
"-}	c #FF6E1E",
";}	c #FF5A18",
">}	c #FF4C16",
",}	c #FC3A15",
"'}	c #F62C17",
")}	c #F22A19",
"!}	c #E62618",
"~}	c #DF2219",
"{}	c #DB221A",
"]}	c #DC221B",
"^}	c #DC2119",
"/}	c #DD2019",
"(}	c #E5261B",
"_}	c #E2291E",
":}	c #D3281B",
"<}	c #D72617",
"[}	c #DC2617",
"}}	c #EC2E15",
"|}	c #FA3B19",
"1}	c #FB3D17",
"2}	c #FD3F16",
"3}	c #FD4F0E",
"4}	c #FC5C15",
"5}	c #FB6B19",
"6}	c #FF7320",
"7}	c #FF6C1D",
"8}	c #FE721B",
"9}	c #FE6C19",
"0}	c #FF6B1C",
"a}	c #FF6C1B",
"b}	c #FF691B",
"c}	c #FE5717",
"d}	c #FF4F16",
"e}	c #FE4813",
"f}	c #FC4016",
"g}	c #ED2B1A",
"h}	c #EA281A",
"i}	c #E5281A",
"j}	c #DF251B",
"k}	c #E1271B",
"l}	c #D92219",
"m}	c #E3231A",
"n}	c #E12C1C",
"o}	c #DD2B1E",
"p}	c #D82719",
"q}	c #DA2216",
"r}	c #DC2216",
"s}	c #E02615",
"t}	c #E62A17",
"u}	c #EF2F17",
"v}	c #F63715",
"w}	c #FA4014",
"x}	c #FD4A15",
"y}	c #FC4615",
"z}	c #FE4B14",
"A}	c #FD4B16",
"B}	c #FE4D16",
"C}	c #FE5015",
"D}	c #FF4F15",
"E}	c #FD4C14",
"F}	c #FF4A14",
"G}	c #FE4418",
"H}	c #FC3B18",
"I}	c #F93516",
"J}	c #F42D18",
"K}	c #EE2917",
"L}	c #EA2819",
"M}	c #ED281B",
"N}	c #E5241B",
"O}	c #E2261A",
"P}	c #DF261A",
"Q}	c #E2251A",
"R}	c #DF271B",
"S}	c #E52919",
"T}	c #DA291B",
"U}	c #DB2818",
"V}	c #DD2718",
"W}	c #DB261A",
"X}	c #F83115",
"Y}	c #FB3516",
"Z}	c #FA3914",
"`}	c #FB3A15",
" |	c #FC3F15",
".|	c #FA3616",
"+|	c #F73217",
"@|	c #EF2C1A",
"#|	c #E8281B",
"$|	c #E5261C",
"%|	c #EC2819",
"&|	c #E02B1C",
"*|	c #E22C1D",
"=|	c #E32C1D",
"-|	c #DF2C1A",
";|	c #E22619",
">|	c #E42819",
",|	c #E92918",
"'|	c #EB2915",
")|	c #EC2818",
"!|	c #ED2B18",
"~|	c #EE2F1A",
"{|	c #F13017",
"]|	c #F12E17",
"^|	c #F12B16",
"/|	c #EC291A",
"(|	c #F12A16",
"_|	c #EB2618",
":|	c #E6271B",
"<|	c #E7291C",
"[|	c #E5261D",
"}|	c #EB2C1D",
"||	c #E52A1D",
"1|	c #E42A1C",
"2|	c #E4231C",
"3|	c #E22319",
"4|	c #E82319",
"5|	c #E5231A",
"6|	c #E9251B",
"7|	c #E8261E",
"8|	c #E62919",
"9|	c #E72C1C",
"0|	c #E22F1D",
"a|	c #E42C1C",
"b|	c #E62E1C",
"c|	c #E42C1B",
"d|	c #E22C1C",
"e|	c #E32C1E",
"f|	c #E72D1D",
"g|	c #E52C1C",
"h|	c #E32C1A",
"i|	c #E8301E",
"                                                                                                                                                                                    ",
"                                                                                                                                                                                    ",
"                                                                                                                                                                                    ",
"                                                                                                                                                                                    ",
"                                                                                                                                                                                    ",
"                                                                                                                                                                                    ",
"                                                                                                                                                                                    ",
"                                                                                                                                . + @                                               ",
"                                                                                                                            # $ % & *                                               ",
"                                                                                                                        = - ; > , ' ) !                                             ",
"                                                                                                                      ~ { ] ^ / ( _ :                                               ",
"                                                                                                                    < [ } | 1 2 3 4                                                 ",
"                                                                                                                  5 6 7 8 9 0 a                                                     ",
"                                                                                                                  b c d e f g                                                       ",
"                                                                                                                h i j k l m                                                         ",
"                                                                                                              n o p q r s t u v         w                                           ",
"                                                                                            x     y z A B C D E F G H I J K L M N   O P                                             ",
"                                                                                Q   R S   T U V W X Y Z `  ...+.@.#.$.%.&.*.=.-.;.>.,.'.).                                          ",
"                                                                                !.~.{.].^./.(._.:.<.[.}.|.1.2.3.4.5.f 6.7.8.9.0.a.b.c.d.e.f.                                        ",
"                                                                              g.h.i.j.k.l.m.n.o.p.q.r.s.t.u.v.w.x.y.z.A.B.C.D.E.F.G.D.H.I.J.                                        ",
"                                                                              K.L.M.N.O.P.Q.R.S.T.U.V.W.X.Y.Z.`. +.+++@+#+$+%+&+*+=+-+;+>+,+                                        ",
"                                                                          '+)+!+~+N.{+]+^+/+(+_+:+<+[+}+|+1+2+3+4+5+6+7+8+9+0+a+b+c+d+e+f+g+h+i+  j+                                ",
"                                                                        k+l+m+n+o+p+q+r+s+t+u+v+w+x+y+z+A+B+C+D+E+F+G+H+I+J+K+L+M+[+N+O+P+Q+R+S+T+U+V+W+X+                          ",
"                                                                      Y+Z+`+ @.@+@@@#@$@%@&@*@=@-@;@>@,@'@)@!@~@{@]@^@/@(@_@:@<@[@}@|@1@2@3@4@5@6@7@8@9@                            ",
"                                                                  0@l+a@b@c@d@e@f@g@h@i@j@k@l@m@n@o@p@q@r@s@t@u@v@w@x@y@z@A@B@C@D@E@F@G@H@I@J@K@L@M@N@O@                            ",
"                                                              P@Q@R@S@T@U@V@T.:+W@X@Y@Z@`@ #.#+#@###$#%#&#*#=#-#;#>#,#'#)#!#~#{#]#^#/#(#_#:#<#[#}#|#1#2#3#                          ",
"                                                              a@4#5#6#7#n.8#<#9#0#a#b#c#d#e#f#g#h#i#j#k#l#m#n#o#p#q#r#s#t#u#v#w#x#y#z#A#B#C#D#E#F#G#H#I#J#                          ",
"                                                            K#L#M#N#O#P#Q#R#s+S#T#U#V#W#X#Y#Z#`# $.$+$@$#$$$%$&$*$=$-$;$>$,$'$)$!$~${$]$^$/$($_$:$<$[$}$|$                          ",
"                                                        1$  2$3$4$5$6$7$8$9$0$a$b$c$d$e$f$g$h$i$j$k$l$m$n$o$p$q$r$s$t$u$v$w$x$y$z$A$B$C$D$E$F$G$H$I$J$K$L$M$                        ",
"                                                            N$O$P$Q$R$S$T$U$V$W$X$Y$Z$`$ %.%+%@%#%$%%%&%*%=%-%;%>%,%'%)%!%~%{%]%^%/%(%_%:%<%[%}%|%1%2%3%J$4%                        ",
"                                                    5%6%7%8%9%0%a%b%c%d%}@e%f%g%h%i%j%k%l%m%n%o%p%q%r%s%t%u%v%w%k%x%y%z%A%B%C%D%E%F%G%H%I%J%K%L%M%N%O%P%Q%R%                        ",
"                                            S%T%    U%V%W%X%Y%Z%`%N. &.&+&@&#&$&%&&&*&l%*&=&-&;&>&,&'&)&!&~&{&]&k%h%^&/&z%(&_&:&<&[&}&|&1&2&3&4&5&6&7&8&9&;.                        ",
"                                            0&a&b&c&  d&e&f&g&h&i&T.j&k&l&m&n&o&%%h%p&q&r&w%s&t&u&v&w&x&y&z&A&B&C&D&E&F&G&H&I&J&K&L&M&N&O&P&Q&R&S&T&U&V&W&X&Y&    Z&                ",
"                                            `&|# *.*+*@*#*$*%*&***=*-*;*#&>*,*Z#'*)*,%y%r&!*~*{*]*^*/*(*_*:*.%<*[*}*|*1*2*3*4*5*6*7*8*9*0*a*b*c*X.d*e*f*g*h*i*j*k*                  ",
"                                              l*  m*n*o*p*q*r*s*t*u*v+v*w*x*m%y*z*)*A*>%D&B*C*D*E*F*G*v&H*I*J*K*L*M*N*O*P*Q*R*S*T*U*V*W*X*Y*Z*`* =.=+=@=#=$=%=&=*===                ",
"                                            -=;=>=,='=)=!=~={=]=^=/=(=_=:=<=[=}=|=r$p&y%@$1=2=3=4=5=6=7=8=9=0=a=b=c=d=e=f=g=h=i=j=k=l=m=n=o=p=q=u+r=s=t=u=v=w=x=y=                  ",
"                                            z=A=B=C=D=E=F=G=H=I=J=K=L=M=N=O=P=w%|=r$r$r&Q=l$R=S=T=U=V=u%W=X=Y=Z=`= -.-+-@-(&#-$-%-&-*-=---;->-,-'-)-!-~-{-]-^-/-(-                  ",
"                                            _-P@  :-<-[-}-|-1-2-3-v+4-5-6-7-8-y%9-r$p&l%Y$0-a-b-c-d-e-f-g-h-i-j-k-l-m-n-o-p-q-r-s-t-u-v-w-x-y-z-A-B-C-D-E-F-G-H-I-                  ",
"                                              J-  K-L-M-N-O-P-Q-r+R-S-T-U-V-W-p&X-)*9-l% %Y-Z-`- ;.;+;@;#;$;D&%;&;*;=;G&_&q--;;;>;,;';);!;~;{;];^;/;(;_;:;<;[;};|;1;                ",
"                                                2;3;4;5;6;7;1-8;9;0$V$0;a;b;c;r$d;|=,%e;y*f;g;h;i;j;k;l;m;n;>%o;p;q;r;s;(&t;u;v;w;x;y;z;A;B;C;D;E;C#F;G;1%H;I;J;K;L;                ",
"                                                  M;N;O;P;!=Q;R;S;T;S-U;V;W;X;)*2*Y;Z;e;`;6; >.>+>@>#>$>%>m%r&|=&>*>=>->t$;>>>,>'>x;)>!>~>{>]>^>/>(>_>i.:><>[>}>|>4%                ",
"                                  1>              2>3>4>5>6>7>8>R.9>0>a>b>c>d>Y;e>f>r$h%g>h>i>j>k>l>m>n>o>p>q>r>1*s>t>u>v>w>x>y>z>x;A>B>C>D>E>F>G>T$p+H>1.1#I>J>K>L>y=              ",
"                                                M>N>O>P>Q>R>R;S>T>'-U>U;z*V>W>X>s$2*9-h%Y>Z>`> ,.,+,@,[-Y##,|=)*Z;P*$,u;%,&,*,=,z>-,;,>,,,',),!,~,{,j$],^,/,!-(,_,:,                ",
"                                                <,[,},|,1,2,3,4,5,6,7,8,9,0,a,e>@-P*p&m%b,c,d,h>e,f,g,h,i,p&|=X-X-A%g=v>j,k,l,m,x;x;n,o,p,v>H&q,r,L+8$-+s,q.t,u,v,w,                ",
"                                                  x,y,z,A,B,o.C,D,E,F,G,H,I,J,G&@-X>A*w%K,L,M,&&N,O,P,Q,r&|='%|=X>$,R,S,T,U,&-V,-,,;W,X,Y,K&Z,!,`, '.'+'@']+f@#'$'                  ",
"                                                  %'&'*'='H=-';'>',''')'!'~'{']'^'Y;D&/'('_':'<'['%%/'h%y%r$1*Y;s$}'t$%,|'1'2'-,3'4'5'6'7'8'9'0'a',-b'c'd'e'f'g'8%                  ",
"                                                h'2;O>i'j'R;k'l'T$m'n'o'p'q'G&r'2*|=*&s't'u'v'w'x'%%y'[*p&z'A'B'o-C't;D'E'F'G'x;H'F%I'J'D'K'L'M'N'O'P'Q'R'S'T'U'V'                  ",
"                                            W'X'Y'Z'`' ).)+)8;@)J%f%#)$)%)&)*)=)'%-);)`$>),)')))!)n%w%e;)*f>~){)->])^)[&l,/),;()_):)<)[)})|)x*1)2),-3)4)>'.'5)6)7)                  ",
"                                            8)9)0)a)b)c)d)e)f)g)h)i)j)k)l)m)]']'Z;l%s'n)o)p)q)r)s)s't)y%X>s$u)v)C'w)x)y)z),;A)B)C)D);;E){)F)G)H)I)J)Z*d%K)L)M#M)N)                  ",
"                                            O)P)Q)R)b)S)T)U)V)W)X)i)Y)*&Z)f>`)z%r&B&l$;& !.!+!@!#!J*$!|=s$r'H&B%R,;>U,&-F'-,%!&!1'*!t;y-s;=!-!;!>!,!s+'!)!L@!!~!{!                  ",
"                                            ]!^!/!(!_!:!<!.=[!}!|!c#1!W;2!P*A%3!l%B*e$4!5!6!;)/'7!t)Z;f>A%8!->{;9!|'0!a!/)3'()b!j,t$t;c!d!e!f!g!H)h!i!j!k!l!m!n!|;o!                ",
"                                          p!q!r!s!t!u!T)b%v!C#w!x!y!z!A!p&*)]')*Y#B!C!D!E!F!G!/'t)[*z'P*o-g=q-v>D'H!y)t-z>I!I!A)w)R,R,o-J!K!L!M!N!O!P!Q!R!S!T!U!V!W!X!              ",
"                                          Y!Z!`! ~.~+~@~W.#~*+$~%~&~*~=~z'f=z%r&-~;~>~,~'~)~!~~~*&{~P*r'H&u>;>T,0!y)F']~^~b!I!x;B%])/~(~_~x*L!a':~;'<~[~}~|~1~2~3~4~5~              ",
"                                          6~7~8~9~0~a~b~c~8$d~e~T-f~k%g~)*h~,%~~i~j~k~l~m~n~d$B&l%r$o~p~u>;>x)q~a!t-r~-,!%&!3'1'g=g=o~s~G>t~u~v~q+w~x~y~z~A~B~C~D~E~                ",
"                                        F~G~H~I~J~K~L~M~N~O~P~Q~R~S~T~A*r&9-[*U~V~W~X~Y~Z~`~ {Y#p&r>8!C'.{9![&l,/)z>^%^%A)b!-,j,o-p~+{@{#{${%{&{*{={-{;{>{]-,{'{){                  ",
"                                        !{~{{{]{F=^{/{r+({_{:{<{[{}{|{)*z*r&~~1{2{3{4{5{6{~~w%[*r$@-C'w)j,|'7{8{]~,;^%H'b!&!8{(&9{u)0{a{b{c{d{8$e{f{g{h{i{j{k{l{m{                  ",
"                                    n{o{p{q{r{s{t{~*D,u{v{w{x{y{z{A{K*r$_~t)B{C{D{E{F{G{H{J*k%p&z%o~R,^)|'7{8{C)z>-,^%I!^%z>7*r'p~2*I{J{K{L{Z*Q.K M{N{{=5&O{P{Q{l!                  ",
"                                    R{S{T{U{V{V{W{X{Y{Z{`{ ].]+]@]#]$][*Y#%]&]*]=]-];]`$%]h%e;|=@-H&.{>]U,H!C),]x;^%&!()_)&-C'@-o-'])]&~!]~]W@{]]]^]/](]_]:]<][]}]                  ",
"                                    |]1]2]%*3]4]5]#%6]G>7]8]9]0]r&a]r&k%=&b]c]d]e]f]s'J*J*g],%z%o~),9!>]h]i]r~-,-,&!&!-,/);>=)B'A*e;j]k]l]m]n]o]p]q]r]s]t]u]<]v]                    ",
"                                    w]x]y]z]A]o.B]C]E;D]${E]F]G]$!H]Y$J*K,I]J]K]L]M]k%i,D&'%e>r'H&t;N]O]U*P]A)H'A)b!b!]~D''%2*@-^&Q]7,R];*r+S]T]U]V]S!W]8&X]Y]                      ",
"                                    Z]`] ^2,.^+^@^#^X)$^n&''%^&^0{r&*^=^-^;^>^,^'^B&e;p&q>P*A%u)g=)^w;!^~^A)(){^I!H'-,&-r>X>Z;r>p&]^^^/^(^_^:^7>R)<^[^<]}^|^                        ",
"                                  1^2^3^4^I=5^J=6^7^8^9^0^a^b^c^{~m%d^e^f^g^h^i^~~[*y%)*f>j^s;p~t$7{k^l^-,&!m^n^^%x;F'u)D&,%Z;^&o^''V$/^p^q^r^s^t^u^v^w^x^y^                        ",
"                              J-z^.=A^a%A^B^:#/=C^R-!,D^E^>%7!D&Q=;)F^G^H^I^J^K^Y#^&)*z%@-8!$,B%9!y)L^,;&!I!{^M^r~z)j,N^O^k%p&z%P^Q^+&R^$@S^T^}>U^V^w=8&W^X^                        ",
"                              Y^Z^`^ /./+/f'@/#/$/%/&/*/B&Y#k%B*;)i$=/-/;/>/,/w%i,A*f>]'t>'/t$x))/z)^%b!n^M^()A)z)x),%[=!/C&p&#^~/%/{/]/^/c%//(/_/:/</|^[/                          ",
"                                }/|/1/5]2/3/4/5/6/!,7/8/.%m%.%d^9/0/a/b/c/d/e/i,9-Y;A%p~C%^)L&a!]~A)f/n^f/f/g/t-7*^&h/C&*^i/f>j/k/l/m/n/o/p/q/1^|>r/</s/t/                          ",
"                              u/v/(,w/5,x/y/z/A/B/C/;)@$.%s's'D/E/F/G/B{Y$k%{~9-z%s;),.{T,H!H/C)-,I!I/I!A)r~/)T,$!j%&&J/K/H,L/M/N/O/M+O!P/Q/R/S/T/n!U/V/W/                          ",
"                            X/  Y/Z/Q$`/ (.(+(@(h,~~m%/'s'n%#($(%(&(/'[*>%h~2*P*o-),y-T,N]z)/)-,&!{^*(A)r~F'.{=(-(;(~~>(,('()(!(~({(](^(/(.^((_(n*:(<([(                            ",
"                        }(    |(1(Y-P$(+2(3(4(/'!*Y$d^5(6(7(8(9(0(a([*p&f>s$u)o-->t$T,N]8{,;x;b!f/I/A)]~F'D'b(c(d(o>s&e(f(g(h(i(j(k(6^l(m(P#n(o(W^p(q(                              ",
"                          r(    s(t(S$u(J/%]/'s's's'v(w(x(y(z(A(#!Y#^&X-s$B(H&B%t;C()/t-z>A)3'b!b!^%D(&-7{^'E(F(-&-(g~G(H(I(J(K(L(M(-*N(O(P(L@Q(R(S(                                ",
"                                T(M~U(V(s'W(!*-&X(Y(Z(7=`( _._y'+_@_z's$u)v)])t;>]H!F'D(x;b!H'H'^%D(8{#_$,t)$_9/%_&_e;*_=_-_t~b*;_>_,_'_@))_!_~_{_                                  ",
"                                ]_^_/_s's'5((___:_4{<_[_1=B**&}_|=G&A%t>B%t;D')^N]&-D(A)^%H'x;r~/)r~H!|_l%d(1_2_t)h%3_4_5_6_D@~,.(7_8_9_0_a_b_c_d_e_                                ",
"                              f_g_B{h_i_j_s'k_a/l_m_%]k%y%r$G&]'s;}'8!C';>L&)/N]8{D(A)b!H'A)_)C)a!)/t>Y#n_o_p_&^D&q_r_s_t_u_v_w_x_y_z_A_5,B_C_D_E_F_                                ",
"                          G_H_I_J_K_L_M_N_O_P_/'Q_x%f>]'t>R_),'/u>t;y-j,)/P]r~/)-,3'^%A)A)^%D(l,D'A*B!S_T_y%*)U_V_W_X_Y_Z_`_ :.:+:@:3@#:$:A^%:&:*:}^                                ",
"                        =:-:;:>:,:':):!:~:{:A*X>s$8!])t;^)D'>]9!7*1']:C)D(_)^%x;I!n^^:3'x;z))/u>[=/:h/a]t>(:_:::<:[:}:|:1:2:P/3:t]4:R!5:6:7:8:9:0:                                  ",
"                        a:b:J*[=%&c:d:e:e;]'p~u>^)D'1'&-a!a!a!f:D(_)g:H'!%I!f/&!b!f/A)/))/#-Z;h:i:j:o-C%>]k:l:m:n:o:p:q:S$T'r:s:t:u:v:w:x:5:k{y:                                    ",
"                        z:A:;>B:t>s$r'g=t$j,H!C:D(D:-,^%x;H'I!&!b!f/&!f/I/^:n^3'-,F'U,y-E:F:G:h/H:v>D'j,I:J:K:L:&@M:g)C#N:O:P:Q:R:S:T:U:V:x~W:X:                                    ",
"                          Y:Z:`:I/A)x;,;,;A)3'&!f/n^n^{^n^ <.< <.< <I/{^n^+<H'_))/)^r'@<#<$<%<=)>])^&<*<=<X)-<;< =5,f)Q-><2/n+,<R:'<)<!<~<{<]<                                      ",
"                          ^<A)n^/<(<_<:<<<[<}<}<.<.<|< <1<}</< <2<3<n^I!,]z))^<&|=4<5<6<7<G&t;N]H!8<9<0<a<z/Y{b< &c<A^=*d<e<f<g<h<i<j<k<l<m<n<                                      ",
"                              o<`:p<q<r<s<(<_<t<<<p<u< < <.<v<3'z>z)&-U,<&s;w<x<y<z<G&y-T,7{%,A<B<C<D<E<Y{F<G<H<I<J<K<L<M<e<N<O<P<Q<R<S<T<U<                                        ",
"                                V<^%W<I/v<:<q</<`:I!I!H'x;z)U,X<^'Y<Z<`<%> [h$.[+[y-T,T,@[#[$[%[;_&[Y{#@*[=[-[;[>[,[4:'[)[![~[{[C~][^[/[                                            ",
"                                  ([_[:[<[[[}[|[1[t$2[3[4[5[6[7[8[9[0[e:l%a[3!v>7*7*b[c[d[e[l/f[7^g[h[i[j[k[l[m[n[o[o[p[q[r[s[t[u[v[                                                ",
"                                      w[x[y[z[A[])3!s$+{A*B[`#C[D[E[Z;t>%,F[G[F%H[I[J[K[e[$/3)3)L[*+M[N[O[{-P[Q[R[S[z~T[U[V[W[X[                                                    ",
"                                            Y[Z[I/`[.<n^z)l,y) }u<.}/)),+}@}#}$}%}&}*}=}-}E,Y@;}>},}'})}!}~}{}]}^}u:/},{(}_}                                                        ",
"                                              :}<}[}}}|}-+1}2}3}4}5}6}7}8}9}0}=@a}b}A#{,c}d}e}f};+e{g}h}i}I$j}k}l}m}d_n}o}                                                          ",
"                                                  p}q}r}s}t}u}v}w}x}y}z}A}B}C}>'D}E}l(F}G}H}I}J}K}L}M}N}O}P}Q}R<R}S}                                                                ",
"                                                      T}U}V}W}=._$C-X}Y}Z}`} |L%L%t,+:s,.|+|@|#|$|%|N}&|*|=|                                                                        ",
"                                                            -|;|>|,|'|)|!|~|{|]|_;^|1./|(|_|:|<|[|N)}|                                                                              ",
"                                                                ||1|n!{_2|3|l!}^|;4|l!5|6|7|<|8|9|                                                                                  ",
"                                                                  0|a|b|c|d|e|a|f|g|h|i|                                                                                            ",
"                                                                                                                                                                                    ",
"                                                                                                                                                                                    ",
"                                                                                                                                                                                    ",
"                                                                                                                                                                                    ",
"                                                                                                                                                                                    ",
"                                                                                                                                                                                    ",
"                                                                                                                                                                                    ",
"                                                                                                                                                                                    ",
"                                                                                                                                                                                    ",
"                                                                                                                                                                                    ",
"                                                                                                                                                                                    "};
