/* XPM */
static char * chili_0_xpm[] = {
"90 100 2564 2",
"  	c None",
". 	c #9D8F20",
"+ 	c #C2C20A",
"@ 	c #D3CC23",
"# 	c #DDD725",
"$ 	c #CDCE33",
"% 	c #77700E",
"& 	c #C4A817",
"* 	c #D2C630",
"= 	c #848311",
"- 	c #9F9A10",
"; 	c #CCC52B",
"> 	c #8D9A32",
", 	c #533803",
"' 	c #70640A",
") 	c #575903",
"! 	c #5E6104",
"~ 	c #6F710C",
"{ 	c #82790B",
"] 	c #AEA220",
"^ 	c #A4A238",
"/ 	c #141C00",
"( 	c #333600",
"_ 	c #424402",
": 	c #716F0C",
"< 	c #4C4C01",
"[ 	c #5E6102",
"} 	c #B9B63A",
"| 	c #2A2403",
"1 	c #313000",
"2 	c #3E4000",
"3 	c #626207",
"4 	c #474500",
"5 	c #6F6708",
"6 	c #8A8B35",
"7 	c #2D3303",
"8 	c #302F00",
"9 	c #3D3E00",
"0 	c #595805",
"a 	c #645D06",
"b 	c #7C7914",
"c 	c #925B27",
"d 	c #EB351A",
"e 	c #F4361B",
"f 	c #F3311A",
"g 	c #F0321B",
"h 	c #E4311D",
"i 	c #292700",
"j 	c #393602",
"k 	c #4E4D03",
"l 	c #606008",
"m 	c #5C5F0B",
"n 	c #928836",
"o 	c #EA2F1B",
"p 	c #EF311D",
"q 	c #EF2F1A",
"r 	c #F22814",
"s 	c #FA2E15",
"t 	c #EF2C16",
"u 	c #EA2D1D",
"v 	c #E2301C",
"w 	c #874812",
"x 	c #282500",
"y 	c #494703",
"z 	c #575707",
"A 	c #5A590C",
"B 	c #716F19",
"C 	c #71751D",
"D 	c #E63B20",
"E 	c #EA381E",
"F 	c #EA311C",
"G 	c #EB3219",
"H 	c #ED341A",
"I 	c #E82C1A",
"J 	c #EE2E19",
"K 	c #EE2D1A",
"L 	c #F92B17",
"M 	c #FF3513",
"N 	c #F62813",
"O 	c #EF2A1C",
"P 	c #ED2F1D",
"Q 	c #E22B18",
"R 	c #E92C1B",
"S 	c #E42D1A",
"T 	c #E22F18",
"U 	c #F13A1B",
"V 	c #031D00",
"W 	c #2A3000",
"X 	c #575302",
"Y 	c #BBC05A",
"Z 	c #555206",
"` 	c #6A6513",
" .	c #6F691B",
"..	c #963714",
"+.	c #E83017",
"@.	c #EF311B",
"#.	c #F53016",
"$.	c #F73017",
"%.	c #F62E17",
"&.	c #ED2417",
"*.	c #F02A18",
"=.	c #F12D18",
"-.	c #FB2F13",
";.	c #FF3D15",
">.	c #F42917",
",.	c #F22816",
"'.	c #EE2B18",
").	c #EF2A1B",
"!.	c #E72A17",
"~.	c #E72A19",
"{.	c #E62F18",
"].	c #E92F1B",
"^.	c #E42E1B",
"/.	c #E72818",
"(.	c #E72A18",
"_.	c #E02819",
":.	c #E62C19",
"<.	c #E32D17",
"[.	c #EF3218",
"}.	c #151E02",
"|.	c #282C00",
"1.	c #464000",
"2.	c #A8AC3F",
"3.	c #5F660D",
"4.	c #545208",
"5.	c #514E07",
"6.	c #5A5715",
"7.	c #F4491B",
"8.	c #F64019",
"9.	c #FD3817",
"0.	c #FD3B14",
"a.	c #FF4014",
"b.	c #FC3213",
"c.	c #FE3C16",
"d.	c #FF3B16",
"e.	c #FE3412",
"f.	c #FE3814",
"g.	c #FC2F16",
"h.	c #F82D14",
"i.	c #F72E19",
"j.	c #F42B18",
"k.	c #F02816",
"l.	c #EE2C1A",
"m.	c #E9311C",
"n.	c #E82D18",
"o.	c #EA2B18",
"p.	c #EF2B18",
"q.	c #E82D1A",
"r.	c #E82F1A",
"s.	c #E42B19",
"t.	c #E52614",
"u.	c #DF2614",
"v.	c #E62716",
"w.	c #E72917",
"x.	c #E72916",
"y.	c #F73216",
"z.	c #2C2201",
"A.	c #413B02",
"B.	c #666408",
"C.	c #707419",
"D.	c #4E4C07",
"E.	c #4A4707",
"F.	c #434A0E",
"G.	c #F95617",
"H.	c #FC4813",
"I.	c #FF4912",
"J.	c #FF4F15",
"K.	c #FE4214",
"L.	c #FF4B18",
"M.	c #FF4D17",
"N.	c #FF3913",
"O.	c #FE3514",
"P.	c #FC3214",
"Q.	c #FD3315",
"R.	c #F82E14",
"S.	c #F02914",
"T.	c #F22915",
"U.	c #ED2816",
"V.	c #ED2F1A",
"W.	c #E6301E",
"X.	c #E32E1B",
"Y.	c #EA2515",
"Z.	c #EB2413",
"`.	c #E52417",
" +	c #EE2816",
".+	c #E92416",
"++	c #E82515",
"@+	c #F02C14",
"#+	c #F32F14",
"$+	c #F52E13",
"%+	c #FF4314",
"&+	c #0D1E02",
"*+	c #2F2900",
"=+	c #484600",
"-+	c #5B6105",
";+	c #B1B353",
">+	c #777919",
",+	c #393900",
"'+	c #4B4804",
")+	c #594C08",
"!+	c #614E08",
"~+	c #FC621A",
"{+	c #FF5A17",
"]+	c #FF5616",
"^+	c #FF5816",
"/+	c #FF5415",
"(+	c #FF4514",
"_+	c #FF3C15",
":+	c #FF3713",
"<+	c #FD3816",
"[+	c #F93217",
"}+	c #F32C16",
"|+	c #F32914",
"1+	c #F02A17",
"2+	c #F02B18",
"3+	c #ED2C1D",
"4+	c #E92B1C",
"5+	c #E8291A",
"6+	c #E62D1A",
"7+	c #E92E1C",
"8+	c #EA2A16",
"9+	c #EC2818",
"0+	c #EA2616",
"a+	c #E92815",
"b+	c #EB2A15",
"c+	c #F33216",
"d+	c #F73114",
"e+	c #FC3714",
"f+	c #F73813",
"g+	c #FB3A15",
"h+	c #FC3912",
"i+	c #864908",
"j+	c #282600",
"k+	c #2F2D00",
"l+	c #4C4B01",
"m+	c #828217",
"n+	c #CECE67",
"o+	c #777A1A",
"p+	c #555709",
"q+	c #4C4D06",
"r+	c #443F03",
"s+	c #433C04",
"t+	c #342E03",
"u+	c #E5741C",
"v+	c #FD6B18",
"w+	c #FF691A",
"x+	c #FF6719",
"y+	c #FF6419",
"z+	c #FF5516",
"A+	c #FF5015",
"B+	c #FF4612",
"C+	c #FF4415",
"D+	c #FF3D16",
"E+	c #FC3E15",
"F+	c #F93815",
"G+	c #F83216",
"H+	c #F73016",
"I+	c #F42E18",
"J+	c #EE301E",
"K+	c #F02A1B",
"L+	c #E52318",
"M+	c #E22217",
"N+	c #EA2F1E",
"O+	c #E42D1D",
"P+	c #E92C1A",
"Q+	c #E72514",
"R+	c #EB2816",
"S+	c #F92F18",
"T+	c #F22A17",
"U+	c #F52D15",
"V+	c #F42E14",
"W+	c #F73414",
"X+	c #FC3411",
"Y+	c #FF3E11",
"Z+	c #FD4213",
"`+	c #FA4112",
" @	c #FF471B",
".@	c #2F3300",
"+@	c #373100",
"@@	c #363400",
"#@	c #4B4A00",
"$@	c #888B23",
"%@	c #B8B954",
"&@	c #8B9031",
"*@	c #59590D",
"=@	c #424103",
"-@	c #423F01",
";@	c #443D04",
">@	c #4F4A03",
",@	c #534703",
"'@	c #303001",
")@	c #C96F18",
"!@	c #FE9027",
"~@	c #FE7318",
"{@	c #FF6F18",
"]@	c #FF6513",
"^@	c #FF5E13",
"/@	c #FF5013",
"(@	c #FF4814",
"_@	c #FF4A14",
":@	c #FE4515",
"<@	c #FD3A16",
"[@	c #FB3914",
"}@	c #F02916",
"|@	c #E4221A",
"1@	c #E92418",
"2@	c #EC2019",
"3@	c #F5271A",
"4@	c #F12418",
"5@	c #ED2A1E",
"6@	c #EC2E1B",
"7@	c #EF2717",
"8@	c #F12713",
"9@	c #F12A14",
"0@	c #EE2918",
"a@	c #F62B17",
"b@	c #FE3318",
"c@	c #FA3314",
"d@	c #FA3613",
"e@	c #FE3E14",
"f@	c #FF4413",
"g@	c #FD4815",
"h@	c #FF511A",
"i@	c #122D00",
"j@	c #4D4602",
"k@	c #302C00",
"l@	c #363300",
"m@	c #5C5C06",
"n@	c #676D11",
"o@	c #8B8E31",
"p@	c #818422",
"q@	c #838029",
"r@	c #4A4907",
"s@	c #4F4E02",
"t@	c #494302",
"u@	c #463F00",
"v@	c #514B04",
"w@	c #5F5209",
"x@	c #68530C",
"y@	c #554A09",
"z@	c #432E00",
"A@	c #FF8F27",
"B@	c #FF7017",
"C@	c #FF5B13",
"D@	c #FF5515",
"E@	c #FF5315",
"F@	c #FF4F17",
"G@	c #FF4616",
"H@	c #FE3D16",
"I@	c #E72618",
"J@	c #E92517",
"K@	c #F72816",
"L@	c #FF7024",
"M@	c #FF601B",
"N@	c #FB5D1B",
"O@	c #EF2616",
"P@	c #EB2B1A",
"Q@	c #EF2A16",
"R@	c #F52815",
"S@	c #F62A15",
"T@	c #FD3216",
"U@	c #FC3218",
"V@	c #FE3614",
"W@	c #FF3B14",
"X@	c #FF4517",
"Y@	c #FE4611",
"Z@	c #FF4611",
"`@	c #FF5218",
" #	c #112500",
".#	c #6D500B",
"+#	c #322E00",
"@#	c #3B3600",
"##	c #474400",
"$#	c #4C4902",
"%#	c #4A4B03",
"&#	c #9B9E3A",
"*#	c #A8AC41",
"=#	c #B1B44C",
"-#	c #646714",
";#	c #5E6208",
">#	c #525203",
",#	c #484201",
"'#	c #504A02",
")#	c #443E02",
"!#	c #413400",
"~#	c #796C14",
"{#	c #856A1B",
"]#	c #562408",
"^#	c #FF8926",
"/#	c #FF6F19",
"(#	c #FF6B19",
"_#	c #FF6217",
":#	c #FF5F18",
"<#	c #FF5716",
"[#	c #FF4315",
"}#	c #ED2719",
"|#	c #FB2A15",
"1#	c #FF7B2E",
"2#	c #FF702E",
"3#	c #FD9C31",
"4#	c #F42A15",
"5#	c #ED341B",
"6#	c #E72E1C",
"7#	c #F12B18",
"8#	c #F22A1B",
"9#	c #E42219",
"0#	c #F52B17",
"a#	c #FA2F15",
"b#	c #FC3116",
"c#	c #FD3814",
"d#	c #FF4414",
"e#	c #FF5014",
"f#	c #FF4E15",
"g#	c #312B00",
"h#	c #625405",
"i#	c #544F03",
"j#	c #343200",
"k#	c #3C3D01",
"l#	c #767110",
"m#	c #9B9B31",
"n#	c #A3A843",
"o#	c #9FA439",
"p#	c #B9B94D",
"q#	c #ADAF41",
"r#	c #B2B345",
"s#	c #686E11",
"t#	c #4C4B02",
"u#	c #5A5E07",
"v#	c #6D690F",
"w#	c #585608",
"x#	c #494506",
"y#	c #424203",
"z#	c #A58B2F",
"A#	c #3A1B0B",
"B#	c #FFAD28",
"C#	c #FF771C",
"D#	c #FF731A",
"E#	c #FF681A",
"F#	c #FF6019",
"G#	c #FF5517",
"H#	c #FF4E16",
"I#	c #FA3917",
"J#	c #F52C18",
"K#	c #EF2416",
"L#	c #F22817",
"M#	c #F72818",
"N#	c #F62D16",
"O#	c #F02E1D",
"P#	c #E8311C",
"Q#	c #EC2E1D",
"R#	c #EA2817",
"S#	c #F02817",
"T#	c #F4291A",
"U#	c #F42E17",
"V#	c #F83118",
"W#	c #FF3114",
"X#	c #FF3616",
"Y#	c #FF4115",
"Z#	c #FF5E16",
"`#	c #FF6115",
" $	c #FF5813",
".$	c #393001",
"+$	c #5F4E02",
"@$	c #665C08",
"#$	c #473E02",
"$$	c #414001",
"%$	c #474202",
"&$	c #70720E",
"*$	c #A3A637",
"=$	c #A6A339",
"-$	c #65660A",
";$	c #9F9F2A",
">$	c #7B7B0D",
",$	c #4B5302",
"'$	c #403701",
")$	c #421400",
"!$	c #400A00",
"~$	c #7F0100",
"{$	c #7E0000",
"]$	c #820001",
"^$	c #B40005",
"/$	c #E50011",
"($	c #F88F80",
"_$	c #F35549",
":$	c #FE5A1A",
"<$	c #FF7A1E",
"[$	c #FF6C1A",
"}$	c #FF6819",
"|$	c #FF5C18",
"1$	c #FF4816",
"2$	c #F73318",
"3$	c #EB2A17",
"4$	c #E72419",
"5$	c #EA251A",
"6$	c #E8271E",
"7$	c #EE2D1E",
"8$	c #EA281A",
"9$	c #E9271A",
"0$	c #F02B1A",
"a$	c #F72F16",
"b$	c #F82E16",
"c$	c #F72D15",
"d$	c #FF4012",
"e$	c #FF5D15",
"f$	c #FF6418",
"g$	c #FD6919",
"h$	c #663B00",
"i$	c #523900",
"j$	c #AF950B",
"k$	c #3C3800",
"l$	c #2E2500",
"m$	c #3A2700",
"n$	c #361C00",
"o$	c #3E2000",
"p$	c #515400",
"q$	c #85921A",
"r$	c #71760B",
"s$	c #7D8217",
"t$	c #656A07",
"u$	c #3C4300",
"v$	c #3F0700",
"w$	c #800100",
"x$	c #8B0000",
"y$	c #BE0000",
"z$	c #C10000",
"A$	c #C90000",
"B$	c #D00000",
"C$	c #CC0000",
"D$	c #E9080D",
"E$	c #F87376",
"F$	c #F3807E",
"G$	c #E3213F",
"H$	c #FF9E2B",
"I$	c #FF751D",
"J$	c #FF6E1D",
"K$	c #FF611A",
"L$	c #FF5316",
"M$	c #FE4414",
"N$	c #FB3516",
"O$	c #EF2B1B",
"P$	c #E42417",
"Q$	c #E7281B",
"R$	c #E72A1C",
"S$	c #E9301D",
"T$	c #EC2A1A",
"U$	c #EC2919",
"V$	c #EF2D1B",
"W$	c #FB2F17",
"X$	c #FF3215",
"Y$	c #FE3715",
"Z$	c #FF3F12",
"`$	c #FF5D18",
" %	c #FE6717",
".%	c #FC6817",
"+%	c #490F00",
"@%	c #C50700",
"#%	c #5B1400",
"$%	c #511200",
"%%	c #5D0800",
"&%	c #6E0000",
"*%	c #910200",
"=%	c #9C0300",
"-%	c #790300",
";%	c #410D00",
">%	c #493A02",
",%	c #554303",
"'%	c #570A00",
")%	c #A80900",
"!%	c #E30300",
"~%	c #E20300",
"{%	c #E10000",
"]%	c #D60000",
"^%	c #D50000",
"/%	c #D40000",
"(%	c #DD0000",
"_%	c #D70000",
":%	c #DC0005",
"<%	c #F43746",
"[%	c #F77D7F",
"}%	c #F76E77",
"|%	c #D80301",
"1%	c #FF7C1F",
"2%	c #FF731D",
"3%	c #FF631A",
"4%	c #FF5916",
"5%	c #FE4A15",
"6%	c #FE3D15",
"7%	c #F62F17",
"8%	c #EE2917",
"9%	c #E32319",
"0%	c #E7271C",
"a%	c #E8281C",
"b%	c #E62A1B",
"c%	c #EE2C19",
"d%	c #F32E1C",
"e%	c #ED2D1B",
"f%	c #F12916",
"g%	c #FF3E14",
"h%	c #FF4D15",
"i%	c #FF6018",
"j%	c #FF6C19",
"k%	c #FF7A1F",
"l%	c #2B0400",
"m%	c #F70900",
"n%	c #CF0000",
"o%	c #A00000",
"p%	c #9C0000",
"q%	c #AA0000",
"r%	c #C60000",
"s%	c #DF0001",
"t%	c #E60001",
"u%	c #D60002",
"v%	c #BC0300",
"w%	c #F20200",
"x%	c #FF0100",
"y%	c #FC0B00",
"z%	c #FB0500",
"A%	c #E70000",
"B%	c #E30000",
"C%	c #DB0000",
"D%	c #DD0001",
"E%	c #DF0000",
"F%	c #DC0000",
"G%	c #DE0712",
"H%	c #F1535E",
"I%	c #F26972",
"J%	c #F55C67",
"K%	c #FF882E",
"L%	c #FF731B",
"M%	c #FF5A14",
"N%	c #FF5214",
"O%	c #FF4016",
"P%	c #FB3718",
"Q%	c #F42918",
"R%	c #EB231C",
"S%	c #EC2A19",
"T%	c #E92619",
"U%	c #EC2A1C",
"V%	c #EA2C1D",
"W%	c #E4291A",
"X%	c #E62617",
"Y%	c #E62519",
"Z%	c #F22D19",
"`%	c #F62917",
" &	c #FF3217",
".&	c #FF4712",
"+&	c #FF5614",
"@&	c #FF6E1A",
"#&	c #FE8B22",
"$&	c #F2550F",
"%&	c #FF1600",
"&&	c #FD1001",
"*&	c #C70000",
"=&	c #D30000",
"-&	c #E40000",
";&	c #E00000",
">&	c #F20000",
",&	c #F70100",
"'&	c #FE0800",
")&	c #FF2007",
"!&	c #FF3822",
"~&	c #FE1302",
"{&	c #FE2C0F",
"]&	c #FF4D27",
"^&	c #FF3D1A",
"/&	c #F90000",
"(&	c #E50000",
"_&	c #E20000",
":&	c #DB0001",
"<&	c #D80000",
"[&	c #D10000",
"}&	c #CC0001",
"|&	c #E21630",
"1&	c #EC5D67",
"2&	c #F16A71",
"3&	c #C70009",
"4&	c #FF972A",
"5&	c #FF761D",
"6&	c #FF631C",
"7&	c #FF5519",
"8&	c #FF4017",
"9&	c #FC3615",
"0&	c #F62C15",
"a&	c #F12818",
"b&	c #EF2819",
"c&	c #EA2619",
"d&	c #E9281B",
"e&	c #EA2A1D",
"f&	c #EE291A",
"g&	c #EF2F1D",
"h&	c #ED281B",
"i&	c #F22918",
"j&	c #F93118",
"k&	c #F72D16",
"l&	c #FF6A18",
"m&	c #FF902A",
"n&	c #F25F16",
"o&	c #EB1100",
"p&	c #FE2700",
"q&	c #F00400",
"r&	c #C80001",
"s&	c #ED0000",
"t&	c #E60000",
"u&	c #FA0000",
"v&	c #FF0C00",
"w&	c #FE5937",
"x&	c #FE8F6C",
"y&	c #FFA889",
"z&	c #FF8B6A",
"A&	c #FF6B46",
"B&	c #FF734F",
"C&	c #FF5733",
"D&	c #FE1101",
"E&	c #EF0000",
"F&	c #E80000",
"G&	c #CF0002",
"H&	c #CB000B",
"I&	c #E84251",
"J&	c #EA5D69",
"K&	c #F04367",
"L&	c #B50001",
"M&	c #FE801E",
"N&	c #FF6E20",
"O&	c #FF621D",
"P&	c #FF4116",
"Q&	c #F92F14",
"R&	c #F02915",
"S&	c #F02918",
"T&	c #F02516",
"U&	c #ED2A1B",
"V&	c #F63418",
"W&	c #F93016",
"X&	c #F22C1B",
"Y&	c #E52416",
"Z&	c #F12917",
"`&	c #FC3416",
" *	c #FF6316",
".*	c #FF751E",
"+*	c #FF8624",
"@*	c #FF9729",
"#*	c #E60105",
"$*	c #FF3B00",
"%*	c #FA2000",
"&*	c #D90000",
"**	c #CD0000",
"=*	c #E90000",
"-*	c #F60100",
";*	c #FD0300",
">*	c #FF230C",
",*	c #FF6F52",
"'*	c #FF9474",
")*	c #FF8B6C",
"!*	c #FF7B61",
"~*	c #FF6D51",
"{*	c #FF7555",
"]*	c #FF6448",
"^*	c #FD0800",
"/*	c #F30000",
"(*	c #EA0000",
"_*	c #E00001",
":*	c #DA0000",
"<*	c #C30000",
"[*	c #DB1A38",
"}*	c #EE5264",
"|*	c #E52747",
"1*	c #FF992C",
"2*	c #FF6C1E",
"3*	c #FF671E",
"4*	c #FF5B1B",
"5*	c #FF4516",
"6*	c #FC3817",
"7*	c #F62C17",
"8*	c #F12816",
"9*	c #ED2618",
"0*	c #EE2818",
"a*	c #E72319",
"b*	c #E9291A",
"c*	c #EF2B19",
"d*	c #F12717",
"e*	c #FF681F",
"f*	c #FA2C12",
"g*	c #F3301A",
"h*	c #F12F1A",
"i*	c #EE2B1C",
"j*	c #E92716",
"k*	c #F32F18",
"l*	c #FF3C14",
"m*	c #FF6A1B",
"n*	c #FF7E21",
"o*	c #FF8A25",
"p*	c #FFB437",
"q*	c #FE2000",
"r*	c #FF2E01",
"s*	c #FC1002",
"t*	c #C80000",
"u*	c #F50000",
"v*	c #FF0400",
"w*	c #FF321D",
"x*	c #FF8164",
"y*	c #FFA081",
"z*	c #FF9B7E",
"A*	c #FF9679",
"B*	c #FF7D5E",
"C*	c #FF795A",
"D*	c #FF4F35",
"E*	c #FF0700",
"F*	c #F70000",
"G*	c #EC0000",
"H*	c #C90001",
"I*	c #CE051F",
"J*	c #E7495B",
"K*	c #EB4F62",
"L*	c #F14B68",
"M*	c #D50900",
"N*	c #FF6E1C",
"O*	c #FF691D",
"P*	c #FF621C",
"Q*	c #FC3417",
"R*	c #F42C16",
"S*	c #EB2616",
"T*	c #F02818",
"U*	c #ED261A",
"V*	c #E92719",
"W*	c #FD311A",
"X*	c #F22513",
"Y*	c #F12918",
"Z*	c #E6291A",
"`*	c #F7331B",
" =	c #F93218",
".=	c #EE2F19",
"+=	c #FF6B18",
"@=	c #FF8122",
"#=	c #FF8C27",
"$=	c #FF7825",
"%=	c #FF2F00",
"&=	c #EF0504",
"*=	c #CA0000",
"==	c #F30702",
"-=	c #DE0000",
";=	c #F00000",
">=	c #FC0000",
",=	c #FF4B35",
"'=	c #FFA48A",
")=	c #FFD2B5",
"!=	c #FFD1AF",
"~=	c #FED0B3",
"{=	c #FFB99E",
"]=	c #FFA27F",
"^=	c #FF4124",
"/=	c #FD0C00",
"(=	c #F80000",
"_=	c #C30010",
":=	c #E1384C",
"<=	c #EA4C63",
"[=	c #E9415A",
"}=	c #C10105",
"|=	c #FF731F",
"1=	c #FF651C",
"2=	c #FF5518",
"3=	c #FD3615",
"4=	c #F12A17",
"5=	c #EC2816",
"6=	c #EE2617",
"7=	c #EB2817",
"8=	c #EF2619",
"9=	c #F12619",
"0=	c #ED2619",
"a=	c #E92217",
"b=	c #EB2116",
"c=	c #ED2D1E",
"d=	c #EC291C",
"e=	c #E62517",
"f=	c #FE2D12",
"g=	c #FF4618",
"h=	c #EF2514",
"i=	c #ED2819",
"j=	c #F22A16",
"k=	c #FB3115",
"l=	c #FE3C14",
"m=	c #FF5514",
"n=	c #FF6F1B",
"o=	c #FF8222",
"p=	c #E00800",
"q=	c #FC3403",
"r=	c #FF3401",
"s=	c #EB0003",
"t=	c #CE0000",
"u=	c #F6150B",
"v=	c #CB0000",
"w=	c #F80100",
"x=	c #FF4A33",
"y=	c #FF9F87",
"z=	c #FED2B4",
"A=	c #FFDDC6",
"B=	c #FEE2C8",
"C=	c #FFE0C7",
"D=	c #FECFAB",
"E=	c #FF3417",
"F=	c #FF1A03",
"G=	c #C50000",
"H=	c #BD0005",
"I=	c #D9273F",
"J=	c #E34C5E",
"K=	c #E34B5C",
"L=	c #D60528",
"M=	c #FEAC36",
"N=	c #FF5715",
"O=	c #FD3D15",
"P=	c #F32B14",
"Q=	c #F42D15",
"R=	c #F42B15",
"S=	c #F22A18",
"T=	c #F22916",
"U=	c #EF2517",
"V=	c #F82C15",
"W=	c #F42717",
"X=	c #EA2418",
"Y=	c #E5271A",
"Z=	c #E52819",
"`=	c #F92812",
" -	c #FF601A",
".-	c #F93012",
"+-	c #FC3314",
"@-	c #FF3D14",
"#-	c #FF4A15",
"$-	c #FF8220",
"%-	c #FE8825",
"&-	c #FD3800",
"*-	c #FF2B00",
"=-	c #E30002",
"--	c #FC291B",
";-	c #CD0001",
">-	c #FF1E0C",
",-	c #FF7359",
"'-	c #FF7D62",
")-	c #FF8568",
"!-	c #FF805E",
"~-	c #FF6E4B",
"{-	c #FF4E2D",
"]-	c #FF4022",
"^-	c #FF2C0F",
"/-	c #FB0300",
"(-	c #F10000",
"_-	c #C00000",
":-	c #BA0005",
"<-	c #CA0A30",
"[-	c #E4495B",
"}-	c #E2495A",
"|-	c #DB1939",
"1-	c #FD9A2B",
"2-	c #FF771D",
"3-	c #FF5618",
"4-	c #FF3F13",
"5-	c #F72E13",
"6-	c #F42F17",
"7-	c #F62D15",
"8-	c #F92E16",
"9-	c #FD3115",
"0-	c #F32916",
"a-	c #EF2719",
"b-	c #EE2A1A",
"c-	c #EA2C1C",
"d-	c #F92B14",
"e-	c #FE6C1E",
"f-	c #FF4411",
"g-	c #F62B16",
"h-	c #F62B13",
"i-	c #FC3114",
"j-	c #FE3C13",
"k-	c #FF5D14",
"l-	c #FF891D",
"m-	c #FF9C24",
"n-	c #E60201",
"o-	c #FF2F01",
"p-	c #FF2301",
"q-	c #D60001",
"r-	c #FF3A25",
"s-	c #EB0000",
"t-	c #FF0800",
"u-	c #FF5438",
"v-	c #FF785B",
"w-	c #FF8765",
"x-	c #FF7758",
"y-	c #FF5F3D",
"z-	c #FF7350",
"A-	c #FF5131",
"B-	c #FD2F10",
"C-	c #FB0000",
"D-	c #F20001",
"E-	c #BD0000",
"F-	c #B50100",
"G-	c #C6052C",
"H-	c #DE3E53",
"I-	c #DD3E53",
"J-	c #D62540",
"K-	c #F32306",
"L-	c #FF781D",
"M-	c #FE6F1A",
"N-	c #FF5A18",
"O-	c #FF4D14",
"P-	c #FF3615",
"Q-	c #FD3914",
"R-	c #FA2F16",
"S-	c #EC2A14",
"T-	c #E62717",
"U-	c #EC251B",
"V-	c #FE3E16",
"W-	c #FF4613",
"X-	c #FB3014",
"Y-	c #FE3213",
"Z-	c #FF3D13",
"`-	c #FF4815",
" ;	c #FF5E15",
".;	c #FF871F",
"+;	c #FFAA28",
"@;	c #F60A01",
"#;	c #FF2E00",
"$;	c #FD2300",
"%;	c #FF3722",
"&;	c #D20000",
"*;	c #FE0600",
"=;	c #FF3520",
"-;	c #FF6D4E",
";;	c #FF8566",
">;	c #FF7D5B",
",;	c #FF704D",
"';	c #FF704C",
");	c #FF4E2E",
"!;	c #FE290C",
"~;	c #BF0000",
"{;	c #B20001",
"];	c #C60329",
"^;	c #DB3951",
"/;	c #D6374E",
"(;	c #D52540",
"_;	c #FF781C",
":;	c #FF721A",
"<;	c #FF6118",
"[;	c #FF5416",
"};	c #FE3F13",
"|;	c #FF4418",
"1;	c #FE3917",
"2;	c #FD3A15",
"3;	c #FA2D14",
"4;	c #F52B16",
"5;	c #E72315",
"6;	c #EB281C",
"7;	c #E92B1E",
"8;	c #ED291C",
"9;	c #F72819",
"0;	c #FE3F12",
"a;	c #FF3C13",
"b;	c #FB3512",
"c;	c #FE3513",
"d;	c #FF7B1D",
"e;	c #FF8A1E",
"f;	c #FFAE2E",
"g;	c #F60C02",
"h;	c #DA0002",
"i;	c #FC2E1D",
"j;	c #D80302",
"k;	c #FC0300",
"l;	c #FF1E0B",
"m;	c #FF553A",
"n;	c #FF7853",
"o;	c #FFAB8A",
"p;	c #FF7453",
"q;	c #FF5D39",
"r;	c #FF3C1E",
"s;	c #FD1602",
"t;	c #B20000",
"u;	c #C20022",
"v;	c #DB3750",
"w;	c #D72F47",
"x;	c #CC1737",
"y;	c #B70000",
"z;	c #FF7B1A",
"A;	c #FF711B",
"B;	c #FF6A1D",
"C;	c #FF4614",
"D;	c #FF3412",
"E;	c #F82C16",
"F;	c #EC2714",
"G;	c #E22317",
"H;	c #E7271A",
"I;	c #EC2F1F",
"J;	c #EF291B",
"K;	c #EB261A",
"L;	c #EE2215",
"M;	c #FA3013",
"N;	c #FE3812",
"O;	c #FE3214",
"P;	c #FF4213",
"Q;	c #FF7019",
"R;	c #FF7C1E",
"S;	c #FF9023",
"T;	c #FFBE32",
"U;	c #F80900",
"V;	c #FE2501",
"W;	c #D60003",
"X;	c #FC3B25",
"Y;	c #E90B08",
"Z;	c #FE0000",
"`;	c #FD462A",
" >	c #FF8A66",
".>	c #FF7854",
"+>	c #FF542F",
"@>	c #FE2F15",
"#>	c #FF1101",
"$>	c #F60000",
"%>	c #B10001",
"&>	c #BD0120",
"*>	c #D83550",
"=>	c #D12C44",
"->	c #C40D2A",
";>	c #AD0000",
">>	c #FF881E",
",>	c #FF7320",
"'>	c #FF4B14",
")>	c #FD3C15",
"!>	c #FE3916",
"~>	c #FB3114",
"{>	c #F72B18",
"]>	c #F52D17",
"^>	c #E42419",
"/>	c #E32619",
"(>	c #E72D1D",
"_>	c #E92C1C",
":>	c #EF2618",
"<>	c #EE271A",
"[>	c #E72317",
"}>	c #EA2217",
"|>	c #FB2F16",
"1>	c #FE3714",
"2>	c #FF3715",
"3>	c #FF4812",
"4>	c #FF5F17",
"5>	c #FF791E",
"6>	c #FF8522",
"7>	c #FF9424",
"8>	c #FDBF32",
"9>	c #F70E00",
"0>	c #FE3300",
"a>	c #FF2B01",
"b>	c #BC0000",
"c>	c #F9301F",
"d>	c #F01A11",
"e>	c #FE2910",
"f>	c #FF815B",
"g>	c #FF7B57",
"h>	c #FF6942",
"i>	c #FF4822",
"j>	c #FD220D",
"k>	c #FC0500",
"l>	c #D80001",
"m>	c #BB0000",
"n>	c #B10002",
"o>	c #BC001C",
"p>	c #D42D49",
"q>	c #CF2843",
"r>	c #BD0B28",
"s>	c #B60104",
"t>	c #FE9823",
"u>	c #FF7117",
"v>	c #FF651A",
"w>	c #FF591A",
"x>	c #FF4A18",
"y>	c #FE4617",
"z>	c #FD3C14",
"A>	c #FD3812",
"B>	c #FA3016",
"C>	c #F72B16",
"D>	c #F32B18",
"E>	c #E02115",
"F>	c #E2231A",
"G>	c #E62C1E",
"H>	c #E62A1C",
"I>	c #E32D1F",
"J>	c #EE2E1E",
"K>	c #EF2C1A",
"L>	c #EF2617",
"M>	c #F02517",
"N>	c #E72216",
"O>	c #EC2416",
"P>	c #F52C14",
"Q>	c #FD3213",
"R>	c #FF3812",
"S>	c #FF4B10",
"T>	c #FF6416",
"U>	c #FF8827",
"V>	c #FF962A",
"W>	c #FFBA34",
"X>	c #FA1000",
"Y>	c #FF3604",
"Z>	c #FD3002",
"`>	c #C20000",
" ,	c #F72011",
".,	c #F82616",
"+,	c #FD1F04",
"@,	c #FF522E",
"#,	c #FF5E3A",
"$,	c #FF4F2B",
"%,	c #FF3717",
"&,	c #FE0D02",
"*,	c #F90100",
"=,	c #AD0003",
"-,	c #B9021D",
";,	c #CD2941",
">,	c #CA203E",
",,	c #B9011F",
"',	c #B00001",
"),	c #FE951D",
"!,	c #FF6D17",
"~,	c #FF6B1A",
"{,	c #FF4F1A",
"],	c #FF4114",
"^,	c #FB3714",
"/,	c #F93015",
"(,	c #F72E15",
"_,	c #DD2319",
":,	c #E4261B",
"<,	c #EA291A",
"[,	c #F0301A",
"},	c #EB311A",
"|,	c #ED2C1E",
"1,	c #EB2A1C",
"2,	c #F62516",
"3,	c #F42916",
"4,	c #ED2416",
"5,	c #F72C18",
"6,	c #FE3413",
"7,	c #FF6F1A",
"8,	c #FF8C2B",
"9,	c #FF9D36",
"0,	c #FFA73A",
"a,	c #FFC23B",
"b,	c #F70A00",
"c,	c #FF3803",
"d,	c #FC3101",
"e,	c #F21408",
"f,	c #F72314",
"g,	c #FF421D",
"h,	c #FF4929",
"i,	c #FF4521",
"j,	c #FF1B05",
"k,	c #FD0501",
"l,	c #EE0000",
"m,	c #B40000",
"n,	c #AB0000",
"o,	c #B6021E",
"p,	c #CA1E3C",
"q,	c #C51235",
"r,	c #B7001A",
"s,	c #B80003",
"t,	c #FF8E1B",
"u,	c #FF7016",
"v,	c #FF5017",
"w,	c #FF4917",
"x,	c #FE3A15",
"y,	c #FD3716",
"z,	c #FA3417",
"A,	c #FE3217",
"B,	c #F52C17",
"C,	c #EA2919",
"D,	c #E9251A",
"E,	c #E8271B",
"F,	c #E9291B",
"G,	c #E22718",
"H,	c #ED291A",
"I,	c #ED2617",
"J,	c #F42514",
"K,	c #FA3015",
"L,	c #F82817",
"M,	c #FD2C16",
"N,	c #FF7720",
"O,	c #FF9633",
"P,	c #FFBB57",
"Q,	c #FFBF59",
"R,	c #FFBC47",
"S,	c #FF3802",
"T,	c #F10302",
"U,	c #BA0000",
"V,	c #C50001",
"W,	c #EA0403",
"X,	c #F61514",
"Y,	c #FE2B0F",
"Z,	c #FF381A",
"`,	c #FE2D11",
" '	c #FF1502",
".'	c #B40002",
"+'	c #AD0001",
"@'	c #AE0018",
"#'	c #C41133",
"$'	c #BE092D",
"%'	c #AD000D",
"&'	c #FF6C11",
"*'	c #FF7315",
"='	c #FF5B18",
"-'	c #FF5018",
";'	c #FE4918",
">'	c #FA3515",
",'	c #F62C16",
"''	c #F32B17",
")'	c #F72F14",
"!'	c #F42A17",
"~'	c #F22C19",
"{'	c #E32519",
"]'	c #E2241A",
"^'	c #F1291C",
"/'	c #E6261C",
"('	c #EB2C1B",
"_'	c #EC291B",
":'	c #EC2916",
"<'	c #F62712",
"['	c #FE3A14",
"}'	c #FF3816",
"|'	c #F92714",
"1'	c #FD2D14",
"2'	c #FE4411",
"3'	c #FF7420",
"4'	c #FF8A2C",
"5'	c #FFBA5D",
"6'	c #FFCF6C",
"7'	c #FFB247",
"8'	c #FD3301",
"9'	c #FE2B02",
"0'	c #B80000",
"a'	c #E90303",
"b'	c #FE1402",
"c'	c #FE2C0C",
"d'	c #FF2608",
"e'	c #FF0A00",
"f'	c #F80200",
"g'	c #B00000",
"h'	c #AC0003",
"i'	c #AD0014",
"j'	c #C10B2F",
"k'	c #B70424",
"l'	c #AC000A",
"m'	c #BD0004",
"n'	c #FF530B",
"o'	c #FF6915",
"p'	c #FF6B1E",
"q'	c #FF6820",
"r'	c #FF4C15",
"s'	c #FC3716",
"t'	c #F92F16",
"u'	c #F62A16",
"v'	c #F92D15",
"w'	c #EE2B1A",
"x'	c #E22418",
"y'	c #EB271A",
"z'	c #EC2A1B",
"A'	c #EA2717",
"B'	c #F62814",
"C'	c #FF3E12",
"D'	c #F92911",
"E'	c #FD2C13",
"F'	c #FF4A11",
"G'	c #FF6616",
"H'	c #FF701E",
"I'	c #FF8425",
"J'	c #FF932C",
"K'	c #FFA438",
"L'	c #FFA539",
"M'	c #F42505",
"N'	c #FE2F01",
"O'	c #F60900",
"P'	c #FE0E01",
"Q'	c #FF2005",
"R'	c #FE2204",
"S'	c #AE0000",
"T'	c #AA0001",
"U'	c #AF0012",
"V'	c #BD062B",
"W'	c #B0001A",
"X'	c #A70007",
"Y'	c #B90004",
"Z'	c #FB4206",
"`'	c #FF7417",
" )	c #FF741E",
".)	c #FF9740",
"+)	c #FD8838",
"@)	c #FE4F16",
"#)	c #FC3813",
"$)	c #FA3114",
"%)	c #FB3116",
"&)	c #F32918",
"*)	c #E8271A",
"=)	c #E42519",
"-)	c #E62419",
";)	c #E4271B",
">)	c #EF2E1D",
",)	c #ED2718",
"')	c #F12815",
"))	c #FF5217",
"!)	c #FF5A1B",
"~)	c #FF310E",
"{)	c #FF3A13",
"])	c #FE3B13",
"^)	c #FF5E14",
"/)	c #FF6C1B",
"()	c #FF7B1C",
"_)	c #FE942D",
":)	c #FFA43B",
"<)	c #FFA838",
"[)	c #FF8F24",
"})	c #FF1500",
"|)	c #F91700",
"1)	c #E20600",
"2)	c #C40000",
"3)	c #F40000",
"4)	c #FF1602",
"5)	c #FE1C03",
"6)	c #FB0600",
"7)	c #B60000",
"8)	c #AA0002",
"9)	c #B20019",
"0)	c #B90125",
"a)	c #AC0013",
"b)	c #A60004",
"c)	c #BC0001",
"d)	c #FF4C04",
"e)	c #FF7015",
"f)	c #FF8023",
"g)	c #FF862B",
"h)	c #FF7A26",
"i)	c #FF661C",
"j)	c #FF4E13",
"k)	c #FE4314",
"l)	c #FD3313",
"m)	c #FC3513",
"n)	c #FD3611",
"o)	c #F82B11",
"p)	c #F42914",
"q)	c #E82717",
"r)	c #F12718",
"s)	c #E92818",
"t)	c #E22C1C",
"u)	c #EF2C1D",
"v)	c #F12C1B",
"w)	c #F62815",
"x)	c #FC3C0F",
"y)	c #FE6C20",
"z)	c #FF8937",
"A)	c #FF4711",
"B)	c #FF4313",
"C)	c #FE5916",
"D)	c #FF6318",
"E)	c #FF902B",
"F)	c #FF9C35",
"G)	c #FFA83B",
"H)	c #FED044",
"I)	c #F90900",
"J)	c #FA0A00",
"K)	c #E20302",
"L)	c #FE1501",
"M)	c #FF1D04",
"N)	c #FF1902",
"O)	c #F90600",
"P)	c #A70001",
"Q)	c #B1001A",
"R)	c #B5001F",
"S)	c #A7000F",
"T)	c #A70004",
"U)	c #FF4D05",
"V)	c #FF7519",
"W)	c #FF8621",
"X)	c #FF8B2B",
"Y)	c #FF7723",
"Z)	c #FE5014",
"`)	c #FE3315",
" !	c #FF8838",
".!	c #FC3E0F",
"+!	c #F82D16",
"@!	c #E5261A",
"#!	c #ED2518",
"$!	c #E1251A",
"%!	c #F02E1A",
"&!	c #F52C19",
"*!	c #FB3513",
"=!	c #FF581A",
"-!	c #FF9647",
";!	c #FF8137",
">!	c #FF5112",
",!	c #FF5D16",
"'!	c #FF6D19",
")!	c #FF8423",
"!!	c #FE9631",
"~!	c #FFA53A",
"{!	c #FFC143",
"]!	c #DB0300",
"^!	c #D20001",
"/!	c #FF1A05",
"(!	c #FF200B",
"_!	c #FF1705",
":!	c #EC0001",
"<!	c #A90002",
"[!	c #A70002",
"}!	c #B10220",
"|!	c #A70010",
"1!	c #AB0007",
"2!	c #FF660B",
"3!	c #FF811D",
"4!	c #FF902F",
"5!	c #FFA142",
"6!	c #FF7621",
"7!	c #FF6319",
"8!	c #FE4410",
"9!	c #FF3915",
"0!	c #FD4114",
"a!	c #FF5C1C",
"b!	c #FF6C1F",
"c!	c #F82A11",
"d!	c #E22419",
"e!	c #E3271C",
"f!	c #DF2A1D",
"g!	c #EA2B1C",
"h!	c #ED2817",
"i!	c #F52517",
"j!	c #FF7427",
"k!	c #FF7F34",
"l!	c #FF7425",
"m!	c #FF4E12",
"n!	c #FF4C14",
"o!	c #FF6517",
"p!	c #FF7D22",
"q!	c #FF8D26",
"r!	c #FF9F33",
"s!	c #FFA42F",
"t!	c #FF0E01",
"u!	c #FE240C",
"v!	c #FE1F07",
"w!	c #B30000",
"x!	c #A80000",
"y!	c #A70006",
"z!	c #B60123",
"A!	c #B20221",
"B!	c #AC0016",
"C!	c #A90009",
"D!	c #FF7814",
"E!	c #FE8F28",
"F!	c #FFAB47",
"G!	c #FFAB49",
"H!	c #FF6216",
"I!	c #FF4C12",
"J!	c #FF3512",
"K!	c #FD3114",
"L!	c #FD3C1A",
"M!	c #F32716",
"N!	c #E1261B",
"O!	c #DF251A",
"P!	c #E5271B",
"Q!	c #EE2F1E",
"R!	c #EE2A1B",
"S!	c #F82E15",
"T!	c #FE4614",
"U!	c #FF561C",
"V!	c #FF6C20",
"W!	c #FF4A13",
"X!	c #FF5216",
"Y!	c #FF6417",
"Z!	c #FF7920",
"`!	c #FF8623",
" ~	c #FF9B30",
".~	c #FE9F30",
"+~	c #D10700",
"@~	c #F50C00",
"#~	c #EA0001",
"$~	c #FB0501",
"%~	c #FE1E0A",
"&~	c #FD1806",
"*~	c #AF0000",
"=~	c #A50000",
"-~	c #A8000C",
";~	c #B70428",
">~	c #B10124",
",~	c #AC001A",
"'~	c #A8000A",
")~	c #CB0102",
"!~	c #FF951B",
"~~	c #FE9931",
"{~	c #FDB154",
"]~	c #FFA84B",
"^~	c #FF7421",
"/~	c #FF641C",
"(~	c #FD4714",
"_~	c #FC3811",
":~	c #FA3214",
"<~	c #ED2B1A",
"[~	c #EE2716",
"}~	c #EC231A",
"|~	c #E2261C",
"1~	c #E1261A",
"2~	c #E52D1E",
"3~	c #ED2C1B",
"4~	c #E92618",
"5~	c #F2291B",
"6~	c #E8261B",
"7~	c #FC3015",
"8~	c #FF4311",
"9~	c #FE4F14",
"0~	c #FF6618",
"a~	c #FF711A",
"b~	c #FF8A28",
"c~	c #FF982E",
"d~	c #FC4D0A",
"e~	c #EE0901",
"f~	c #B90000",
"g~	c #FC0C01",
"h~	c #AC0000",
"i~	c #A40000",
"j~	c #B10016",
"k~	c #BC092C",
"l~	c #B50125",
"m~	c #AD001E",
"n~	c #A6000D",
"o~	c #FF9E23",
"p~	c #FFA53F",
"q~	c #FFA94D",
"r~	c #FF9C43",
"s~	c #FF5D19",
"t~	c #F83115",
"u~	c #F42A19",
"v~	c #EE2719",
"w~	c #EF2817",
"x~	c #DE251C",
"y~	c #E1281C",
"z~	c #E4291B",
"A~	c #E9281A",
"B~	c #E32A19",
"C~	c #E92B1B",
"D~	c #EC281B",
"E~	c #E4241A",
"F~	c #E12219",
"G~	c #EA2318",
"H~	c #F72E17",
"I~	c #FD3916",
"J~	c #FE4A13",
"K~	c #FF4F16",
"L~	c #FF5F13",
"M~	c #FF6815",
"N~	c #FF8322",
"O~	c #FF9329",
"P~	c #FED539",
"Q~	c #FD0E02",
"R~	c #FB1301",
"S~	c #A30000",
"T~	c #B50322",
"U~	c #BC0C30",
"V~	c #B70328",
"W~	c #B30324",
"X~	c #AC0011",
"Y~	c #BB0101",
"Z~	c #FFAC29",
"`~	c #FF9A39",
" {	c #FF8A2F",
".{	c #FF5714",
"+{	c #FF4E14",
"@{	c #FC3516",
"#{	c #F52A17",
"${	c #EB2519",
"%{	c #E92519",
"&{	c #EA261C",
"*{	c #E5291D",
"={	c #FC4924",
"-{	c #EA281C",
";{	c #F42D1C",
">{	c #DA221B",
",{	c #E8271C",
"'{	c #E2251A",
"){	c #EF2818",
"!{	c #F62A17",
"~{	c #F72B15",
"{{	c #FD3415",
"]{	c #FF4D13",
"^{	c #FF741B",
"/{	c #FF811E",
"({	c #FF8C23",
"_{	c #FFB030",
":{	c #DB0100",
"<{	c #B10000",
"[{	c #FB1401",
"}{	c #FC0E03",
"|{	c #B50000",
"1{	c #BA0627",
"2{	c #BC1031",
"3{	c #BA0A2E",
"4{	c #B40626",
"5{	c #A40008",
"6{	c #C70003",
"7{	c #FE9F24",
"8{	c #FF912C",
"9{	c #FF7B23",
"0{	c #FF661B",
"a{	c #FF4A12",
"b{	c #FF4312",
"c{	c #FB3417",
"d{	c #F12817",
"e{	c #F22917",
"f{	c #E8261A",
"g{	c #E4261C",
"h{	c #E1251C",
"i{	c #E52C1E",
"j{	c #E4281D",
"k{	c #F52A1A",
"l{	c #FB6717",
"m{	c #F32C1D",
"n{	c #F02819",
"o{	c #EA261B",
"p{	c #E6251C",
"q{	c #E72519",
"r{	c #FF4214",
"s{	c #FF5513",
"t{	c #FF6C17",
"u{	c #FF7A1C",
"v{	c #FF851F",
"w{	c #FF8D1E",
"x{	c #FA4306",
"y{	c #FB1204",
"z{	c #FB0F02",
"A{	c #9E0000",
"B{	c #BD0A2B",
"C{	c #BC1133",
"D{	c #BF0A30",
"E{	c #B70627",
"F{	c #9D0002",
"G{	c #AE0002",
"H{	c #FF8D1C",
"I{	c #FD8520",
"J{	c #FF761E",
"K{	c #FF5C16",
"L{	c #FF4412",
"M{	c #ED281A",
"N{	c #F32915",
"O{	c #E52217",
"P{	c #E5281B",
"Q{	c #E5291A",
"R{	c #E42B1F",
"S{	c #EC2D1B",
"T{	c #F3331C",
"U{	c #EB2618",
"V{	c #FB321A",
"W{	c #EE2518",
"X{	c #E1231A",
"Y{	c #E12218",
"Z{	c #E82419",
"`{	c #EE2715",
" ]	c #FC3317",
".]	c #FD3E14",
"+]	c #FF771B",
"@]	c #FF811C",
"#]	c #FE871F",
"$]	c #FDB12F",
"%]	c #DE0300",
"&]	c #E90101",
"*]	c #A10000",
"=]	c #9A0000",
"-]	c #B30011",
";]	c #BE0F30",
">]	c #BF0B30",
",]	c #B70525",
"']	c #A40100",
")]	c #FF8719",
"!]	c #FF7A1D",
"~]	c #FF6B21",
"{]	c #FF5318",
"]]	c #FD3917",
"^]	c #EA2518",
"/]	c #EE2817",
"(]	c #E0221A",
"_]	c #E32B1F",
":]	c #F43118",
"<]	c #EE261A",
"[]	c #E52519",
"}]	c #EA2517",
"|]	c #EB2818",
"1]	c #F02619",
"2]	c #F22717",
"3]	c #FE3212",
"4]	c #FF470F",
"5]	c #FF6A16",
"6]	c #FF7E1B",
"7]	c #FF8B1D",
"8]	c #FBB42D",
"9]	c #D30500",
"0]	c #FA0700",
"a]	c #FB0800",
"b]	c #D50001",
"c]	c #990001",
"d]	c #B40320",
"e]	c #C0112F",
"f]	c #BE0F31",
"g]	c #BA012D",
"h]	c #9B0010",
"i]	c #AE0001",
"j]	c #930000",
"k]	c #FF7618",
"l]	c #FF7419",
"m]	c #FE3B15",
"n]	c #F12A18",
"o]	c #F82A16",
"p]	c #FB3F1A",
"q]	c #DD2318",
"r]	c #E4281C",
"s]	c #F62C19",
"t]	c #F12D15",
"u]	c #EE2718",
"v]	c #EC291A",
"w]	c #E92718",
"x]	c #F32713",
"y]	c #FF3910",
"z]	c #FF4B13",
"A]	c #FF6818",
"B]	c #FF7E1C",
"C]	c #FD861B",
"D]	c #FE871B",
"E]	c #A70000",
"F]	c #9F0000",
"G]	c #FC0501",
"H]	c #FB0A00",
"I]	c #A90000",
"J]	c #980000",
"K]	c #9D000B",
"L]	c #BB0325",
"M]	c #C01133",
"N]	c #B80D30",
"O]	c #A00018",
"P]	c #8E0100",
"Q]	c #C10300",
"R]	c #C30400",
"S]	c #FF7214",
"T]	c #FE5B17",
"U]	c #FF4416",
"V]	c #F83316",
"W]	c #EC2819",
"X]	c #E72517",
"Y]	c #F42715",
"Z]	c #FF6B24",
"`]	c #EC261A",
" ^	c #E1241B",
".^	c #E6281D",
"+^	c #E2271B",
"@^	c #E62E1D",
"#^	c #E72719",
"$^	c #F12C1E",
"%^	c #E22218",
"&^	c #EE291D",
"*^	c #FF4E21",
"=^	c #F52D18",
"-^	c #E62619",
";^	c #F12615",
">^	c #F63012",
",^	c #FF5B12",
"'^	c #FD701B",
")^	c #FF7E19",
"!^	c #FF821D",
"~^	c #D10802",
"{^	c #D80100",
"]^	c #A20000",
"^^	c #C00001",
"/^	c #FF1402",
"(^	c #FD1201",
"_^	c #950000",
":^	c #9A0008",
"<^	c #B80327",
"[^	c #BB072C",
"}^	c #BB092A",
"|^	c #A60001",
"1^	c #F6320A",
"2^	c #FF6D18",
"3^	c #FF5317",
"4^	c #FF4216",
"5^	c #FC3616",
"6^	c #F83117",
"7^	c #E4211B",
"8^	c #F42814",
"9^	c #EC2C1C",
"0^	c #DC2819",
"a^	c #E2271E",
"b^	c #E4291C",
"c^	c #E2281C",
"d^	c #DA2A1B",
"e^	c #EE2D1C",
"f^	c #ED2612",
"g^	c #FA3619",
"h^	c #EA261A",
"i^	c #F12614",
"j^	c #FD3610",
"k^	c #FF4F12",
"l^	c #FF6A15",
"m^	c #FF7D1A",
"n^	c #FB781B",
"o^	c #FE1E06",
"p^	c #FF2209",
"q^	c #990000",
"r^	c #9D000E",
"s^	c #B30228",
"t^	c #B40225",
"u^	c #A40017",
"v^	c #960000",
"w^	c #C30200",
"x^	c #FF7217",
"y^	c #FF6317",
"z^	c #FA3719",
"A^	c #E0221B",
"B^	c #E3261A",
"C^	c #E6281A",
"D^	c #E0251A",
"E^	c #EF291A",
"F^	c #E2261B",
"G^	c #E52118",
"H^	c #F12516",
"I^	c #EE2819",
"J^	c #EB2719",
"K^	c #E32219",
"L^	c #EC2315",
"M^	c #F42614",
"N^	c #FF5F12",
"O^	c #FF791B",
"P^	c #FE7F1C",
"Q^	c #FCB12B",
"R^	c #9B0000",
"S^	c #FE3815",
"T^	c #FD3B1C",
"U^	c #960002",
"V^	c #900002",
"W^	c #A30016",
"X^	c #AD0222",
"Y^	c #920006",
"Z^	c #FF8D20",
"`^	c #FF711D",
" /	c #FF661A",
"./	c #FE4018",
"+/	c #F22F19",
"@/	c #E42318",
"#/	c #D9211B",
"$/	c #DF2018",
"%/	c #E62618",
"&/	c #E2281B",
"*/	c #E02318",
"=/	c #DD201A",
"-/	c #E6271A",
";/	c #E1271C",
">/	c #ED2917",
",/	c #E02018",
"'/	c #E12318",
")/	c #E01F19",
"!/	c #F52D1B",
"~/	c #E72417",
"{/	c #E32516",
"]/	c #F92D13",
"^/	c #FF7B1E",
"//	c #FF8420",
"(/	c #FE9121",
"_/	c #9F0001",
":/	c #EE0600",
"</	c #9D0000",
"[/	c #EE0805",
"}/	c #FF2D13",
"|/	c #FF4D2A",
"1/	c #970003",
"2/	c #940002",
"3/	c #A10017",
"4/	c #AD0020",
"5/	c #97000D",
"6/	c #970000",
"7/	c #920000",
"8/	c #FF721B",
"9/	c #FF7925",
"0/	c #FF6520",
"a/	c #FF4E17",
"b/	c #F93C18",
"c/	c #E22319",
"d/	c #DF211A",
"e/	c #DC211A",
"f/	c #E1221A",
"g/	c #EC281A",
"h/	c #E4261A",
"i/	c #E8241B",
"j/	c #E32C1F",
"k/	c #EB2C19",
"l/	c #F32B1A",
"m/	c #E9241A",
"n/	c #EA2617",
"o/	c #DD2117",
"p/	c #E92514",
"q/	c #E32017",
"r/	c #F52814",
"s/	c #FF4710",
"t/	c #FF8622",
"u/	c #FE891F",
"v/	c #E00D00",
"w/	c #F60600",
"x/	c #D60202",
"y/	c #FF230E",
"z/	c #FF4024",
"A/	c #950002",
"B/	c #940001",
"C/	c #930004",
"D/	c #890004",
"E/	c #A60000",
"F/	c #D90202",
"G/	c #FF6E17",
"H/	c #FF872F",
"I/	c #FF6F26",
"J/	c #FD4814",
"K/	c #F73416",
"L/	c #E12315",
"M/	c #D91F18",
"N/	c #DC2019",
"O/	c #DF2118",
"P/	c #FF4E1E",
"Q/	c #F42515",
"R/	c #E52218",
"S/	c #E82119",
"T/	c #E1291C",
"U/	c #E72D1E",
"V/	c #DA1F19",
"W/	c #DD2018",
"X/	c #EE2514",
"Y/	c #FA2F14",
"Z/	c #E51F16",
"`/	c #ED2913",
" (	c #FB3E0D",
".(	c #FF6715",
"+(	c #FF7B1B",
"@(	c #FE831E",
"#(	c #FF9827",
"$(	c #FA0400",
"%(	c #FD1409",
"&(	c #FF371C",
"*(	c #EF0300",
"=(	c #910000",
"-(	c #930005",
";(	c #AA001D",
">(	c #9D0010",
",(	c #8D0000",
"'(	c #F8420A",
")(	c #FF852D",
"!(	c #FF6620",
"~(	c #FF4715",
"{(	c #E32417",
"](	c #DF2418",
"^(	c #DF201A",
"/(	c #E6211A",
"((	c #FE3A12",
"_(	c #F22514",
":(	c #EC2718",
"<(	c #EF2918",
"[(	c #E82315",
"}(	c #DB2118",
"|(	c #D81F19",
"1(	c #E72115",
"2(	c #FA2C14",
"3(	c #F83015",
"4(	c #E82114",
"5(	c #EF2714",
"6(	c #FA3510",
"7(	c #FF5A13",
"8(	c #FF7219",
"9(	c #FF801D",
"0(	c #FFA629",
"a(	c #F10300",
"b(	c #900000",
"c(	c #8A0000",
"d(	c #F50200",
"e(	c #FD210E",
"f(	c #940000",
"g(	c #8C0000",
"h(	c #980008",
"i(	c #AD001C",
"j(	c #910004",
"k(	c #F80C00",
"l(	c #FD9724",
"m(	c #FF7F23",
"n(	c #FF7B27",
"o(	c #FA3316",
"p(	c #E92616",
"q(	c #DE2418",
"r(	c #DD2016",
"s(	c #F82B18",
"t(	c #F02615",
"u(	c #E2271A",
"v(	c #EB2A18",
"w(	c #FA3019",
"x(	c #E62216",
"y(	c #DD211A",
"z(	c #E52018",
"A(	c #FA2D12",
"B(	c #FE320F",
"C(	c #F72815",
"D(	c #FA330F",
"E(	c #FF4F10",
"F(	c #FF6814",
"G(	c #FE7F1E",
"H(	c #FE8919",
"I(	c #FC0900",
"J(	c #860000",
"K(	c #F30400",
"L(	c #8E0000",
"M(	c #900001",
"N(	c #970009",
"O(	c #A10011",
"P(	c #F20500",
"Q(	c #FD9F2C",
"R(	c #FF8329",
"S(	c #FF7627",
"T(	c #FF3E16",
"U(	c #F83016",
"V(	c #F62A14",
"W(	c #E82319",
"X(	c #DF221A",
"Y(	c #E7291A",
"Z(	c #F33318",
"`(	c #EA2C1A",
" _	c #EE2717",
"._	c #D91D1B",
"+_	c #E11A15",
"@_	c #FB2D14",
"#_	c #FFC364",
"$_	c #FF3B12",
"%_	c #FD3412",
"&_	c #FF6515",
"*_	c #FF911F",
"=_	c #FF580E",
"-_	c #F30700",
";_	c #F00100",
">_	c #8F0001",
",_	c #8C0002",
"'_	c #9C0005",
")_	c #910003",
"!_	c #F00200",
"~_	c #FF0200",
"{_	c #FF8D24",
"]_	c #FF8A2D",
"^_	c #FF4B12",
"/_	c #FE3B14",
"(_	c #F62F16",
"__	c #FB3514",
":_	c #F73015",
"<_	c #DF241A",
"[_	c #E32A1E",
"}_	c #E02B1F",
"|_	c #F02F19",
"1_	c #ED291B",
"2_	c #DC201A",
"3_	c #EA2016",
"4_	c #EF1D0F",
"5_	c #FFD06D",
"6_	c #FF8D31",
"7_	c #FF340D",
"8_	c #FD3D12",
"9_	c #FF4210",
"0_	c #FF5D12",
"a_	c #FF7F1B",
"b_	c #FF911B",
"c_	c #FEB029",
"d_	c #EA0500",
"e_	c #EB0400",
"f_	c #880000",
"g_	c #ED0100",
"h_	c #8F0000",
"i_	c #8B0001",
"j_	c #9B0003",
"k_	c #EB0100",
"l_	c #FB0C00",
"m_	c #E50500",
"n_	c #FA4C0A",
"o_	c #FF882B",
"p_	c #FC3914",
"q_	c #FE4216",
"r_	c #FF3F14",
"s_	c #FA3615",
"t_	c #FA3014",
"u_	c #ED2516",
"v_	c #E12319",
"w_	c #DE211A",
"x_	c #E3291C",
"y_	c #EB291D",
"z_	c #F32815",
"A_	c #FC3413",
"B_	c #FF3D11",
"C_	c #FF4811",
"D_	c #FF8A1F",
"E_	c #FFA42D",
"F_	c #E60100",
"G_	c #F70B00",
"H_	c #840000",
"I_	c #E10001",
"J_	c #890000",
"K_	c #930001",
"L_	c #FC1400",
"M_	c #FDC83C",
"N_	c #FF912B",
"O_	c #FF9532",
"P_	c #FF4011",
"Q_	c #FB3713",
"R_	c #FC3215",
"S_	c #F12A19",
"T_	c #DC1F1B",
"U_	c #DB251C",
"V_	c #DE291F",
"W_	c #DD2F20",
"X_	c #E72A1B",
"Y_	c #EA2218",
"Z_	c #F42818",
"`_	c #FF430F",
" :	c #FF4E11",
".:	c #FF751A",
"+:	c #FF881C",
"@:	c #FF9926",
"#:	c #EF2D03",
"$:	c #D30200",
"%:	c #870000",
"&:	c #DA0001",
"*:	c #F50500",
"=:	c #FB0900",
"-:	c #FD1100",
";:	c #EB1602",
">:	c #FFB639",
",:	c #FF972D",
"':	c #FF8025",
"):	c #FF5F14",
"!:	c #FE3E13",
"~:	c #FC3B15",
"{:	c #F32E19",
"]:	c #E3241A",
"^:	c #D8201A",
"/:	c #DB291E",
"(:	c #EC2B19",
"_:	c #EC2B1A",
"::	c #F42315",
"<:	c #FE3613",
"[:	c #FF5E18",
"}:	c #FF5412",
"|:	c #FF811B",
"1:	c #FF9225",
"2:	c #F8A728",
"3:	c #DD0100",
"4:	c #850000",
"5:	c #E60300",
"6:	c #FE1100",
"7:	c #FE1600",
"8:	c #FECF4B",
"9:	c #FF9229",
"0:	c #FF9930",
"a:	c #FF5B14",
"b:	c #FF5D17",
"c:	c #F32817",
"d:	c #DB201A",
"e:	c #ED2E1D",
"f:	c #E12417",
"g:	c #E72118",
"h:	c #FA2914",
"i:	c #FF450F",
"j:	c #FF701C",
"k:	c #FF7317",
"l:	c #FF801C",
"m:	c #FF9129",
"n:	c #FF921E",
"o:	c #860001",
"p:	c #FF1100",
"q:	c #FF1300",
"r:	c #FC0800",
"s:	c #FFA433",
"t:	c #FF962D",
"u:	c #FF8422",
"v:	c #FF4D18",
"w:	c #E5231C",
"x:	c #E22D1C",
"y:	c #E72C1B",
"z:	c #F32D1A",
"A:	c #F32C18",
"B:	c #E62119",
"C:	c #F02616",
"D:	c #FF3911",
"E:	c #FF4B11",
"F:	c #FF6116",
"G:	c #FF7C18",
"H:	c #FF8620",
"I:	c #FC550C",
"J:	c #FF1E00",
"K:	c #EF4E08",
"L:	c #FF8825",
"M:	c #FF701A",
"N:	c #FF691B",
"O:	c #FF5418",
"P:	c #FB3414",
"Q:	c #EA2719",
"R:	c #E42119",
"S:	c #E4251A",
"T:	c #ED2A19",
"U:	c #F12B16",
"V:	c #F32A18",
"W:	c #FF3012",
"X:	c #F42010",
"Y:	c #F62314",
"Z:	c #F82A14",
"`:	c #FF3611",
" <	c #FF4A0C",
".<	c #FB6413",
"+<	c #FF7D1E",
"@<	c #FF9421",
"#<	c #7A0000",
"$<	c #7F0000",
"%<	c #F91000",
"&<	c #FF1700",
"*<	c #A80002",
"=<	c #FFAE30",
"-<	c #FF8E2B",
";<	c #FF6619",
"><	c #FF5213",
",<	c #FC3A14",
"'<	c #E5241A",
")<	c #E62219",
"!<	c #FA3D22",
"~<	c #E72418",
"{<	c #EF2D1C",
"]<	c #F02C1B",
"^<	c #EF1E12",
"/<	c #FF5E27",
"(<	c #FFA43E",
"_<	c #FB1E0D",
":<	c #FB2B11",
"<<	c #F92713",
"[<	c #FC2D12",
"}<	c #FD450D",
"|<	c #FF5E11",
"1<	c #FF7619",
"2<	c #FF801B",
"3<	c #FF8117",
"4<	c #F12706",
"5<	c #810000",
"6<	c #F50700",
"7<	c #FB1100",
"8<	c #F10800",
"9<	c #DC0B00",
"0<	c #FF9627",
"a<	c #FF8627",
"b<	c #FF7D21",
"c<	c #FF6718",
"d<	c #FF5E1A",
"e<	c #FF5319",
"f<	c #FB3415",
"g<	c #E92A17",
"h<	c #ED2717",
"i<	c #FF7B2D",
"j<	c #FD6123",
"k<	c #F02B22",
"l<	c #EE2E1B",
"m<	c #EA2A18",
"n<	c #FD340F",
"o<	c #FFFEA7",
"p<	c #FF3506",
"q<	c #FC2E10",
"r<	c #F52114",
"s<	c #F82314",
"t<	c #FB2A12",
"u<	c #FF3C0E",
"v<	c #FF540D",
"w<	c #FF7512",
"x<	c #FF7F16",
"y<	c #730000",
"z<	c #830001",
"A<	c #ED0400",
"B<	c #E60200",
"C<	c #B90500",
"D<	c #FFA22A",
"E<	c #FF8921",
"F<	c #FF8121",
"G<	c #F93314",
"H<	c #EA221A",
"I<	c #E4251B",
"J<	c #DF1E17",
"K<	c #EA2017",
"L<	c #E6231D",
"M<	c #E7291C",
"N<	c #E52317",
"O<	c #FE3518",
"P<	c #FB2114",
"Q<	c #E81F19",
"R<	c #EA2019",
"S<	c #F72717",
"T<	c #FF6013",
"U<	c #FF6F14",
"V<	c #FF600C",
"W<	c #6B0000",
"X<	c #B90001",
"Y<	c #D51100",
"Z<	c #FF7820",
"`<	c #FF5919",
" [	c #FD3D16",
".[	c #EA2819",
"+[	c #E8291D",
"@[	c #E8291F",
"#[	c #E4241C",
"$[	c #DF2B1D",
"%[	c #E6231A",
"&[	c #EE2418",
"*[	c #E72217",
"=[	c #FB311A",
"-[	c #EF2317",
";[	c #FB2914",
">[	c #FF3612",
",[	c #FF5D11",
"'[	c #FC6512",
")[	c #FA4807",
"![	c #800000",
"~[	c #9B0001",
"{[	c #B20100",
"][	c #FE9A28",
"^[	c #F42D18",
"/[	c #E5251A",
"([	c #E3281D",
"_[	c #E4291D",
":[	c #DF241C",
"<[	c #E0291B",
"[[	c #E9301C",
"}[	c #E92919",
"|[	c #E72A1A",
"1[	c #F3281B",
"2[	c #EA2516",
"3[	c #F72513",
"4[	c #FD3014",
"5[	c #FE3D11",
"6[	c #FF4910",
"7[	c #FF520F",
"8[	c #FF5B11",
"9[	c #FE6911",
"0[	c #750000",
"a[	c #7B0000",
"b[	c #FF650C",
"c[	c #FE4714",
"d[	c #F83416",
"e[	c #E3281C",
"f[	c #E1241D",
"g[	c #E3281B",
"h[	c #E2291F",
"i[	c #DF2A20",
"j[	c #F22D1A",
"k[	c #EC2719",
"l[	c #FB2C14",
"m[	c #FF440F",
"n[	c #FF540F",
"o[	c #FF7616",
"p[	c #B90301",
"q[	c #FF6313",
"r[	c #FD4F13",
"s[	c #F83315",
"t[	c #EF2A17",
"u[	c #E6251A",
"v[	c #E4281B",
"w[	c #E9301F",
"x[	c #EB291A",
"y[	c #F42A11",
"z[	c #FB2B14",
"A[	c #FF4112",
"B[	c #FF4F0F",
"C[	c #FE7713",
"D[	c #790000",
"E[	c #F30100",
"F[	c #F10100",
"G[	c #FD4913",
"H[	c #F93A12",
"I[	c #F93317",
"J[	c #F42C15",
"K[	c #EC2917",
"L[	c #DE231A",
"M[	c #F72D14",
"N[	c #F92D16",
"O[	c #FD3F13",
"P[	c #FF4D0F",
"Q[	c #FF5313",
"R[	c #750001",
"S[	c #960001",
"T[	c #FA0F00",
"U[	c #D30A03",
"V[	c #FE6A14",
"W[	c #FF4410",
"X[	c #FD3614",
"Y[	c #F62E15",
"Z[	c #F72F18",
"`[	c #F42C18",
" }	c #E5291C",
".}	c #E12A1D",
"+}	c #F12D19",
"@}	c #FC3517",
"#}	c #FE3713",
"$}	c #FB420E",
"%}	c #FB490E",
"&}	c #F9490D",
"*}	c #700000",
"=}	c #F90800",
"-}	c #FD2D02",
";}	c #D01203",
">}	c #FC4F13",
",}	c #FA4612",
"'}	c #F52A15",
")}	c #F12C1A",
"!}	c #E22A1A",
"~}	c #EE311C",
"{}	c #EF2E1B",
"]}	c #EF2B17",
"^}	c #FB3316",
"/}	c #F83415",
"(}	c #FB3416",
"_}	c #FC3512",
":}	c #FF3811",
"<}	c #FF5914",
"[}	c #4E0000",
"}}	c #A20002",
"|}	c #EE0200",
"1}	c #A60100",
"2}	c #690001",
"3}	c #F42C08",
"4}	c #FC4010",
"5}	c #F93513",
"6}	c #F53316",
"7}	c #E9281C",
"8}	c #E5261B",
"9}	c #E1251B",
"0}	c #E32F1D",
"a}	c #EC2E1A",
"b}	c #F0311A",
"c}	c #F72E18",
"d}	c #FA2E17",
"e}	c #FD3D10",
"f}	c #F84410",
"g}	c #FC500F",
"h}	c #FC4C0B",
"i}	c #F9390F",
"j}	c #F73110",
"k}	c #F02B15",
"l}	c #E92717",
"m}	c #E6271B",
"n}	c #E02619",
"o}	c #EC2C1B",
"p}	c #EE2E1A",
"q}	c #EB2718",
"r}	c #EE2A17",
"s}	c #F63316",
"t}	c #F83414",
"u}	c #FA3412",
"v}	c #F73410",
"w}	c #F22C13",
"x}	c #EE2815",
"y}	c #EE2517",
"z}	c #E12116",
"A}	c #E21E17",
"B}	c #E2201A",
"C}	c #E2221A",
"D}	c #E32718",
"E}	c #EA311E",
"F}	c #EB2D1C",
"G}	c #E92D1D",
"H}	c #EA2E1C",
"I}	c #EA2E1A",
"J}	c #E32D1C",
"K}	c #E52F1E",
"L}	c #E42E1F",
"M}	c #E1291B",
"N}	c #DF2B1C",
"O}	c #E12A1C",
"                                                                                                                                                                                    ",
"                                                                                                                                                                                    ",
"                                                                                                                                                                                    ",
"                                                                                                                                                                                    ",
"                                                                                                                                                                                    ",
"                                                                                                                                                                                    ",
"                                                                                                                                                                                    ",
"                                                            .                                                                                                                       ",
"                                                          + @ # $                                                                                                                   ",
"                                                        % & * = - ; >                                                                                                               ",
"                                                        , ' ) ! ~ { ] ^                                                                                                             ",
"                                                            / ( _ : < [ }                                                                                                           ",
"                                                              | 1 2 3 4 5 6                                                                                                         ",
"                                                                7 8 9 0 a b c                   d   e f g                         h                                                 ",
"                                                                  i j k l m n                 o p q r s t u                       v                                                 ",
"                                                                  w x y z A B C     D E F G H I J K L M N O P                                                                       ",
"                                              Q         R S     T U V W X Y Z `  ...+.@.#.$.%.&.*.=.-.;.>.,.'.).                                                                    ",
"                                              !.~.{.].^./.(._.:.<.[.}.|.1.2.3.4.5.6.7.8.9.0.a.b.c.d.e.f.g.h.i.j.k.l.m.                                                              ",
"                                            n.o.p.q.r.s.t.u.v.w.x.y.z.|.A.B.C.Z D.E.F.G.H.I.J.K.L.M.N.O.P.Q.R.S.T.U.V.        W.                                                    ",
"                                    X.        Y.Z.`.`. +.+++@+#+$+%+&+*+=+-+;+>+,+'+)+!+~+{+]+^+]+/+(+_+:+<+[+}+|+1+2+    3+4+5+                                                    ",
"                                  6+7+      8+9+0+a+b+c+d+e+f+g+h+i+j+k+l+m+n+o+p+q+r+s+t+u+v+w+x+y+z+A+B+C+D+E+F+G+H+I+J+K+L+M+N+O+                                                ",
"                                    P+Q+R+    S+T+U+V+W+X+Y+Z+`+ @.@+@@@#@$@%@&@*@=@-@;@>@,@'@)@!@~@{@]@^@/@(@_@:@<@[@}@|@1@2@3@4@5@                                                ",
"                                    6@7@8@9@0@a@b@c@d@e@Y+f@g@h@i@j@k@l@m@n@o@p@q@r@s@t@u@v@w@x@y@z@A@B@w+C@D@E@F@G@H@I@J@K@L@M@N@O@                                                ",
"                                    P@Q@R@S@9@T@U@V@W@X@Y@Z@`@ #.#+#@###$#%#&#*#=#-#;#>#,#'#)#!#~#{#]#^#/#(#_#:#<#A+[#1+}#|#1#2#3#4#                                                ",
"                          5#6#      7#8#9#0#a#b#c#d#(@J.e#f#g#h#i#j#k#l#m#n#o#p#q#r#s#t#u#v#w#r+x#y#z#A#B#C#D#E#F#G#H#I#J#K#L#M#N#O#                                                ",
"                          P#    Q#R#S#T#U#V#W#X#Y#/+Z#`# $.$+$@$#$$$%$j@&$*$=$-$;$>$,$'$)$!$~${$]$^$/$($_$:$<$[$}$|$G#1$2$3$4$5$6$7$                                                ",
"                                8$9$0$a$b$c$:+d$A+e$f$g$h$i$j$k$l$m$n$o$p$q$r$s$t$u$v$w$x$y$z$A$B$C$D$E$F$G$H$I$J$K$L$M$N$O$5$P$Q$R$                                                ",
"                              S$T$U$V$W$X$Y$Z$A+`$ %[$.%+%@%#%$%%%&%*%=%-%;%>%,%'%)%!%~%{%]%^%/%(%_%:%<%[%}%|%1%2%3%4%5%6%7%8%9%0%a%  b%                                            ",
"                                c%d%e%f%:+g%h%i%x+j%k%l%m%n%o%p%q%r%C$s%^%t%u%v%w%x%y%z%A%B%C%D%E%F%E%G%H%I%J%K%L%}$M%N%O%P%Q%R%S%T%U%V%          W%                                ",
"                                X%Y%Z%`% &.&+&@&<$#&$&%&&&n%*&=&-&;&-&>&,&'&)&!&~&{&]&^&/&(&_&B%:&<&[&}&|&1&2&3&4&5&6&7&8&9&0&O@a&b&c&d&e&V%      f&                                ",
"                              g&h&i&j&k&g%M%l&1%m&n&o&p&q&_%C%r&s&t&>&u&v&w&x&y&z&A&B&C&D&E&F&_&;&^%=&G&H&I&J&K&L&M&N&O&F@P&Q&R&Z%S&T&I@    U&  V&W&                                ",
"                        X&5+    Y&Z&f.`&/@ *.*+*@*#*$*%*&***{%A$A%=*-*;*>*,*'*)*!*~*{*]*^*/*(*_*:*_%_%n%<*[*1&}*|*1*2*3*4*5*6*7*a@8*9*0*a*b*c*d*e*f*                                ",
"                        g*h*  i*j*k*l*W@/@m*n*o*p*q*r*s*A$=&=*t*(&F&u*v*w*x*y*z*A*B*C*D*E*F*G*;&&*&*]%**H*I*J*K*L*M*N*O*P*J.Q*R**.S#S*T*U*V*M+W*X*Y*Z*                              ",
"                        `* =c*O$.=U#O%Z$<#+=@=#=$=%=r*&=*=&*==*&-=t&;=>=,='=)=!=~={=]=^=/=(=G*_&&*/%[&C$*&_=:=<=[=}=|=J$1=2=3=4=5=6=7=8=9=0=a=b=c=d=                                ",
"                      e=f=g=h=i=j=k=l=d#m=n=o=^#p=q=r=s=t==&u=v=_%{%E&w=x=y=z=A=B=C=D=E=F=/&s&(&-=<&B$*=G=H=I=J=K=L=M=I$i%N=O=P=Q=R=S=T=U=V=W=X=Y=Z=                                ",
"                      K `= -.-T*0#+-@-#-4%5&$-%-{%&-*-=-t=C$--;-=&{%=*F*>-,-'-)-!-~-{-]-^-/-(-t&E%_%t=A$_-:-<-[-}-|-1-2-y+3-4-5-6-N#7-c$8-9-0-a-b-c-                                ",
"                        d-e-f-g-h-i-j-_@k-.*l-m-n-o-p-q-v=*&r-t==&_&s-(=t-u-v-w-x-y-z-A-B-C-D-A%;&_%n%*=E-F-G-H-I-J-K-L-M-N-O-P-Q-i-a#P-b.R-S-T-X&                                  ",
"                        U-V-W-;.X-Y-Z-`- ;<$.;+;@;#;$;/%A$r%%;&;[&F%(*u**;=;-;;;>;,;';);!;u&;=A%;&&*t=t*~;{;];^;/;(;=&_;:;<;[;};|;1;2;3=3;4;5;6;7;                                  ",
"                        8;9;0;a;b;c;Y+I. *d;e;f;g;#;q*h;G=*&i;j;=&_%t&(-k;l;m;n;o;p;q;r;s;u&(-B%-=]%t=r%~;t;u;v;w;x;y;z;A;B;4%C;[#;.D;Q.E;F;G;H;                                    ",
"                    I;8%J;K;L;M;N;O;P;D@Q;R;S;T;U;o-V;W;z$A$X;Y;t=_%-=s-(=Z;`; >z&.>+>@>#>$>s--&<&&;v=<*E-%>&>*>=>->;>>>:;,>^+'>`-)>!>~>{>]>^>/>(>                                  ",
"                  u _>:><>[>}>|>1>2>3>4>5>6>7>8>9>0>a>h;b>v=c>d>t=/%:*A%(-C-e>f>g>h>i>j>k>F*s-E%l>[&*&z$m>n>o>p>q>r>s>t>u>v>w>x>y>z>A>B>C>D>E>F>G>H>    I>                          ",
"                  J>K>L>M>N>O>P>Q>R>S>T>@=U>V>W>X>Y>Z>:*`>*& ,.,t=[&_%(&s-C-+,@,#,$,%,&,*,;=F&;&&*=&G=~;y;=,-,;,>,,,',),!,~,M@{,(@],^,2>/,(,5=_,:,<,                                ",
"    [,},          |,1,2,3,4;4,5,6,Z-M%7,8,9,0,a,b,c,d,_*E-G=e,f,v=C$]%;&=*F*'&g,h,i,j,k,/&l,-&F%]%[&r%y$m,n,o,p,q,r,s,t,u,j%Z#v,w,Y#x,y,z,A,B,C,D,E,Q$  F,G,                        ",
"                U&H,I,J,K,K,L,M,N.4-Z#N,O,P,Q,R,{%S,#;T,U,V,W,X,[&B$/%(%(&/*>=Y,Z,`, 'z%$>=*{%C%/%t=`>b>.'+'@'#'$'%':-&'*'f$='-'H#;'3=>',''')'!'~'V*{']'^'/'                        ",
"                ('_':'<'['}'|'1'g%2'x+3'4'5'6'7'A%8'9'U;0'<*=*a'C$t=B$:*t&s&/&b'c'd'e'f'>&A%(%_%t=v=z$U,g'h'i'j'k'l'm'n'u,o'p'q'{+r's't'{>u'v'Z&w']'G;x'y'                          ",
"                  z'A'B'C'E@D'E';.F'G'H'I'J'K'L'M'N'$;O'0'~;<&_%v=A$*=]%(%=*u*P'Q'R'/-/*l,t&C%=&***&y$y;S'T'U'V'W'X'Y'Z'`' ).)+)1=@)#)$)N#%)k&&)*)=)-)^>;)                          ",
"                  >),)')))!)~){)])W-^)/)()_):)<)[)})|)1)E-~;v=;&=&2)t*/%(%=*3)4)5)%&6)/*F&-&C%&;v=r%y$7);>8)9)0)a)b)c)d)e)f)g)h)i)j)k)l)m)n)o)p)Z=q)r)s)t)                          ",
"                  u)v)w)x)y)z)A)Y#B)C)D)2-E)F)G)H)I)J)K)~;U,t*F%^%`>t*/%<&-&E&L)M)N)O)>&F&-=<&n%t*2)m>t;n,P)Q)R)S)T)b>U)V)W)X)Y)y+Z)B)`)V@ !.!+!@!1@#!$!                            ",
"                    %!&!*!=!-!;!|$(+>!,!'!)!!!~!{!]!m%(*G=y;C$t=`>z$r%^!]%{%E&/!(!_!$>:!A%:*n%**v=<*7)S'<![!R)}!|!1!<*2!3!4!5!6!7!/@8!9!0!a!b!c!d!$!e!f!                            ",
"                    g!h!i!1$j!k!l!m!n!4%o!p!q!r!s!z$O'(*t*m>C$n%y$~;<*[&]%C%s&t!u!v!/*=*-&<&B$C$G=_-w!q%x!y!z!A!B!C!v=D!E!F!G!p!H!I!@-J!K!L!N$M!N!O!P!                              ",
"                    Q!R!b&S!T!U!3%V!W!X!Y!Z!`! ~.~+~@~#~n%7)<*[&U,m>`>C$[&:*(*$~%~&~(-_&{%_%***=`>m>*~q%=~-~;~>~,~'~)~!~~~{~]~^~/~(~_~:~>.<~[~}~|~1~    2~                          ",
"                    3~4~5~6~7~8~D@Z)9~[;0~a~R;b~c~d~e~t&:*w!y;n%<*y;f~_-t*^%B%u*&,g~l,B%(%/%*=G=y$f~*~h~i~j~k~l~m~n~2)o~p~q~r~s~|$P;t~u~v~T+w~}#x~y~    z~                          ",
"                A~B~C~D~E~F~G~H~I~z>J~K~L~M~(#N~O~P~:*t&C%*~t;E-G=g'm,y$<*t=C%(-Q~R~s&E%C%n%r%_-f~m,h~=~S~T~U~V~W~X~Y~Z~`~ {N*.{+{@{#{O@#!${%{&{H>*{    i=={4+                      ",
"                -{;{>{,{c&'{){!{~{{{C'C']{k-^{/{({_{:{-&^%m,*~f~U,;><{m,_-**C%;=[{}{E&-==&v=<*b>|{%>x!i~b)1{2{3{4{5{6{7{8{9{0{a{b{c{d{e{4$f{g{h{i{    j{k{l{                        ",
"                  _'m{n{o{p{q{v~7@''m)l=r{s{t{u{v{w{x{F&_%y$h~h~m>*~<{m,y$*&_%s-y{z{s-:*t=t*z$U,t;*~=~A{l'B{C{D{E{F{G{H{I{J{K{L{g%(,M{N{O{8$P{Q{R{      S{                          ",
"        T{        i*U{V{W{X{Y{${Z{`{7- ].][;H!+]@]#]$]%]/%<*q%i~y;S'S't;f~z$B$&]Q~I)A%^%*=`>y$y;t;q%*]=]-];]2{>],]i~'])]!]~]{]j-]]0$^]/]W{(];)  _]                                  ",
"        :]V-        _><]N$4$[]F>}]|]1]2]3]4]K{5]6]7]8]9]E%A$*]i~*~w!m,;>|{_-B$(&0]a]F&b]t*`>_-|{S'x!c]c]d]e]f]g]h]i]j]k]l]}$r'm]s'n]1@o]p]q]j{r]y~1~                                ",
"                      e!s]t]u]v]p.0+w]9+x]y]z]A]B]C]D]y$E%/%E]S~F]*~E-h~;>m>*=(%G]H]s-=&r%b>U,t;I]S~J]K]L]M]N]O]P]Q]R]S](#T]U]['V]W]X]Y]Z]`] ^.^+^O!                                ",
"                    @^  #^$^%^&^*^=^-^q{;^>^2',^'^)^!^~^{^<&w!]^p%q%^^*~h~m,z$B%/^(^s-/%*&U,y;S'E]A{_^:^<^[^}^j]|^r&1^2^x+3^4^5^6^[]7^8^z>9^0^a^b^c^  d^                            ",
"                      w~  e^-)E,f^g^h^`.O>i^j^k^l^m^3!n^[&E%2)i~=]o%7)z$E]*~E--&o^p^G*&;2)f~<{h~o%q^j]r^s^t^u^v^w!w^x^@&y^D@C+z^Z%X{A^R&k&Y=B^N!Q$C^D^                              ",
"                        E^F^@!E~G^H^I^J^K^L^M^3>N^O^P^Q^r%F%_%o%R^J];>D%*]I]~;=*S^T^s&n%<*|{S'E]p%U^V^W^X^t^Y^E]f~|{Z^`^ /X!./+/@/#/$/%/i=&/*/=/-/x';/                              ",
"                          >/,/'/B>)/!/~/Z{{/}]]/.{^///(/_/-=:/h~i~</E][/E]S~E-l,}/|/(-**y$w!T'*]1/v^2/3/4/5/6/g'`>7/8/9/0/a/b/c/d/e/>{f/g/{'h/i/0$j/                                ",
"                          k/l/m/n/o/s)u~p/%^q/r/s/D#t/u/v/<&w/~;=~c]]^x/<{o%m,t&y/z/(-v=c)n,x!p%A/B/C/W^u^D/E/m>F/v%G/H/I/J/K/L/M/N/O/P/Q/c&R/S/T/                                  ",
"                          U/S#G^o/V/W/X/Y/R*Z/`/ (.(+(@(#(t=$(&;q%7/v^h~2)</<{^%%(&(*(r%f~E]</v^=(=(-(;(>(,(m,&*:/'(n*)(!(~( ={(](^(/(((_(:(<(M{                                    ",
"                            [(V=b=}(|(1(2(3(4(5(6(7(8(9(0(F]F&a(E]b(c(F]t=</i~A$d(e((&<*w!o%6/f(g(b(h(i(j(J]v=s-k(l(m(n(s~P;o(p(q(r(s(:~t(:(T%u(                                    ",
"                            v(w(|>x(y(z(A(B(C(8*D(E(F(G(H(7/(&I(x!</J(_^m>A{=]z$l,K(-=m>E]R^_^b(L(M(N(O(,(I]_&P(G=Q(R(S(h%T(U(w~Y{4;V(K,W(X(Y(                                      ",
"                Z(            `( _/(._+_@_#_$_1'%_f-&_@]*_=_C%-_0't;b(x$=]v^v^7)C%;_:&g'*]J]>_x$,_7/'_)_A{C$!_~_E]{_]_|=^_/_(_o(__>':_R+<_[_}_                                      ",
"                |_              1_|@2_3_4_5_6_7_8_9_0_a_b_c__^d_e_q%q^f_,(7/,(h~&;g__%;>*]j]h_i_L(j]j__^g'k_l_m_n_m&o_~,I.p_q_r_s_t_u_v_w_x_                                        ",
"                                  y_u(R/z_A_h%1=B_C_0_B]D_E_b(F_G_]^=]H_x$,(g(S~r&I_]%n,p%h_J_g(=(K_6/F]n%P(L_~;M_N_O_&_+{P_%+Q_R_S_T_U_V_W_                                        ",
"                                    X_9$Y_Z_o)`_k^9_ :.:+:@:#:$:*(y;]^J(c(%:g(</~;&:&;n,=],(c(x$>_7/R^S'*:=:-:;:>:,:':):F'W!!:~:{:]:^:/:                                            ",
"                                    V%(:_:Y%::<:_@[:}:F(|:1:2:v^3:;&|{v^f_4:c(R^7)t=v=q%f(x$c(J_b(f(i~5:6:7:5:8:9:0:'!a:b:O&4^c:P!d:d!                                              ",
"                                    e:b*F,f:g:h:i: *j:k:l:m:n:J_[&3:(%]^J_o:J_v^h~<*`>I]v^J_H_x$L(q^_-p:q:r:R^s:t:u:}$2*Z#v:$.w:@!:,P!x:                                            ",
"                                    y:z:A::(B:C:D:E:F:n*G:H:H{I:U,*=F_I]f_f_H_7/x!y$z$q%J]J(J(x$j]=~E&J:#>H]K:t:L:M:N:3*O:P:Q:R: ^S:                                                ",
"                                    T:U:V:W:X:Y:Z:`: <.<+<U>D_@<#<v=*=B$b(J_$<b(n,~;<*t;_^f_H_f_J]V,%<&<%&*<=<-<L-;<M%><,<j.'<)<!<~<                                                ",
"                                    {<]<^</<(<_<:<<<[<}<|<1<2<3<4<E-z$B$i~f_5<g(E]b><*w!6/J(4:g(*~]%6<7<8<9<0<a<b<c<d<e<f<g<H;h<i<j<k<                                              ",
"                                    l<m<H^n<o<p<q<r<s<t<u<v<o'w<x<y<0'y$2)j]z<H_o%b>_-<{v^f_J_=]<*:*A<B<C<D<E<F<!]J{>!G<H<I<J<s(u'K<L<                                              ",
"                                        M<N<O<P<4;Q<R<S<X$F'/@T<U<V<W<E/2)L&J_J(*]0'**y;q^b(h_]^X<r%:*%>Y<o*Z<y+/~`< [.[P{+[@[#[$[                                                  ",
"                                          Z*%[&[*[=[K<-[;[>[B)>!,['[)[J]S'g'j]![~[U,C%<*R^x$_^*]S'{[I]x$][J{T>3-M.y,^[/[([_[:[<[                                                    ",
"                                          [[}[|[~.1[2[h^3[4[5[6[7[8[9[0[=]F]b(a[v^0'{%U,_^c(j]F]E/E/7/b[T>k^c[)>d[).e[f[g[h[i[                                                      ",
"                                                  j[k[<>J,l[+-d$m[n[=_o[a[f(J]{$b(f~t&2)S~7/q^i~=]h_p[q[r[Z-s[6-t[u[]'v[O!w[                                                        ",
"                                                      x[y[z[Y/:~>[A[6[B[C[D[v^c(_^]%E[F[_%U,g'A{![,(M%G[H[I[J[K[h^L[:,F,                                                            ",
"                                                           ]M[N[i-N;O[L{P[Q[R[S[=]A$O)T[l,A$=]H_U[V[W[X[Y[Z[`[u(Y( }.}                                                              ",
"                                                          +}@}0&+!P.P:#}$}%}&}*};>U,=}-}$></g(;}>},}__'}&.V:)}a%r]!}                                                                ",
"                                                            ~}{}]}^}/}(}_}:}Z$<}[}}}t*|}1}2}3}4}5}6}U#v]7}8}9}0}                                                                    ",
"                                                                a}b}c}d}U+,'G<e}f}C_g}h}W-i}j}k}R+l}8$m}u[n}                                                                        ",
"                                                                    o}p}q}r}7#s}t}s_u}v}w}x}y}z}A}B}C}[]D}                                                                          ",
"                                                                          E}F}G}H}I}R R J}K}L}M}N}O}                                                                                ",
"                                                                                                                                                                                    ",
"                                                                                                                                                                                    ",
"                                                                                                                                                                                    ",
"                                                                                                                                                                                    ",
"                                                                                                                                                                                    ",
"                                                                                                                                                                                    ",
"                                                                                                                                                                                    ",
"                                                                                                                                                                                    ",
"                                                                                                                                                                                    ",
"                                                                                                                                                                                    ",
"                                                                                                                                                                                    ",
"                                                                                                                                                                                    ",
"                                                                                                                                                                                    "};
