/* XPM */
static char * ene_2_xpm[] = {
"79 130 4526 2",
"  	c None",
". 	c #080505",
"+ 	c #0B0707",
"@ 	c #090505",
"# 	c #050202",
"$ 	c #462218",
"% 	c #1F0E0A",
"& 	c #22100C",
"* 	c #1A0A08",
"= 	c #190B08",
"- 	c #2A1916",
"; 	c #140B0A",
"> 	c #0C0605",
", 	c #110807",
"' 	c #180E0B",
") 	c #0D0807",
"! 	c #170E0D",
"~ 	c #3D2118",
"{ 	c #582B20",
"] 	c #4A241C",
"^ 	c #4C2721",
"/ 	c #4E2820",
"( 	c #46231C",
"_ 	c #532E27",
": 	c #43251F",
"< 	c #321E1B",
"[ 	c #2B1A18",
"} 	c #1D0F0D",
"| 	c #070404",
"1 	c #19100E",
"2 	c #251815",
"3 	c #1E0E0A",
"4 	c #2F160F",
"5 	c #54281C",
"6 	c #653326",
"7 	c #603125",
"8 	c #68382C",
"9 	c #6A3326",
"0 	c #884B39",
"a 	c #784739",
"b 	c #663F34",
"c 	c #553128",
"d 	c #3E221B",
"e 	c #150908",
"f 	c #100707",
"g 	c #261916",
"h 	c #231814",
"i 	c #0C0807",
"j 	c #0C0806",
"k 	c #1D1513",
"l 	c #231B18",
"m 	c #0F0A09",
"n 	c #251916",
"o 	c #231512",
"p 	c #25110D",
"q 	c #552B20",
"r 	c #622F25",
"s 	c #874331",
"t 	c #944D37",
"u 	c #914A36",
"v 	c #9A5540",
"w 	c #A05C44",
"x 	c #AC6C55",
"y 	c #A26D58",
"z 	c #A7735F",
"A 	c #9E6E5D",
"B 	c #965B48",
"C 	c #602E23",
"D 	c #301511",
"E 	c #1D110F",
"F 	c #1A110F",
"G 	c #16110F",
"H 	c #110C0B",
"I 	c #140E0C",
"J 	c #1E1411",
"K 	c #281D19",
"L 	c #40322B",
"M 	c #372A25",
"N 	c #241B17",
"O 	c #1D1312",
"P 	c #200F0C",
"Q 	c #452017",
"R 	c #6F3225",
"S 	c #763A2B",
"T 	c #A3573E",
"U 	c #B7745B",
"V 	c #BD7B61",
"W 	c #C57D62",
"X 	c #C6886E",
"Y 	c #C48A74",
"Z 	c #CE9980",
"` 	c #DBAE94",
" .	c #C89981",
"..	c #B1705B",
"+.	c #89432F",
"@.	c #471D15",
"#.	c #251310",
"$.	c #1A100E",
"%.	c #150D0C",
"&.	c #1F1714",
"*.	c #1B1312",
"=.	c #18100E",
"-.	c #18110E",
";.	c #1A1410",
">.	c #13100C",
",.	c #0E0A08",
"'.	c #140D0C",
").	c #2C1F1B",
"!.	c #2C211C",
"~.	c #322722",
"{.	c #2D221E",
"].	c #342722",
"^.	c #17100F",
"/.	c #210805",
"(.	c #5E2C22",
"_.	c #7F3A2B",
":.	c #923E2A",
"<.	c #A1503A",
"[.	c #BD7A60",
"}.	c #C27D62",
"|.	c #D4987B",
"1.	c #D5A892",
"2.	c #DCBEAF",
"3.	c #DAB7A4",
"4.	c #E5C7B1",
"5.	c #D0A992",
"6.	c #C88F75",
"7.	c #A15842",
"8.	c #7D3D2E",
"9.	c #633A2C",
"0.	c #37211A",
"a.	c #261814",
"b.	c #2B1D1A",
"c.	c #241916",
"d.	c #281D1A",
"e.	c #1F1614",
"f.	c #150F0D",
"g.	c #0D0A08",
"h.	c #16100F",
"i.	c #1B1412",
"j.	c #2A1F1C",
"k.	c #322520",
"l.	c #120A09",
"m.	c #491C13",
"n.	c #753425",
"o.	c #6C2C1F",
"p.	c #7D301D",
"q.	c #B15C3F",
"r.	c #B66A4E",
"s.	c #BE755B",
"t.	c #D6AE9A",
"u.	c #DAAE99",
"v.	c #E4D3C8",
"w.	c #DAB6A5",
"x.	c #D69E84",
"y.	c #CF9779",
"z.	c #BF8971",
"A.	c #A95C44",
"B.	c #793524",
"C.	c #7B412E",
"D.	c #512B1F",
"E.	c #37241E",
"F.	c #221613",
"G.	c #201613",
"H.	c #241914",
"I.	c #0F0908",
"J.	c #0E0907",
"K.	c #241D1A",
"L.	c #251D1A",
"M.	c #322824",
"N.	c #241B18",
"O.	c #1E1210",
"P.	c #1B0D0A",
"Q.	c #30110B",
"R.	c #542015",
"S.	c #782E1D",
"T.	c #883A23",
"U.	c #B3583B",
"V.	c #C98062",
"W.	c #D09F87",
"X.	c #C8A490",
"Y.	c #D9B6A1",
"Z.	c #DBAD93",
"`.	c #D3906D",
" +	c #C4896A",
".+	c #BB7758",
"++	c #A85037",
"@+	c #9F422B",
"#+	c #742E1E",
"$+	c #64281A",
"%+	c #55251A",
"&+	c #36201A",
"*+	c #241815",
"=+	c #332420",
"-+	c #2F211B",
";+	c #261A15",
">+	c #211813",
",+	c #1F1815",
"'+	c #1D1716",
")+	c #2C221E",
"!+	c #2C231E",
"~+	c #1F1512",
"{+	c #20110E",
"]+	c #2D1610",
"^+	c #310E09",
"/+	c #4E160C",
"(+	c #6F2A1B",
"_+	c #6D2F20",
":+	c #8D3621",
"<+	c #B55E45",
"[+	c #D0A28D",
"}+	c #D39B85",
"|+	c #CC8D70",
"1+	c #A86950",
"2+	c #AF5C3F",
"3+	c #8E4B34",
"4+	c #5E2417",
"5+	c #8E2C1E",
"6+	c #82291C",
"7+	c #611A10",
"8+	c #441109",
"9+	c #4B1C14",
"0+	c #271512",
"a+	c #211714",
"b+	c #382923",
"c+	c #402E26",
"d+	c #31231C",
"e+	c #261C17",
"f+	c #281F19",
"g+	c #1E1613",
"h+	c #070505",
"i+	c #090706",
"j+	c #0D0A09",
"k+	c #1E1A18",
"l+	c #1F1816",
"m+	c #160F0F",
"n+	c #1C0E0B",
"o+	c #160806",
"p+	c #130504",
"q+	c #2E3844",
"r+	c #4B5C6B",
"s+	c #5D636D",
"t+	c #6A5D5E",
"u+	c #855747",
"v+	c #A97B64",
"w+	c #B77655",
"x+	c #AF5F36",
"y+	c #A04F2A",
"z+	c #884024",
"A+	c #702E1B",
"B+	c #6A261A",
"C+	c #8A4639",
"D+	c #956B59",
"E+	c #8E5E4D",
"F+	c #605148",
"G+	c #3D261F",
"H+	c #150706",
"I+	c #291E19",
"J+	c #362821",
"K+	c #2D211C",
"L+	c #130E0C",
"M+	c #1B1511",
"N+	c #0F0B09",
"O+	c #0B0807",
"P+	c #150B0A",
"Q+	c #100505",
"R+	c #1B0B06",
"S+	c #212427",
"T+	c #576B79",
"U+	c #748C9C",
"V+	c #97A2A3",
"W+	c #A6AFAE",
"X+	c #959793",
"Y+	c #766956",
"Z+	c #A7784C",
"`+	c #845535",
" @	c #5F331A",
".@	c #3E180B",
"+@	c #53403C",
"@@	c #6E3F37",
"#@	c #7B3B2E",
"$@	c #7B4438",
"%@	c #7F5447",
"&@	c #77756A",
"*@	c #62574D",
"=@	c #0B0202",
"-@	c #40302A",
";@	c #3A2C27",
">@	c #3D2F2A",
",@	c #140F0D",
"'@	c #0D090A",
")@	c #110D0C",
"!@	c #140E0D",
"~@	c #110909",
"{@	c #0C0403",
"]@	c #3B2016",
"^@	c #2F2422",
"/@	c #505255",
"(@	c #5B6770",
"_@	c #697276",
":@	c #808D94",
"<@	c #858F92",
"[@	c #767060",
"}@	c #70583C",
"|@	c #5D3B25",
"1@	c #150402",
"2@	c #2C2A28",
"3@	c #9F948D",
"4@	c #98645B",
"5@	c #6A221A",
"6@	c #6C2119",
"7@	c #66241B",
"8@	c #4C362F",
"9@	c #7E5945",
"0@	c #2D1C12",
"a@	c #231410",
"b@	c #241A16",
"c@	c #231A18",
"d@	c #291F1C",
"e@	c #100C0A",
"f@	c #221512",
"g@	c #1F0D0B",
"h@	c #341A14",
"i@	c #2E241B",
"j@	c #645846",
"k@	c #5B6260",
"l@	c #59666C",
"m@	c #535D64",
"n@	c #67706A",
"o@	c #4A5240",
"p@	c #2C2E23",
"q@	c #22150C",
"r@	c #443317",
"s@	c #53463B",
"t@	c #836A60",
"u@	c #7E362C",
"v@	c #440E0C",
"w@	c #270505",
"x@	c #2A0B08",
"y@	c #421C15",
"z@	c #6E3D2A",
"A@	c #311B12",
"B@	c #33221E",
"C@	c #170E0C",
"D@	c #0E0A0B",
"E@	c #291A16",
"F@	c #301712",
"G@	c #48281E",
"H@	c #3A3124",
"I@	c #695F49",
"J@	c #5D5F4F",
"K@	c #545E54",
"L@	c #48514A",
"M@	c #555E4D",
"N@	c #4C5744",
"O@	c #313226",
"P@	c #332211",
"Q@	c #876E37",
"R@	c #6C5C3C",
"S@	c #80644A",
"T@	c #863B2C",
"U@	c #7F2C21",
"V@	c #581911",
"W@	c #3C130E",
"X@	c #652F21",
"Y@	c #6C3223",
"Z@	c #1E0B0A",
"`@	c #271917",
" #	c #231513",
".#	c #090607",
"+#	c #1B0E0B",
"@#	c #3D160D",
"##	c #602818",
"$#	c #332B1F",
"%#	c #655F44",
"&#	c #5E5D43",
"*#	c #5D6443",
"=#	c #5A6244",
"-#	c #4F5641",
";#	c #545742",
">#	c #6D6B5A",
",#	c #744A2C",
"'#	c #8F6C3A",
")#	c #776C48",
"!#	c #604F2D",
"~#	c #4C3221",
"{#	c #91412D",
"]#	c #9E442C",
"^#	c #73291B",
"/#	c #85422F",
"(#	c #714B37",
"_#	c #160C09",
":#	c #201210",
"<#	c #100909",
"[#	c #562416",
"}#	c #9E4628",
"|#	c #471E0F",
"1#	c #3B3521",
"2#	c #585236",
"3#	c #4A4C31",
"4#	c #4B4B34",
"5#	c #433726",
"6#	c #4B4433",
"7#	c #706955",
"8#	c #9B6C38",
"9#	c #966432",
"0#	c #8A703D",
"a#	c #674523",
"b#	c #3B2919",
"c#	c #391B12",
"d#	c #5A2919",
"e#	c #4B190F",
"f#	c #3A2016",
"g#	c #1A0D0B",
"h#	c #0C0706",
"i#	c #3E1910",
"j#	c #974227",
"k#	c #9A4927",
"l#	c #451C0B",
"m#	c #4F2E18",
"n#	c #5C391E",
"o#	c #592D18",
"p#	c #4A2513",
"q#	c #512A11",
"r#	c #824E22",
"s#	c #A16A35",
"t#	c #9B5628",
"u#	c #925528",
"v#	c #AB5C2B",
"w#	c #684226",
"x#	c #21150C",
"y#	c #080504",
"z#	c #23100B",
"A#	c #462317",
"B#	c #6D3D28",
"C#	c #33251E",
"D#	c #483F36",
"E#	c #0B0607",
"F#	c #481E11",
"G#	c #863C1C",
"H#	c #692A12",
"I#	c #824B2A",
"J#	c #7A4C2A",
"K#	c #6E2D15",
"L#	c #5B2814",
"M#	c #77421F",
"N#	c #905527",
"O#	c #92491E",
"P#	c #84421B",
"Q#	c #824523",
"R#	c #7B4120",
"S#	c #734A2F",
"T#	c #4E321F",
"U#	c #592B1C",
"V#	c #4F261A",
"W#	c #542618",
"X#	c #683521",
"Y#	c #382B24",
"Z#	c #726558",
"`#	c #61554A",
" $	c #26201D",
".$	c #040405",
"+$	c #030102",
"@$	c #44170C",
"#$	c #702A17",
"$$	c #6E321A",
"%$	c #3F1F10",
"&$	c #391108",
"*$	c #39190D",
"=$	c #482619",
"-$	c #4F3328",
";$	c #602C19",
">$	c #461D10",
",$	c #422210",
"'$	c #3D2211",
")$	c #442919",
"!$	c #522D1D",
"~$	c #793621",
"{$	c #70321F",
"]$	c #4A2013",
"^$	c #572819",
"/$	c #1A0B09",
"($	c #493B34",
"_$	c #6D5E53",
":$	c #5A4F47",
"<$	c #645850",
"[$	c #37302B",
"}$	c #020203",
"|$	c #120403",
"1$	c #44190C",
"2$	c #874020",
"3$	c #5C2512",
"4$	c #270B06",
"5$	c #39180F",
"6$	c #341C17",
"7$	c #35201C",
"8$	c #553527",
"9$	c #5C3829",
"0$	c #150909",
"a$	c #21100F",
"b$	c #492519",
"c$	c #592D1D",
"d$	c #733825",
"e$	c #733522",
"f$	c #492319",
"g$	c #26120E",
"h$	c #140F0E",
"i$	c #3E322C",
"j$	c #65564D",
"k$	c #7A6B61",
"l$	c #887B70",
"m$	c #756B65",
"n$	c #4F423A",
"o$	c #62544A",
"p$	c #817366",
"q$	c #817569",
"r$	c #3C3530",
"s$	c #060404",
"t$	c #010001",
"u$	c #0B0303",
"v$	c #561F10",
"w$	c #6D2411",
"x$	c #411408",
"y$	c #642817",
"z$	c #4D1C10",
"A$	c #43130C",
"B$	c #552D1D",
"C$	c #713F29",
"D$	c #5B2F1C",
"E$	c #421D14",
"F$	c #542516",
"G$	c #76331D",
"H$	c #762D19",
"I$	c #6D2919",
"J$	c #2A140F",
"K$	c #291C19",
"L$	c #443832",
"M$	c #7E6C60",
"N$	c #948275",
"O$	c #938477",
"P$	c #A09286",
"Q$	c #8F837A",
"R$	c #82786F",
"S$	c #6F6660",
"T$	c #3A322F",
"U$	c #51453F",
"V$	c #7D6C5F",
"W$	c #917E6F",
"X$	c #988575",
"Y$	c #807063",
"Z$	c #3A312B",
"`$	c #080506",
" %	c #0B0708",
".%	c #070304",
"+%	c #280A05",
"@%	c #722E17",
"#%	c #7A2E15",
"$%	c #8E2B14",
"%%	c #A54D2F",
"&%	c #9E5637",
"*%	c #905437",
"=%	c #A35B36",
"-%	c #9B4B2A",
";%	c #7D3A21",
">%	c #9C5D37",
",%	c #934F2E",
"'%	c #6D301A",
")%	c #330F08",
"!%	c #0A0403",
"~%	c #2A1D1A",
"{%	c #29201C",
"]%	c #77675C",
"^%	c #A79485",
"/%	c #AA9889",
"(%	c #9D8E80",
"_%	c #97877B",
":%	c #A19389",
"<%	c #A79A8F",
"[%	c #A4988E",
"}%	c #A79C93",
"|%	c #ABA097",
"1%	c #AA9F97",
"2%	c #9B9289",
"3%	c #796E67",
"4%	c #625853",
"5%	c #473D3A",
"6%	c #655851",
"7%	c #9F9082",
"8%	c #B39F8E",
"9%	c #A88E7D",
"0%	c #927B6D",
"a%	c #392E28",
"b%	c #0F0B0B",
"c%	c #150F0F",
"d%	c #070405",
"e%	c #0C0708",
"f%	c #130807",
"g%	c #41180C",
"h%	c #6F2B13",
"i%	c #9C361A",
"j%	c #AC4F2F",
"k%	c #A76F45",
"l%	c #BF703D",
"m%	c #C76F38",
"n%	c #BA6232",
"o%	c #C66B3D",
"p%	c #CA8751",
"q%	c #894C2E",
"r%	c #311309",
"s%	c #020102",
"t%	c #050304",
"u%	c #4D413A",
"v%	c #968375",
"w%	c #C2B09F",
"x%	c #B2A191",
"y%	c #A19183",
"z%	c #917E72",
"A%	c #AC9D8F",
"B%	c #C8BAAB",
"C%	c #CABDB0",
"D%	c #D1C5B8",
"E%	c #CBC0B4",
"F%	c #C9BFB4",
"G%	c #C9C0B6",
"H%	c #B5ADA3",
"I%	c #B0A69B",
"J%	c #898078",
"K%	c #7D7670",
"L%	c #90887E",
"M%	c #B3A99D",
"N%	c #BBAFA1",
"O%	c #9E9186",
"P%	c #948880",
"Q%	c #574C47",
"R%	c #6B5E57",
"S%	c #C4B7A8",
"T%	c #C1AE9C",
"U%	c #AD9180",
"V%	c #A79282",
"W%	c #493C35",
"X%	c #241917",
"Y%	c #170F0E",
"Z%	c #110B0B",
"`%	c #070303",
" &	c #260D05",
".&	c #4B1A0C",
"+&	c #7D391E",
"@&	c #A8683C",
"#&	c #BF713E",
"$&	c #A8552C",
"%&	c #C76D3C",
"&&	c #C37D4E",
"*&	c #A16B3E",
"=&	c #62351A",
"-&	c #080101",
";&	c #120908",
">&	c #1A1412",
",&	c #5D4E45",
"'&	c #A99282",
")&	c #C4AF9C",
"!&	c #C3B1A1",
"~&	c #B2A396",
"{&	c #948378",
"]&	c #B5A597",
"^&	c #CEC3B6",
"/&	c #CBC0B2",
"(&	c #C8BDB0",
"_&	c #C0B5A9",
":&	c #BBB0A6",
"<&	c #BDB3A9",
"[&	c #B8AEA5",
"}&	c #ACA197",
"|&	c #948A82",
"1&	c #948D84",
"2&	c #8F8982",
"3&	c #56504C",
"4&	c #91877E",
"5&	c #B5A99D",
"6&	c #BAAFA2",
"7&	c #D2C6B8",
"8&	c #CCC0B2",
"9&	c #9A9086",
"0&	c #726660",
"a&	c #796B64",
"b&	c #AA9A8E",
"c&	c #E0D5C6",
"d&	c #CAB8A7",
"e&	c #A47E6B",
"f&	c #8C6B5C",
"g&	c #503F37",
"h&	c #1A1110",
"i&	c #2E1F1B",
"j&	c #34201A",
"k&	c #1A0F0D",
"l&	c #170D0B",
"m&	c #090405",
"n&	c #040101",
"o&	c #030101",
"p&	c #110101",
"q&	c #3D1A0C",
"r&	c #703922",
"s&	c #6B331E",
"t&	c #834729",
"u&	c #7B482C",
"v&	c #382312",
"w&	c #100803",
"x&	c #160C0A",
"y&	c #3A2721",
"z&	c #130B0A",
"A&	c #524842",
"B&	c #88776C",
"C&	c #BEA896",
"D&	c #C1A795",
"E&	c #BBA392",
"F&	c #957E70",
"G&	c #7C655A",
"H&	c #92857B",
"I&	c #C1BCB4",
"J&	c #C2BAB0",
"K&	c #C2B7AC",
"L&	c #B4A89D",
"M&	c #BDB3A8",
"N&	c #CDC4B9",
"O&	c #CDC2B6",
"P&	c #B7ACA1",
"Q&	c #BAB0A5",
"R&	c #A49B92",
"S&	c #837B74",
"T&	c #635C57",
"U&	c #958C84",
"V&	c #B9AFA3",
"W&	c #D1C5B7",
"X&	c #C5B9AB",
"Y&	c #CFC2B3",
"Z&	c #C0B4A8",
"`&	c #938B83",
" *	c #4B423E",
".*	c #9F9389",
"+*	c #D5C8B9",
"@*	c #E5DBCB",
"#*	c #C3B5A6",
"$*	c #AA9281",
"%*	c #806151",
"&*	c #3F2F28",
"**	c #191110",
"=*	c #412C26",
"-*	c #472A22",
";*	c #21100D",
">*	c #140908",
",*	c #110606",
"'*	c #0A0404",
")*	c #010000",
"!*	c #030000",
"~*	c #090202",
"{*	c #100302",
"]*	c #3D160A",
"^*	c #481A0C",
"/*	c #100001",
"(*	c #000001",
"_*	c #2C1C18",
":*	c #281A16",
"<*	c #1F1A17",
"[*	c #89786D",
"}*	c #BFAA98",
"|*	c #C9B5A2",
"1*	c #C5AF9E",
"2*	c #AC897A",
"3*	c #6F4E45",
"4*	c #624E47",
"5*	c #7A6D66",
"6*	c #B5ADA7",
"7*	c #A69E97",
"8*	c #B0A79E",
"9*	c #C1B3A6",
"0*	c #E1D8CB",
"a*	c #ECE4D7",
"b*	c #ECE4D8",
"c*	c #E2D8CB",
"d*	c #DCD2C6",
"e*	c #CFC5B8",
"f*	c #AEA295",
"g*	c #857B73",
"h*	c #7A726B",
"i*	c #5A5651",
"j*	c #91887F",
"k*	c #B0A599",
"l*	c #CCC3B6",
"m*	c #D3C8BC",
"n*	c #BFB4A8",
"o*	c #CEC5B8",
"p*	c #C9BEB1",
"q*	c #5C504A",
"r*	c #5B5550",
"s*	c #E7DFD2",
"t*	c #D6CBBA",
"u*	c #CCBEAC",
"v*	c #957F70",
"w*	c #65554A",
"x*	c #130B0C",
"y*	c #422C24",
"z*	c #543327",
"A*	c #210E0A",
"B*	c #200D0A",
"C*	c #280F0A",
"D*	c #280A06",
"E*	c #100201",
"F*	c #050000",
"G*	c #060101",
"H*	c #050101",
"I*	c #110302",
"J*	c #130401",
"K*	c #060303",
"L*	c #170D0A",
"M*	c #241612",
"N*	c #0F0606",
"O*	c #2B2320",
"P*	c #7D6A5F",
"Q*	c #937A6B",
"R*	c #A08676",
"S*	c #B19E8F",
"T*	c #7D6056",
"U*	c #3E2725",
"V*	c #60554F",
"W*	c #786C65",
"X*	c #8A8179",
"Y*	c #9F948A",
"Z*	c #C9C0B4",
"`*	c #D5CABD",
" =	c #EDE5D9",
".=	c #EEE7DE",
"+=	c #EBE3D9",
"@=	c #E6DDD1",
"#=	c #D3C9BD",
"$=	c #ABA197",
"%=	c #A49A8E",
"&=	c #9B9086",
"*=	c #80766E",
"==	c #5C5450",
"-=	c #4B4845",
";=	c #87827A",
">=	c #A39990",
",=	c #B3A99E",
"'=	c #C3B9AC",
")=	c #D5CBBD",
"!=	c #C9BDAF",
"~=	c #D5C9BB",
"{=	c #BCAB9E",
"]=	c #867369",
"^=	c #533430",
"/=	c #360B08",
"(=	c #624E49",
"_=	c #837D76",
":=	c #978D82",
"<=	c #BDAB9A",
"[=	c #D4C3B2",
"}=	c #A69888",
"|=	c #201B17",
"1=	c #3F2820",
"2=	c #3A231C",
"3=	c #25130E",
"4=	c #4F291D",
"5=	c #492117",
"6=	c #250805",
"7=	c #120303",
"8=	c #100303",
"9=	c #0F0302",
"0=	c #130302",
"a=	c #0A0202",
"b=	c #040202",
"c=	c #160D0C",
"d=	c #1A1413",
"e=	c #756B63",
"f=	c #988A81",
"g=	c #8D6E61",
"h=	c #8F6658",
"i=	c #623C35",
"j=	c #532C26",
"k=	c #664640",
"l=	c #61524D",
"m=	c #9D9188",
"n=	c #B2A69B",
"o=	c #B1A69C",
"p=	c #C1B5A9",
"q=	c #BBAEA1",
"r=	c #B1A89E",
"s=	c #B5ACA4",
"t=	c #BFB5AB",
"u=	c #D1C8BC",
"v=	c #D6CCC1",
"w=	c #C2B8AD",
"x=	c #B4ABA0",
"y=	c #888078",
"z=	c #9D9289",
"A=	c #867E78",
"B=	c #615C58",
"C=	c #969189",
"D=	c #A39B92",
"E=	c #A9A299",
"F=	c #ABA298",
"G=	c #BFB2A4",
"H=	c #C6B9AA",
"I=	c #D7CABB",
"J=	c #A99084",
"K=	c #B39888",
"L=	c #934B3E",
"M=	c #84271C",
"N=	c #833A30",
"O=	c #7F6057",
"P=	c #CBB7A4",
"Q=	c #D8C6B2",
"R=	c #AD9D8D",
"S=	c #413731",
"T=	c #000000",
"U=	c #2A1B16",
"V=	c #36231C",
"W=	c #442A20",
"X=	c #5C392C",
"Y=	c #503025",
"Z=	c #260E09",
"`=	c #150302",
" -	c #0E0201",
".-	c #140302",
"+-	c #1A0403",
"@-	c #120505",
"#-	c #190E0C",
"$-	c #2E1F19",
"%-	c #291C17",
"&-	c #1D120F",
"*-	c #423B38",
"=-	c #B5A99C",
"--	c #D0BAAC",
";-	c #CA8F7A",
">-	c #C76A54",
",-	c #7F291F",
"'-	c #7D3931",
")-	c #715851",
"!-	c #77675F",
"~-	c #91857C",
"{-	c #97897F",
"]-	c #94867B",
"^-	c #BCAEA1",
"/-	c #BEB2A7",
"(-	c #9D938A",
"_-	c #A1948A",
":-	c #A79A90",
"<-	c #CAC1B7",
"[-	c #C9C1B6",
"}-	c #C1BAB0",
"|-	c #978F87",
"1-	c #605650",
"2-	c #615955",
"3-	c #6A6561",
"4-	c #8C877F",
"5-	c #ABA399",
"6-	c #9C968E",
"7-	c #948C83",
"8-	c #C2B7A8",
"9-	c #D3C8B9",
"0-	c #C9B8AB",
"a-	c #B08276",
"b-	c #935747",
"c-	c #A84230",
"d-	c #96291B",
"e-	c #823026",
"f-	c #98786C",
"g-	c #D5C5B5",
"h-	c #DCCCBA",
"i-	c #DBCBB8",
"j-	c #D0C3B3",
"k-	c #7B6F65",
"l-	c #030001",
"m-	c #140C0A",
"n-	c #23130E",
"o-	c #4D2C21",
"p-	c #5E3325",
"q-	c #451E15",
"r-	c #300E08",
"s-	c #1E0402",
"t-	c #260603",
"u-	c #370E06",
"v-	c #481D0E",
"w-	c #43190F",
"x-	c #5D3829",
"y-	c #442C22",
"z-	c #201310",
"A-	c #0F0909",
"B-	c #574D48",
"C-	c #B8A799",
"D-	c #C19C8A",
"E-	c #BF5948",
"F-	c #9E2116",
"G-	c #831910",
"H-	c #86322A",
"I-	c #66524B",
"J-	c #796E66",
"K-	c #92867D",
"L-	c #958981",
"M-	c #ADA094",
"N-	c #B9ADA0",
"O-	c #988E86",
"P-	c #968C83",
"Q-	c #9B918A",
"R-	c #B4A89F",
"S-	c #AEA398",
"T-	c #B4AAA0",
"U-	c #B8AEA3",
"V-	c #B2A89E",
"W-	c #8C847C",
"X-	c #58524D",
"Y-	c #443E3A",
"Z-	c #726D69",
"`-	c #847E78",
" ;	c #B5B0A7",
".;	c #A29D95",
"+;	c #8E867E",
"@;	c #C7BDAF",
"#;	c #D3CABC",
"$;	c #AD9D8F",
"%;	c #BB9584",
"&;	c #BA6753",
"*;	c #A34735",
"=;	c #70160E",
"-;	c #97554A",
";;	c #CAB8AA",
">;	c #D4C4B2",
",;	c #CBBEAE",
"';	c #E3D9C8",
");	c #D5C4B2",
"!;	c #B8A08A",
"~;	c #382C24",
"{;	c #160B09",
"];	c #2D1812",
"^;	c #512B20",
"/;	c #653223",
"(;	c #692817",
"_;	c #53190A",
":;	c #2F0602",
"<;	c #471105",
"[;	c #722A12",
"};	c #834122",
"|;	c #592815",
"1;	c #3C271F",
"2;	c #3F2B24",
"3;	c #1C110E",
"4;	c #89796E",
"5;	c #B69E8E",
"6;	c #C08A78",
"7;	c #B94A3A",
"8;	c #8F160E",
"9;	c #80271D",
"0;	c #753E34",
"a;	c #62534D",
"b;	c #766C64",
"c;	c #938A82",
"d;	c #736A65",
"e;	c #7F726B",
"f;	c #665A53",
"g;	c #756861",
"h;	c #9A8D83",
"i;	c #C8BBAF",
"j;	c #C3B5A9",
"k;	c #A89C91",
"l;	c #AA9F96",
"m;	c #B3A99F",
"n;	c #BBB1A6",
"o;	c #CEC7BC",
"p;	c #BCB4AA",
"q;	c #928C84",
"r;	c #4B4440",
"s;	c #3C3734",
"t;	c #595450",
"u;	c #7B7570",
"v;	c #7D7872",
"w;	c #A09C94",
"x;	c #A5A096",
"y;	c #898179",
"z;	c #AEA397",
"A;	c #D2C8B9",
"B;	c #ADA396",
"C;	c #C4AC9B",
"D;	c #BD6C5C",
"E;	c #C44A39",
"F;	c #9A4C41",
"G;	c #A1776A",
"H;	c #DECEBC",
"I;	c #CFC0AD",
"J;	c #C2B1A0",
"K;	c #DCD0BF",
"L;	c #D6C3B0",
"M;	c #C6A68E",
"N;	c #6D5648",
"O;	c #120705",
"P;	c #331912",
"Q;	c #884227",
"R;	c #923B1C",
"S;	c #7A3014",
"T;	c #743013",
"U;	c #92421D",
"V;	c #A1542E",
"W;	c #703C22",
"X;	c #150503",
"Y;	c #090403",
"Z;	c #0A0505",
"`;	c #3C3029",
" >	c #B39B88",
".>	c #BFA492",
"+>	c #BB7969",
"@>	c #B54133",
"#>	c #8A130B",
"$>	c #671911",
"%>	c #613A33",
"&>	c #695D56",
"*>	c #6A615A",
"=>	c #786E68",
"->	c #5E5652",
";>	c #5C514B",
">>	c #6F6761",
",>	c #ADA298",
"'>	c #CCC0B6",
")>	c #CEC0B3",
"!>	c #CBBEB0",
"~>	c #C0B2A5",
"{>	c #BEB1A5",
"]>	c #D1C7BB",
"^>	c #C1B6AB",
"/>	c #A9A198",
"(>	c #867E77",
"_>	c #665D57",
":>	c #69635E",
"<>	c #615C57",
"[>	c #88837C",
"}>	c #6E6964",
"|>	c #938F87",
"1>	c #A39F95",
"2>	c #726C64",
"3>	c #92867B",
"4>	c #BDB0A2",
"5>	c #C2B7A9",
"6>	c #B09283",
"7>	c #B57A6A",
"8>	c #B46E5D",
"9>	c #B49485",
"0>	c #CDB8AB",
"a>	c #E2D5C4",
"b>	c #E4D6C3",
"c>	c #DECEBB",
"d>	c #C7B19E",
"e>	c #BD9B83",
"f>	c #9C7D6A",
"g>	c #392D27",
"h>	c #0C0505",
"i>	c #200F0A",
"j>	c #70331D",
"k>	c #8A4322",
"l>	c #984B22",
"m>	c #A95022",
"n>	c #9F4822",
"o>	c #5A2F19",
"p>	c #2E1A0E",
"q>	c #160805",
"r>	c #0C0808",
"s>	c #403832",
"t>	c #96897A",
"u>	c #C0AE9C",
"v>	c #B38D7D",
"w>	c #A9362D",
"x>	c #7F120D",
"y>	c #59130D",
"z>	c #542B26",
"A>	c #5E524B",
"B>	c #4A423E",
"C>	c #514C48",
"D>	c #3F3B38",
"E>	c #56514B",
"F>	c #ACA297",
"G>	c #B2A79D",
"H>	c #C5BEB4",
"I>	c #C1B5A8",
"J>	c #C9BFB3",
"K>	c #CFC4B7",
"L>	c #DBCFC1",
"M>	c #CABDAE",
"N>	c #C9BFB2",
"O>	c #BFB7AC",
"P>	c #93887E",
"Q>	c #6F6760",
"R>	c #4E4A45",
"S>	c #79746D",
"T>	c #716C66",
"U>	c #7D7971",
"V>	c #89847D",
"W>	c #635D58",
"X>	c #766C63",
"Y>	c #A19385",
"Z>	c #B5A798",
"`>	c #ABA094",
" ,	c #A28D81",
".,	c #80685D",
"+,	c #756056",
"@,	c #867268",
"#,	c #B49B8C",
"$,	c #DAC8B7",
"%,	c #E8D9C6",
"&,	c #DDD0BF",
"*,	c #B29C8B",
"=,	c #AA927F",
"-,	c #A58E7B",
";,	c #645248",
">,	c #201411",
",,	c #0B0606",
"',	c #110705",
"),	c #401C11",
"!,	c #69331B",
"~,	c #934920",
"{,	c #9C4D22",
"],	c #6D2D14",
"^,	c #2C0D05",
"/,	c #110503",
"(,	c #170906",
"_,	c #060102",
":,	c #372C26",
"<,	c #564B42",
"[,	c #8E8577",
"},	c #B6A792",
"|,	c #B09D88",
"1,	c #954033",
"2,	c #6C1A14",
"3,	c #76251D",
"4,	c #562D26",
"5,	c #443935",
"6,	c #373331",
"7,	c #4A4644",
"8,	c #413B38",
"9,	c #776E67",
"0,	c #ACA196",
"a,	c #B1A8A0",
"b,	c #AAA096",
"c,	c #807369",
"d,	c #6E5F58",
"e,	c #7C6E66",
"f,	c #9D8F85",
"g,	c #D4C9BD",
"h,	c #D6CBBD",
"i,	c #D0C2B3",
"j,	c #C5B5A5",
"k,	c #CABEAF",
"l,	c #C2B8AA",
"m,	c #90867D",
"n,	c #5F554E",
"o,	c #4F4C47",
"p,	c #827E76",
"q,	c #79746E",
"r,	c #64605B",
"s,	c #5A5550",
"t,	c #6E6761",
"u,	c #534D48",
"v,	c #605851",
"w,	c #887D73",
"x,	c #BBAC9E",
"y,	c #9E786A",
"z,	c #6B4338",
"A,	c #50261F",
"B,	c #39130E",
"C,	c #5B4B45",
"D,	c #B5AAA0",
"E,	c #D2C3B1",
"F,	c #E0D2C1",
"G,	c #C9AE9A",
"H,	c #BCA794",
"I,	c #BFAD9B",
"J,	c #AA9381",
"K,	c #53473F",
"L,	c #1C0F0B",
"M,	c #2B150D",
"N,	c #422214",
"O,	c #4C250F",
"P,	c #6E3318",
"Q,	c #874321",
"R,	c #532612",
"S,	c #2B130A",
"T,	c #291915",
"U,	c #766154",
"V,	c #796A5B",
"W,	c #9D947B",
"X,	c #B4B280",
"Y,	c #969874",
"Z,	c #8A573D",
"`,	c #632215",
" '	c #411C18",
".'	c #40302C",
"+'	c #302A28",
"@'	c #2C2929",
"#'	c #34302F",
"$'	c #574E49",
"%'	c #7B6F67",
"&'	c #817A72",
"*'	c #7C7871",
"='	c #72554E",
"-'	c #84342A",
";'	c #A03627",
">'	c #A9402E",
",'	c #9B5546",
"''	c #9D7C74",
")'	c #998179",
"!'	c #AA9D91",
"~'	c #C3B2A1",
"{'	c #C1B3A5",
"]'	c #C3B6A8",
"^'	c #AB9E92",
"/'	c #80736A",
"('	c #554C46",
"_'	c #514A44",
":'	c #69625B",
"<'	c #6D6861",
"['	c #6E6A65",
"}'	c #706B66",
"|'	c #4A4642",
"1'	c #554E49",
"2'	c #524B47",
"3'	c #433F3B",
"4'	c #716961",
"5'	c #81746A",
"6'	c #A1968C",
"7'	c #A48679",
"8'	c #815B4F",
"9'	c #63382F",
"0'	c #451F19",
"a'	c #271411",
"b'	c #4D423E",
"c'	c #A29387",
"d'	c #C9BAAC",
"e'	c #C1A997",
"f'	c #C8B4A1",
"g'	c #D5C5B3",
"h'	c #BDA896",
"i'	c #918178",
"j'	c #25201F",
"k'	c #170A07",
"l'	c #311710",
"m'	c #29110B",
"n'	c #150604",
"o'	c #4B1E0F",
"p'	c #74341A",
"q'	c #633018",
"r'	c #2A1209",
"s'	c #320E04",
"t'	c #75594E",
"u'	c #A7907F",
"v'	c #79685A",
"w'	c #81806A",
"x'	c #9CAF59",
"y'	c #89A64C",
"z'	c #707825",
"A'	c #5F541B",
"B'	c #402C1F",
"C'	c #4A3A2A",
"D'	c #1A1819",
"E'	c #1C1A19",
"F'	c #382726",
"G'	c #503A38",
"H'	c #42322F",
"I'	c #6A1E19",
"J'	c #B02E1F",
"K'	c #CE4B38",
"L'	c #DD513B",
"M'	c #EA6A49",
"N'	c #E4704E",
"O'	c #D4573C",
"P'	c #B63A2C",
"Q'	c #89352C",
"R'	c #7F645A",
"S'	c #AB9B8E",
"T'	c #B4A596",
"U'	c #A9998B",
"V'	c #7B6D62",
"W'	c #706259",
"X'	c #39312C",
"Y'	c #4D4540",
"Z'	c #68605A",
"`'	c #837C75",
" )	c #88827B",
".)	c #908A82",
"+)	c #6D675F",
"@)	c #46403C",
"#)	c #373330",
"$)	c #201E1D",
"%)	c #524C46",
"&)	c #7B7066",
"*)	c #90857A",
"=)	c #A39587",
"-)	c #816558",
";)	c #5C3E33",
">)	c #321612",
",)	c #2B0C09",
"')	c #250605",
"))	c #463E39",
"!)	c #806F65",
"~)	c #AA9080",
"{)	c #CAB3A1",
"])	c #D0BAA7",
"^)	c #C3AA97",
"/)	c #A78778",
"()	c #4C3F39",
"_)	c #190A08",
":)	c #200D08",
"<)	c #210D08",
"[)	c #291009",
"})	c #582B19",
"|)	c #38190C",
"1)	c #120603",
"2)	c #35221B",
"3)	c #997A6A",
"4)	c #967A68",
"5)	c #56453B",
"6)	c #6C675A",
"7)	c #717A3D",
"8)	c #A5BA49",
"9)	c #7F8D35",
"0)	c #737534",
"a)	c #9E9357",
"b)	c #988D51",
"c)	c #625B39",
"d)	c #29221A",
"e)	c #010103",
"f)	c #230A0A",
"g)	c #671610",
"h)	c #781008",
"i)	c #B12215",
"j)	c #C43726",
"k)	c #E16349",
"l)	c #E5684F",
"m)	c #EF7559",
"n)	c #F18062",
"o)	c #EC684E",
"p)	c #DA4B38",
"q)	c #AD251D",
"r)	c #691F1A",
"s)	c #66564C",
"t)	c #907E71",
"u)	c #A28F80",
"v)	c #9B8A7A",
"w)	c #60544D",
"x)	c #443B38",
"y)	c #504A45",
"z)	c #67605B",
"A)	c #7B746E",
"B)	c #878078",
"C)	c #999188",
"D)	c #91887D",
"E)	c #6E665E",
"F)	c #403B37",
"G)	c #1D1B1A",
"H)	c #342F2C",
"I)	c #5D534C",
"J)	c #73675D",
"K)	c #8D7B6D",
"L)	c #7B6153",
"M)	c #866759",
"N)	c #4A3129",
"O)	c #290E0B",
"P)	c #4E2B23",
"Q)	c #431F19",
"R)	c #231412",
"S)	c #67594F",
"T)	c #C8B5A3",
"U)	c #C3A490",
"V)	c #B89480",
"W)	c #A78A79",
"X)	c #7D6F66",
"Y)	c #171110",
"Z)	c #090303",
"`)	c #110605",
" !	c #0F0504",
".!	c #1D0D08",
"+!	c #070202",
"@!	c #5F4A3F",
"#!	c #B0907C",
"$!	c #967665",
"%!	c #645349",
"&!	c #847A6F",
"*!	c #5B6C2C",
"=!	c #95B739",
"-!	c #788F33",
";!	c #93B144",
">!	c #A9C056",
",!	c #B8C053",
"'!	c #827A41",
")!	c #463C2C",
"!!	c #080808",
"~!	c #3E110C",
"{!	c #A02519",
"]!	c #B71D11",
"^!	c #CF3421",
"/!	c #CD3B29",
"(!	c #CF4B33",
"_!	c #CF4A36",
":!	c #E24D3A",
"<!	c #E15440",
"[!	c #DD513E",
"}!	c #DA4436",
"|!	c #9C271F",
"1!	c #4F0A08",
"2!	c #160102",
"3!	c #4F443E",
"4!	c #938479",
"5!	c #948579",
"6!	c #72675F",
"7!	c #514743",
"8!	c #3C3632",
"9!	c #746C64",
"0!	c #7C746C",
"a!	c #9E9489",
"b!	c #A59B90",
"c!	c #A89E92",
"d!	c #91897F",
"e!	c #7F7870",
"f!	c #59544E",
"g!	c #342F2D",
"h!	c #1E1B1A",
"i!	c #3F3834",
"j!	c #66544A",
"k!	c #735F52",
"l!	c #765D51",
"m!	c #7E6358",
"n!	c #4A312A",
"o!	c #1C0908",
"p!	c #543229",
"q!	c #613A2F",
"r!	c #3E231E",
"s!	c #312622",
"t!	c #7F7166",
"u!	c #A88977",
"v!	c #A78875",
"w!	c #AC8F7B",
"x!	c #887365",
"y!	c #40342C",
"z!	c #060202",
"A!	c #201A16",
"B!	c #4C453E",
"C!	c #9A897D",
"D!	c #BAA394",
"E!	c #896558",
"F!	c #6E5043",
"G!	c #847463",
"H!	c #5A583E",
"I!	c #688025",
"J!	c #81973A",
"K!	c #9BB34C",
"L!	c #7E923F",
"M!	c #6D7538",
"N!	c #6E6D49",
"O!	c #403E29",
"P!	c #1C0A0A",
"Q!	c #853026",
"R!	c #C74133",
"S!	c #A01812",
"T!	c #88150F",
"U!	c #671510",
"V!	c #66110C",
"W!	c #A51F19",
"X!	c #AF241E",
"Y!	c #A7241E",
"Z!	c #AB2B24",
"`!	c #BA372D",
" ~	c #A83B2F",
".~	c #59140F",
"+~	c #220404",
"@~	c #1C1615",
"#~	c #6F655D",
"$~	c #9B8D81",
"%~	c #675D58",
"&~	c #413937",
"*~	c #342E2D",
"=~	c #332B27",
"-~	c #5A514B",
";~	c #756A61",
">~	c #7D736A",
",~	c #91857A",
"'~	c #635A53",
")~	c #504943",
"!~	c #5A534C",
"~~	c #403B38",
"{~	c #151313",
"]~	c #141111",
"^~	c #413732",
"/~	c #605149",
"(~	c #6A4C42",
"_~	c #70463C",
":~	c #552720",
"<~	c #240A07",
"[~	c #311611",
"}~	c #51352C",
"|~	c #492C25",
"1~	c #45241E",
"2~	c #3A221C",
"3~	c #533C33",
"4~	c #93705F",
"5~	c #968374",
"6~	c #756559",
"7~	c #1F1916",
"8~	c #080302",
"9~	c #5A524B",
"0~	c #988C81",
"a~	c #AC9E93",
"b~	c #977E72",
"c~	c #886C60",
"d~	c #6F5549",
"e~	c #8B7A66",
"f~	c #544A3C",
"g~	c #353B13",
"h~	c #4F5B1D",
"i~	c #70832F",
"j~	c #68792C",
"k~	c #5B5A26",
"l~	c #886A36",
"m~	c #694121",
"n~	c #501713",
"o~	c #B45C48",
"p~	c #C55944",
"q~	c #74120B",
"r~	c #4A0706",
"s~	c #6C1511",
"t~	c #8C1D18",
"u~	c #87201B",
"v~	c #9E322B",
"w~	c #771614",
"x~	c #5F100F",
"y~	c #861B16",
"z~	c #942B23",
"A~	c #6C1E1A",
"B~	c #200505",
"C~	c #4B433C",
"D~	c #8D8176",
"E~	c #706760",
"F~	c #393331",
"G~	c #231E1D",
"H~	c #655D57",
"I~	c #968F87",
"J~	c #8D8075",
"K~	c #9C9185",
"L~	c #B2A79B",
"M~	c #A69A8C",
"N~	c #A29588",
"O~	c #6B6259",
"P~	c #5D564E",
"Q~	c #6A625A",
"R~	c #4C4642",
"S~	c #22201F",
"T~	c #120F10",
"U~	c #100C0D",
"V~	c #322825",
"W~	c #482E28",
"X~	c #7A3B31",
"Y~	c #612F25",
"Z~	c #32140F",
"`~	c #39140F",
" {	c #270F0B",
".{	c #4F2921",
"+{	c #7C4C3F",
"@{	c #694239",
"#{	c #6B564C",
"${	c #9E9185",
"%{	c #AB9485",
"&{	c #A1897A",
"*{	c #4E443E",
"={	c #190C08",
"-{	c #170A06",
";{	c #635E59",
">{	c #AD9F96",
",{	c #816A61",
"'{	c #77544A",
"){	c #7E5549",
"!{	c #7B554A",
"~{	c #908378",
"{{	c #5A5143",
"]{	c #474026",
"^{	c #2A290F",
"/{	c #4D511E",
"({	c #797C38",
"_{	c #55502E",
":{	c #5F4C31",
"<{	c #753523",
"[{	c #78362D",
"}{	c #DA7157",
"|{	c #B0614B",
"1{	c #662D23",
"2{	c #961513",
"3{	c #A91C18",
"4{	c #93231E",
"5{	c #BA3A30",
"6{	c #C75043",
"7{	c #912721",
"8{	c #390303",
"9{	c #58120F",
"0{	c #6F1D19",
"a{	c #5F1815",
"b{	c #190404",
"c{	c #060204",
"d{	c #332F2D",
"e{	c #857D75",
"f{	c #4B433F",
"g{	c #3F3733",
"h{	c #887C73",
"i{	c #877E75",
"j{	c #82776E",
"k{	c #8C8279",
"l{	c #9F9287",
"m{	c #9C8C7F",
"n{	c #A49588",
"o{	c #998B7F",
"p{	c #786E64",
"q{	c #5F5750",
"r{	c #4D4641",
"s{	c #3D3834",
"t{	c #1D1A19",
"u{	c #060507",
"v{	c #0D0A0B",
"w{	c #2C1613",
"x{	c #592C24",
"y{	c #5D241C",
"z{	c #350906",
"A{	c #360E09",
"B{	c #3D1711",
"C{	c #1E0805",
"D{	c #44221B",
"E{	c #894A3B",
"F{	c #A46351",
"G{	c #A36E5A",
"H{	c #725C50",
"I{	c #9D8B7C",
"J{	c #B6A497",
"K{	c #867B72",
"L{	c #110A08",
"M{	c #090101",
"N{	c #150805",
"O{	c #36322F",
"P{	c #93877E",
"Q{	c #8F7D73",
"R{	c #85695E",
"S{	c #795D53",
"T{	c #7C5448",
"U{	c #7D554A",
"V{	c #8E7063",
"W{	c #7D6958",
"X{	c #61503A",
"Y{	c #392014",
"Z{	c #463723",
"`{	c #5F4D2F",
" ]	c #462D1A",
".]	c #522C21",
"+]	c #712F22",
"@]	c #7D3A31",
"#]	c #C85846",
"$]	c #893D30",
"%]	c #501F18",
"&]	c #8E1512",
"*]	c #861111",
"=]	c #AC2B23",
"-]	c #D14435",
";]	c #CE3E2F",
">]	c #B8251B",
",]	c #5F0907",
"']	c #330C0B",
")]	c #4D1411",
"!]	c #400A08",
"~]	c #360906",
"{]	c #120405",
"]]	c #35312F",
"^]	c #8D847D",
"/]	c #645953",
"(]	c #47413C",
"_]	c #423934",
":]	c #7C7168",
"<]	c #857A70",
"[]	c #A59A8D",
"}]	c #C1B8AD",
"|]	c #BAAC9E",
"1]	c #BFAFA0",
"2]	c #C3B6AA",
"3]	c #B0A396",
"4]	c #A49B8F",
"5]	c #80776E",
"6]	c #655D54",
"7]	c #4E4843",
"8]	c #050406",
"9]	c #0B0809",
"0]	c #260F0D",
"a]	c #603127",
"b]	c #824839",
"c]	c #51291F",
"d]	c #411E18",
"e]	c #552C23",
"f]	c #180503",
"g]	c #340D09",
"h]	c #693528",
"i]	c #9F604F",
"j]	c #B38C76",
"k]	c #9B816F",
"l]	c #71645A",
"m]	c #B4A89C",
"n]	c #665B53",
"o]	c #2B2724",
"p]	c #161514",
"q]	c #A3958B",
"r]	c #927E73",
"s]	c #6C5850",
"t]	c #674439",
"u]	c #825A4B",
"v]	c #8B695A",
"w]	c #B99E8B",
"x]	c #A38370",
"y]	c #5C3428",
"z]	c #3A1C0F",
"A]	c #414A31",
"B]	c #574F38",
"C]	c #3A281D",
"D]	c #654A3D",
"E]	c #48211B",
"F]	c #531714",
"G]	c #A21E17",
"H]	c #7B0F0C",
"I]	c #300202",
"J]	c #4C0A09",
"K]	c #601814",
"L]	c #9D2E26",
"M]	c #BE4231",
"N]	c #B53526",
"O]	c #8F0F0B",
"P]	c #530604",
"Q]	c #401410",
"R]	c #6C2820",
"S]	c #521711",
"T]	c #160101",
"U]	c #0E0809",
"V]	c #312B2A",
"W]	c #645A54",
"X]	c #3A3431",
"Y]	c #1F1C1C",
"Z]	c #584C44",
"`]	c #796D63",
" ^	c #96887C",
".^	c #C9BDAE",
"+^	c #CFC2B2",
"@^	c #C8B19E",
"#^	c #BCA391",
"$^	c #AE9888",
"%^	c #AC9888",
"&^	c #B2A293",
"*^	c #ACA194",
"=^	c #89796C",
"-^	c #675C52",
";^	c #413934",
">^	c #030203",
",^	c #411C17",
"'^	c #783E31",
")^	c #7E4435",
"!^	c #522D23",
"~^	c #381812",
"{^	c #0F0201",
"]^	c #2C0705",
"^^	c #5D1C14",
"/^	c #905242",
"(^	c #AB7C6A",
"_^	c #BFA490",
":^	c #AE9583",
"<^	c #79655B",
"[^	c #7E6D62",
"}^	c #594E47",
"|^	c #292320",
"1^	c #6D6963",
"2^	c #BEB7AD",
"3^	c #A1958B",
"4^	c #6D5E58",
"5^	c #63493F",
"6^	c #855D4E",
"7^	c #956C5C",
"8^	c #A38575",
"9^	c #BFA18D",
"0^	c #AA7D69",
"a^	c #793729",
"b^	c #9A2416",
"c^	c #7D2E20",
"d^	c #6F4334",
"e^	c #4C3225",
"f^	c #211510",
"g^	c #1F0D0C",
"h^	c #681D17",
"i^	c #C12F23",
"j^	c #7D1711",
"k^	c #1C0302",
"l^	c #5E1C15",
"m^	c #A24739",
"n^	c #99392C",
"o^	c #A82A22",
"p^	c #B42B22",
"q^	c #7C100C",
"r^	c #460807",
"s^	c #270A09",
"t^	c #5A2924",
"u^	c #36130F",
"v^	c #272221",
"w^	c #4A4340",
"x^	c #524D48",
"y^	c #272523",
"z^	c #201714",
"A^	c #5A4A42",
"B^	c #78685D",
"C^	c #A6998C",
"D^	c #B0A597",
"E^	c #AE8D7B",
"F^	c #756054",
"G^	c #5E483F",
"H^	c #5A433A",
"I^	c #65584E",
"J^	c #82766B",
"K^	c #9C8C7D",
"L^	c #83756A",
"M^	c #7A6D64",
"N^	c #403834",
"O^	c #0E0505",
"P^	c #411D17",
"Q^	c #6C342A",
"R^	c #893F31",
"S^	c #653327",
"T^	c #2C0E0A",
"U^	c #150202",
"V^	c #240704",
"W^	c #450F0A",
"X^	c #734136",
"Y^	c #9D6455",
"Z^	c #BC9582",
"`^	c #B19683",
" /	c #AA9483",
"./	c #847264",
"+/	c #372923",
"@/	c #4D423D",
"#/	c #B1A59A",
"$/	c #A49B93",
"%/	c #61564F",
"&/	c #655149",
"*/	c #8F7A6C",
"=/	c #987F6F",
"-/	c #9E8574",
";/	c #B7A391",
">/	c #B6A191",
",/	c #BDAD9E",
"'/	c #75564C",
")/	c #803229",
"!/	c #983427",
"~/	c #73483B",
"{/	c #8B6047",
"]/	c #573324",
"^/	c #150705",
"//	c #51261F",
"(/	c #934437",
"_/	c #6C211A",
":/	c #60140E",
"</	c #AB271F",
"[/	c #B72F27",
"}/	c #92291F",
"|/	c #8A1E18",
"1/	c #8E1B16",
"2/	c #9B1912",
"3/	c #601612",
"4/	c #180303",
"5/	c #130909",
"6/	c #050305",
"7/	c #080607",
"8/	c #2A2524",
"9/	c #2B2625",
"0/	c #1D1919",
"a/	c #1B1210",
"b/	c #312421",
"c/	c #5E4E46",
"d/	c #86786E",
"e/	c #9A8C80",
"f/	c #88776B",
"g/	c #5F382F",
"h/	c #761C0D",
"i/	c #A73119",
"j/	c #AC422D",
"k/	c #903422",
"l/	c #5B1F17",
"m/	c #453932",
"n/	c #60534A",
"o/	c #62544C",
"p/	c #5C4F47",
"q/	c #231D1A",
"r/	c #1C0A08",
"s/	c #542D26",
"t/	c #6D3026",
"u/	c #4C1A13",
"v/	c #380D09",
"w/	c #1B0202",
"x/	c #220605",
"y/	c #3C0906",
"z/	c #A15443",
"A/	c #AB7865",
"B/	c #B39785",
"C/	c #BEA592",
"D/	c #B69F8C",
"E/	c #907D70",
"F/	c #857267",
"G/	c #857166",
"H/	c #584942",
"I/	c #896F63",
"J/	c #957F71",
"K/	c #998476",
"L/	c #A38C7B",
"M/	c #AC9685",
"N/	c #A79B8D",
"O/	c #6B5D55",
"P/	c #735A4E",
"Q/	c #715348",
"R/	c #4C3B32",
"S/	c #32231B",
"T/	c #261813",
"U/	c #010304",
"V/	c #241310",
"W/	c #3E100D",
"X/	c #3D0B07",
"Y/	c #6D1511",
"Z/	c #731713",
"`/	c #65100D",
" (	c #6D130E",
".(	c #730D08",
"+(	c #81130B",
"@(	c #400D09",
"#(	c #422F2A",
"$(	c #1F1513",
"%(	c #3A312E",
"&(	c #0F0C0D",
"*(	c #180F0F",
"=(	c #544740",
"-(	c #73655C",
";(	c #61544D",
">(	c #461E18",
",(	c #852414",
"'(	c #C14223",
")(	c #DA5F3D",
"!(	c #DF8C72",
"~(	c #DC785F",
"{(	c #C44E36",
"](	c #662215",
"^(	c #1C110F",
"/(	c #332823",
"((	c #594942",
"_(	c #3A2F2B",
":(	c #000102",
"<(	c #170908",
"[(	c #421914",
"}(	c #5C1C14",
"|(	c #581E15",
"1(	c #200503",
"2(	c #320704",
"3(	c #5B120B",
"4(	c #933627",
"5(	c #A46755",
"6(	c #AE8E7B",
"7(	c #BBA491",
"8(	c #C8BAA9",
"9(	c #C4B6A7",
"0(	c #AB9A8C",
"a(	c #4C403B",
"b(	c #5C4D46",
"c(	c #937F73",
"d(	c #968173",
"e(	c #988678",
"f(	c #A08E7F",
"g(	c #AB9483",
"h(	c #B8A291",
"i(	c #C2B5A6",
"j(	c #9C8D7F",
"k(	c #7B6D60",
"l(	c #6F5D52",
"m(	c #665448",
"n(	c #655347",
"o(	c #463931",
"p(	c #41322C",
"q(	c #3F2E27",
"r(	c #2D1E19",
"s(	c #402C26",
"t(	c #36211B",
"u(	c #1A0E0B",
"v(	c #200303",
"w(	c #4E170C",
"x(	c #290603",
"y(	c #430C08",
"z(	c #3E0805",
"A(	c #220503",
"B(	c #050606",
"C(	c #191010",
"D(	c #362824",
"E(	c #352B26",
"F(	c #2A2321",
"G(	c #18100F",
"H(	c #2E2421",
"I(	c #261D1A",
"J(	c #430D09",
"K(	c #66180F",
"L(	c #8F3624",
"M(	c #C45E43",
"N(	c #E27C59",
"O(	c #E38666",
"P(	c #EA8061",
"Q(	c #E06646",
"R(	c #AB3D25",
"S(	c #41120C",
"T(	c #1A0707",
"U(	c #3B221F",
"V(	c #281614",
"W(	c #0F0505",
"X(	c #280705",
"Y(	c #330906",
"Z(	c #220402",
"`(	c #1C0403",
" _	c #250402",
"._	c #3C0A06",
"+_	c #561D15",
"@_	c #6C4539",
"#_	c #8E7161",
"$_	c #A28A7A",
"%_	c #BAAE9F",
"&_	c #A99888",
"*_	c #8D8479",
"=_	c #AD9E8F",
"-_	c #B3A393",
";_	c #A59486",
">_	c #B8A796",
",_	c #AE9584",
"'_	c #BBA592",
")_	c #B3A392",
"!_	c #7F7265",
"~_	c #7F7062",
"{_	c #625247",
"]_	c #4C3D35",
"^_	c #40352F",
"/_	c #342924",
"(_	c #4C3B33",
"__	c #30211C",
":_	c #271814",
"<_	c #3A2924",
"[_	c #2A1D19",
"}_	c #010101",
"|_	c #0B0201",
"1_	c #280906",
"2_	c #170504",
"3_	c #080606",
"4_	c #0E0909",
"5_	c #130C0C",
"6_	c #170F0F",
"7_	c #0A0707",
"8_	c #100C0C",
"9_	c #18100D",
"0_	c #341C18",
"a_	c #2B0F0B",
"b_	c #3D0A05",
"c_	c #5A180D",
"d_	c #963B27",
"e_	c #B2533A",
"f_	c #B96044",
"g_	c #BB5F44",
"h_	c #C6694F",
"i_	c #C45338",
"j_	c #B94029",
"k_	c #48150E",
"l_	c #27100E",
"m_	c #250403",
"n_	c #080303",
"o_	c #120202",
"p_	c #140403",
"q_	c #2A0705",
"r_	c #32100C",
"s_	c #471C15",
"t_	c #4E2C24",
"u_	c #61453A",
"v_	c #785E51",
"w_	c #9E8B7C",
"x_	c #BBAE9E",
"y_	c #8B7F74",
"z_	c #A09588",
"A_	c #BCAD9B",
"B_	c #C3B4A2",
"C_	c #AA9585",
"D_	c #B39D8D",
"E_	c #BB9E89",
"F_	c #C7B3A0",
"G_	c #B1A190",
"H_	c #7F7266",
"I_	c #817367",
"J_	c #7C6E61",
"K_	c #65574D",
"L_	c #64554A",
"M_	c #5C4E45",
"N_	c #362C28",
"O_	c #2E231E",
"P_	c #1C0C0B",
"Q_	c #251613",
"R_	c #1B0F0D",
"S_	c #080404",
"T_	c #050404",
"U_	c #050405",
"V_	c #0E0B0C",
"W_	c #0E0C0D",
"X_	c #210D09",
"Y_	c #381712",
"Z_	c #3D0B08",
"`_	c #290401",
" :	c #480C06",
".:	c #6C160C",
"+:	c #892415",
"@:	c #942415",
"#:	c #7F2013",
"$:	c #6F2115",
"%:	c #902719",
"&:	c #A8281A",
"*:	c #3E0C08",
"=:	c #2F0D0B",
"-:	c #320806",
";:	c #130303",
">:	c #0C0405",
",:	c #070203",
"':	c #1D0806",
"):	c #46261F",
"!:	c #59362B",
"~:	c #6A473B",
"{:	c #776051",
"]:	c #5F4B40",
"^:	c #6F5B50",
"/:	c #A79585",
"(:	c #978C7F",
"_:	c #B1A493",
"::	c #B2A392",
"<:	c #BDAD9B",
"[:	c #B29F8F",
"}:	c #A08878",
"|:	c #AE927E",
"1:	c #C1A794",
"2:	c #CFBCA9",
"3:	c #BAA796",
"4:	c #7C6D62",
"5:	c #6A5D53",
"6:	c #685B51",
"7:	c #6A5C51",
"8:	c #66584D",
"9:	c #433831",
"0:	c #2D241F",
"a:	c #120B0A",
"b:	c #0B0505",
"c:	c #221411",
"d:	c #341E1A",
"e:	c #0D0404",
"f:	c #120D0D",
"g:	c #0A0809",
"h:	c #1D1819",
"i:	c #161414",
"j:	c #2F130C",
"k:	c #2F120C",
"l:	c #260403",
"m:	c #400A06",
"n:	c #8A1F17",
"o:	c #9B2418",
"p:	c #BF3F2C",
"q:	c #B13C29",
"r:	c #BD3A25",
"s:	c #AE3122",
"t:	c #691A14",
"u:	c #4D0F09",
"v:	c #270806",
"w:	c #3E120C",
"x:	c #4C140F",
"y:	c #270A07",
"z:	c #170C0B",
"A:	c #1A0C0B",
"B:	c #110403",
"C:	c #331914",
"D:	c #4B2C24",
"E:	c #644A3E",
"F:	c #836C5D",
"G:	c #7E695A",
"H:	c #746255",
"I:	c #A19181",
"J:	c #8E7F71",
"K:	c #8B7E70",
"L:	c #C4B5A5",
"M:	c #BCAE9E",
"N:	c #BCAA99",
"O:	c #B8A391",
"P:	c #C5B19D",
"Q:	c #CEB8A3",
"R:	c #C4AE9B",
"S:	c #BAA693",
"T:	c #958373",
"U:	c #6F6157",
"V:	c #53463E",
"W:	c #2D231F",
"X:	c #271E1A",
"Y:	c #1B1311",
"Z:	c #090606",
"`:	c #17100D",
" <	c #211613",
".<	c #130908",
"+<	c #040203",
"@<	c #27211F",
"#<	c #1B1715",
"$<	c #060505",
"%<	c #0A0708",
"&<	c #2D140E",
"*<	c #2E0604",
"=<	c #651711",
"-<	c #8D2F23",
";<	c #A03D2E",
"><	c #84261C",
",<	c #982C1E",
"'<	c #8F281D",
")<	c #82241C",
"!<	c #651E13",
"~<	c #370F09",
"{<	c #2A0906",
"]<	c #320C08",
"^<	c #180403",
"/<	c #211412",
"(<	c #1A0806",
"_<	c #1C0907",
":<	c #1B0A08",
"<<	c #3A1D17",
"[<	c #513A30",
"}<	c #735F51",
"|<	c #877161",
"1<	c #877262",
"2<	c #8D7A6B",
"3<	c #867467",
"4<	c #897A6E",
"5<	c #AE9E8E",
"6<	c #C5B8A8",
"7<	c #C4B5A4",
"8<	c #C4B19D",
"9<	c #C2B09C",
"0<	c #B59C89",
"a<	c #B29986",
"b<	c #9E8878",
"c<	c #8E7C6D",
"d<	c #6C6056",
"e<	c #493F39",
"f<	c #5A4E46",
"g<	c #50443C",
"h<	c #241C18",
"i<	c #352A24",
"j<	c #372B26",
"k<	c #29211E",
"l<	c #312722",
"m<	c #41332C",
"n<	c #060405",
"o<	c #161211",
"p<	c #231E1C",
"q<	c #201C1B",
"r<	c #0A090A",
"s<	c #060406",
"t<	c #3E0704",
"u<	c #801D13",
"v<	c #9E291D",
"w<	c #A42B1F",
"x<	c #B03528",
"y<	c #AC4B38",
"z<	c #6D251B",
"A<	c #873C2D",
"B<	c #8B3322",
"C<	c #801C0E",
"D<	c #560D07",
"E<	c #2B0402",
"F<	c #0B0605",
"G<	c #231B19",
"H<	c #3F322D",
"I<	c #170C0A",
"J<	c #1E120F",
"K<	c #261714",
"L<	c #2B1D19",
"M<	c #34211B",
"N<	c #3B2821",
"O<	c #56443A",
"P<	c #7D6657",
"Q<	c #725D4F",
"R<	c #897464",
"S<	c #756459",
"T<	c #93887D",
"U<	c #BAAD9E",
"V<	c #C8B9A8",
"W<	c #CDBEAD",
"X<	c #C8B29C",
"Y<	c #BFA28C",
"Z<	c #AE826F",
"`<	c #8A6354",
" [	c #9C8472",
".[	c #9E8F7F",
"+[	c #83786D",
"@[	c #584E46",
"#[	c #534840",
"$[	c #4C413A",
"%[	c #302723",
"&[	c #352A25",
"*[	c #3E332C",
"=[	c #3B302B",
"-[	c #2D2421",
";[	c #2A221F",
">[	c #2B221E",
",[	c #251E1B",
"'[	c #130F0F",
")[	c #171313",
"![	c #171414",
"~[	c #181616",
"{[	c #09090A",
"][	c #0A090B",
"^[	c #4B0704",
"/[	c #560B06",
"([	c #69110A",
"_[	c #9E2418",
":[	c #BA2D21",
"<[	c #A92A1D",
"[[	c #7F231A",
"}[	c #4D0909",
"|[	c #601D14",
"1[	c #95190D",
"2[	c #B21C0E",
"3[	c #9C1E14",
"4[	c #6A140D",
"5[	c #270604",
"6[	c #161312",
"7[	c #39312D",
"8[	c #5B4D45",
"9[	c #2F241F",
"0[	c #473831",
"a[	c #43362E",
"b[	c #392B24",
"c[	c #413129",
"d[	c #3E312A",
"e[	c #614D42",
"f[	c #6C5649",
"g[	c #867060",
"h[	c #837265",
"i[	c #78716A",
"j[	c #B6AB9D",
"k[	c #B39F8F",
"l[	c #9E8678",
"m[	c #A16658",
"n[	c #A94536",
"o[	c #9E3A2B",
"p[	c #A56552",
"q[	c #A48D7A",
"r[	c #9B8F7E",
"s[	c #81766A",
"t[	c #6E6157",
"u[	c #534941",
"v[	c #3D352F",
"w[	c #342B27",
"x[	c #2C2420",
"y[	c #3C322C",
"z[	c #3A302B",
"A[	c #201918",
"B[	c #362D28",
"C[	c #302823",
"D[	c #191413",
"E[	c #261F1D",
"F[	c #26201E",
"G[	c #282421",
"H[	c #231F1E",
"I[	c #0F0E0F",
"J[	c #090A0C",
"K[	c #060607",
"L[	c #280603",
"M[	c #6D0C05",
"N[	c #660C06",
"O[	c #87150E",
"P[	c #B62F20",
"Q[	c #CA3F2E",
"R[	c #A7281D",
"S[	c #871710",
"T[	c #540A08",
"U[	c #480604",
"V[	c #951109",
"W[	c #A3150E",
"X[	c #7F140B",
"Y[	c #5D100A",
"Z[	c #2F0806",
"`[	c #201A18",
" }	c #453A34",
".}	c #6D5B4F",
"+}	c #3F322B",
"@}	c #362B25",
"#}	c #57473D",
"$}	c #59473D",
"%}	c #5D4A40",
"&}	c #544238",
"*}	c #382C26",
"=}	c #58483E",
"-}	c #57473E",
";}	c #887768",
">}	c #7D6E60",
",}	c #514840",
"'}	c #887A6E",
")}	c #8D786A",
"!}	c #713C33",
"~}	c #8B150D",
"{}	c #861A0E",
"]}	c #8E3729",
"^}	c #AB7C68",
"/}	c #8F7A6A",
"(}	c #817466",
"_}	c #776C60",
":}	c #6B6056",
"<}	c #544A42",
"[}	c #342C27",
"}}	c #453B35",
"|}	c #4F443C",
"1}	c #40352E",
"2}	c #352C27",
"3}	c #312824",
"4}	c #2A221E",
"5}	c #28211E",
"6}	c #342C29",
"7}	c #3E352F",
"8}	c #282220",
"9}	c #171617",
"0}	c #151414",
"a}	c #310503",
"b}	c #630804",
"c}	c #5E0904",
"d}	c #94110B",
"e}	c #AC251A",
"f}	c #C5402E",
"g}	c #A52D1E",
"h}	c #5B0C07",
"i}	c #260202",
"j}	c #220202",
"k}	c #6D0B06",
"l}	c #AE1C12",
"m}	c #A51B10",
"n}	c #700F08",
"o}	c #210202",
"p}	c #332A25",
"q}	c #54443B",
"r}	c #44372F",
"s}	c #433730",
"t}	c #64564B",
"u}	c #594D44",
"v}	c #4E4139",
"w}	c #382A23",
"x}	c #352923",
"y}	c #51443A",
"z}	c #50423A",
"A}	c #62544B",
"B}	c #6C5F54",
"C}	c #64574E",
"D}	c #715C51",
"E}	c #7B4C41",
"F}	c #6B140F",
"G}	c #440904",
"H}	c #67453B",
"I}	c #987767",
"J}	c #7B695D",
"K}	c #726459",
"L}	c #6C6156",
"M}	c #73675C",
"N}	c #60554C",
"O}	c #4F453E",
"P}	c #4F453D",
"Q}	c #4E443C",
"R}	c #483D36",
"S}	c #3D312B",
"T}	c #40342E",
"U}	c #312822",
"V}	c #372D28",
"W}	c #352E2A",
"X}	c #3B332F",
"Y}	c #38302A",
"Z}	c #39302A",
"`}	c #2C2623",
" |	c #292624",
".|	c #201E1E",
"+|	c #272422",
"@|	c #090808",
"#|	c #360603",
"$|	c #730B08",
"%|	c #660B07",
"&|	c #6A0A06",
"*|	c #922014",
"=|	c #BD4937",
"-|	c #80271C",
";|	c #320605",
">|	c #170101",
",|	c #110303",
"'|	c #340303",
")|	c #630C07",
"!|	c #9D1C11",
"~|	c #90150D",
"{|	c #290202",
"]|	c #1E1816",
"^|	c #261E1B",
"/|	c #2D241E",
"(|	c #5B4E44",
"_|	c #63554B",
":|	c #55473D",
"<|	c #382C25",
"[|	c #44352C",
"}|	c #4D3D34",
"||	c #342A24",
"1|	c #3F352E",
"2|	c #4F433A",
"3|	c #564940",
"4|	c #766355",
"5|	c #57483F",
"6|	c #65544A",
"7|	c #926F61",
"8|	c #755146",
"9|	c #7F5445",
"0|	c #876051",
"a|	c #755D51",
"b|	c #6C5C52",
"c|	c #6C6359",
"d|	c #584F48",
"e|	c #504740",
"f|	c #62574E",
"g|	c #564C44",
"h|	c #493F38",
"i|	c #423731",
"j|	c #3A302A",
"k|	c #2E2520",
"l|	c #201916",
"m|	c #2B231F",
"n|	c #392F2A",
"o|	c #3C332D",
"p|	c #3F3530",
"q|	c #2D2623",
"r|	c #37302C",
"s|	c #3C3631",
"t|	c #1A1818",
"u|	c #181717",
"v|	c #0D0D0E",
"w|	c #370906",
"x|	c #6D0C09",
"y|	c #5F0806",
"z|	c #610806",
"A|	c #882317",
"B|	c #B13C2F",
"C|	c #8A251C",
"D|	c #52100C",
"E|	c #180202",
"F|	c #070101",
"G|	c #640D0A",
"H|	c #991915",
"I|	c #3B0504",
"J|	c #110D0D",
"K|	c #1B1613",
"L|	c #1A1411",
"M|	c #332821",
"N|	c #3E3029",
"O|	c #504037",
"P|	c #685549",
"Q|	c #6A584D",
"R|	c #52433A",
"S|	c #58493F",
"T|	c #5E4F45",
"U|	c #473C34",
"V|	c #493E37",
"W|	c #5C5047",
"X|	c #62554B",
"Y|	c #433731",
"Z|	c #B49D8A",
"`|	c #C5B19E",
" 1	c #C19E8B",
".1	c #876254",
"+1	c #5E4A41",
"@1	c #6A5B52",
"#1	c #696059",
"$1	c #655E57",
"%1	c #47403B",
"&1	c #574E46",
"*1	c #55483F",
"=1	c #453A32",
"-1	c #231C18",
";1	c #2D2522",
">1	c #201917",
",1	c #312823",
"'1	c #423730",
")1	c #3F3630",
"!1	c #2F2824",
"~1	c #372E2A",
"{1	c #302926",
"]1	c #342D29",
"^1	c #38312C",
"/1	c #121011",
"(1	c #21201E",
"_1	c #191818",
":1	c #550E08",
"<1	c #6A0D09",
"[1	c #570907",
"}1	c #420403",
"|1	c #3F0B07",
"11	c #832920",
"21	c #7F2B22",
"31	c #2D0504",
"41	c #140101",
"51	c #060100",
"61	c #5D100E",
"71	c #891915",
"81	c #621210",
"91	c #1E0605",
"01	c #0E0A0A",
"a1	c #261F1B",
"b1	c #160E0B",
"c1	c #2C1F1A",
"d1	c #534238",
"e1	c #695648",
"f1	c #725F52",
"g1	c #826E5F",
"h1	c #8A7768",
"i1	c #8C7A6B",
"j1	c #847567",
"k1	c #7B6C5F",
"l1	c #63564D",
"m1	c #584B43",
"n1	c #867A6F",
"o1	c #B9A592",
"p1	c #AF9C8E",
"q1	c #5F463D",
"r1	c #685449",
"s1	c #716358",
"t1	c #80776D",
"u1	c #8A8176",
"v1	c #625951",
"w1	c #655A51",
"x1	c #6E6257",
"y1	c #6D5E52",
"z1	c #3D322B",
"A1	c #2B211D",
"B1	c #493831",
"C1	c #3C2F2B",
"D1	c #3C312B",
"E1	c #443831",
"F1	c #1B1514",
"G1	c #231C1A",
"H1	c #27211E",
"I1	c #564B44",
"J1	c #6C6057",
"K1	c #2F2A26",
"L1	c #2C2927",
"M1	c #221F1E",
"N1	c #080709",
"O1	c #450E08",
"P1	c #B02719",
"Q1	c #9F1F12",
"R1	c #670E0A",
"S1	c #280202",
"T1	c #5E1E16",
"U1	c #1B0101",
"V1	c #0E0101",
"W1	c #260506",
"X1	c #0A0808",
"Y1	c #110E0E",
"Z1	c #31251F",
"`1	c #33261F",
" 2	c #1B120F",
".2	c #2C241F",
"+2	c #5E4D43",
"@2	c #674F44",
"#2	c #82695A",
"$2	c #9E8876",
"%2	c #A5917E",
"&2	c #AC9A86",
"*2	c #A59483",
"=2	c #9D8F80",
"-2	c #7A6E62",
";2	c #7D7369",
">2	c #B9AA9A",
",2	c #C4B3A3",
"'2	c #95796A",
")2	c #674D42",
"!2	c #7C695C",
"~2	c #8D7F71",
"{2	c #897E72",
"]2	c #84796D",
"^2	c #786B60",
"/2	c #564A42",
"(2	c #524339",
"_2	c #654F45",
":2	c #43342E",
"<2	c #3B302A",
"[2	c #3F332D",
"}2	c #382F2A",
"|2	c #60564F",
"12	c #70655B",
"22	c #776C62",
"32	c #6D6259",
"42	c #7D7065",
"52	c #645B53",
"62	c #5E5650",
"72	c #4B4640",
"82	c #55100C",
"92	c #A71F16",
"02	c #A01A11",
"a2	c #78100D",
"b2	c #040000",
"c2	c #0D0201",
"d2	c #1D0403",
"e2	c #0D0101",
"f2	c #110202",
"g2	c #080706",
"h2	c #1C1917",
"i2	c #2F2724",
"j2	c #605349",
"k2	c #78685B",
"l2	c #726559",
"m2	c #615449",
"n2	c #493C34",
"o2	c #57443B",
"p2	c #977C6B",
"q2	c #9F8874",
"r2	c #9F8B79",
"s2	c #B09D89",
"t2	c #A69685",
"u2	c #A19382",
"v2	c #938575",
"w2	c #7E7065",
"x2	c #60564E",
"y2	c #8C8175",
"z2	c #CEC2B2",
"A2	c #BEAC9A",
"B2	c #998879",
"C2	c #918375",
"D2	c #8C7E71",
"E2	c #887C71",
"F2	c #8E8275",
"G2	c #6F6359",
"H2	c #54473F",
"I2	c #302622",
"J2	c #715F53",
"K2	c #4E3E36",
"L2	c #3D2F28",
"M2	c #221A16",
"N2	c #302925",
"O2	c #5B4F46",
"P2	c #74665C",
"Q2	c #95877A",
"R2	c #8B7C6F",
"S2	c #9D9083",
"T2	c #8F8478",
"U2	c #7F7368",
"V2	c #6E665D",
"W2	c #46403B",
"X2	c #363230",
"Y2	c #1A0303",
"Z2	c #4B0906",
"`2	c #540906",
" 3	c #3F0505",
".3	c #1E0202",
"+3	c #0E0302",
"@3	c #24201E",
"#3	c #342D2A",
"$3	c #564A43",
"%3	c #766558",
"&3	c #7E6F62",
"*3	c #908173",
"=3	c #998979",
"-3	c #9C8A7A",
";3	c #867970",
">3	c #584D45",
",3	c #736459",
"'3	c #AB9582",
")3	c #A99787",
"!3	c #96897B",
"~3	c #73665B",
"{3	c #7A6C61",
"]3	c #544941",
"^3	c #3A342E",
"/3	c #B7AA99",
"(3	c #D5C7B5",
"_3	c #C1B4A3",
":3	c #B4A999",
"<3	c #9B8D7F",
"[3	c #A19689",
"}3	c #776C63",
"|3	c #4A3932",
"13	c #53443C",
"23	c #6D5B50",
"33	c #67554A",
"43	c #473931",
"53	c #231A16",
"63	c #050303",
"73	c #362E29",
"83	c #857669",
"93	c #847669",
"03	c #9F9384",
"a3	c #786D62",
"b3	c #7C6F63",
"c3	c #7E7266",
"d3	c #6F655B",
"e3	c #5D554D",
"f3	c #544D45",
"g3	c #544D47",
"h3	c #504B45",
"i3	c #390705",
"j3	c #520B08",
"k3	c #4A0807",
"l3	c #270203",
"m3	c #160303",
"n3	c #131111",
"o3	c #39322E",
"p3	c #594C43",
"q3	c #5D4D44",
"r3	c #6F5C51",
"s3	c #8A796C",
"t3	c #98887A",
"u3	c #B0A192",
"v3	c #AC9989",
"w3	c #837164",
"x3	c #67564D",
"y3	c #726155",
"z3	c #887363",
"A3	c #837062",
"B3	c #A59484",
"C3	c #8A7B6D",
"D3	c #574B43",
"E3	c #645D55",
"F3	c #B8B0A5",
"G3	c #B3AA9F",
"H3	c #BBAFA2",
"I3	c #AC9E90",
"J3	c #A39588",
"K3	c #998E80",
"L3	c #89786B",
"M3	c #968271",
"N3	c #776458",
"O3	c #41342E",
"P3	c #2A201B",
"Q3	c #291E1A",
"R3	c #332723",
"S3	c #211513",
"T3	c #281C19",
"U3	c #6B5C51",
"V3	c #907E6F",
"W3	c #7B6B5F",
"X3	c #958778",
"Y3	c #95897C",
"Z3	c #71675E",
"`3	c #62584F",
" 4	c #5C534A",
".4	c #554C45",
"+4	c #615851",
"@4	c #4C4742",
"#4	c #1F0404",
"$4	c #450D0B",
"%4	c #45100D",
"&4	c #1F1B1B",
"*4	c #403732",
"=4	c #4F4239",
"-4	c #58463C",
";4	c #5E4B42",
">4	c #7D6A5E",
",4	c #8C7A6D",
"'4	c #968679",
")4	c #AE9C8C",
"!4	c #806C5F",
"~4	c #745F53",
"{4	c #927B6C",
"]4	c #5E5048",
"^4	c #6F5E54",
"/4	c #A09082",
"(4	c #AB9B8B",
"_4	c #9A8A7C",
":4	c #988A7B",
"<4	c #635B53",
"[4	c #1E1A19",
"}4	c #4C4844",
"|4	c #7A746E",
"14	c #ADA49A",
"24	c #A09487",
"34	c #A7998B",
"44	c #9D8D7D",
"54	c #816759",
"64	c #44312A",
"74	c #30201B",
"84	c #544138",
"94	c #47362E",
"04	c #574941",
"a4	c #30201D",
"b4	c #301D1A",
"c4	c #483731",
"d4	c #786A5E",
"e4	c #988B7C",
"f4	c #867B6F",
"g4	c #342C28",
"h4	c #857B72",
"i4	c #847C72",
"j4	c #4E4842",
"k4	c #312D2B",
"l4	c #1A0404",
"m4	c #661E19",
"n4	c #7B241E",
"o4	c #250606",
"p4	c #180404",
"q4	c #231F1D",
"r4	c #483E38",
"s4	c #54463D",
"t4	c #59463D",
"u4	c #7A665A",
"v4	c #917E70",
"w4	c #C3B09F",
"x4	c #9C8679",
"y4	c #7E6559",
"z4	c #887062",
"A4	c #988579",
"B4	c #AD9F93",
"C4	c #907E72",
"D4	c #A99F93",
"E4	c #A39486",
"F4	c #A99989",
"G4	c #AB9C8C",
"H4	c #7D746A",
"I4	c #24211F",
"J4	c #181615",
"K4	c #8B847C",
"L4	c #A89E93",
"M4	c #A09284",
"N4	c #AB9D8E",
"O4	c #9F8F81",
"P4	c #80675B",
"Q4	c #5A2018",
"R4	c #4A211A",
"S4	c #563931",
"T4	c #523930",
"U4	c #45221D",
"V4	c #392620",
"W4	c #5F5047",
"X4	c #98897A",
"Y4	c #998B7C",
"Z4	c #9D9081",
"`4	c #988A7C",
" 5	c #63564C",
".5	c #29221E",
"+5	c #181211",
"@5	c #463E38",
"#5	c #574E47",
"$5	c #4B433D",
"%5	c #302C2A",
"&5	c #55130C",
"*5	c #1F0403",
"=5	c #1A1614",
"-5	c #4C423C",
";5	c #5C4D43",
">5	c #75665C",
",5	c #A29284",
"'5	c #A49587",
")5	c #B6A698",
"!5	c #C7B7A8",
"~5	c #A1867A",
"{5	c #553630",
"]5	c #61473F",
"^5	c #8E7C71",
"/5	c #C4B5A7",
"(5	c #AC9687",
"_5	c #5D4F47",
":5	c #73655A",
"<5	c #97877A",
"[5	c #736960",
"}5	c #272321",
"|5	c #5B5651",
"15	c #9F978F",
"25	c #92857A",
"35	c #938376",
"45	c #786459",
"55	c #6C3D33",
"65	c #611E16",
"75	c #6F2B20",
"85	c #602B22",
"95	c #754B3D",
"05	c #6B4437",
"a5	c #5D2E25",
"b5	c #97705F",
"c5	c #664E42",
"d5	c #56453D",
"e5	c #857567",
"f5	c #8A7769",
"g5	c #8B7565",
"h5	c #6D5A4D",
"i5	c #3E3530",
"j5	c #453B34",
"k5	c #61544A",
"l5	c #5D5349",
"m5	c #463F39",
"n5	c #23201E",
"o5	c #2B2522",
"p5	c #564B43",
"q5	c #433934",
"r5	c #52453D",
"s5	c #807368",
"t5	c #B9AC9C",
"u5	c #CBBCAA",
"v5	c #BEAD9D",
"w5	c #A38E80",
"x5	c #936D60",
"y5	c #8C7970",
"z5	c #8E7C70",
"A5	c #9C897D",
"B5	c #BDA99A",
"C5	c #A98D7E",
"D5	c #948173",
"E5	c #7A695E",
"F5	c #74655B",
"G5	c #524741",
"H5	c #040304",
"I5	c #020103",
"J5	c #121010",
"K5	c #6B6763",
"L5	c #82776F",
"M5	c #9D9185",
"N5	c #9F9084",
"O5	c #806359",
"P5	c #90695D",
"Q5	c #69443B",
"R5	c #703F32",
"S5	c #AA6751",
"T5	c #AD6953",
"U5	c #7E4638",
"V5	c #9D7362",
"W5	c #705549",
"X5	c #57433B",
"Y5	c #8A7A6C",
"Z5	c #978879",
"`5	c #968779",
" 6	c #6B5146",
".6	c #614237",
"+6	c #48332C",
"@6	c #2A1C18",
"#6	c #534740",
"$6	c #554941",
"%6	c #574D45",
"&6	c #4D4640",
"*6	c #2F2B28",
"=6	c #171411",
"-6	c #38312B",
";6	c #52473E",
">6	c #594E46",
",6	c #60544C",
"'6	c #9E9082",
")6	c #C6B9A9",
"!6	c #CFC1B1",
"~6	c #CCB8A7",
"{6	c #B99A89",
"]6	c #C07E6E",
"^6	c #CCB1A1",
"/6	c #C2B2A3",
"(6	c #BAAB9C",
"_6	c #C0B0A0",
":6	c #B9A899",
"<6	c #B0A090",
"[6	c #A59385",
"}6	c #908074",
"|6	c #766960",
"16	c #6A6057",
"26	c #181512",
"36	c #010102",
"46	c #1D1917",
"56	c #887E75",
"66	c #B4A79A",
"76	c #B5A494",
"86	c #A18979",
"96	c #96715F",
"06	c #875C4C",
"a6	c #80493B",
"b6	c #7A4336",
"c6	c #9E6C59",
"d6	c #7C6255",
"e6	c #5D463D",
"f6	c #77655A",
"g6	c #84766A",
"h6	c #796A5E",
"i6	c #503F36",
"j6	c #392B26",
"k6	c #221715",
"l6	c #150A09",
"m6	c #534A44",
"n6	c #3C3835",
"o6	c #3F3A36",
"p6	c #1B1716",
"q6	c #706358",
"r6	c #74665B",
"s6	c #8B7D6F",
"t6	c #AA9A8B",
"u6	c #A99A8C",
"v6	c #BDB0A1",
"w6	c #D9CCBD",
"x6	c #DAC6B4",
"y6	c #D7B49F",
"z6	c #DFAC96",
"A6	c #D3BAA7",
"B6	c #DECFBE",
"C6	c #D2C4B4",
"D6	c #CDBFAF",
"E6	c #B2A395",
"F6	c #A59689",
"G6	c #A69586",
"H6	c #AB9C8F",
"I6	c #766A61",
"J6	c #36302C",
"K6	c #030204",
"L6	c #4A4643",
"M6	c #A5A099",
"N6	c #BDAE9E",
"O6	c #B2A190",
"P6	c #A78B79",
"Q6	c #B4907F",
"R6	c #997666",
"S6	c #825B4D",
"T6	c #6A352C",
"U6	c #7C4D3E",
"V6	c #886D5E",
"W6	c #8B7464",
"X6	c #826F62",
"Y6	c #7B6C61",
"Z6	c #7B685A",
"`6	c #35231D",
" 7	c #341712",
".7	c #1A0605",
"+7	c #26110D",
"@7	c #3D2C26",
"#7	c #51423A",
"$7	c #4B3F39",
"%7	c #3E3632",
"&7	c #2E2B29",
"*7	c #363330",
"=7	c #0C0A0A",
"-7	c #2C2724",
";7	c #564C46",
">7	c #6A5F56",
",7	c #817165",
"'7	c #A39181",
")7	c #AE9989",
"!7	c #B19D8E",
"~7	c #C8A08C",
"{7	c #E4C0AA",
"]7	c #DAA693",
"^7	c #D29F90",
"/7	c #E8C9B7",
"(7	c #DCC8B6",
"_7	c #CDBDAC",
":7	c #C8B8A8",
"<7	c #CABBAB",
"[7	c #7E746B",
"}7	c #453D3A",
"|7	c #020204",
"17	c #09080A",
"27	c #5A5955",
"37	c #BFB8AE",
"47	c #988172",
"57	c #997B6A",
"67	c #9F715E",
"77	c #A46855",
"87	c #9D7664",
"97	c #9A695B",
"07	c #834B3D",
"a7	c #8E6D5C",
"b7	c #8D7769",
"c7	c #7A685B",
"d7	c #625349",
"e7	c #482E27",
"f7	c #3C1913",
"g7	c #250303",
"h7	c #200D09",
"i7	c #392822",
"j7	c #57463D",
"k7	c #483A33",
"l7	c #403733",
"m7	c #393431",
"n7	c #272423",
"o7	c #25201D",
"p7	c #473F39",
"q7	c #6E6056",
"r7	c #8C796C",
"s7	c #877164",
"t7	c #A18578",
"u7	c #936B5F",
"v7	c #6C483D",
"w7	c #913D32",
"x7	c #C47866",
"y7	c #D9826E",
"z7	c #BF4034",
"A7	c #C36356",
"B7	c #CB9E8C",
"C7	c #C5B1A1",
"D7	c #CBB9A8",
"E7	c #C9B9A9",
"F7	c #908579",
"G7	c #2B2725",
"H7	c #09080B",
"I7	c #241E1B",
"J7	c #181514",
"K7	c #0F0C0C",
"L7	c #000103",
"M7	c #74706B",
"N7	c #AB9689",
"O7	c #AE9280",
"P7	c #AF8472",
"Q7	c #A06753",
"R7	c #6B372C",
"S7	c #874033",
"T7	c #A04334",
"U7	c #915345",
"V7	c #9A7765",
"W7	c #A78B77",
"X7	c #998272",
"Y7	c #927F6F",
"Z7	c #99897A",
"`7	c #7B5A4E",
" 8	c #6A3024",
".8	c #501710",
"+8	c #3F110D",
"@8	c #381814",
"#8	c #4D3C35",
"$8	c #483932",
"%8	c #312926",
"&8	c #433D39",
"*8	c #453F3C",
"=8	c #3B3634",
"-8	c #3E3731",
";8	c #63574E",
">8	c #806F62",
",8	c #8C7A6C",
"'8	c #9F8B7C",
")8	c #9C8778",
"!8	c #BB9D8F",
"~8	c #B56C5E",
"{8	c #811811",
"]8	c #650705",
"^8	c #932B22",
"/8	c #C85646",
"(8	c #D64B3C",
"_8	c #C85C4E",
":8	c #CEAB9A",
"<8	c #DECFBF",
"[8	c #D9CDBF",
"}8	c #A4978C",
"|8	c #413C38",
"18	c #221A18",
"28	c #0D0909",
"38	c #2F2623",
"48	c #161110",
"58	c #3E332D",
"68	c #413630",
"78	c #14100F",
"88	c #302B27",
"98	c #A49385",
"08	c #CAB29E",
"a8	c #D5BCA5",
"b8	c #CBA588",
"c8	c #8C5241",
"d8	c #75180E",
"e8	c #802318",
"f8	c #69473D",
"g8	c #88695A",
"h8	c #9A715D",
"i8	c #967C6B",
"j8	c #917F71",
"k8	c #928578",
"l8	c #796458",
"m8	c #76473A",
"n8	c #783226",
"o8	c #5B1D15",
"p8	c #4A322B",
"q8	c #615249",
"r8	c #594B43",
"s8	c #413833",
"t8	c #4E4741",
"u8	c #5C544E",
"v8	c #5C544D",
"w8	c #302B28",
"x8	c #736358",
"y8	c #8A786A",
"z8	c #A69484",
"A8	c #BAA593",
"B8	c #C2A997",
"C8	c #C59282",
"D8	c #AF5345",
"E8	c #9E3026",
"F8	c #8B271F",
"G8	c #9E2117",
"H8	c #A13C2F",
"I8	c #D26B5A",
"J8	c #C06356",
"K8	c #DCC4B5",
"L8	c #E2D7CA",
"M8	c #989089",
"N8	c #171312",
"O8	c #131010",
"P8	c #0B090A",
"Q8	c #0D0B0C",
"R8	c #060506",
"S8	c #2A231F",
"T8	c #433833",
"U8	c #241E1C",
"V8	c #7A7167",
"W8	c #D0BCA9",
"X8	c #D0AC95",
"Y8	c #D0A58C",
"Z8	c #935D4D",
"`8	c #77140C",
" 9	c #A22118",
".9	c #531B15",
"+9	c #683E34",
"@9	c #835849",
"#9	c #896F5F",
"$9	c #9B897B",
"%9	c #A39485",
"&9	c #988374",
"*9	c #907260",
"=9	c #744034",
"-9	c #55221A",
";9	c #4F332C",
">9	c #735C51",
",9	c #5B4C43",
"'9	c #392E29",
")9	c #3D3531",
"!9	c #48403B",
"~9	c #5E544D",
"{9	c #3A3531",
"]9	c #0A0706",
"^9	c #1B1411",
"/9	c #55463C",
"(9	c #746256",
"_9	c #827063",
":9	c #8F7E71",
"<9	c #BCAB9B",
"[9	c #CEBEAD",
"}9	c #CDB9A8",
"|9	c #BD998B",
"19	c #C19385",
"29	c #CE9886",
"39	c #D57664",
"49	c #D46955",
"59	c #D57E69",
"69	c #D17768",
"79	c #BA6F65",
"89	c #C9AD9D",
"99	c #928478",
"09	c #2D2824",
"a9	c #09090B",
"b9	c #110F10",
"c9	c #1E1B19",
"d9	c #100E0F",
"e9	c #070606",
"f9	c #241F1E",
"g9	c #322B28",
"h9	c #49423C",
"i9	c #BEB1A4",
"j9	c #C2A998",
"k9	c #A48976",
"l9	c #874238",
"m9	c #86140D",
"n9	c #921F18",
"o9	c #661810",
"p9	c #773326",
"q9	c #703B31",
"r9	c #6B4D42",
"s9	c #947D6E",
"t9	c #958374",
"u9	c #7F695C",
"v9	c #765145",
"w9	c #825347",
"x9	c #69493F",
"y9	c #655248",
"z9	c #705D53",
"A9	c #483B34",
"B9	c #352D28",
"C9	c #3A322D",
"D9	c #4A413A",
"E9	c #332F2C",
"F9	c #120D0B",
"G9	c #281F1B",
"H9	c #5B4B41",
"I9	c #736055",
"J9	c #806C60",
"K9	c #958679",
"L9	c #C5B7A7",
"M9	c #DACBBA",
"N9	c #CBB19E",
"O9	c #CCB4A4",
"P9	c #DDCABA",
"Q9	c #E1CABA",
"R9	c #C59988",
"S9	c #D58C77",
"T9	c #D06E5E",
"U9	c #BF8E80",
"V9	c #9C766A",
"W9	c #74635B",
"X9	c #2A2421",
"Y9	c #0D0B0D",
"Z9	c #1C1818",
"`9	c #1F1A18",
" 0	c #221D1C",
".0	c #181413",
"+0	c #26211F",
"@0	c #070507",
"#0	c #736B64",
"$0	c #B29C8F",
"%0	c #AB8170",
"&0	c #80392E",
"*0	c #6E0D06",
"=0	c #6F0C06",
"-0	c #63130D",
";0	c #904031",
">0	c #974D3E",
",0	c #8C5A4C",
"'0	c #997E6E",
")0	c #8F7B6C",
"!0	c #7C685D",
"~0	c #7F6C60",
"{0	c #71594E",
"]0	c #786558",
"^0	c #6F5F53",
"/0	c #756358",
"(0	c #726055",
"_0	c #58483F",
":0	c #342A26",
"<0	c #4E463F",
"[0	c #2C2827",
"}0	c #181311",
"|0	c #3C2F2A",
"10	c #6B5A4E",
"20	c #7D6659",
"30	c #9B8476",
"40	c #98867A",
"50	c #756C65",
"60	c #CCB29E",
"70	c #D2BFAF",
"80	c #DBC8B8",
"90	c #BEA395",
"00	c #B19285",
"a0	c #C89788",
"b0	c #C17A6C",
"c0	c #B88F80",
"d0	c #6B5349",
"e0	c #1C1513",
"f0	c #1B1714",
"g0	c #443A33",
"h0	c #453A35",
"i0	c #0B0909",
"j0	c #1B1616",
"k0	c #2D2825",
"l0	c #9A877B",
"m0	c #AC8D7C",
"n0	c #9E6D5A",
"o0	c #9A4839",
"p0	c #8E281E",
"q0	c #5B130F",
"r0	c #8A4037",
"s0	c #8E3227",
"t0	c #7A483C",
"u0	c #8F7B6B",
"v0	c #978576",
"w0	c #7B6C60",
"x0	c #8C796B",
"y0	c #877466",
"z0	c #847164",
"A0	c #846F61",
"B0	c #604F45",
"C0	c #40332D",
"D0	c #6A5D54",
"E0	c #574E48",
"F0	c #413C39",
"G0	c #342B25",
"H0	c #68574D",
"I0	c #958273",
"J0	c #9F8E81",
"K0	c #86776D",
"L0	c #4A413B",
"M0	c #1E1918",
"N0	c #7D756E",
"O0	c #C8B6A9",
"P0	c #D6C4B5",
"Q0	c #DAC7B6",
"R0	c #A98C7D",
"S0	c #B39486",
"T0	c #C5A798",
"U0	c #C9B2A5",
"V0	c #7F7168",
"W0	c #120909",
"X0	c #3F352F",
"Y0	c #3C332E",
"Z0	c #403631",
"`0	c #483C36",
" a	c #463C35",
".a	c #3E342F",
"+a	c #A89686",
"@a	c #A88674",
"#a	c #A97460",
"$a	c #B37C68",
"%a	c #905545",
"&a	c #9F6453",
"*a	c #95483C",
"=a	c #603128",
"-a	c #756256",
";a	c #8C7D70",
">a	c #746559",
",a	c #7C6C60",
"'a	c #907D6E",
")a	c #8A7869",
"!a	c #7E6A5E",
"~a	c #836E60",
"{a	c #715D51",
"]a	c #51433B",
"^a	c #53473E",
"/a	c #5F534A",
"(a	c #5A5049",
"_a	c #5D5550",
":a	c #2A211D",
"<a	c #5C4D44",
"[a	c #8A7569",
"}a	c #AC9B8D",
"|a	c #827970",
"1a	c #2B2825",
"2a	c #605D59",
"3a	c #BFB2A8",
"4a	c #C4AD9C",
"5a	c #A89182",
"6a	c #8A7165",
"7a	c #BCAB9F",
"8a	c #BBAB9F",
"9a	c #93857A",
"0a	c #393531",
"aa	c #241D1C",
"ba	c #332B28",
"ca	c #3B322D",
"da	c #493D37",
"ea	c #4F433B",
"fa	c #3C342E",
"ga	c #2F2925",
"ha	c #0B090B",
"ia	c #322D28",
"ja	c #9D8F81",
"ka	c #B49583",
"la	c #B28B78",
"ma	c #B99F8C",
"na	c #B88F7B",
"oa	c #A47764",
"pa	c #976251",
"qa	c #633C32",
"ra	c #664D43",
"sa	c #867669",
"ta	c #7C6A5D",
"ua	c #837264",
"va	c #847263",
"wa	c #665247",
"xa	c #6A5549",
"ya	c #483B33",
"za	c #66584F",
"Aa	c #635851",
"Ba	c #4D3F38",
"Ca	c #766458",
"Da	c #282623",
"Ea	c #716A65",
"Fa	c #79716B",
"Ga	c #755F55",
"Ha	c #392A24",
"Ia	c #453933",
"Ja	c #A0978E",
"Ka	c #867E76",
"La	c #443A35",
"Ma	c #463A34",
"Na	c #473B36",
"Oa	c #312A27",
"Pa	c #070608",
"Qa	c #020101",
"Ra	c #5D544C",
"Sa	c #94796A",
"Ta	c #A38373",
"Ua	c #B19B8B",
"Va	c #A27B6A",
"Wa	c #996652",
"Xa	c #723C2F",
"Ya	c #5A2E25",
"Za	c #553D35",
"`a	c #56443B",
" b	c #4D3F37",
".b	c #6F5D51",
"+b	c #716054",
"@b	c #715E52",
"#b	c #735F53",
"$b	c #3B231D",
"%b	c #2D1511",
"&b	c #2B221C",
"*b	c #706055",
"=b	c #64564C",
"-b	c #4C4641",
";b	c #51443C",
">b	c #6E5E54",
",b	c #15100E",
"'b	c #0B0808",
")b	c #2E2A28",
"!b	c #2B2422",
"~b	c #231916",
"{b	c #291D19",
"]b	c #544035",
"^b	c #635044",
"/b	c #58473D",
"(b	c #4F4138",
"_b	c #4D4038",
":b	c #4C4039",
"<b	c #53453E",
"[b	c #141212",
"}b	c #0B0A0A",
"|b	c #100706",
"1b	c #5C3B2F",
"2b	c #966756",
"3b	c #947161",
"4b	c #9A7060",
"5b	c #945948",
"6b	c #612E23",
"7b	c #441A14",
"8b	c #45322B",
"9b	c #71594C",
"0b	c #483931",
"ab	c #41342C",
"bb	c #6C5A4E",
"cb	c #6F584C",
"db	c #5E3026",
"eb	c #3E100B",
"fb	c #675A50",
"gb	c #776A60",
"hb	c #5D544D",
"ib	c #332E2A",
"jb	c #493E38",
"kb	c #6E5E55",
"lb	c #6A5C53",
"mb	c #020202",
"nb	c #201B18",
"ob	c #382E2B",
"pb	c #443630",
"qb	c #473730",
"rb	c #614B3F",
"sb	c #7B5F4E",
"tb	c #6D5547",
"ub	c #614A3E",
"vb	c #634D41",
"wb	c #514038",
"xb	c #4F3F37",
"yb	c #433630",
"zb	c #322A27",
"Ab	c #1F1B1A",
"Bb	c #111010",
"Cb	c #65554C",
"Db	c #937B6D",
"Eb	c #A88370",
"Fb	c #A26D59",
"Gb	c #895342",
"Hb	c #5B2B20",
"Ib	c #28110E",
"Jb	c #2F211C",
"Kb	c #2E201C",
"Lb	c #2C1D18",
"Mb	c #41332B",
"Nb	c #7C685B",
"Ob	c #816E60",
"Pb	c #624B40",
"Qb	c #653C31",
"Rb	c #391B15",
"Sb	c #180807",
"Tb	c #50433B",
"Ub	c #685C54",
"Vb	c #635951",
"Wb	c #685F56",
"Xb	c #423C36",
"Yb	c #716359",
"Zb	c #443934",
"`b	c #4E403A",
" c	c #6A574D",
".c	c #8F7765",
"+c	c #96705A",
"@c	c #835E4E",
"#c	c #775647",
"$c	c #6D5043",
"%c	c #6C5346",
"&c	c #3D312C",
"*c	c #2F2622",
"=c	c #1D1918",
"-c	c #0C0B0B",
";c	c #1C1B19",
">c	c #695C51",
",c	c #A28875",
"'c	c #956553",
")c	c #844634",
"!c	c #6F4132",
"~c	c #301A14",
"{c	c #1A100C",
"]c	c #3B2922",
"^c	c #45352D",
"/c	c #796255",
"(c	c #60483D",
"_c	c #684D41",
":c	c #351310",
"<c	c #221B18",
"[c	c #3F3732",
"}c	c #564E47",
"|c	c #564840",
"1c	c #564841",
"2c	c #221E1C",
"3c	c #4B3E38",
"4c	c #675449",
"5c	c #876E5E",
"6c	c #AA8A73",
"7c	c #B26E52",
"8c	c #964F39",
"9c	c #63392C",
"0c	c #6E4839",
"ac	c #67493C",
"bc	c #4C362D",
"cc	c #3A2C26",
"dc	c #362A25",
"ec	c #251D1B",
"fc	c #251E1C",
"gc	c #1C1716",
"hc	c #100E0E",
"ic	c #2E2722",
"jc	c #8A7567",
"kc	c #B68671",
"lc	c #8B3C2C",
"mc	c #602518",
"nc	c #2E110D",
"oc	c #060304",
"pc	c #382B25",
"qc	c #856B5C",
"rc	c #785B4C",
"sc	c #5D4237",
"tc	c #38201A",
"uc	c #2D100E",
"vc	c #100E0D",
"wc	c #2E2927",
"xc	c #453E39",
"yc	c #2B2421",
"zc	c #584C45",
"Ac	c #13100F",
"Bc	c #604E44",
"Cc	c #72584B",
"Dc	c #9F7863",
"Ec	c #AE7962",
"Fc	c #943D2B",
"Gc	c #813220",
"Hc	c #692417",
"Ic	c #603124",
"Jc	c #66372A",
"Kc	c #44251E",
"Lc	c #402C25",
"Mc	c #3D2E28",
"Nc	c #141010",
"Oc	c #130F10",
"Pc	c #090708",
"Qc	c #302825",
"Rc	c #0C0606",
"Sc	c #4E3C34",
"Tc	c #A07160",
"Uc	c #924434",
"Vc	c #42130B",
"Wc	c #4D2D25",
"Xc	c #614D43",
"Yc	c #806556",
"Zc	c #7D6050",
"`c	c #745749",
" d	c #563C32",
".d	c #32201B",
"+d	c #070607",
"@d	c #282321",
"#d	c #181513",
"$d	c #161313",
"%d	c #261F1C",
"&d	c #372D27",
"*d	c #725648",
"=d	c #734B3C",
"-d	c #A15440",
";d	c #A34A36",
">d	c #8F2B19",
",d	c #832313",
"'d	c #772012",
")d	c #572117",
"!d	c #6F3325",
"~d	c #582C21",
"{d	c #432F28",
"]d	c #42342D",
"^d	c #3C312A",
"/d	c #29211D",
"(d	c #211A18",
"_d	c #1A1513",
":d	c #171211",
"<d	c #1C1715",
"[d	c #030304",
"}d	c #180F0E",
"|d	c #7A5548",
"1d	c #7F4032",
"2d	c #3F140C",
"3d	c #49362E",
"4d	c #463A33",
"5d	c #31221C",
"6d	c #4E362C",
"7d	c #63473B",
"8d	c #3B2B25",
"9d	c #0E0908",
"0d	c #19110D",
"ad	c #040303",
"bd	c #120F0D",
"cd	c #1B1614",
"dd	c #030202",
"ed	c #040404",
"fd	c #201B19",
"gd	c #2F2521",
"hd	c #664F41",
"id	c #644032",
"jd	c #77281A",
"kd	c #7B1E11",
"ld	c #912817",
"md	c #8F2414",
"nd	c #5B160B",
"od	c #42180F",
"pd	c #602D1F",
"qd	c #543126",
"rd	c #554238",
"sd	c #4A3C35",
"td	c #2C2521",
"ud	c #3A312C",
"vd	c #020201",
"wd	c #130F0E",
"xd	c #4E352D",
"yd	c #692E23",
"zd	c #411D16",
"Ad	c #1F1411",
"Bd	c #372E29",
"Cd	c #403934",
"Dd	c #392922",
"Ed	c #3A2923",
"Fd	c #2F2520",
"Gd	c #1B120E",
"Hd	c #4D382D",
"Id	c #1D1816",
"Jd	c #1E1715",
"Kd	c #604C40",
"Ld	c #483028",
"Md	c #4C110A",
"Nd	c #541109",
"Od	c #6E1D10",
"Pd	c #4E130A",
"Qd	c #381710",
"Rd	c #40231A",
"Sd	c #47261D",
"Td	c #503329",
"Ud	c #473830",
"Vd	c #453832",
"Wd	c #040403",
"Xd	c #0A0A0A",
"Yd	c #080708",
"Zd	c #090809",
"`d	c #130605",
" e	c #431D16",
".e	c #482720",
"+e	c #281B17",
"@e	c #150C0B",
"#e	c #0E0807",
"$e	c #150D0B",
"%e	c #261A17",
"&e	c #2D201C",
"*e	c #1D1412",
"=e	c #060403",
"-e	c #241A14",
";e	c #2E2521",
">e	c #161111",
",e	c #54433A",
"'e	c #695448",
")e	c #503E35",
"!e	c #361611",
"~e	c #380F09",
"{e	c #481C13",
"]e	c #491C15",
"^e	c #5D2A23",
"/e	c #462B23",
"(e	c #34231D",
"_e	c #3A2C25",
":e	c #2B231E",
"<e	c #251F1C",
"[e	c #0E0B0B",
"}e	c #231612",
"|e	c #34231E",
"1e	c #2D201B",
"2e	c #180F0D",
"3e	c #1B110E",
"4e	c #211411",
"5e	c #33231D",
"6e	c #2B1E1A",
"7e	c #000101",
"8e	c #110D0B",
"9e	c #1F1917",
"0e	c #4F4037",
"ae	c #655146",
"be	c #44352D",
"ce	c #2B1612",
"de	c #412018",
"ee	c #6E3A2D",
"fe	c #703629",
"ge	c #6A3529",
"he	c #3A2620",
"ie	c #251C18",
"je	c #392C26",
"ke	c #0F0E0E",
"le	c #0D0C0D",
"me	c #171514",
"ne	c #120F0E",
"oe	c #1A1311",
"pe	c #302520",
"qe	c #46352C",
"re	c #3D2D25",
"se	c #17100E",
"te	c #221612",
"ue	c #2D1F1A",
"ve	c #231915",
"we	c #1A1715",
"xe	c #231E1B",
"ye	c #67564B",
"ze	c #493A32",
"Ae	c #2B1B16",
"Be	c #402A22",
"Ce	c #5A372C",
"De	c #5A291D",
"Ee	c #572E23",
"Fe	c #32221C",
"Ge	c #181515",
"He	c #221F1D",
"Ie	c #262220",
"Je	c #25201E",
"Ke	c #13100E",
"Le	c #261E1A",
"Me	c #4B3A32",
"Ne	c #41322A",
"Oe	c #2B1F1A",
"Pe	c #1C1411",
"Qe	c #130D0C",
"Re	c #18110F",
"Se	c #160F0C",
"Te	c #030303",
"Ue	c #0A0909",
"Ve	c #27221F",
"We	c #382E29",
"Xe	c #574940",
"Ye	c #17110E",
"Ze	c #342721",
"`e	c #54382D",
" f	c #5E3327",
".f	c #4B3026",
"+f	c #332822",
"@f	c #28201D",
"#f	c #2D2521",
"$f	c #201C1A",
"%f	c #131212",
"&f	c #1C1919",
"*f	c #1E1C1A",
"=f	c #2B2623",
"-f	c #372F2A",
";f	c #302621",
">f	c #352823",
",f	c #1E1512",
"'f	c #100A09",
")f	c #1C1210",
"!f	c #1D1512",
"~f	c #110B09",
"{f	c #221D1A",
"]f	c #423832",
"^f	c #4C3F36",
"/f	c #130E0D",
"(f	c #271C19",
"_f	c #422D25",
":f	c #5A3C31",
"<f	c #47342B",
"[f	c #40332B",
"}f	c #110F0F",
"|f	c #080707",
"1f	c #171515",
"2f	c #26211E",
"3f	c #38302C",
"4f	c #44362F",
"5f	c #362923",
"6f	c #241915",
"7f	c #1A120F",
"8f	c #1B1310",
"9f	c #1A100D",
"0f	c #130C09",
"af	c #0D0A0A",
"bf	c #161210",
"cf	c #403630",
"df	c #3B2E28",
"ef	c #44352F",
"ff	c #553D33",
"gf	c #342822",
"hf	c #2A211E",
"if	c #2E2522",
"jf	c #302824",
"kf	c #141211",
"lf	c #413632",
"mf	c #362E2A",
"nf	c #382D27",
"of	c #31231E",
"pf	c #1C1310",
"qf	c #160E0C",
"rf	c #120C0A",
"sf	c #251612",
"tf	c #2F1712",
"uf	c #23120F",
"vf	c #100907",
"wf	c #0C0908",
"xf	c #181412",
"yf	c #342B26",
"zf	c #42312A",
"Af	c #3E2F28",
"Bf	c #45342B",
"Cf	c #42332C",
"Df	c #524137",
"Ef	c #2F2621",
"Ff	c #2F2723",
"Gf	c #29221F",
"Hf	c #151211",
"If	c #3E332E",
"Jf	c #3C322D",
"Kf	c #322925",
"Lf	c #352721",
"Mf	c #5A4035",
"Nf	c #49342A",
"Of	c #190F0D",
"Pf	c #2E1813",
"Qf	c #1F0C09",
"Rf	c #1D0D0A",
"Sf	c #0A0504",
"Tf	c #050505",
"Uf	c #1E1815",
"Vf	c #221C1A",
"Wf	c #3F342E",
"Xf	c #4B3E36",
"Yf	c #382E28",
"Zf	c #2B211C",
"`f	c #312621",
" g	c #40332C",
".g	c #504038",
"+g	c #4D3E36",
"@g	c #2E2621",
"#g	c #2B2420",
"$g	c #040506",
"%g	c #0F0D0D",
"&g	c #251E1A",
"*g	c #362B26",
"=g	c #48332B",
"-g	c #3D2A23",
";g	c #261914",
">g	c #0C0604",
",g	c #2E100B",
"'g	c #431B12",
")g	c #340E07",
"!g	c #191514",
"~g	c #362F2A",
"{g	c #372F29",
"]g	c #4A3D36",
"^g	c #322822",
"/g	c #6B584C",
"(g	c #4A3B33",
"_g	c #0F0D0B",
":g	c #050506",
"<g	c #0E0D0D",
"[g	c #151212",
"}g	c #191515",
"|g	c #291F1B",
"1g	c #191310",
"2g	c #1F120E",
"3g	c #0F0807",
"4g	c #280C07",
"5g	c #552217",
"6g	c #663021",
"7g	c #310F08",
"8g	c #130404",
"9g	c #171413",
"0g	c #2B2523",
"ag	c #5E4E43",
"bg	c #493A31",
"cg	c #473B34",
"dg	c #55463D",
"eg	c #41352F",
"fg	c #2D2520",
"gg	c #1D1815",
"hg	c #211C1A",
"ig	c #28221F",
"jg	c #0F0C0B",
"kg	c #131110",
"lg	c #0F0D0E",
"mg	c #1C1613",
"ng	c #15100F",
"og	c #160F0E",
"pg	c #190C09",
"qg	c #130705",
"rg	c #2F0E08",
"sg	c #591D12",
"tg	c #491A11",
"ug	c #3C1E16",
"vg	c #160605",
"wg	c #221D1B",
"xg	c #574840",
"yg	c #5C4B41",
"zg	c #45362E",
"Ag	c #56483F",
"Bg	c #5A493F",
"Cg	c #2C2421",
"Dg	c #1C1816",
"Eg	c #1E1917",
"Fg	c #050403",
"Gg	c #1C1514",
"Hg	c #120D0C",
"Ig	c #201512",
"Jg	c #38130D",
"Kg	c #44150C",
"Lg	c #1C0706",
"Mg	c #23110D",
"Ng	c #150807",
"Og	c #433933",
"Pg	c #56473F",
"Qg	c #4E3F38",
"Rg	c #43362F",
"Sg	c #443933",
"Tg	c #4E4038",
"Ug	c #2D2622",
"Vg	c #0F0D0C",
"Wg	c #181312",
"Xg	c #0F0B0A",
"Yg	c #0D0505",
"Zg	c #180B09",
"`g	c #38302B",
" h	c #433832",
".h	c #423630",
"+h	c #5B4A3F",
"@h	c #4A3E36",
"#h	c #41362F",
"$h	c #342A25",
"%h	c #151210",
"&h	c #060606",
"*h	c #0A0605",
"=h	c #040302",
"-h	c #362E28",
";h	c #322923",
">h	c #3E322B",
",h	c #110E0D",
"'h	c #070605",
")h	c #1B1512",
"!h	c #120F0F",
"~h	c #121110",
"{h	c #1A1716",
"]h	c #352D29",
"^h	c #42362F",
"/h	c #2F2722",
"(h	c #0F0C0A",
"_h	c #27201C",
":h	c #171210",
"<h	c #0C0A0B",
"[h	c #0D0B0B",
"}h	c #070708",
"|h	c #131211",
"1h	c #322B27",
"2h	c #4D3E35",
"3h	c #3A2F28",
"4h	c #28201C",
"5h	c #2A2420",
"6h	c #2C2621",
"7h	c #201A17",
"8h	c #171412",
"9h	c #0C0A08",
"0h	c #1A1514",
"ah	c #12100F",
"bh	c #120E0E",
"ch	c #060504",
"dh	c #010100",
"eh	c #030201",
"fh	c #0D0C0B",
"gh	c #0D0C0C",
"hh	c #5C493F",
"ih	c #614C40",
"jh	c #624839",
"kh	c #453329",
"lh	c #3B2B23",
"mh	c #291F1A",
"nh	c #0A0907",
"oh	c #17110F",
"ph	c #1D1715",
"qh	c #0E0C0C",
"rh	c #0E0D0C",
"sh	c #27201D",
"th	c #5D4335",
"uh	c #71503F",
"vh	c #8C634B",
"wh	c #725341",
"xh	c #765645",
"yh	c #5E4638",
"zh	c #241D19",
"Ah	c #0D0B08",
"Bh	c #150F0E",
"Ch	c #221A17",
"Dh	c #241C19",
"Eh	c #211A17",
"Fh	c #100B0B",
"Gh	c #151111",
"Hh	c #4B3A31",
"Ih	c #644637",
"Jh	c #6A4838",
"Kh	c #724E3C",
"Lh	c #714F3E",
"Mh	c #745342",
"Nh	c #7F604D",
"Oh	c #362A23",
"Ph	c #312620",
"Qh	c #1B1513",
"Rh	c #120E0D",
"Sh	c #221815",
"Th	c #2A1E19",
"Uh	c #2E221D",
"Vh	c #261C18",
"Wh	c #1C1614",
"Xh	c #141011",
"Yh	c #44352E",
"Zh	c #553C31",
"`h	c #614437",
" i	c #68473A",
".i	c #835C49",
"+i	c #97715A",
"@i	c #644839",
"#i	c #4D3A31",
"$i	c #3B2F28",
"%i	c #2D231E",
"&i	c #151110",
"*i	c #171310",
"=i	c #261A16",
"-i	c #32241E",
";i	c #1C1412",
">i	c #0E0706",
",i	c #0C0707",
"'i	c #2A201C",
")i	c #35251F",
"!i	c #422E26",
"~i	c #553B30",
"{i	c #573B2F",
"]i	c #66493A",
"^i	c #4A3328",
"/i	c #3A2A22",
"(i	c #130F0D",
"_i	c #040204",
":i	c #090707",
"<i	c #130E0E",
"[i	c #181210",
"}i	c #33221B",
"|i	c #38231A",
"1i	c #2B1D17",
"2i	c #31221B",
"3i	c #281B16",
"4i	c #2B201B",
"5i	c #191513",
"6i	c #0C090A",
"7i	c #211C1B",
"8i	c #261D19",
"9i	c #352821",
"0i	c #462F26",
"ai	c #5E3E30",
"bi	c #412B21",
"ci	c #402A21",
"di	c #36251D",
"ei	c #49372D",
"fi	c #3B2F27",
"gi	c #2F231F",
"hi	c #221B1A",
"ii	c #2C2220",
"ji	c #271D1A",
"ki	c #1C1714",
"li	c #392C25",
"mi	c #402F27",
"ni	c #5B4134",
"oi	c #654536",
"pi	c #583D31",
"qi	c #4A362D",
"ri	c #4A372E",
"si	c #40322A",
"ti	c #28201B",
"ui	c #0B0908",
"vi	c #0C0809",
"wi	c #251D19",
"xi	c #41342D",
"yi	c #402D24",
"zi	c #443027",
"Ai	c #43322A",
"Bi	c #31201B",
"Ci	c #170E0E",
"Di	c #1F1514",
"Ei	c #191312",
"Fi	c #0A0607",
"Gi	c #070506",
"Hi	c #090504",
"Ii	c #0A0606",
"Ji	c #221915",
"Ki	c #382B26",
"Li	c #4B3C34",
"Mi	c #624F45",
"Ni	c #4B3C35",
"Oi	c #1C1512",
"Pi	c #110C0A",
"Qi	c #100C0B",
"Ri	c #130907",
"Si	c #241714",
"Ti	c #1C1312",
"Ui	c #1B1212",
"Vi	c #150E0E",
"Wi	c #080604",
"Xi	c #070504",
"Yi	c #48382F",
"Zi	c #3A2D26",
"`i	c #4E3D35",
" j	c #342823",
".j	c #1D1714",
"+j	c #0A0807",
"@j	c #100806",
"#j	c #1E1311",
"$j	c #2C1F1C",
"%j	c #231310",
"&j	c #321D18",
"*j	c #3E221C",
"=j	c #4F2920",
"-j	c #41221C",
";j	c #24110E",
">j	c #0B0504",
",j	c #2D221C",
"'j	c #30231D",
")j	c #30231F",
"!j	c #3F2C26",
"~j	c #523C32",
"{j	c #3E312B",
"]j	c #100B0A",
"^j	c #1D0F0C",
"/j	c #291611",
"(j	c #351A14",
"_j	c #471B13",
":j	c #401710",
"<j	c #32100B",
"[j	c #2C0F0B",
"}j	c #1C0906",
"|j	c #1A0A07",
"1j	c #3A2822",
"2j	c #54392E",
"3j	c #604236",
"4j	c #5B3D32",
"5j	c #51392F",
"6j	c #513D34",
"7j	c #503D35",
"8j	c #402E27",
"9j	c #170F0C",
"0j	c #080406",
"aj	c #241210",
"bj	c #311A15",
"cj	c #381813",
"dj	c #431813",
"ej	c #120404",
"fj	c #0D0706",
"gj	c #251511",
"hj	c #3E261F",
"ij	c #6E4636",
"jj	c #9B6046",
"kj	c #8D543E",
"lj	c #824A36",
"mj	c #44241A",
"nj	c #2B130E",
"oj	c #21120E",
"pj	c #1F0D0A",
"qj	c #0C0303",
"rj	c #040102",
"sj	c #120807",
"tj	c #170B08",
"uj	c #412119",
"vj	c #764634",
"wj	c #985B40",
"xj	c #AE6442",
"yj	c #AF5D3D",
"zj	c #A65639",
"Aj	c #743826",
"Bj	c #7A3B2A",
"Cj	c #602E21",
"Dj	c #301610",
"Ej	c #1F0E0B",
"Fj	c #230F0B",
"Gj	c #5E2F23",
"Hj	c #804332",
"Ij	c #A55F42",
"Jj	c #B46C48",
"Kj	c #9D4A30",
"Lj	c #8C3A25",
"Mj	c #7A3424",
"Nj	c #79382A",
"Oj	c #6C3426",
"Pj	c #441D15",
"Qj	c #1E0B07",
"Rj	c #0F0403",
"Sj	c #020000",
"Tj	c #4A271E",
"Uj	c #582B21",
"Vj	c #612B20",
"Wj	c #7B3626",
"Xj	c #8C402B",
"Yj	c #853725",
"Zj	c #6B2416",
"`j	c #61261A",
" k	c #5A261C",
".k	c #4B1F16",
"+k	c #471B12",
"@k	c #2F1009",
"#k	c #0D0202",
"$k	c #070201",
"%k	c #1D0E0C",
"&k	c #321410",
"*k	c #391611",
"=k	c #3E1913",
"-k	c #4D1D13",
";k	c #46160D",
">k	c #38130C",
",k	c #2F100A",
"'k	c #240B07",
")k	c #3C160E",
"!k	c #2A0D07",
"~k	c #000002",
"                                                                                                                                                              ",
"                                                                                                                                                              ",
"                                                                                                                                                              ",
"                                                                                                                                                              ",
"                                                                            . + @ #                                                                           ",
"                                                                    $ % & * = - ; > , ' ) !                                                                   ",
"                                                                % ~ { ] ^ / ( _ : < [ } | 1                                                                   ",
"                                                          2     3 4 5 6 7 8 9 0 a b c d e f g h i j                                                           ",
"                                                  i k l m n o p q r s t u v w x y z A B C D E F i G H I                                                       ",
"                                                J K L M N O P Q R S T U V W X Y Z `  ...+.@.#.$.%.&.*.=.-.;.>.,.                                              ",
"                                            ,.'.).!.~.{.].^./.(._.:.<.[.}.|.1.2.3.4.5.6.7.8.9.0.a.b.c.d.e.f.g.                                                ",
"                                                  h.i.j.k.l.m.n.o.p.q.r.s.t.u.v.w.x.y.z.A.B.C.D.E.F.G.H.I.J.                                                  ",
"                                                K.L.M.N.O.P.Q.R.S.T.U.V.W.X.Y.Z.`. +.+++@+#+$+%+&+*+=+-+;+>+                                                  ",
"                                              ,+'+)+!+~+{+]+^+/+(+_+:+<+[+}+|+1+2+3+4+5+6+7+8+9+0+a+b+c+d+e+f+g+                                              ",
"                                          h+i+j+k+l+m+! n+o+p+q+r+s+t+u+v+w+x+y+z+A+B+C+D+E+F+G+H+%.I+J+K+L+M+N+                                              ",
"                                                  O+'.P+Q+R+S+T+U+V+W+X+Y+Z+`+ @.@+@@@#@$@%@&@*@=@! -@;@>@,@                                                  ",
"                                                '@)@!@~@{@]@^@/@(@_@:@<@[@}@|@1@2@3@4@5@6@7@8@9@0@a@b@c@d@e@                                                  ",
"                                                      f@g@h@i@j@k@l@m@n@o@p@q@r@s@t@u@v@w@x@y@z@A@B@C@D@                                                      ",
"                                                      E@F@G@H@I@J@K@L@M@N@O@P@Q@R@S@T@U@V@W@X@Y@Z@`@ #.#                                                      ",
"                                                      +#@###$#%#&#*#=#-#;#>#,#'#)#!#~#{#]#^#/#(#_#:#<#                                                        ",
"                                                        [#}#|#1#2#3#4#5#6#7#8#9#0#a#b#c#d#e#m.f#Q+g#h#                                                        ",
"                                                        i#j#k#l#m#n#o#p#q#r#s#t#u#v#w#x#y#z#A#B#C#D#                                                          ",
"                                                        E#F#G#H#I#J#K#L#M#N#O#P#Q#R#S#T#U#V#W#X#Y#Z#`#                                                        ",
"                                                       $.$+$@$#$$$%$&$*$=$-$;$>$,$'$)$!$~${$]$^$/$($_$:$                                                      ",
"                                                    <$[$}$}$|$1$2$3$4$5$6$7$8$9$0$a$b$c$d$e$f$g$h$i$j$k$l$m$                                                  ",
"                                              n$o$p$q$r$s$| t$u$v$w$x$y$z$A$B$C$D$E$F$G$H$I$J$K$e.L$M$N$O$P$Q$R$S$                                            ",
"                                          T$U$V$W$X$Y$Z$`$ %t$.%+%@%#%$%%%&%*%=%-%;%>%,%'%)%!%~%{%]%^%/%(%_%:%<%[%}%|%1%2%                                    ",
"                                      3%4%5%6%7%8%9%0%a%b%c%d%e%f%g%h%i%j%k%l%m%n%o%p%q%r%t$s%t%u%v%w%x%y%z%A%B%C%D%E%F%G%H%I%J%K%                            ",
"                                L%M%N%O%P%Q%R%S%T%U%V%W%f.X%Y%Z%m `% &.&+&@&#&$&%&&&*&=&-&;&`$>&,&'&)&!&~&{&]&^&/&(&_&:&<&[&}&|&1&2&                          ",
"                          3&4&5&6&7&8&9&0&a&b&c&d&e&f&g&h&i&j&k&l&m&n&o&p&q&r&s&t&u&v&w&x&y&z&A&B&C&D&E&F&G&H&I&J&K&L&|%M&N&O&P&Q&R&S&                        ",
"                        T&U&V&W&X&Y&Z&`& *.*+*@*#*$*%*&***=*-*;*>*,*'*)*!*~*{*]*^*/*(*`%_*:*<*[*}*|*1*2*3*4*5*6*7*8*9*0*a*b*c*d*e*f*g*h*                      ",
"                      i*j*k*l*m*n*o*p*}&q*r*J&s*t*u*v*w*x*y*z*A*B*C*D*E*F*G*H*I*J*)*K*L*M*N*O*P*Q*R*S*T*U*V*W*X*Y*Z*`* =.=+=@=#=$=%=&=*===                    ",
"                    -=;=>=,='=)=!=~={=]=^=/=(=_=:=<=[=}=|=*+1=2=3=4=5=6=7=8=9=0=a=b=c=o a.d=e=f=g=h=i=j=k=l=m=n=o=p=q=r=s=t=u=v=w=x=y=z=A=                    ",
"                    B=C=D=E=F=G=H=I=J=K=L=M=N=O=q=P=Q=R=S=T=U=V=W=X=Y=Z=`= -.-+-@-#-$-%-&-*-=---;->-,-'-)-!-~-{-]-^-/-(-_-:-[&<-[-}-|-1-3&2-                  ",
"                    3-4-5-6-7-8-9-0-a-b-c-d-e-f-g-h-i-j-k-l-m-n-o-p-q-r-s-t-u-v-w-x-y-z-A-B-C-D-E-F-G-H-I-J-K-L-M-N-O-P-Q-R-S-T-U-V-$=W-X-Y-                  ",
"                    Z-`- ;.;+;@;#;$;%;&;*;=;-;;;>;,;';);!;~;{;];^;/;(;_;:;<;[;};|;1;2;3;>&4;5;6;7;8;9;0;a;b;c;d;e;f;g;h;i;j;k;l;m;n;o;p;q;r;s;                ",
"                  t;u;v;w;x;y;z;A;B;C;D;E;F;G;H;I;J;K;L;M;N;)*O;P;p-Q;R;S;T;U;V;W;X;Y;Z;`; >.>+>@>#>$>%>&>*>=>->;>>>,>'>)>!>~>{>]>^>H%/>(>_>:>                ",
"                  <>[>}>|>1>2>3>4>5>6>7>8>9>0>a>b>c>c>d>e>f>g>h>' i>j>k>l>m>n>o>p>q># r>s>t>u>v>w>x>y>z>A>B>C>D>E>F>G>H>_&I>J>K>L>+*M>N>O>P>Q>                ",
"                R>S>[>T>U>V>W>X>Y>Z>`> ,.,+,@,#,$,%,&,*,=,-,;,>,,,',),!,~,{,],^,/,(,_,:,<,[,},|,1,2,3,4,5,6,7,8,9,0,a,b,c,d,e,f,g,h,i,j,k,l,m,n,              ",
"                o,p,q,r,s,t,u,v,w,Y>x,y,z,A,B,C,D,E,F,G,H,I,J,K,_,L,M,N,O,P,Q,R,S,A*T,U,V,W,X,Y,Z,`, '.'+'@'#'$'%'&'*'='-';'>',''')'!'~'{']'^'/'('            ",
"              _':'<'['}'|'1'2'3'4'5'6'7'8'9'0'a'b'c'd'e'f'g'h'i'j'k'l'm'n'o'p'q'r's't'u'v'w'x'y'z'A'B'C' $D'E'F'G'H'I'J'K'L'M'N'O'P'Q'R'S'T'U'V'W'X'          ",
"              Y'Z'`' ).)+)@)#)$)%)&)*)=)-);)>),)')))!)~){)])^)/)())*_):)<)[)})|)1)2)3)4)5)6)7)8)9)0)a)b)c)d)e)f)g)h)i)j)k)l)m)n)o)p)q)r)s)t)u)v)w)x)          ",
"              y)z)A)B)C)D)E)F)G)H)I)J)K)L)M)N)O)P)Q)R)S)T)U)V)W)X)Y)Z)`) !o+.!+!)*@!#!$!%!&!*!=!-!;!>!,!'!)!!!~!{!]!^!/!(!_!:!<![!}!|!1!2!3!4!5!6!7!          ",
"            8!9!0!a!b!c!d!e!f!g!h!i!j!k!l!m!n!o!p!q!r!s!t!u!v!w!x!y!T=# z!# z!A!B!C!D!E!F!G!H!I!J!K!L!M!N!O!P!Q!R!S!T!U!V!W!X!Y!Z!`! ~.~+~@~#~$~%~&~*~        ",
"          =~-~;~4'>~,~*)'~)~!~~~{~]~^~/~(~_~:~<~[~}~|~1~2~3~4~U%5~6~7~t$8~z!T=9~0~a~b~c~d~e~f~g~h~i~j~k~l~m~n~o~p~q~r~s~t~u~v~w~x~y~z~A~B~l-C~D~E~F~G~        ",
"          H~I~J~K~L~M~N~O~P~Q~R~S~T~U~V~W~X~Y~Z~`~Z~ {.{+{@{#{${%{&{*{T=={-{T=;{>{,{'{){!{~{{{]{^{/{({_{:{<{[{}{|{1{2{3{4{5{6{7{8{9{0{a{b{c{d{e{1-f{          ",
"        g{h{i{j{k{l{m{n{o{p{q{r{s{t{u{v{w{x{y{z{A{B{C{D{E{F{G{H{I{J{K{L{M{N{O{P{Q{R{S{T{U{V{W{X{Y{Z{`{ ].]+]@]#]$]%]&]*]=]-];]>],]'])]!]~]{]]]^]/](]          ",
"        _]:]<][]}]|]1]2]3]4]5]6]7]h!8]9]0]a]b]c]d]e]f]g]h]i]j]k]l]P{m]n]o]p] )q]r]s]t]u]v]w]x]y]z]A]B]C]D]E]F]G]H]I]J]K]L]M]N]O]P]Q]R]S]T]U]V]W]X]Y]          ",
"        Z]`] ^.^+^@^#^$^%^&^*^=^-^;^`$>^Q+,^'^)^!^~^{^]^^^/^(^_^:^<^[^}^|^1^2^3^4^5^6^7^8^9^0^a^b^c^d^e^f^g^h^i^j^k^l^m^n^o^p^q^r^s^t^u^(*v^w^x^y^            ",
"      z^A^B^C^D^*,E^F^G^H^I^J^K^L^M^N^s%O^P^Q^R^S^T^U^V^W^X^Y^Z^`^ /./+/@/#/$/%/&/*/=/-/;/>/,/'/)/!/~/{/]/^///(/_/:/</[/}/|/1/2/3/4/5/6/7/8/9/0/              ",
"      a/b/c/d/e/f/g/h/i/j/k/l/m/n/o/p/q/T=r/s/t/u/v/w/x/y/5@z/A/B/C/D/E/F/G/H/+,I/J/K/L/M//%N/O/P/Q/R/S/T/,,U/V/W/X/Y/Z/`/ (.(+(@(! #($(O*%(&(                ",
"        *(=(-(;(>(,('()(!(~({(](^(/(((_(| :(<([(}(|(1(s-2(3(4(5(6(7(8(9(0(a(b(c(d(e(f(g(h(i(j(k(l(m(n(o(p(q(r(s(t(u(v(w(x(y(z(A(B(C(D(E(T$F(                  ",
"        G(H(I(J(K(L(M(N(O(P(Q(R(S(T(U(V(  s$.%W(X(Y(Z(`( _._+_@_#_$_%_Z>&_*_=_-_y%;_>_,_'_)_!_p$~_{_]_^_/_(___:_<_[_}_|_H*1_2_3_4_5_6_7_8_                    ",
"        9_0_a_b_c_d_e_f_g_h_i_j_k_l_m_4/  # # n_~*|$o_p_q_r_s_t_u_v_w_x_y_z_A_B_U'C_D_E_F_G_H_I_J_K_L_M_N_O_a.P_$.Q_R_S_t%T_U_    + V_W_                      ",
"        X_Y_Z_`_ :.:+:@:#:$:%:&:*:=:-:;:  o&+!>:,:G*H*~*':):!:~:{:]:^:/:(:_:::<:[:}:|:1:2:3:4:5:6:7:8:9:0:a:b:n_b=c:d:e:t$| f:g:    h:i:                      ",
"        j:k:l:m:n:o:p:q:r:s:t:u:v:w:x:y:      z:A:B:E*p+r/C:D:E:F:G:H:I:J:K:L:M:N:O:P:Q:R:S:T:U:K,S)V:W:X:Y:+ Z:`: <.<+<}_f:@<#<$<%<                          ",
"          &<!%*<=<-<;<><,<'<)<!<~<{<]<^<      **/<_)B:(<_<:<<<[<}<|<1<2<3<4<5<6<7<8<9<0<a<b<c<d<e<f<g<h<i<j<K.k<l<m<z^n<U_o<p<q<r<s<                          ",
"            `(t<u<v<w<x<y<z<A<B<C<D<E<I*    F<G<H<~+I<J<K<L<M<N<O<P<Q<R<S<T<U<V<W<X<Y<Z<`< [.[+[@[#[$[%[&[*[=[-[;[>[,[r>'[)[![~[{[][                          ",
"            ^[/[([_[:[<[[[}[|[1[2[3[4[5[    6[7[8[9[3;0[a[b[c[O_d[e[f[g[h[i[j[k[l[m[n[o[p[q[r[s[t[u[v[w[x[y[z[A[B[C[,[D[E[F[G[H[I[J[K[                        ",
"          L[M[N[O[P[Q[R[S[T[U[V[W[X[Y[Z[    `[ }.}+}@}#}$}%}&}b[*}=}-};}>},}'})}!}~}{}]}^}/}(}_}:}<}X'[}}}|}1}2}3}4}K.5}6}[}7}8}~[9}0}                        ",
"          a}b}c}d}e}f}g}h}i}j}k}l}m}n}o}    G p}q}r}s}t}u}v}y!w}x}y}z}A}B}7:C}D}E}F}G}H}I}J}K}L}M}N}O}P}Q}R}S}T}U}V};[W}X}Y}Z}`} |.|+|@|                      ",
"          #|$|%|&|*|=|-|;|>|,|'|)|!|~|{|    i ]|^|/|`;(|_|:|<|[|}|||1|2|3|4|5|6|7|8|9|0|a|b|c|d|e|f|g|h|i|j|k|l+l|m|n|o|p|=~q|r|s|t|u|v|                      ",
"          w|x|y|z|A|B|C|D|E|F|`=I*G|H|I|    J|m|K|L|M|N|O|P|Q|R|S|T|U|V|W|X|Y|V'Z|`| 1.1+1@1#1$1%1&1f|(|*1=1-1;1>1,1'1)1!1~1{1]1^1/1(1_1                      ",
"          :1<1[1}1|11121314151    61718191  01a1K.a+b1c1d1e1f1g1h1i1j1k1l16:m1n1o1E,p1q1r1s1t1u1v1w1x1y1z1A1B1C1D1E1=[i<F1G1H1I1J1K1L1M1N1                    ",
"        O1P1Q1R1S1T=r_T1U1V1          W1    X1Y1D[Z1`1 2.2+2@2#2$2%2&2*2=2-2l1;2>2,2'2)2!2~2{2]2-2^2/2w*(2B1_2:2<2[2}2|212k-223242526272E'                    ",
"        829202a2o}b2c2d2e2f2              g2h2p<i2j2k2l2m2n2o2p2q2r2s2t2u2v2w2x2y2z2A2B2C2D2E2F2G2H2I2%!J2K2L2M2N2O2P2Q2K^R2S2T2U2p{V2W2X2                    ",
"        Y2Z2`2 3.3M{+3                    @|@3#3$3%3&3*3=3-3;3>3,3/}'3)3!3~3{3]3^3/3(3_3:3<3${[3}3|313233343536373&3839303a3b3c3d3e3f3g3h3O{                  ",
"          i3j3k3l3m3                      n3o3p3q3r3s3t3u3v3w3x3b|y3z3A3B2B3C3D3|^E3F3G3H3I3J3K3L3M3N3O3P3Q3R3S3T3U3V3W3X3Y3Z3`3 4.4+4@48,]]                  ",
"          =@#4$4%4o_                      &4*4=4-4;4>4,4'4)4!4~4{4[^]4^4/4(4_4:4<4[4}4|41424S23444546474849404a4b4c4d4C2e4!3f43!X'g4h4i4j4k4                  ",
"            l4m4n4o4p4                  8_q4r4s4d1t4u4v4)3w4x4y4z4A4B4C4D4E4F4G4H4I4J4K4L4M4N4O4P4Q4R4S4v_T4U4_ V4W4X4Y4Z4`4Y4 5.5+5@5#5$5%5                  ",
"                &5*5                    =5[$-5u%;5>5,5'5)5!5~5{5]5^5/5(5{3_5:5<5[5}5T=|515253545556575859505a5b5c5d5e5C3X3f5g5h5W:i5j5k5l5m5n5                ",
"                                        o5p5*{q5r5s5t5u5v5w5x5y5z5A5B5C5D5E5F5l]G5H5I5J5K5L5M5N5O5P5Q5R5S5T5U5V5W5X5Y5Z5`5 6.6+6@65}#6$6%6&6*6                ",
"                                      =6-6;6>6,66:'6)6!6~6{6]6^6/6(6_6:6<6[6}6|61626}_364656R&66A%76869606a6b6c6d6e6f6g6h6i6j6k6l6e.u%#[m6n6o6                ",
"                                      p6u[q6r6s6t6u6v6w6x6y6z6A6B6C6D6E6F6G6H6I6J6H5>^K6T=L6M6I%N6O6P6Q6R6S6T6U6V6W6X6Y6Z6`6 7.7+7@7#7$7%7&7*7G)              ",
"                                    =7-7;7>7t!,7'7)7!7d&~7{7]7^7/7(7_7:7<7(6[7}76[|78]17{[T=2737>/47576777879707a7-,b7c7d7e7f7g7h7i7j7k7l7m7X2n7              ",
"                                    o7p7}^q7]%r7s7t7u7v7w7x7y7z7A7B7C7D7E7F7G7H79]5}I7J7H1K7L7M7N7O7P7Q7R7S7T7U7V7W7X7Y7Z7`7 8.8+8@8#8$8%8&8*8=8              ",
"                                  o<-8;8q7>8,8'8)8!8~8{8]8^8/8(8_8:8<8[8}8|818&(28385}48586878889808a8b8c8d8e8f8g8h8i8j8k8l8m8n8o8p8q8r8s8t8u8v8w8            ",
"                                  46o|7:x8y8z8A8B8C8D8E8F8G8H8I8J8K8L8M8s;t%N8O8P8Q8R8U_S8T8U8T=V8W8X8Y8Z8`8 9.9+9@9#9$9%9&9*9=9-9;9>9,9'9)9!9~9{9            ",
"                                ]9^9/9(9_9:9<9[9}9|919293949596979899909a9b9c9h!n3d9Q836e9f9g9V_h9i9j9k9l9m9n9o9p9q9r9s9t9u9v9w9x9y9z9b|A9B9C9D9E9            ",
"                                F9G9H9I9J9K9L9M9N9O9P9Q9R9S9T9U9V9W9X9Y9b9Z9`9p< 0.0Q8s%36]~+0[4@0#0$0%0&0*0=0-0;0>0,0'0)0!0~0{0]0^0/0(0_0:07}<0g3[0          ",
"                                }0|010203040509*6070809000a0b0c0d0e0f0U8S8g0u%h0^~`[H5K6t$(*i046j0k0l0m0n0o0p0q0r0s0t0u0v0w06:T|x0y0z0A0B0C0r5D0E0F0          ",
"                                G0H0I0J0K0L0M0N0O0P0Q0R0S0T0U0V0W0;[X0Y0Z0g0`0 a.a.0s%t$T=(*T=T=$<T=g|+a@a#a$a%a&a*a=a-a*3;a>a,a'a)a!a~a{a]a^a/a(a_a          ",
"                              :a<a[a}a|a1aT=T=2a3a4a5a6a7a8a9a0aaabaZ0cadaeafaga[4ha36(*T=(*T=(*(*T=iajakalamanaoapaqaraj$satauaY7va#}waxaya 5zaAa62*8        ",
"                              BaCar7X>DaT=}_K7EaFaGaHaIaJaKaLaS}68MaNa.a.a }Oaf9i:PaPa}_T=T=T=(*(*}_QaRaSaTaUaVaWaXaYaZa`a b.b+b@b#b;,$b%b&b*b=b,6x2-b        ",
"                              ;b>bM_,bT=t$'bJ|)b!b~b{b]b^b/bO|(b_b`0:b<bV::bF[[b}b.$@0(*T=T=T=T=T=T=(*|b1b2b3b4b5b6b7b8b9b(_0babbbv'cbdbeb&-K,fbgb%/hbib      ",
"                            jbkblbK.T=T=mbnbC9obpbqbrbsbtbubvbwbxbyb68A968zbAbBb.$}$H5(*T=T=T=T=T=T=)*36T=CbDbEbFbGbHbIbJbKbLbMbNbObPbQbRbSb&.TbUbVbWbXb      ",
"                            /2Yb*{.#3636T~F[{1Zb`b c.c+c@c#c$c%c@!$8&c%[*caa=c-cH5mb36(*T=T=T=(*(*T=}_36(*;c>c,c'c)c!c~cs%{c]c^cU,/c(c_cn!:cf2<c[c!9}ct8      ",
"                          |c1c%[t$}_}_e92c8}%83c4c5c6c7c8c9c0cacbcccdcecfcgchc.$'[D[(*(*T=T=T=(*(*T=}_(*(*t$icjckclcmcncoct$'*pc~aqcrcsctcucp+36U_vcwcxcg!    ",
"                        yczcg4H5T=36(*Ac@<ycR}BcCcDcEcFcGcHcIcJcKcLcMcp},[NcOcPci2Qc(*T=T=T=    }_T=(*T=(*}$RcScTcUcVc,|z!}_`)WcXcYcZc`c d.dl.+dt%    Y0@d    ",
"                        !1C9#d36T=t$s%$dI7%d&d*d=d-d;d>d,d'd)d!d~d{d]d^d/d(d_d:d<dK|  }_T=        T=(*}_[d>^}$}d|d1d2d@-`%Qao&3d4d5d6d7d_c8d9d0d@             ",
"                      adbd}0cddd+$}_edfdgdI(S}hdidjdkdldmdndodpdqdrdsd58z1i$tdudh$    vd}_        mb}_|7r<U_mbwdxdydzdAd> 63@ BdCda/DdEdFdM2GdHd              ",
"                        63      dd(*IdQc*cJd43KdLdMdNdOdPdQdRdSdTdUdVd3}G0<c$dcd      Wddd          }$}$XdYd.$Zd`d e.e+e@e#e$eY%%e&e*eL+Z%ad=e-e              ",
"                                  }_;eB[>e>&,e'e)e!e~e{e]e^e/e(e_el<:e<e`9[e'bs$                    }$>^R8+dN1ZdYd}e|e1e2e;&3eh$4e5e6e@ 63                    ",
"                                  7e8e9ei0G10eaebecedeeefegeheiejeW:<d>ev{mbWd                      }$H5keleme6[neoepeqereseg+JdteueveadQa                    ",
"                                  }_ed=5wexe4dyezeAeBeCeDeEeFe{%*}<efd)[H5}_=e                      36}bGei:HeIeJeKeLeMeNeOePeh.QeReN SeTe                    ",
"                                  }_}$UeVeN2WeXeS}YeZe`e f.f+f@f#f$fh26[Te}_$<                      s%{[%f&f*f=fW}-f;f/(>f,f'f)f$.F !f~f                      ",
"                                  +<'bPc{f]fp}^fx[/f(f_f:f<f[fK.k<m|`9}f|fs%T_                    s%>^>^Q81f2f3f]1n|4f5f6f7f8f <^(9fc=0f                      ",
"                                  TeafX1bfcf68#fG1wddfefffb+gfhfifjf$fkfi0Qa                      s%>^}_U_}fF[lfmfycnfNeofpfqfrfsftfufvf                      ",
"                                  Tewfxf]|z[Y|yf48QezfAfBfCfDfEfFfGf 0Hf$<s%                      36.$}$-cPc78IfJfKfLfMfNf;+Ofx&PfQfRfSf                      ",
"                                  TfUfVfId=~WfXfYfZf`f g.g+gUd@g#g$fVe.0ad}_                    >^[d$g}$%gJ5-c&g*gl+K =g-g;g>g,g'g)g^<`%                      ",
"                                  mb78!gne~g{g]gbb^g58]a/gH9(gnf.2`9|^gc_g}$                  }_t$}_[d:g<g[g}gAc|g1g/f>,2g3g4g5g6g7g8gS_                      ",
"                                  }$ZdO89g0g3f68agbg#fcgz}dgegfggghgig!gjg                    Qah+adTe][kglg!ggcmgngogpgqgrgsgtgugvgu$                        ",
"                                  [dr<J5#dwgZ0xgygzg;e_bAgBgi$Cg78DgF[Egbd                    FgGgHgTeO8[gYdK7gcAcJ|c.Igu(JgKgLgMgNgb=                        ",
"                                  }$K[<g=5wgOgPgQgRg;eSgv}Tg:0Ff<dxeUgEgVg                  }_U_WgXgU_Zd]~Q8}$+dhcY1/fQeOfYgo&!%ZgK*                          ",
"                                  }_TeP8kgVf`g h.h+ha%@g@h#h$h&dI7;e5}%he9                  T=s%ngY)7/Tfi0!gP8$gK[&hH5}$>^ddo&dd*h=h                          ",
"                                  }_(*K[ke#dg4Sgyfz1Yf<d-hjf;h>hEf,1<*,h'h                  T=63ng)hjg6[i+b%!hZd:g3636H5[d}_)*}_b=                            ",
"                                  Qa.$+d~h{h]hMa^hs}H9/h#f%[%[%[@g,19ene(h                vdT=ad:dl+Wg_h:hU_g:<h[gO8[hF1wd>^}_t$+$                            ",
"                                  }_Te}h|hc91h#hS}bg2h3h{%4h@f5h6h;h7h8h9h                }_T=T=h+}07h7~<c0hah&hJ7k+mebhchdhQa                                ",
"                                eh}_e9fhgh6[Ff1}s}hhihjhkhlhmh0h,[q/#<%hnh                }_T=T=s$Ree0>&ohphWgR8[h@|ed36t$}_eh                                ",
"                                Qa}_[eqhrh!hsha%L thuhvhwhxhyhe+zh_hhfK|Ah                }_T=T=adBhChDhEhEhl|Fhaf@|&hTet$}_Qa                                ",
"                                }_T=s%&hGh0hx[a%HhIhJhKhLhMhNhBfOhPhEhQhi+dd              dhT=T=(*adRhi.ShThUhVhWh!hXh8_>^Qa                                  ",
"                                dhT=}_}$Yd=5%[KfYhZh`h i.i+i@i#i$i%i&i*is$T=              )*T=T=T=T=adm 2e=i-i;iD[$d}gY)n<dd                                  ",
"                                Qa}_>i,i[d+dAcN8'i)i!i~i{i]i^i/iWhxf'[(is$T=                T=t$}_s%_i:i<i^.^.*.o<K7+dH5H5`$                                  ",
"                                vddhdd$<U_|fj+[ih<}i|i1i2i3ic14iUf5ixf:hN+}_                t$}_}_t$mbH5Zd6i7_H hg7i0hm .$$<ad                                ",
"                                dddd}_$<JdCh8i+/9i0iaibicidikheifi&g<dj+s$ed                      Qat$t$}_+ (fgihiaaiijie9U_H5mb                              ",
"                                  }_}_adh$ki%da%jeliminioipiqirisitiafuidd                          o&}_Qah#G([ibh&(bh+5U_vih+}_                              ",
"                                  }_dd7_%<Wg48wix}xi+}Y#yiziAigf!+QhTfadQa                          Qat$, BiCiDiEih.**Fi7_%<GiT_s$                            ",
"                                  QaHiIis%T_JiliKiLiMiNiChOiPiF9QiXgadT=T=                          T=)*RiSi^.TiHgseTi*(UiVi%<Pc=e                            ",
"                                  =hWiXi. &.9[YiZiM )e`i j^|.jL+N++jO+Qa)*                          }_Qa@j#j$j$j%j&j*j=j-j;jN*Z;>j                            ",
"                                      Fg. [iOi,j'j)j!j~jqb{j{.]j| dd>^}_Qa                          ddehQab=@e! ^j/j(j_j:j<j[j}j|j#                           ",
"                                      63dd,,F 1j2j3j4j5j6j7j8j9j| s%Qat$Qa                            mbdddd>^0jajbjcjdjr_LgejH*# b=                          ",
"                                      y#fjgjhjijjjkjljmjnjoj3e9d$e63t$QaQa                                63}$>^.<;*pj^/qj,:rj+$ad                            ",
"                                    sj{;tjujvjwjxjyjzjAjBjCjDjRf>jo&)*QaQa                                                                                    ",
"                                    <(EjFjGjHjIjJjKjLjMjNjOjPjQjRj-&T=Sj)*                                                                                    ",
"                                  =eu$3=TjUjVjWjXjYjZj`j k.k+k@k#k$kQa                                                                                        ",
"                                  }_z!%kC:(j&k*k=k-k;k>k,k'k)k!kn&o&                                                                                          ",
"                                  +$s%+$~k36>^dd>^(*(*(*(*(*t$T=t$                                                                                            ",
"                                      =h      mbddo&                                                                                                          ",
"                                                                                                                                                              ",
"                                                                                                                                                              "};
