/* XPM */
static char * ene_0_xpm[] = {
"79 130 4063 2",
"  	c None",
". 	c #090706",
"+ 	c #0D0807",
"@ 	c #080404",
"# 	c #130A08",
"$ 	c #080403",
"% 	c #070404",
"& 	c #060303",
"* 	c #080505",
"= 	c #0D0707",
"- 	c #160907",
"; 	c #291410",
"> 	c #160A07",
", 	c #180C09",
"' 	c #1B0F0C",
") 	c #190F0E",
"! 	c #180F0F",
"~ 	c #160E0C",
"{ 	c #211714",
"] 	c #452F25",
"^ 	c #6D4C3B",
"/ 	c #251714",
"( 	c #22130F",
"_ 	c #331914",
": 	c #482620",
"< 	c #44231E",
"[ 	c #3E221D",
"} 	c #462A24",
"| 	c #4D312C",
"1 	c #3E2623",
"2 	c #231513",
"3 	c #0C0607",
"4 	c #34211A",
"5 	c #483026",
"6 	c #110A09",
"7 	c #201412",
"8 	c #1D1412",
"9 	c #221614",
"0 	c #3D1F18",
"a 	c #6C3325",
"b 	c #663529",
"c 	c #723F31",
"d 	c #804D3D",
"e 	c #6C4437",
"f 	c #7D5648",
"g 	c #745449",
"h 	c #78574A",
"i 	c #3D2923",
"j 	c #170B09",
"k 	c #180D0C",
"l 	c #2D1E1A",
"m 	c #18100D",
"n 	c #171211",
"o 	c #251A16",
"p 	c #31221D",
"q 	c #1F120F",
"r 	c #1A0E0C",
"s 	c #46271D",
"t 	c #824E3A",
"u 	c #8E503B",
"v 	c #995B45",
"w 	c #A5634D",
"x 	c #92604D",
"y 	c #A47966",
"z 	c #AE806C",
"A 	c #A16F5A",
"B 	c #8F614C",
"C 	c #5E3D33",
"D 	c #3A231F",
"E 	c #482E26",
"F 	c #2C1C17",
"G 	c #1E130F",
"H 	c #120B0A",
"I 	c #0E0907",
"J 	c #1D1613",
"K 	c #2A201D",
"L 	c #30221E",
"M 	c #473129",
"N 	c #4E2F27",
"O 	c #3B1A13",
"P 	c #652F22",
"Q 	c #7E4935",
"R 	c #AC6C4E",
"S 	c #B98267",
"T 	c #A9715A",
"U 	c #B17C66",
"V 	c #A06D5B",
"W 	c #A56F59",
"X 	c #B87456",
"Y 	c #AA6649",
"Z 	c #86513F",
"` 	c #512C24",
" .	c #3D231C",
"..	c #251511",
"+.	c #1D120E",
"@.	c #1B120F",
"#.	c #150E0C",
"$.	c #120C0A",
"%.	c #0C0908",
"&.	c #130E0D",
"*.	c #211916",
"=.	c #352923",
"-.	c #322622",
";.	c #2D201D",
">.	c #4F342C",
",.	c #6B4335",
"'.	c #602D20",
").	c #7B3524",
"!.	c #90412A",
"~.	c #A05339",
"{.	c #BF7D62",
"].	c #C79880",
"^.	c #C59E86",
"/.	c #B99280",
"(.	c #C2957D",
"_.	c #C58D6F",
":.	c #B1694B",
"<.	c #894833",
"[.	c #582C20",
"}.	c #341A14",
"|.	c #38211B",
"1.	c #251814",
"2.	c #2F211C",
"3.	c #1B110F",
"4.	c #0A0605",
"5.	c #0B0605",
"6.	c #181211",
"7.	c #43342E",
"8.	c #372A25",
"9.	c #2F2421",
"0.	c #211817",
"a.	c #301F1C",
"b.	c #6E4031",
"c.	c #7C3927",
"d.	c #723121",
"e.	c #90442E",
"f.	c #A0604A",
"g.	c #C1927F",
"h.	c #D9C0AB",
"i.	c #D2B3A0",
"j.	c #C2A691",
"k.	c #BA9C88",
"l.	c #BA8168",
"m.	c #B17357",
"n.	c #9E563F",
"o.	c #6F3426",
"p.	c #4D251C",
"q.	c #271613",
"r.	c #251917",
"s.	c #2B1F1C",
"t.	c #2D221F",
"u.	c #17110F",
"v.	c #130D0C",
"w.	c #18120F",
"x.	c #2B211D",
"y.	c #342824",
"z.	c #3B2D28",
"A.	c #30231F",
"B.	c #311F1C",
"C.	c #45221B",
"D.	c #78331F",
"E.	c #84412B",
"F.	c #B56A4B",
"G.	c #C58265",
"H.	c #C69D8C",
"I.	c #C7A48E",
"J.	c #D7AE93",
"K.	c #CC9878",
"L.	c #A5694D",
"M.	c #B96342",
"N.	c #B46E4F",
"O.	c #994D36",
"P.	c #813120",
"Q.	c #4E2118",
"R.	c #261411",
"S.	c #49342D",
"T.	c #43312C",
"U.	c #3B2E29",
"V.	c #2A201B",
"W.	c #150F0D",
"X.	c #41312A",
"Y.	c #46362F",
"Z.	c #4F4038",
"`.	c #2B1E1B",
" +	c #331E19",
".+	c #4D241B",
"++	c #501D11",
"@+	c #703121",
"#+	c #9F593D",
"$+	c #B26E54",
"%+	c #CA967E",
"&+	c #C6997F",
"*+	c #AB846A",
"=+	c #A8694E",
"-+	c #A97356",
";+	c #B96C46",
">+	c #A76241",
",+	c #7A3925",
"'+	c #783222",
")+	c #602C1F",
"!+	c #43251D",
"~+	c #452E26",
"{+	c #342621",
"]+	c #271E1A",
"^+	c #261D18",
"/+	c #0F0A09",
"(+	c #1C1513",
"_+	c #271E1B",
":+	c #261E1A",
"<+	c #231C19",
"[+	c #302522",
"}+	c #1D1411",
"|+	c #190E0B",
"1+	c #1E0B08",
"2+	c #250904",
"3+	c #46170C",
"4+	c #4A1F13",
"5+	c #632B1D",
"6+	c #8E4B37",
"7+	c #AE7556",
"8+	c #8F6144",
"9+	c #895B3C",
"0+	c #896245",
"a+	c #663925",
"b+	c #532114",
"c+	c #411109",
"d+	c #42130B",
"e+	c #3C170F",
"f+	c #301712",
"g+	c #261713",
"h+	c #2D221E",
"i+	c #291F1C",
"j+	c #2F231E",
"k+	c #1A120F",
"l+	c #120D0C",
"m+	c #1A1211",
"n+	c #29201E",
"o+	c #180F0E",
"p+	c #0E0605",
"q+	c #0A0405",
"r+	c #1C2129",
"s+	c #3D4E5D",
"t+	c #5D6569",
"u+	c #4E3737",
"v+	c #6E392B",
"w+	c #99765B",
"x+	c #764D39",
"y+	c #502514",
"z+	c #3F2219",
"A+	c #471915",
"B+	c #5B221D",
"C+	c #572A22",
"D+	c #5A2B24",
"E+	c #3F1611",
"F+	c #170706",
"G+	c #120A0A",
"H+	c #161010",
"I+	c #211816",
"J+	c #231A17",
"K+	c #1C1411",
"L+	c #1E1512",
"M+	c #241816",
"N+	c #1E1311",
"O+	c #0D0605",
"P+	c #0A070B",
"Q+	c #2A394B",
"R+	c #50708B",
"S+	c #7D8E97",
"T+	c #717A7A",
"U+	c #5D666A",
"V+	c #58443C",
"W+	c #3D2A23",
"X+	c #4C3E36",
"Y+	c #765A4E",
"Z+	c #8D5046",
"`+	c #953832",
" @	c #9B4C41",
".@	c #A78076",
"+@	c #69534B",
"@@	c #1D0909",
"#@	c #0B0707",
"$@	c #0D0809",
"%@	c #0F0B0C",
"&@	c #1C1413",
"*@	c #0F0A08",
"=@	c #0E0808",
"-@	c #241614",
";@	c #321F1B",
">@	c #0B0606",
",@	c #251F1C",
"'@	c #232B36",
")@	c #3F5265",
"!@	c #687372",
"~@	c #7A857F",
"{@	c #77868A",
"]@	c #474442",
"^@	c #302822",
"/@	c #6F5F53",
"(@	c #7B564B",
"_@	c #824C44",
":@	c #661815",
"<@	c #581513",
"[@	c #734842",
"}@	c #895E52",
"|@	c #341A16",
"1@	c #080304",
"2@	c #0D0909",
"3@	c #291914",
"4@	c #341E18",
"5@	c #120C0B",
"6@	c #403932",
"7@	c #2B2B2A",
"8@	c #343D3D",
"9@	c #505B57",
"0@	c #535F60",
"a@	c #5D676D",
"b@	c #4F4842",
"c@	c #4C4233",
"d@	c #63513F",
"e@	c #A43226",
"f@	c #78271E",
"g@	c #42120F",
"h@	c #521915",
"i@	c #621914",
"j@	c #924437",
"k@	c #46241E",
"l@	c #100607",
"m@	c #0C0809",
"n@	c #0F0C0D",
"o@	c #170C09",
"p@	c #24120F",
"q@	c #1A0C09",
"r@	c #4C4236",
"s@	c #4F4E44",
"t@	c #303634",
"u@	c #535C4B",
"v@	c #48514A",
"w@	c #363D40",
"x@	c #30261D",
"y@	c #5C482E",
"z@	c #846A3D",
"A@	c #76271B",
"B@	c #893023",
"C@	c #8A2F23",
"D@	c #73271E",
"E@	c #762019",
"F@	c #7D3326",
"G@	c #4C271F",
"H@	c #1D0D0A",
"I@	c #0A0607",
"J@	c #221310",
"K@	c #301A13",
"L@	c #805038",
"M@	c #5A4A3E",
"N@	c #3D3E31",
"O@	c #484537",
"P@	c #383833",
"Q@	c #1A1819",
"R@	c #372616",
"S@	c #745326",
"T@	c #A88432",
"U@	c #533E1D",
"V@	c #571F14",
"W@	c #943C29",
"X@	c #99432F",
"Y@	c #67271C",
"Z@	c #6B382C",
"`@	c #3E1F18",
" #	c #200C09",
".#	c #1C1211",
"+#	c #20110F",
"@#	c #68331F",
"##	c #6D2B19",
"$#	c #2C160F",
"%#	c #261711",
"&#	c #1F110E",
"*#	c #1B0A07",
"=#	c #5C341B",
"-#	c #8F5D29",
";#	c #AE7B35",
">#	c #7B5B29",
",#	c #120804",
"'#	c #1F0B08",
")#	c #371810",
"!#	c #2A100B",
"~#	c #381812",
"{#	c #290D09",
"]#	c #190605",
"^#	c #120C0C",
"/#	c #501E11",
"(#	c #722211",
"_#	c #401208",
":#	c #4A1E0F",
"<#	c #4F2311",
"[#	c #471E0F",
"}#	c #6C331C",
"|#	c #995527",
"1#	c #BC7431",
"2#	c #A46A30",
"3#	c #6D3F1D",
"4#	c #462310",
"5#	c #5B2413",
"6#	c #5C2818",
"7#	c #391A12",
"8#	c #220C0A",
"9#	c #130706",
"0#	c #0C0808",
"a#	c #1E0E0A",
"b#	c #4B2115",
"c#	c #551A0D",
"d#	c #380F07",
"e#	c #39160A",
"f#	c #542413",
"g#	c #5D2213",
"h#	c #79321F",
"i#	c #9E4D29",
"j#	c #A75528",
"k#	c #8C5129",
"l#	c #7E4923",
"m#	c #7C411E",
"n#	c #5B2612",
"o#	c #4C2115",
"p#	c #34150E",
"q#	c #1E0D0A",
"r#	c #181311",
"s#	c #32140C",
"t#	c #5C1E0F",
"u#	c #5F1E0E",
"v#	c #2B0B06",
"w#	c #250C08",
"x#	c #380F08",
"y#	c #52190E",
"z#	c #4A2113",
"A#	c #572B16",
"B#	c #633B1F",
"C#	c #4A2612",
"D#	c #4D270F",
"E#	c #542513",
"F#	c #532518",
"G#	c #24100B",
"H#	c #19100E",
"I#	c #5A4C46",
"J#	c #4A403A",
"K#	c #251E1C",
"L#	c #140D0D",
"M#	c #0A0303",
"N#	c #5E2211",
"O#	c #8B331A",
"P#	c #431208",
"Q#	c #330E08",
"R#	c #2B0B07",
"S#	c #150504",
"T#	c #160705",
"U#	c #050204",
"V#	c #1A0E06",
"W#	c #0C0403",
"X#	c #220906",
"Y#	c #763521",
"Z#	c #783A23",
"`#	c #210F0B",
" $	c #110C0C",
".$	c #72655D",
"+$	c #796B60",
"@$	c #312824",
"#$	c #76695C",
"$$	c #6C5E53",
"%$	c #2A2320",
"&$	c #0B0909",
"*$	c #030303",
"=$	c #300E06",
"-$	c #702B16",
";$	c #602413",
">$	c #672516",
",$	c #5D2014",
"'$	c #2E0B06",
")$	c #360F08",
"!$	c #1E0404",
"~$	c #28120B",
"{$	c #411B10",
"]$	c #541E10",
"^$	c #893C23",
"/$	c #662E1A",
"($	c #140909",
"_$	c #0D0607",
":$	c #796B61",
"<$	c #A79384",
"[$	c #8A7B6E",
"}$	c #6B5F57",
"|$	c #6E6760",
"1$	c #645A53",
"2$	c #726357",
"3$	c #77685C",
"4$	c #1E1817",
"5$	c #070507",
"6$	c #090606",
"7$	c #040202",
"8$	c #552413",
"9$	c #7E351B",
"0$	c #6E2514",
"a$	c #742314",
"b$	c #5C1B0E",
"c$	c #85311E",
"d$	c #581F14",
"e$	c #663A23",
"f$	c #75341C",
"g$	c #85351B",
"h$	c #8D3F22",
"i$	c #80371F",
"j$	c #331A14",
"k$	c #160C0A",
"l$	c #5F5148",
"m$	c #9C897A",
"n$	c #A99A8C",
"o$	c #9E8F82",
"p$	c #776B61",
"q$	c #3B3530",
"r$	c #60574F",
"s$	c #706760",
"t$	c #7F7269",
"u$	c #877567",
"v$	c #7D6D60",
"w$	c #201B18",
"x$	c #0A0708",
"y$	c #080405",
"z$	c #441B0F",
"A$	c #854626",
"B$	c #853F22",
"C$	c #8A4123",
"D$	c #A44728",
"E$	c #7A2C19",
"F$	c #742F1C",
"G$	c #9B532D",
"H$	c #A85126",
"I$	c #8D3F1C",
"J$	c #632A17",
"K$	c #38170F",
"L$	c #191110",
"M$	c #120B0B",
"N$	c #3F322D",
"O$	c #8B7668",
"P$	c #978477",
"Q$	c #A69587",
"R$	c #9B8A7D",
"S$	c #9B8E84",
"T$	c #695E58",
"U$	c #6C635B",
"V$	c #7D7269",
"W$	c #695F56",
"X$	c #897F75",
"Y$	c #B0A294",
"Z$	c #9E8D7E",
"`$	c #908172",
" %	c #2C2622",
".%	c #140F0E",
"+%	c #090607",
"@%	c #0F0201",
"#%	c #512411",
"$%	c #86391C",
"%%	c #903D20",
"&%	c #A24021",
"*%	c #9B4829",
"=%	c #A94D2F",
"-%	c #B65530",
";%	c #B44D23",
">%	c #7E3316",
",%	c #2E150E",
"'%	c #1E1210",
")%	c #1E1513",
"!%	c #19110F",
"~%	c #4C433C",
"{%	c #A59283",
"]%	c #A6998E",
"^%	c #A69080",
"/%	c #A79281",
"(%	c #807066",
"_%	c #73645C",
":%	c #7A6C63",
"<%	c #6F645B",
"[%	c #877A6E",
"}%	c #7A726A",
"|%	c #988E84",
"1%	c #ADA196",
"2%	c #9D9186",
"3%	c #887C72",
"4%	c #B5AA9E",
"5%	c #C2B6A7",
"6%	c #A99B8C",
"7%	c #8F7F71",
"8%	c #2D2622",
"9%	c #0B090A",
"0%	c #16100F",
"a%	c #000101",
"b%	c #030000",
"c%	c #3C0F05",
"d%	c #8A2914",
"e%	c #8E331B",
"f%	c #AA5835",
"g%	c #A55438",
"h%	c #7F3722",
"i%	c #601F0E",
"j%	c #300803",
"k%	c #120807",
"l%	c #211613",
"m%	c #170E0C",
"n%	c #574A43",
"o%	c #9B8778",
"p%	c #827066",
"q%	c #A18372",
"r%	c #9E8171",
"s%	c #887165",
"t%	c #635048",
"u%	c #92837A",
"v%	c #B1A396",
"w%	c #AB9C8D",
"x%	c #AA9E93",
"y%	c #90867D",
"z%	c #6C6762",
"A%	c #847C74",
"B%	c #B2A89C",
"C%	c #D1C6B9",
"D%	c #B7AA9E",
"E%	c #A19489",
"F%	c #9B9188",
"G%	c #D1C9BE",
"H%	c #BFB4A7",
"I%	c #C6BBAC",
"J%	c #95887A",
"K%	c #322A26",
"L%	c #100C0B",
"M%	c #17100F",
"N%	c #180E0D",
"O%	c #010001",
"P%	c #000000",
"Q%	c #320B04",
"R%	c #401207",
"S%	c #3F1B0E",
"T%	c #3B2216",
"U%	c #180706",
"V%	c #070303",
"W%	c #160B09",
"X%	c #241613",
"Y%	c #0E0908",
"Z%	c #4F413A",
"`%	c #775E53",
" &	c #988072",
".&	c #D0B9A5",
"+&	c #C8AE9B",
"@&	c #A48372",
"#&	c #816155",
"$&	c #AE9F94",
"%&	c #CABCAD",
"&&	c #BEAE9F",
"*&	c #BDB0A2",
"=&	c #BFB3A7",
"-&	c #B2A99E",
";&	c #827A72",
">&	c #403C38",
",&	c #88827C",
"'&	c #BCB4A9",
")&	c #BCB2A5",
"!&	c #AEA296",
"~&	c #A99F93",
"{&	c #8D8278",
"]&	c #685B53",
"^&	c #A1978D",
"/&	c #E2DBCF",
"(&	c #DBD4C8",
"_&	c #A79F94",
":&	c #90857B",
"<&	c #423B37",
"[&	c #1D1614",
"}&	c #261A18",
"|&	c #2E1B16",
"1&	c #1F0F0B",
"2&	c #070202",
"3&	c #050101",
"4&	c #020000",
"5&	c #100201",
"6&	c #0A0101",
"7&	c #2A1711",
"8&	c #37211B",
"9&	c #38241E",
"0&	c #221714",
"a&	c #0D0808",
"b&	c #483731",
"c&	c #937566",
"d&	c #B8A08F",
"e&	c #D3C1AE",
"f&	c #D5C5B3",
"g&	c #A28577",
"h&	c #775950",
"i&	c #C0B3A6",
"j&	c #D5C8B9",
"k&	c #BDAD9E",
"l&	c #C3B3A5",
"m&	c #C4B7A9",
"n&	c #B1A59A",
"o&	c #AEA499",
"p&	c #77716C",
"q&	c #4C4642",
"r&	c #9A9187",
"s&	c #ACA195",
"t&	c #B8AD9F",
"u&	c #BAAEA2",
"v&	c #ABA095",
"w&	c #ADA296",
"x&	c #85786E",
"y&	c #CCC3B8",
"z&	c #E2DACD",
"A&	c #C8C0B4",
"B&	c #BEB8AF",
"C&	c #AFA499",
"D&	c #696058",
"E&	c #15100F",
"F&	c #261917",
"G&	c #44271D",
"H&	c #402116",
"I&	c #170906",
"J&	c #110403",
"K&	c #0B0201",
"L&	c #050000",
"M&	c #060101",
"N&	c #040000",
"O&	c #100302",
"P&	c #2C140D",
"Q&	c #392018",
"R&	c #33201A",
"S&	c #3E2921",
"T&	c #211411",
"U&	c #63554E",
"V&	c #947E72",
"W&	c #97867A",
"X&	c #97887C",
"Y&	c #7D7268",
"Z&	c #594740",
"`&	c #544641",
" *	c #CABEB0",
".*	c #D9CCBC",
"+*	c #CCBDAE",
"@*	c #B7AA9C",
"#*	c #B4A99E",
"$*	c #C0B5AB",
"%*	c #988F87",
"&*	c #5F5955",
"**	c #7F7871",
"=*	c #AAA297",
"-*	c #A69B8F",
";*	c #C9BCAC",
">*	c #B4A798",
",*	c #81766D",
"'*	c #554E47",
")*	c #827B73",
"!*	c #7C756D",
"~*	c #9D9994",
"{*	c #C5BDB2",
"]*	c #C9BFB1",
"^*	c #A19589",
"/*	c #211C1A",
"(*	c #291712",
"_*	c #391F18",
":*	c #321812",
"<*	c #200B07",
"[*	c #240B05",
"}*	c #130301",
"|*	c #160402",
"1*	c #180402",
"2*	c #200805",
"3*	c #421E14",
"4*	c #43261D",
"5*	c #412A21",
"6*	c #3E2A22",
"7*	c #180F0D",
"8*	c #110A0C",
"9*	c #695046",
"0*	c #865A4C",
"a*	c #4C2B24",
"b*	c #6F3428",
"c*	c #4A1712",
"d*	c #58140E",
"e*	c #532E28",
"f*	c #987F73",
"g*	c #C8BAAB",
"h*	c #DBCEBD",
"i*	c #CDBFAE",
"j*	c #AEA396",
"k*	c #A0988E",
"l*	c #D6CCBF",
"m*	c #BAAFA2",
"n*	c #5F5751",
"o*	c #3D3937",
"p*	c #76706C",
"q*	c #89837C",
"r*	c #B6ADA2",
"s*	c #ACA092",
"t*	c #CFC5B6",
"u*	c #D2C6B7",
"v*	c #B8AA9B",
"w*	c #93847A",
"x*	c #6C615B",
"y*	c #584F4B",
"z*	c #544F4D",
"A*	c #A9A5A0",
"B*	c #C6BDB1",
"C*	c #D4C7B6",
"D*	c #C4B8A9",
"E*	c #47423D",
"F*	c #040305",
"G*	c #462B22",
"H*	c #4E2A1C",
"I*	c #532918",
"J*	c #713921",
"K*	c #522412",
"L*	c #2D0F07",
"M*	c #200603",
"N*	c #38160C",
"O*	c #60311F",
"P*	c #5A3324",
"Q*	c #452B21",
"R*	c #261915",
"S*	c #0A0506",
"T*	c #423732",
"U*	c #9F7666",
"V*	c #C0705D",
"W*	c #82362A",
"X*	c #A54638",
"Y*	c #A13D32",
"Z*	c #8C2A21",
"`*	c #68352D",
" =	c #A68F83",
".=	c #D9CDBE",
"+=	c #DCD0BF",
"@=	c #C5B7A7",
"#=	c #9F9183",
"$=	c #968D83",
"%=	c #D1C6B7",
"&=	c #C4B8AA",
"*=	c #7B7066",
"==	c #3B3836",
"-=	c #928B83",
";=	c #A69C91",
">=	c #B4A89A",
",=	c #D8CEC0",
"'=	c #DED7CA",
")=	c #A2988F",
"!=	c #61524B",
"~=	c #655952",
"{=	c #8E827A",
"]=	c #C7BEB4",
"^=	c #E1DACE",
"/=	c #DED4C5",
"(=	c #D6CABA",
"_=	c #BCAC9B",
":=	c #5C534B",
"<=	c #050103",
"[=	c #1F100D",
"}=	c #5C3525",
"|=	c #7B4027",
"1=	c #803F24",
"2=	c #874224",
"3=	c #612210",
"4=	c #6F301A",
"5=	c #69311C",
"6=	c #582B1B",
"7=	c #412318",
"8=	c #392119",
"9=	c #190F0D",
"0=	c #30201D",
"a=	c #886F63",
"b=	c #CDAB96",
"c=	c #D2937C",
"d=	c #BE6450",
"e=	c #D68B72",
"f=	c #B35142",
"g=	c #93483C",
"h=	c #834137",
"i=	c #AE9D8E",
"j=	c #CCC0B1",
"k=	c #D1C3B2",
"l=	c #C4B6A4",
"m=	c #9A8C7E",
"n=	c #A79B8E",
"o=	c #C6B9A9",
"p=	c #A29487",
"q=	c #796B5F",
"r=	c #2D2522",
"s=	c #3C3937",
"t=	c #6F6A65",
"u=	c #A0988F",
"v=	c #AAA196",
"w=	c #B6AA9B",
"x=	c #C7BCAC",
"y=	c #CBC2B5",
"z=	c #B0A79C",
"A=	c #675E59",
"B=	c #CFC7BB",
"C=	c #EDE6D9",
"D=	c #EAE1D2",
"E=	c #E0D4C3",
"F=	c #CCBEAD",
"G=	c #C6B7A5",
"H=	c #8F8478",
"I=	c #1A1414",
"J=	c #160A09",
"K=	c #432215",
"L=	c #844B2C",
"M=	c #B86438",
"N=	c #BA6E3A",
"O=	c #803919",
"P=	c #A55D2F",
"Q=	c #AD562B",
"R=	c #9E4A26",
"S=	c #884224",
"T=	c #52291B",
"U=	c #3A1F16",
"V=	c #0F0505",
"W=	c #594741",
"X=	c #C5A896",
"Y=	c #D2A08A",
"Z=	c #B36453",
"`=	c #CF5C49",
" -	c #CF6956",
".-	c #AF4F40",
"+-	c #812E24",
"@-	c #886159",
"#-	c #C8C1B5",
"$-	c #D6CBBB",
"%-	c #D2C6B5",
"&-	c #C1B2A1",
"*-	c #A5998A",
"=-	c #A09588",
"--	c #C3B6A6",
";-	c #AEA193",
">-	c #A59787",
",-	c #6C6158",
"'-	c #4E4946",
")-	c #766F68",
"!-	c #A69D92",
"~-	c #AEA59A",
"{-	c #9E9489",
"]-	c #C5BBAC",
"^-	c #CEC4B6",
"/-	c #C9C0B3",
"(-	c #8A8178",
"_-	c #B4AEA4",
":-	c #EFE7D9",
"<-	c #EAE1D1",
"[-	c #DDD3C2",
"}-	c #C6BAAB",
"|-	c #CDC1B0",
"1-	c #C1B8AA",
"2-	c #49433E",
"3-	c #100909",
"4-	c #1C0A07",
"5-	c #4D2C19",
"6-	c #9A522B",
"7-	c #C66934",
"8-	c #C0622F",
"9-	c #C77138",
"0-	c #B76634",
"a-	c #9C4C28",
"b-	c #A05732",
"c-	c #613322",
"d-	c #3A1F15",
"e-	c #4B4442",
"f-	c #907C73",
"g-	c #CEA494",
"h-	c #C8705B",
"i-	c #923325",
"j-	c #7F1E15",
"k-	c #942920",
"l-	c #A4483A",
"m-	c #732E23",
"n-	c #9C877C",
"o-	c #D2C8B9",
"p-	c #D3C7B5",
"q-	c #A89A8C",
"r-	c #9C9286",
"s-	c #CCC2B3",
"t-	c #AFA397",
"u-	c #948679",
"v-	c #70635A",
"w-	c #433E3C",
"x-	c #56504C",
"y-	c #776F67",
"z-	c #A9A194",
"A-	c #AEA599",
"B-	c #877F77",
"C-	c #B4ACA0",
"D-	c #C5BBAD",
"E-	c #CAC1B3",
"F-	c #C7BDAF",
"G-	c #948A81",
"H-	c #B8B1A8",
"I-	c #E5DDD1",
"J-	c #EBE3D4",
"K-	c #DFD5C7",
"L-	c #B5A99C",
"M-	c #C2B5A4",
"N-	c #C4B8A8",
"O-	c #322A25",
"P-	c #070304",
"Q-	c #0C0304",
"R-	c #6C3820",
"S-	c #B85E30",
"T-	c #B76534",
"U-	c #9A562C",
"V-	c #8D4B23",
"W-	c #60321A",
"X-	c #6E4227",
"Y-	c #3E2216",
"Z-	c #37251F",
"`-	c #958F8A",
" ;	c #BBA59A",
".;	c #CF7761",
"+;	c #BD4D36",
"@;	c #682017",
"#;	c #5E0D0A",
"$;	c #590F0A",
"%;	c #5D150E",
"&;	c #441914",
"*;	c #8D8074",
"=;	c #C5B8A7",
"-;	c #C1B2A2",
";;	c #BEB0A0",
">;	c #988C80",
",;	c #6F655E",
"';	c #948B82",
");	c #D9D1C3",
"!;	c #BCB3A6",
"~;	c #998C81",
"{;	c #7B6C61",
"];	c #594B43",
"^;	c #605A55",
"/;	c #716963",
"(;	c #6C645E",
"_;	c #999086",
":;	c #ABA296",
"<;	c #807871",
"[;	c #8D857C",
"};	c #998A7C",
"|;	c #8C8176",
"1;	c #A9A49D",
"2;	c #DED6CA",
"3;	c #DED3C4",
"4;	c #D5CABB",
"5;	c #CCC1B3",
"6;	c #B4A99B",
"7;	c #817368",
"8;	c #3B2F29",
"9;	c #050304",
"0;	c #090303",
"a;	c #36180C",
"b;	c #864421",
"c;	c #8C512A",
"d;	c #703B21",
"e;	c #5D311C",
"f;	c #160806",
"g;	c #0A0302",
"h;	c #4E4844",
"i;	c #C8BEB3",
"j;	c #C1A495",
"k;	c #CC6854",
"l;	c #A33425",
"m;	c #56110C",
"n;	c #70130D",
"o;	c #4B0C08",
"p;	c #4A120C",
"q;	c #583E37",
"r;	c #9D8F84",
"s;	c #AFA294",
"t;	c #B0A394",
"u;	c #8A7F75",
"v;	c #635B55",
"w;	c #988F85",
"x;	c #C7BDB0",
"y;	c #C7BEAF",
"z;	c #B7AA9B",
"A;	c #A19182",
"B;	c #6F6056",
"C;	c #9A938B",
"D;	c #888078",
"E;	c #726A64",
"F;	c #A0998F",
"G;	c #ABA59A",
"H;	c #7F7972",
"I;	c #777069",
"J;	c #A09589",
"K;	c #B5AA9D",
"L;	c #A19487",
"M;	c #574F4B",
"N;	c #ABA59D",
"O;	c #D8CDBE",
"P;	c #CABFB0",
"Q;	c #D9CEBE",
"R;	c #A5988A",
"S;	c #332824",
"T;	c #1D0E09",
"U;	c #27130D",
"V;	c #4D2616",
"W;	c #3A180C",
"X;	c #65321B",
"Y;	c #613720",
"Z;	c #120705",
"`;	c #746F69",
" >	c #CCBEB2",
".>	c #B78C7B",
"+>	c #BA5946",
"@>	c #79271D",
"#>	c #2E0402",
"$>	c #650F0A",
"%>	c #500A06",
"&>	c #2F100B",
"*>	c #514139",
"=>	c #90857A",
"->	c #B2A79A",
";>	c #A1978B",
">>	c #948A7F",
",>	c #82796F",
"'>	c #635C56",
")>	c #958C82",
"!>	c #BFB4A5",
"~>	c #B0A495",
"{>	c #95887B",
"]>	c #A08C7C",
"^>	c #897669",
"/>	c #8B8279",
"(>	c #938A81",
"_>	c #6F6862",
":>	c #89827A",
"<>	c #A69F95",
"[>	c #918C85",
"}>	c #635D58",
"|>	c #93897E",
"1>	c #B2A89B",
"2>	c #968A7E",
"3>	c #BEB0A1",
"4>	c #A59789",
"5>	c #5C4E45",
"6>	c #AAA094",
"7>	c #C5B9AB",
"8>	c #DAD0C0",
"9>	c #DDD2C0",
"0>	c #C3B6A7",
"a>	c #706B63",
"b>	c #040103",
"c>	c #190B08",
"d>	c #261009",
"e>	c #31160D",
"f>	c #5C3621",
"g>	c #764E32",
"h>	c #20120C",
"i>	c #100504",
"j>	c #2C2927",
"k>	c #9F968D",
"l>	c #C0A494",
"m>	c #C0866F",
"n>	c #A04737",
"o>	c #570D07",
"p>	c #390503",
"q>	c #640E09",
"r>	c #63110D",
"s>	c #684035",
"t>	c #746053",
"u>	c #756960",
"v>	c #A89F93",
"w>	c #938B81",
"x>	c #7E776E",
"y>	c #544E4A",
"z>	c #9B9389",
"A>	c #C4B9AA",
"B>	c #A69586",
"C>	c #7A5E53",
"D>	c #8E6B5C",
"E>	c #725448",
"F>	c #423B36",
"G>	c #7B726A",
"H>	c #8E867D",
"I>	c #6D655F",
"J>	c #736C64",
"K>	c #9C948A",
"L>	c #8D877E",
"M>	c #4D4844",
"N>	c #787068",
"O>	c #A69D91",
"P>	c #A2968A",
"Q>	c #BBAC9C",
"R>	c #C6B7A7",
"S>	c #8D7D6F",
"T>	c #574842",
"U>	c #504843",
"V>	c #A0958C",
"W>	c #D6CABE",
"X>	c #D2C4B4",
"Y>	c #D2C3B2",
"Z>	c #B7AEA1",
"`>	c #403935",
" ,	c #0C0706",
".,	c #0C0505",
"+,	c #1D0B07",
"@,	c #432517",
"#,	c #59321F",
"$,	c #51301E",
"%,	c #0D0606",
"&,	c #706B66",
"*,	c #B8A89E",
"=,	c #A77B6B",
"-,	c #BB6E5A",
";,	c #913C2F",
">,	c #380604",
",,	c #3C0805",
"',	c #56120E",
"),	c #4E0E09",
"!,	c #5A3831",
"~,	c #70675F",
"{,	c #ADA397",
"],	c #978E83",
"^,	c #877D74",
"/,	c #6E6862",
"(,	c #494541",
"_,	c #A49C90",
":,	c #BDB0A1",
"<,	c #A99787",
"[,	c #7D5F52",
"},	c #623931",
"|,	c #6D3529",
"1,	c #5C3228",
"2,	c #4D453F",
"3,	c #807A72",
"4,	c #68615B",
"5,	c #706962",
"6,	c #8B847B",
"7,	c #847D75",
"8,	c #474340",
"9,	c #615B55",
"0,	c #A1988C",
"a,	c #AAA093",
"b,	c #B0A597",
"c,	c #C4B5A5",
"d,	c #A69484",
"e,	c #78655A",
"f,	c #433732",
"g,	c #463E3C",
"h,	c #B0A79E",
"i,	c #C0B4A8",
"j,	c #C5B6A6",
"k,	c #C8BAAA",
"l,	c #80766D",
"m,	c #1F1614",
"n,	c #1F120D",
"o,	c #30170F",
"p,	c #381C12",
"q,	c #321A10",
"r,	c #170A06",
"s,	c #030001",
"t,	c #373533",
"u,	c #AEA8A3",
"v,	c #ACA096",
"w,	c #9F746A",
"x,	c #AC5042",
"y,	c #6C241C",
"z,	c #4B0806",
"A,	c #54160F",
"B,	c #673028",
"C,	c #5A2821",
"D,	c #59413A",
"E,	c #7F7369",
"F,	c #7B756D",
"G,	c #AEA89C",
"H,	c #A39A8D",
"I,	c #80776D",
"J,	c #524D49",
"K,	c #494542",
"L,	c #988B7F",
"M,	c #A89788",
"N,	c #8C7365",
"O,	c #7B4539",
"P,	c #8E4E41",
"Q,	c #684033",
"R,	c #5B534C",
"S,	c #857C73",
"T,	c #B0A89C",
"U,	c #8C847C",
"V,	c #6D6762",
"W,	c #5A5550",
"X,	c #645F59",
"Y,	c #4B4845",
"Z,	c #7D756E",
"`,	c #998E82",
" '	c #A79C90",
".'	c #94887D",
"+'	c #B9A999",
"@'	c #A49282",
"#'	c #83695B",
"$'	c #5D4038",
"%'	c #644F46",
"&'	c #6D6059",
"*'	c #A19790",
"='	c #B2A397",
"-'	c #D0C3B5",
";'	c #ADA49C",
">'	c #59504C",
",'	c #241916",
"''	c #321A11",
")'	c #28130D",
"!'	c #140806",
"~'	c #070403",
"{'	c #110E0E",
"]'	c #857D76",
"^'	c #D3C8BD",
"/'	c #CAAFA1",
"('	c #956258",
"_'	c #6C372F",
":'	c #4B221D",
"<'	c #541510",
"['	c #590F08",
"}'	c #562921",
"|'	c #6A4C44",
"1'	c #6E5C54",
"2'	c #83766A",
"3'	c #8A8175",
"4'	c #9D9488",
"5'	c #A99E90",
"6'	c #80776E",
"7'	c #3F3B39",
"8'	c #423D3B",
"9'	c #807267",
"0'	c #826F63",
"a'	c #A18979",
"b'	c #AE7462",
"c'	c #AD7B69",
"d'	c #AA8C7B",
"e'	c #685044",
"f'	c #695E56",
"g'	c #7B736A",
"h'	c #BFB5A7",
"i'	c #A59D92",
"j'	c #918B83",
"k'	c #605C58",
"l'	c #4F4C49",
"m'	c #464341",
"n'	c #726A63",
"o'	c #94897E",
"p'	c #ADA499",
"q'	c #8F857C",
"r'	c #A89585",
"s'	c #B19F8F",
"t'	c #7A5D52",
"u'	c #663329",
"v'	c #7C6559",
"w'	c #927C6F",
"x'	c #71615A",
"y'	c #8B7C72",
"z'	c #BEB1A4",
"A'	c #C9C0B7",
"B'	c #3D332D",
"C'	c #110605",
"D'	c #050202",
"E'	c #4B4641",
"F'	c #C6BCAF",
"G'	c #C8B6A7",
"H'	c #986B5D",
"I'	c #79594F",
"J'	c #967A6E",
"K'	c #895D52",
"L'	c #825247",
"M'	c #6B2C24",
"N'	c #5D382E",
"O'	c #8A6B5E",
"P'	c #A19486",
"Q'	c #9B8E80",
"R'	c #8C7F73",
"S'	c #A29688",
"T'	c #A4998B",
"U'	c #6C645C",
"V'	c #312E2E",
"W'	c #4F4A46",
"X'	c #80756B",
"Y'	c #968779",
"Z'	c #9A8677",
"`'	c #866456",
" )	c #816556",
".)	c #80695B",
"+)	c #5B4B43",
"@)	c #362D29",
"#)	c #534841",
"$)	c #736960",
"%)	c #857D74",
"&)	c #BBB1A4",
"*)	c #B3AA9E",
"=)	c #A19A91",
"-)	c #7A746D",
";)	c #504B47",
">)	c #33302F",
",)	c #5B544F",
"')	c #887F76",
"))	c #88776D",
"!)	c #715E54",
"~)	c #B29888",
"{)	c #7A564A",
"])	c #6C2820",
"^)	c #563A31",
"/)	c #A28C7E",
"()	c #7F7068",
"_)	c #877B72",
":)	c #BEB3A9",
"<)	c #C7B8A8",
"[)	c #72655B",
"})	c #080101",
"|)	c #040102",
"1)	c #060404",
"2)	c #837A70",
"3)	c #CABDAE",
"4)	c #97877C",
"5)	c #4F312A",
"6)	c #6B574F",
"7)	c #AB9182",
"8)	c #AA8F81",
"9)	c #9D7467",
"0)	c #9D4A3D",
"a)	c #883C30",
"b)	c #856457",
"c)	c #A99C8D",
"d)	c #A59889",
"e)	c #80756A",
"f)	c #A69A8C",
"g)	c #9E9487",
"h)	c #534D47",
"i)	c #201F20",
"j)	c #48433F",
"k)	c #9E9184",
"l)	c #AE9F8F",
"m)	c #907768",
"n)	c #927B6B",
"o)	c #7F6C60",
"p)	c #79695D",
"q)	c #584B42",
"r)	c #574E48",
"s)	c #655C55",
"t)	c #6A625B",
"u)	c #877F76",
"v)	c #AAA195",
"w)	c #B4AB9E",
"x)	c #8E857B",
"y)	c #635E58",
"z)	c #5D5751",
"A)	c #766C63",
"B)	c #8F7E72",
"C)	c #7B6257",
"D)	c #5D2C25",
"E)	c #905A4D",
"F)	c #825146",
"G)	c #6E3028",
"H)	c #431D18",
"I)	c #9F8D82",
"J)	c #BEAFA3",
"K)	c #A4958A",
"L)	c #6A5D58",
"M)	c #857A71",
"N)	c #C5B6A7",
"O)	c #978A7F",
"P)	c #242120",
"Q)	c #3C3632",
"R)	c #B4A498",
"S)	c #B69888",
"T)	c #74463C",
"U)	c #592F28",
"V)	c #876054",
"W)	c #AB7F6F",
"X)	c #A4705F",
"Y)	c #934134",
"Z)	c #8D2A1C",
"`)	c #7F6156",
" !	c #A89889",
".!	c #9A8B7D",
"+!	c #756B62",
"@!	c #A0968A",
"#!	c #8B8379",
"$!	c #47433F",
"%!	c #252424",
"&!	c #2D2A28",
"*!	c #746A63",
"=!	c #A1968A",
"-!	c #B8AB9B",
";!	c #AD9D8D",
">!	c #B6A897",
",!	c #B4A493",
"'!	c #AC9B8C",
")!	c #8C7C6E",
"!!	c #564A43",
"~!	c #574D49",
"{!	c #574D48",
"]!	c #544A45",
"^!	c #79726C",
"/!	c #8B827A",
"(!	c #7E736A",
"_!	c #6F675F",
":!	c #56514E",
"<!	c #333231",
"[!	c #4B4541",
"}!	c #6B615A",
"|!	c #89786D",
"1!	c #8B6F64",
"2!	c #6F352D",
"3!	c #63211A",
"4!	c #6B4238",
"5!	c #703B31",
"6!	c #460D09",
"7!	c #84544C",
"8!	c #C5AEA2",
"9!	c #BCA99C",
"0!	c #A69085",
"a!	c #584A43",
"b!	c #958B82",
"c!	c #B4ABA1",
"d!	c #5D5955",
"e!	c #79746F",
"f!	c #B6A397",
"g!	c #76554B",
"h!	c #542F28",
"i!	c #81574B",
"j!	c #B48E7B",
"k!	c #B59583",
"l!	c #C4A290",
"m!	c #B99180",
"n!	c #98453A",
"o!	c #962D1F",
"p!	c #9A7769",
"q!	c #A69788",
"r!	c #817064",
"s!	c #888076",
"t!	c #686059",
"u!	c #3B3735",
"v!	c #151415",
"w!	c #36312E",
"x!	c #82776E",
"y!	c #988D83",
"z!	c #A6998C",
"A!	c #948477",
"B!	c #9D8F81",
"C!	c #A39181",
"D!	c #958173",
"E!	c #74655A",
"F!	c #61534B",
"G!	c #2A2523",
"H!	c #3B3532",
"I!	c #584D47",
"J!	c #887D74",
"K!	c #A0958A",
"L!	c #6D645D",
"M!	c #57504C",
"N!	c #5B5651",
"O!	c #43403D",
"P!	c #23201F",
"Q!	c #66584F",
"R!	c #7A6A61",
"S!	c #867268",
"T!	c #875649",
"U!	c #532119",
"V!	c #623C33",
"W!	c #69362D",
"X!	c #4E0C07",
"Y!	c #7A2E25",
"Z!	c #AB796A",
"`!	c #C0A799",
" ~	c #D1C0AF",
".~	c #9B8677",
"+~	c #5D524C",
"@~	c #A4A098",
"#~	c #141211",
"$~	c #3A3735",
"%~	c #A6A09A",
"&~	c #7D7069",
"*~	c #674B43",
"=~	c #82665B",
"-~	c #A08375",
";~	c #AF9786",
">~	c #BAA190",
",~	c #CEBBA8",
"'~	c #C4AD9C",
")~	c #AC594C",
"!~	c #AF533F",
"~~	c #AA816C",
"{~	c #A69884",
"]~	c #685D53",
"^~	c #675E56",
"/~	c #7F756A",
"(~	c #524C46",
"_~	c #3C3936",
":~	c #0E0E0E",
"<~	c #443F3A",
"[~	c #797066",
"}~	c #928B80",
"|~	c #675A52",
"1~	c #62544D",
"2~	c #887B72",
"3~	c #9C8E80",
"4~	c #695D54",
"5~	c #332D2A",
"6~	c #746A62",
"7~	c #93887D",
"8~	c #A2998D",
"9~	c #B4AA9D",
"0~	c #B3A99D",
"a~	c #8C857B",
"b~	c #45413D",
"c~	c #423F3C",
"d~	c #1E1C1B",
"e~	c #685D56",
"f~	c #73665E",
"g~	c #8E8379",
"h~	c #7C574C",
"i~	c #602C23",
"j~	c #58241C",
"k~	c #4B1711",
"l~	c #470905",
"m~	c #5B1E18",
"n~	c #955143",
"o~	c #A97F72",
"p~	c #C3B2A3",
"q~	c #D8C5B3",
"r~	c #9B8578",
"s~	c #615953",
"t~	c #9E9288",
"u~	c #433B35",
"v~	c #5F5A56",
"w~	c #938B85",
"x~	c #7E685D",
"y~	c #AB988B",
"z~	c #BDAFA0",
"A~	c #B9A696",
"B~	c #BFAE9F",
"C~	c #C7B5A4",
"D~	c #CBBEAF",
"E~	c #A35E51",
"F~	c #AF5844",
"G~	c #733C30",
"H~	c #513E35",
"I~	c #6E645C",
"J~	c #6B6259",
"K~	c #685E55",
"L~	c #4A4440",
"M~	c #34312F",
"N~	c #121111",
"O~	c #46423D",
"P~	c #796D64",
"Q~	c #6E5E54",
"R~	c #6B5A50",
"S~	c #9D8E82",
"T~	c #A29386",
"U~	c #A39587",
"V~	c #918173",
"W~	c #6D6057",
"X~	c #9A938A",
"Y~	c #73685F",
"Z~	c #A3978B",
"`~	c #BDB3A4",
" {	c #C4BBAD",
".{	c #BFB6A8",
"+{	c #B9B0A2",
"@{	c #8B8277",
"#{	c #6A6158",
"${	c #2E2A28",
"%{	c #2A2726",
"&{	c #171616",
"*{	c #59544E",
"={	c #6F645C",
"-{	c #958B81",
";{	c #7A675F",
">{	c #643226",
",{	c #64251A",
"'{	c #471711",
"){	c #250302",
"!{	c #4B110B",
"~{	c #944235",
"{{	c #AB7261",
"]{	c #C4AD9E",
"^{	c #DBCCBB",
"/{	c #C4AD9D",
"({	c #8B7E73",
"_{	c #514640",
":{	c #453731",
"<{	c #68544B",
"[{	c #7F665B",
"}{	c #A0897B",
"|{	c #C7BAAB",
"1{	c #C4B7A8",
"2{	c #CBBEAD",
"3{	c #C5AF9C",
"4{	c #BDA799",
"5{	c #AC8F84",
"6{	c #A34536",
"7{	c #933325",
"8{	c #5D1812",
"9{	c #4F2720",
"0{	c #54443C",
"a{	c #514942",
"b{	c #5C544C",
"c{	c #4F4A44",
"d{	c #232120",
"e{	c #141212",
"f{	c #3E3935",
"g{	c #5D4B42",
"h{	c #826152",
"i{	c #AD9A8A",
"j{	c #B9AA9B",
"k{	c #BDAF9F",
"l{	c #BAAC9D",
"m{	c #C1B7A8",
"n{	c #9D8C7E",
"o{	c #857366",
"p{	c #685F56",
"q{	c #4F443D",
"r{	c #7E7167",
"s{	c #807369",
"t{	c #9C9186",
"u{	c #988F86",
"v{	c #7A7269",
"w{	c #7E756B",
"x{	c #847A70",
"y{	c #4E4842",
"z{	c #1A1818",
"A{	c #020203",
"B{	c #5B514B",
"C{	c #6E645D",
"D{	c #83766D",
"E{	c #552F28",
"F{	c #551F17",
"G{	c #5C2820",
"H{	c #370B08",
"I{	c #430704",
"J{	c #722E25",
"K{	c #A56C5C",
"L{	c #B49382",
"M{	c #C9BBAB",
"N{	c #CDC0B2",
"O{	c #CBC0B1",
"P{	c #887E75",
"Q{	c #6B5D56",
"R{	c #8A766B",
"S{	c #A18D80",
"T{	c #B7A798",
"U{	c #BFB1A1",
"V{	c #AD9E90",
"W{	c #C3B5A5",
"X{	c #BFB0A1",
"Y{	c #968071",
"Z{	c #956D60",
"`{	c #7E5145",
" ]	c #78352A",
".]	c #8B4537",
"+]	c #6A2E26",
"@]	c #673D32",
"#]	c #3C2C26",
"$]	c #3D352F",
"%]	c #625950",
"&]	c #49433D",
"*]	c #151313",
"=]	c #0C0A0A",
"-]	c #443E38",
";]	c #897062",
">]	c #8F7D71",
",]	c #A29385",
"']	c #C3B5A4",
")]	c #C7BAAC",
"!]	c #BDB2A6",
"~]	c #B09F90",
"{]	c #B19E8D",
"]]	c #7F7064",
"^]	c #483F38",
"/]	c #6D5E56",
"(]	c #493F39",
"_]	c #2F2420",
":]	c #55453D",
"<]	c #7F6E62",
"[]	c #84766C",
"}]	c #796C63",
"|]	c #84786E",
"1]	c #786D64",
"2]	c #564E48",
"3]	c #322E2B",
"4]	c #010102",
"5]	c #1C1919",
"6]	c #463C38",
"7]	c #4F413B",
"8]	c #4F3630",
"9]	c #5F271F",
"0]	c #581C15",
"a]	c #5B1C15",
"b]	c #581E17",
"c]	c #440C08",
"d]	c #4E0804",
"e]	c #81463B",
"f]	c #AC8F7F",
"g]	c #CCC0B2",
"h]	c #A39489",
"i]	c #60504A",
"j]	c #AC998C",
"k]	c #D1C3B4",
"l]	c #D3C5B5",
"m]	c #C7B9AA",
"n]	c #BDAFA1",
"o]	c #C9B9A8",
"p]	c #C8B8A6",
"q]	c #886E61",
"r]	c #7D564A",
"s]	c #A67666",
"t]	c #936E60",
"u]	c #8F7364",
"v]	c #917768",
"w]	c #785C4D",
"x]	c #514138",
"y]	c #3B332E",
"z]	c #4D453E",
"A]	c #282422",
"B]	c #0B0B0A",
"C]	c #262320",
"D]	c #645B53",
"E]	c #8A7D72",
"F]	c #74675E",
"G]	c #837970",
"H]	c #ACA194",
"I]	c #C9BCAE",
"J]	c #CCC1B5",
"K]	c #B9AB9F",
"L]	c #B0A091",
"M]	c #786A5F",
"N]	c #3A2D29",
"O]	c #5F4D43",
"P]	c #9D8A7B",
"Q]	c #B19A87",
"R]	c #B09B8A",
"S]	c #AC9A8C",
"T]	c #85766C",
"U]	c #8C8175",
"V]	c #82776C",
"W]	c #6B6159",
"X]	c #4C4641",
"Y]	c #100E0F",
"Z]	c #483D38",
"`]	c #62544B",
" ^	c #493832",
".^	c #452A25",
"+^	c #512C26",
"@^	c #642219",
"#^	c #551912",
"$^	c #510D09",
"%^	c #450C08",
"&^	c #654037",
"*^	c #A78A7A",
"=^	c #B2A191",
"-^	c #C8B9A8",
";^	c #CABEAF",
">^	c #A7988B",
",^	c #5E514B",
"'^	c #B1A59E",
")^	c #D0C5B9",
"!^	c #D2C6B8",
"~^	c #D4C8B8",
"{^	c #C1B3A3",
"]^	c #C7B9A9",
"^^	c #D0C4B3",
"/^	c #8C6D60",
"(^	c #835B4E",
"_^	c #AD8774",
":^	c #988373",
"<^	c #AB947F",
"[^	c #A28D7C",
"}^	c #675448",
"|^	c #453B34",
"1^	c #3F3831",
"2^	c #342E2A",
"3^	c #171514",
"4^	c #060606",
"5^	c #231F1C",
"6^	c #463E38",
"7^	c #61564E",
"8^	c #85796E",
"9^	c #938B82",
"0^	c #998F85",
"a^	c #C3B5A7",
"b^	c #E7DDCD",
"c^	c #D8CDBF",
"d^	c #CCBEB0",
"e^	c #98897C",
"f^	c #806D60",
"g^	c #281814",
"h^	c #48322A",
"i^	c #8E796B",
"j^	c #C9B6A5",
"k^	c #CFBAA7",
"l^	c #CBBCAC",
"m^	c #D1C4B4",
"n^	c #B8A89A",
"o^	c #8C7F74",
"p^	c #5A544F",
"q^	c #100D0D",
"r^	c #3B332F",
"s^	c #544841",
"t^	c #3F342F",
"u^	c #4E403A",
"v^	c #4E3832",
"w^	c #57231D",
"x^	c #511610",
"y^	c #5C150E",
"z^	c #51110C",
"A^	c #662A22",
"B^	c #876255",
"C^	c #9C8273",
"D^	c #C9B9A9",
"E^	c #D7CDBF",
"F^	c #B9AB9E",
"G^	c #675B53",
"H^	c #AC9A90",
"I^	c #AA9185",
"J^	c #BFB4A6",
"K^	c #C4B9AB",
"L^	c #BCB0A2",
"M^	c #D1C9BD",
"N^	c #CFC6B8",
"O^	c #A89285",
"P^	c #826155",
"Q^	c #957363",
"R^	c #967E6C",
"S^	c #A6917F",
"T^	c #867263",
"U^	c #4C3D35",
"V^	c #3E352F",
"W^	c #4F463D",
"X^	c #342E29",
"Y^	c #201D1A",
"Z^	c #090707",
"`^	c #080605",
" /	c #473F39",
"./	c #8C7D72",
"+/	c #81746A",
"@/	c #7C6D63",
"#/	c #866D62",
"$/	c #AC7F6C",
"%/	c #CCAD96",
"&/	c #E0CDB7",
"*/	c #DBCAB9",
"=/	c #BAA897",
"-/	c #837064",
";/	c #52433B",
">/	c #56372B",
",/	c #7E5747",
"'/	c #A59082",
")/	c #AD9C8E",
"!/	c #B3A091",
"~/	c #D5C7B5",
"{/	c #DDCBB8",
"]/	c #BFAB9A",
"^/	c #89796D",
"//	c #877C72",
"(/	c #57514C",
"_/	c #0C090A",
":/	c #080708",
"</	c #25201E",
"[/	c #39312D",
"}/	c #2E2723",
"|/	c #3E342F",
"1/	c #75655B",
"2/	c #684D44",
"3/	c #4E2A24",
"4/	c #5D3F37",
"5/	c #61463E",
"6/	c #7C574B",
"7/	c #8C6F61",
"8/	c #987E6F",
"9/	c #C1B0A2",
"0/	c #BCB1A4",
"a/	c #AE9E90",
"b/	c #7B7067",
"c/	c #D8CBBD",
"d/	c #DACCBE",
"e/	c #D1C7BC",
"f/	c #BBB1A6",
"g/	c #AFA69C",
"h/	c #8E8179",
"i/	c #958075",
"j/	c #9A867B",
"k/	c #947F6F",
"l/	c #A89280",
"m/	c #A99685",
"n/	c #978373",
"o/	c #65554A",
"p/	c #433730",
"q/	c #443A33",
"r/	c #534840",
"s/	c #473F38",
"t/	c #574F47",
"u/	c #2D2823",
"v/	c #100D0B",
"w/	c #3E3934",
"x/	c #5F524A",
"y/	c #533F37",
"z/	c #7F6457",
"A/	c #A18070",
"B/	c #BD907B",
"C/	c #B6917B",
"D/	c #A38C7A",
"E/	c #B29783",
"F/	c #B39884",
"G/	c #9F8777",
"H/	c #827368",
"I/	c #625750",
"J/	c #533026",
"K/	c #613429",
"L/	c #62352B",
"M/	c #64463E",
"N/	c #928074",
"O/	c #AF998B",
"P/	c #C4AC9B",
"Q/	c #C3AF9E",
"R/	c #A69485",
"S/	c #8D7D72",
"T/	c #6E6056",
"U/	c #29221E",
"V/	c #010002",
"W/	c #050507",
"X/	c #1D1A19",
"Y/	c #272321",
"Z/	c #3B322F",
"`/	c #433A36",
" (	c #655A52",
".(	c #6D5B53",
"+(	c #68534A",
"@(	c #8C7568",
"#(	c #7B6A5F",
"$(	c #756056",
"%(	c #A8978B",
"&(	c #AB998B",
"*(	c #C0B1A2",
"=(	c #B2A698",
"-(	c #83786F",
";(	c #DACDBF",
">(	c #E3DACE",
",(	c #DCD4CA",
"'(	c #B6ACA2",
")(	c #B2A497",
"!(	c #B29484",
"~(	c #917366",
"{(	c #745A4E",
"](	c #8D7768",
"^(	c #A48E7D",
"/(	c #998778",
"((	c #574940",
"_(	c #45362F",
":(	c #3F352F",
"<(	c #3A332E",
"[(	c #39332E",
"}(	c #36312C",
"|(	c #010101",
"1(	c #0B0808",
"2(	c #422923",
"3(	c #62382E",
"4(	c #7C5247",
"5(	c #73554B",
"6(	c #724C40",
"7(	c #4C281F",
"8(	c #441612",
"9(	c #47261F",
"0(	c #58473D",
"a(	c #846C5E",
"b(	c #836C60",
"c(	c #584C46",
"d(	c #463832",
"e(	c #280907",
"f(	c #360D0A",
"g(	c #46120D",
"h(	c #3F0C07",
"i(	c #582B24",
"j(	c #7D4A3F",
"k(	c #66483E",
"l(	c #6F5E53",
"m(	c #8D7C6E",
"n(	c #918174",
"o(	c #8E8176",
"p(	c #2C2724",
"q(	c #0D0B0C",
"r(	c #201D1B",
"s(	c #3A342F",
"t(	c #36302C",
"u(	c #5D544D",
"v(	c #605850",
"w(	c #79665A",
"x(	c #917E71",
"y(	c #99887A",
"z(	c #76675D",
"A(	c #A7978B",
"B(	c #BFAD9D",
"C(	c #D0C2B2",
"D(	c #B2A192",
"E(	c #BEB3A7",
"F(	c #8C857E",
"G(	c #B5AA9F",
"H(	c #998D81",
"I(	c #A79688",
"J(	c #AE9685",
"K(	c #957F71",
"L(	c #7C584A",
"M(	c #6C5045",
"N(	c #81685A",
"O(	c #7D6B5C",
"P(	c #706155",
"Q(	c #594A41",
"R(	c #605146",
"S(	c #4A3F37",
"T(	c #473E37",
"U(	c #2D2723",
"V(	c #1A1715",
"W(	c #1F1B18",
"X(	c #050302",
"Y(	c #030101",
"Z(	c #3A1811",
"`(	c #652C22",
" _	c #582C24",
"._	c #351D1A",
"+_	c #4E0E08",
"@_	c #772315",
"#_	c #A4311D",
"$_	c #7D1C0E",
"%_	c #2A0403",
"&_	c #3F2A21",
"*_	c #64493E",
"=_	c #5B4C45",
"-_	c #554037",
";_	c #040101",
">_	c #0E0201",
",_	c #190201",
"'_	c #3D0905",
")_	c #781C0F",
"!_	c #9D3321",
"~_	c #B33624",
"{_	c #842016",
"]_	c #300705",
"^_	c #39312B",
"/_	c #5C524A",
"(_	c #5D554F",
"__	c #1E1A19",
":_	c #030203",
"<_	c #0C0A0B",
"[_	c #100E0E",
"}_	c #322D2A",
"|_	c #3E3833",
"1_	c #5F5750",
"2_	c #6B625A",
"3_	c #605650",
"4_	c #62574E",
"5_	c #998A7D",
"6_	c #9B8C80",
"7_	c #938379",
"8_	c #B5A698",
"9_	c #BEAA9A",
"0_	c #A48D7E",
"a_	c #B3A698",
"b_	c #94908A",
"c_	c #DDD4C8",
"d_	c #CBC3B7",
"e_	c #9E9084",
"f_	c #ACA091",
"g_	c #A79383",
"h_	c #786458",
"i_	c #4C2E26",
"j_	c #41241D",
"k_	c #553B32",
"l_	c #5E4C41",
"m_	c #705F54",
"n_	c #6D5D51",
"o_	c #66594E",
"p_	c #4B4139",
"q_	c #473D36",
"r_	c #312A26",
"s_	c #25211E",
"t_	c #1E1A18",
"u_	c #250906",
"v_	c #531E17",
"w_	c #240A06",
"x_	c #380502",
"y_	c #841F0F",
"z_	c #B23A22",
"A_	c #D15634",
"B_	c #9F331C",
"C_	c #550903",
"D_	c #110201",
"E_	c #0E0503",
"F_	c #281F1A",
"G_	c #2D201C",
"H_	c #070100",
"I_	c #410B05",
"J_	c #711D0F",
"K_	c #A93C28",
"L_	c #CD674C",
"M_	c #CD563C",
"N_	c #AC3A29",
"O_	c #77261C",
"P_	c #401914",
"Q_	c #1D1715",
"R_	c #141110",
"S_	c #0A0909",
"T_	c #020102",
"U_	c #050406",
"V_	c #2E2926",
"W_	c #49423D",
"X_	c #645B54",
"Y_	c #71685F",
"Z_	c #887D72",
"`_	c #6A6058",
" :	c #6E655D",
".:	c #C0B4A5",
"+:	c #B6A99B",
"@:	c #A39589",
"#:	c #A69385",
"$:	c #887569",
"%:	c #A79889",
"&:	c #918C86",
"*:	c #D7CEC2",
"=:	c #AFA599",
"-:	c #97897C",
";:	c #978374",
">:	c #71584D",
",:	c #3D2821",
"':	c #321E1A",
"):	c #3D2B26",
"!:	c #57473D",
"~:	c #716053",
"{:	c #6A5A4E",
"]:	c #615449",
"^:	c #4A4139",
"/:	c #4E443C",
"(:	c #3C322C",
"_:	c #322D29",
"::	c #413933",
"<:	c #0F0403",
"[:	c #1D0806",
"}:	c #561107",
"|:	c #A9351D",
"1:	c #CA5135",
"2:	c #E17752",
"3:	c #CE5537",
"4:	c #9D2617",
"5:	c #430703",
"6:	c #0D0202",
"7:	c #120605",
"8:	c #290402",
"9:	c #7E1B0C",
"0:	c #962815",
"a:	c #9A3B28",
"b:	c #B45F47",
"c:	c #A6503A",
"d:	c #7E3627",
"e:	c #54221A",
"f:	c #30130E",
"g:	c #020101",
"h:	c #121010",
"i:	c #050506",
"j:	c #060607",
"k:	c #2A2522",
"l:	c #48413B",
"m:	c #6E655C",
"n:	c #877D70",
"o:	c #897C70",
"p:	c #7E7065",
"q:	c #584C45",
"r:	c #6C625A",
"s:	c #AEA294",
"t:	c #9E8F81",
"u:	c #716056",
"v:	c #8B786B",
"w:	c #89827B",
"x:	c #DDD2C4",
"y:	c #8E7F73",
"z:	c #8E7F71",
"A:	c #816658",
"B:	c #63483D",
"C:	c #372722",
"D:	c #201614",
"E:	c #271D1A",
"F:	c #362B26",
"G:	c #4A3E35",
"H:	c #4E4036",
"I:	c #4D4138",
"J:	c #534940",
"K:	c #4F473F",
"L:	c #272320",
"M:	c #312A25",
"N:	c #39322C",
"O:	c #0A0504",
"P:	c #090403",
"Q:	c #100403",
"R:	c #4C1007",
"S:	c #A23220",
"T:	c #C24931",
"U:	c #DB6B4A",
"V:	c #D45636",
"W:	c #A12615",
"X:	c #620D06",
"Y:	c #2C0302",
"Z:	c #150202",
"`:	c #0E0504",
" <	c #6F1309",
".<	c #A12917",
"+<	c #A0331F",
"@<	c #AC4B2F",
"#<	c #AE2F1D",
"$<	c #9B2115",
"%<	c #4B0A05",
"&<	c #2F0705",
"*<	c #050303",
"=<	c #050404",
"-<	c #060506",
";<	c #0E0D0D",
"><	c #1F1C1A",
",<	c #49413C",
"'<	c #645E57",
")<	c #877E75",
"!<	c #918579",
"~<	c #908377",
"{<	c #635952",
"]<	c #B4AA9F",
"^<	c #B4A99C",
"/<	c #A59687",
"(<	c #695B51",
"_<	c #948071",
":<	c #7E756F",
"<<	c #AA9D91",
"[<	c #938377",
"}<	c #8D7E71",
"|<	c #5A4E46",
"1<	c #5A453D",
"2<	c #695045",
"3<	c #3E2D28",
"4<	c #3F302B",
"5<	c #2E221E",
"6<	c #483A32",
"7<	c #635146",
"8<	c #514339",
"9<	c #493E36",
"0<	c #544940",
"a<	c #3E3731",
"b<	c #322C28",
"c<	c #463D35",
"d<	c #332C27",
"e<	c #0B0504",
"f<	c #100202",
"g<	c #4A0603",
"h<	c #8D2012",
"i<	c #C7351D",
"j<	c #DE5330",
"k<	c #C84B2D",
"l<	c #962412",
"m<	c #640F06",
"n<	c #3E0403",
"o<	c #330503",
"p<	c #0C0101",
"q<	c #240301",
"r<	c #681109",
"s<	c #821B0F",
"t<	c #A22F1B",
"u<	c #BE442A",
"v<	c #9F2716",
"w<	c #A11C0F",
"x<	c #490C06",
"y<	c #070605",
"z<	c #100E0D",
"A<	c #2A2420",
"B<	c #3F3730",
"C<	c #4A433E",
"D<	c #736B61",
"E<	c #91877C",
"F<	c #AFA497",
"G<	c #A09386",
"H<	c #9C8F82",
"I<	c #786F65",
"J<	c #8F877D",
"K<	c #C3B7A9",
"L<	c #A49385",
"M<	c #9B8A7C",
"N<	c #A89685",
"O<	c #867F77",
"P<	c #C1B3A4",
"Q<	c #B5A797",
"R<	c #94887C",
"S<	c #AA9F92",
"T<	c #8A7A6F",
"U<	c #5E4A41",
"V<	c #785D50",
"W<	c #4D3930",
"X<	c #695449",
"Y<	c #584A40",
"Z<	c #625549",
"`<	c #4F443B",
" [	c #413831",
".[	c #362F2A",
"+[	c #241F1C",
"@[	c #460603",
"#[	c #851008",
"$[	c #A41A0E",
"%[	c #B42816",
"&[	c #C83821",
"*[	c #CC482E",
"=[	c #A92416",
"-[	c #99190D",
";[	c #4B0703",
">[	c #240201",
",[	c #3C0603",
"'[	c #64110A",
")[	c #731107",
"![	c #942112",
"~[	c #9F2215",
"{[	c #88190E",
"][	c #3F0502",
"^[	c #0D0A09",
"/[	c #231E1C",
"([	c #3E3530",
"_[	c #4C413A",
":[	c #524840",
"<[	c #352F2B",
"[[	c #5E544C",
"}[	c #B3AA9D",
"|[	c #A69A8D",
"1[	c #796F66",
"2[	c #AC9F91",
"3[	c #A79587",
"4[	c #A19386",
"5[	c #9F8E7F",
"6[	c #786F67",
"7[	c #C9BEB1",
"8[	c #B6A696",
"9[	c #C0B3A2",
"0[	c #BEB09F",
"a[	c #A99B8F",
"b[	c #998275",
"c[	c #977D6E",
"d[	c #5F4B41",
"e[	c #6B584D",
"f[	c #756255",
"g[	c #5F5146",
"h[	c #554940",
"i[	c #3F362F",
"j[	c #322B26",
"k[	c #201C1A",
"l[	c #1C1918",
"m[	c #540803",
"n[	c #7C0E06",
"o[	c #91170B",
"p[	c #A5180E",
"q[	c #A72014",
"r[	c #892013",
"s[	c #82120A",
"t[	c #91120A",
"u[	c #6B0A04",
"v[	c #240402",
"w[	c #280201",
"x[	c #400604",
"y[	c #600E07",
"z[	c #770D06",
"A[	c #7A0F07",
"B[	c #741A11",
"C[	c #7F2116",
"D[	c #700A05",
"E[	c #0A0706",
"F[	c #211B18",
"G[	c #3D342E",
"H[	c #4D433B",
"I[	c #4F453D",
"J[	c #4D4540",
"K[	c #625952",
"L[	c #BEB1A2",
"M[	c #C8BDAF",
"N[	c #8F8175",
"O[	c #857B71",
"P[	c #A9998D",
"Q[	c #9A8A7D",
"R[	c #8A786B",
"S[	c #6D615A",
"T[	c #CCBFB1",
"U[	c #C7B6A6",
"V[	c #B3A192",
"W[	c #AF9F90",
"X[	c #A59281",
"Y[	c #8F7C6E",
"Z[	c #8C7F75",
"`[	c #836F65",
" }	c #564038",
".}	c #44342D",
"+}	c #6A594D",
"@}	c #5E5047",
"#}	c #473C34",
"$}	c #1E1A17",
"%}	c #36302B",
"&}	c #171414",
"*}	c #610904",
"=}	c #710D06",
"-}	c #8D1108",
";}	c #A71B11",
">}	c #821209",
",}	c #5D0904",
"'}	c #570703",
")}	c #6F0704",
"!}	c #440604",
"~}	c #490502",
"{}	c #450302",
"]}	c #650906",
"^}	c #6E0905",
"/}	c #8A0E06",
"(}	c #95140A",
"_}	c #500502",
":}	c #6C0B06",
"<}	c #890C08",
"[}	c #0F0B09",
"}}	c #382D26",
"|}	c #2F2621",
"1}	c #332C28",
"2}	c #5B554F",
"3}	c #7B7269",
"4}	c #8C8379",
"5}	c #B9AD9F",
"6}	c #CABCAC",
"7}	c #998576",
"8}	c #847569",
"9}	c #958476",
"0}	c #6B6058",
"a}	c #D0C5B6",
"b}	c #DCCFBE",
"c}	c #AFA194",
"d}	c #998879",
"e}	c #9C8474",
"f}	c #B3A08E",
"g}	c #947F71",
"h}	c #6F574B",
"i}	c #533F36",
"j}	c #6E5E53",
"k}	c #685D54",
"l}	c #685C54",
"m}	c #665B52",
"n}	c #6D6156",
"o}	c #3E3732",
"p}	c #060403",
"q}	c #300301",
"r}	c #6D0904",
"s}	c #A6170C",
"t}	c #BC190F",
"u}	c #AC160D",
"v}	c #A41C10",
"w}	c #811109",
"x}	c #480502",
"y}	c #3A0201",
"z}	c #3B0303",
"A}	c #480503",
"B}	c #580604",
"C}	c #840F09",
"D}	c #94130D",
"E}	c #94180F",
"F}	c #8D1E13",
"G}	c #620804",
"H}	c #A1130B",
"I}	c #880F09",
"J}	c #1F1714",
"K}	c #443730",
"L}	c #423731",
"M}	c #6D6259",
"N}	c #A3998D",
"O}	c #A69E93",
"P}	c #B0A69A",
"Q}	c #A79E93",
"R}	c #998C82",
"S}	c #A49C92",
"T}	c #9F9286",
"U}	c #AF9481",
"V}	c #AB9380",
"W}	c #B3A190",
"X}	c #938174",
"Y}	c #847366",
"Z}	c #A79C91",
"`}	c #DED5C8",
" |	c #BAAA9C",
".|	c #B6A290",
"+|	c #B6A18E",
"@|	c #CEBAA5",
"#|	c #DACBB9",
"$|	c #CBB5A2",
"%|	c #C0A693",
"&|	c #9E8879",
"*|	c #B7A494",
"=|	c #B4A392",
"-|	c #A5978A",
";|	c #958A7F",
">|	c #6C6056",
",|	c #5B5148",
"'|	c #3C3530",
")|	c #4B0402",
"!|	c #99120B",
"~|	c #BF1C10",
"{|	c #A2160D",
"]|	c #991009",
"^|	c #B11D11",
"/|	c #871209",
"(|	c #640704",
"_|	c #3B0202",
":|	c #270201",
"<|	c #3C0403",
"[|	c #660B07",
"}|	c #630905",
"||	c #790C06",
"1|	c #7E0F09",
"2|	c #6B1009",
"3|	c #630704",
"4|	c #A4140D",
"5|	c #8F110A",
"6|	c #2D241F",
"7|	c #584D45",
"8|	c #B1A89C",
"9|	c #BBB2A5",
"0|	c #BEB4A6",
"a|	c #C3B8A9",
"b|	c #7D6D64",
"c|	c #4D403B",
"d|	c #5D4840",
"e|	c #AD9786",
"f|	c #C4AF9B",
"g|	c #BBAC9B",
"h|	c #C1B6A6",
"i|	c #5F5850",
"j|	c #595552",
"k|	c #D5D1C7",
"l|	c #C0AE9D",
"m|	c #B9A595",
"n|	c #C1B09E",
"o|	c #C8B5A4",
"p|	c #CBB6A3",
"q|	c #BEA491",
"r|	c #B7A08E",
"s|	c #C4B29F",
"t|	c #AA9A8A",
"u|	c #4F4640",
"v|	c #5A5048",
"w|	c #8D8477",
"x|	c #716960",
"y|	c #4D463F",
"z|	c #2C2723",
"A|	c #0B0908",
"B|	c #720C07",
"C|	c #AA160E",
"D|	c #A1140C",
"E|	c #750D06",
"F|	c #850D07",
"G|	c #9D170E",
"H|	c #7B0E07",
"I|	c #770A06",
"J|	c #3C0302",
"K|	c #160100",
"L|	c #530705",
"M|	c #730C07",
"N|	c #7C0D07",
"O|	c #A2140D",
"P|	c #7D0E09",
"Q|	c #5E0905",
"R|	c #680804",
"S|	c #900E08",
"T|	c #7B0C08",
"U|	c #2C231F",
"V|	c #5B4C42",
"W|	c #5B4E46",
"X|	c #6F6157",
"Y|	c #8C7E71",
"Z|	c #96897D",
"`|	c #AB9D90",
" 1	c #7A5C51",
".1	c #795A4F",
"+1	c #8F6B5D",
"@1	c #826357",
"#1	c #AD9888",
"$1	c #C2B1A0",
"%1	c #C3B3A2",
"&1	c #CFC0AE",
"*1	c #867A6E",
"=1	c #CEC9BE",
"-1	c #DFD0C0",
";1	c #C7B7A8",
">1	c #BDA697",
",1	c #BBA797",
"'1	c #B89B89",
")1	c #C3A48E",
"!1	c #B7947E",
"~1	c #A68776",
"{1	c #C2AE9C",
"]1	c #9A8879",
"^1	c #695A50",
"/1	c #4D433C",
"(1	c #72675D",
"_1	c #8B7F72",
":1	c #71675D",
"<1	c #38322E",
"[1	c #1B1513",
"}1	c #390704",
"|1	c #8A0E08",
"11	c #9D110B",
"21	c #840E08",
"31	c #8E1209",
"41	c #630B07",
"51	c #4D0503",
"61	c #420302",
"71	c #140101",
"81	c #160403",
"91	c #4B0504",
"01	c #5C0805",
"a1	c #660A05",
"b1	c #92110C",
"c1	c #780D0A",
"d1	c #540604",
"e1	c #6B0A06",
"f1	c #730A05",
"g1	c #680705",
"h1	c #580503",
"i1	c #1A1513",
"j1	c #4C4139",
"k1	c #554941",
"l1	c #786D62",
"m1	c #89796B",
"n1	c #9D8D7F",
"o1	c #BEAF9F",
"p1	c #B5A697",
"q1	c #A18677",
"r1	c #B89E8B",
"s1	c #A18475",
"t1	c #9C8173",
"u1	c #B1A093",
"v1	c #B8A392",
"w1	c #C7B3A0",
"x1	c #C5B3A0",
"y1	c #887A6E",
"z1	c #C0B9AC",
"A1	c #DDCFBD",
"B1	c #D2C1B0",
"C1	c #C8B2A0",
"D1	c #BDA694",
"E1	c #AB8171",
"F1	c #B28672",
"G1	c #A8725E",
"H1	c #AB7F6C",
"I1	c #B19382",
"J1	c #B19A89",
"K1	c #A19184",
"L1	c #8E7E70",
"M1	c #A99A8B",
"N1	c #988A7C",
"O1	c #7F7166",
"P1	c #60564E",
"Q1	c #4A413A",
"R1	c #433630",
"S1	c #4B0704",
"T1	c #670906",
"U1	c #780B06",
"V1	c #310201",
"W1	c #7A0A05",
"X1	c #8A1109",
"Y1	c #550804",
"Z1	c #460403",
"`1	c #130101",
" 2	c #170201",
".2	c #5D0805",
"+2	c #5F0805",
"@2	c #660906",
"#2	c #850F0B",
"$2	c #85100B",
"%2	c #860E09",
"&2	c #7A0C06",
"*2	c #470302",
"=2	c #7A100B",
"-2	c #5A0A06",
";2	c #100C0C",
">2	c #261F1D",
",2	c #3A312D",
"'2	c #7B6F64",
")2	c #9A8D82",
"!2	c #BCAEA0",
"~2	c #C0AFA0",
"{2	c #957C70",
"]2	c #A57E6D",
"^2	c #C09A86",
"/2	c #B8917F",
"(2	c #AC8877",
"_2	c #AB9081",
":2	c #C2AA97",
"<2	c #CDB8A4",
"[2	c #D7C7B5",
"}2	c #A99D8F",
"|2	c #272220",
"12	c #9B958B",
"22	c #DCCEBC",
"32	c #C8B09E",
"42	c #CBAF9B",
"52	c #CFAD97",
"62	c #B98671",
"72	c #854D3F",
"82	c #9F6E5E",
"92	c #AD7D6A",
"02	c #A78978",
"a2	c #B7A290",
"b2	c #B09F91",
"c2	c #8E7D70",
"d2	c #958579",
"e2	c #7F7266",
"f2	c #534A44",
"g2	c #493F3A",
"h2	c #56453E",
"i2	c #800E08",
"j2	c #9E140D",
"k2	c #750A07",
"l2	c #450603",
"m2	c #6A0906",
"n2	c #950F09",
"o2	c #B11A12",
"p2	c #790E08",
"q2	c #3F0303",
"r2	c #180101",
"s2	c #510604",
"t2	c #7D110A",
"u2	c #80110A",
"v2	c #780E09",
"w2	c #830D09",
"x2	c #7E0C07",
"y2	c #4C0403",
"z2	c #88120C",
"A2	c #7A110A",
"B2	c #312724",
"C2	c #4B3F39",
"D2	c #7D6E63",
"E2	c #AC9C8D",
"F2	c #C0B3A4",
"G2	c #BAA798",
"H2	c #967B6E",
"I2	c #906E61",
"J2	c #9E7465",
"K2	c #AC7F6E",
"L2	c #B28C7B",
"M2	c #B89987",
"N2	c #D3C0AD",
"O2	c #D6C7B5",
"P2	c #ACA093",
"Q2	c #413C39",
"R2	c #7A746E",
"S2	c #D4C8BB",
"T2	c #D2B7A5",
"U2	c #CDA18C",
"V2	c #CB9B85",
"W2	c #C79B82",
"X2	c #684438",
"Y2	c #613B31",
"Z2	c #976858",
"`2	c #8D6D60",
" 3	c #B69D8C",
".3	c #9D8979",
"+3	c #756459",
"@3	c #807367",
"#3	c #7D7165",
"$3	c #50453E",
"%3	c #58473F",
"&3	c #800F09",
"*3	c #A4150D",
"=3	c #800C07",
"-3	c #4E0906",
";3	c #710D09",
">3	c #8F0F0C",
",3	c #93130E",
"'3	c #73100C",
")3	c #5D0B09",
"!3	c #220201",
"~3	c #260201",
"{3	c #540704",
"]3	c #94170F",
"^3	c #A01B11",
"/3	c #7F0F0A",
"(3	c #590504",
"_3	c #4B0403",
":3	c #2E0201",
"<3	c #480404",
"[3	c #7C0E0B",
"}3	c #060302",
"|3	c #201816",
"13	c #4C3E37",
"23	c #63534A",
"33	c #88776A",
"43	c #9E8D7F",
"53	c #B8A898",
"63	c #C0AD9C",
"73	c #897167",
"83	c #977F73",
"93	c #9B7364",
"03	c #B89584",
"a3	c #B79987",
"b3	c #C2AA99",
"c3	c #D4C2AF",
"d3	c #D7C7B4",
"e3	c #D8C9B8",
"f3	c #897F73",
"g3	c #2B2725",
"h3	c #A59E95",
"i3	c #D3C0AF",
"j3	c #C18F7C",
"k3	c #CA9982",
"l3	c #C08670",
"m3	c #7B483B",
"n3	c #754035",
"o3	c #935344",
"p3	c #815246",
"q3	c #A07B6C",
"r3	c #8B7364",
"s3	c #625046",
"t3	c #685A51",
"u3	c #6F6359",
"v3	c #5F544B",
"w3	c #594E46",
"x3	c #524941",
"y3	c #271F1C",
"z3	c #110301",
"A3	c #A5100A",
"B3	c #640504",
"C3	c #210303",
"D3	c #4F0605",
"E3	c #630907",
"F3	c #68110C",
"G3	c #6B100B",
"H3	c #6E100D",
"I3	c #5F0C09",
"J3	c #370402",
"K3	c #1B0202",
"L3	c #4F0704",
"M3	c #710D08",
"N3	c #620704",
"O3	c #420202",
"P3	c #2C0101",
"Q3	c #5B0907",
"R3	c #640A07",
"S3	c #210302",
"T3	c #54443A",
"U3	c #615047",
"V3	c #827165",
"W3	c #A89586",
"X3	c #BFAF9E",
"Y3	c #B5A798",
"Z3	c #D1BAA8",
"`3	c #B79683",
" 4	c #AD8F80",
".4	c #916F62",
"+4	c #C7AC9B",
"@4	c #C8AF9C",
"#4	c #CDB6A4",
"$4	c #CDBBA9",
"%4	c #D9CBB9",
"&4	c #746E67",
"*4	c #9A958D",
"=4	c #C9A893",
"-4	c #BC8873",
";4	c #A67160",
">4	c #8B4334",
",4	c #713B2F",
"'4	c #895445",
")4	c #946050",
"!4	c #7E4B3F",
"~4	c #775347",
"{4	c #563E34",
"]4	c #59473F",
"^4	c #756458",
"/4	c #5E544B",
"(4	c #4D443D",
"_4	c #251F1D",
":4	c #710C07",
"<4	c #740A07",
"[4	c #400202",
"}4	c #260102",
"|4	c #680A07",
"14	c #89130E",
"24	c #5F0B07",
"34	c #600907",
"44	c #630A08",
"54	c #430402",
"64	c #420503",
"74	c #450202",
"84	c #820A06",
"94	c #680704",
"04	c #330202",
"a4	c #460705",
"b4	c #530706",
"c4	c #040302",
"d4	c #2E2420",
"e4	c #614E44",
"f4	c #AD9C8D",
"g4	c #B6A79B",
"h4	c #A18071",
"i4	c #955F51",
"j4	c #986D61",
"k4	c #72433D",
"l4	c #A79387",
"m4	c #C7AF9B",
"n4	c #CBB29E",
"o4	c #D5C4B1",
"p4	c #E3D6C5",
"q4	c #D3C9BC",
"r4	c #5A5754",
"s4	c #77736C",
"t4	c #CDBCAA",
"u4	c #C3967F",
"v4	c #C18A75",
"w4	c #884337",
"x4	c #731911",
"y4	c #642C23",
"z4	c #845A46",
"A4	c #5D2B22",
"B4	c #654238",
"C4	c #62342C",
"D4	c #361B16",
"E4	c #513C33",
"F4	c #82695A",
"G4	c #6A574C",
"H4	c #6B5E54",
"I4	c #51463F",
"J4	c #1E1918",
"K4	c #3C0605",
"L4	c #320504",
"M4	c #190102",
"N4	c #110101",
"O4	c #4F0604",
"P4	c #700E0B",
"Q4	c #520704",
"R4	c #6B0906",
"S4	c #570604",
"T4	c #1B0101",
"U4	c #640B07",
"V4	c #480504",
"W4	c #2F0100",
"X4	c #490302",
"Y4	c #630805",
"Z4	c #0A0505",
"`4	c #1E1613",
" 5	c #3E322B",
".5	c #6E5A4F",
"+5	c #957F70",
"@5	c #B8A493",
"#5	c #C6B4A4",
"$5	c #DFD3C5",
"%5	c #B19184",
"&5	c #78231B",
"*5	c #8D372E",
"=5	c #A64D40",
"-5	c #A57769",
";5	c #C2A490",
">5	c #D5BEAA",
",5	c #D9CABA",
"'5	c #E6DBCA",
")5	c #C6BEB3",
"!5	c #353332",
"~5	c #000001",
"{5	c #48433C",
"]5	c #BBA998",
"^5	c #B2806E",
"/5	c #B55948",
"(5	c #AE3124",
"_5	c #9A2218",
":5	c #581813",
"<5	c #4B221C",
"[5	c #511F19",
"}5	c #63443B",
"|5	c #74352D",
"15	c #481812",
"25	c #2A1613",
"35	c #684E43",
"45	c #6B554B",
"55	c #7B6C5F",
"65	c #564A42",
"75	c #28211F",
"85	c #0A0606",
"95	c #0D0101",
"05	c #100203",
"a5	c #250101",
"b5	c #6D0706",
"c5	c #770E0B",
"d5	c #550705",
"e5	c #660907",
"f5	c #3F0403",
"g5	c #120101",
"h5	c #570906",
"i5	c #330101",
"j5	c #2F0201",
"k5	c #530906",
"l5	c #490605",
"m5	c #4C0605",
"n5	c #1B1411",
"o5	c #42332D",
"p5	c #4E3E36",
"q5	c #C4B6A7",
"r5	c #C4B2A0",
"s5	c #D8C7B6",
"t5	c #B38C7F",
"u5	c #67231C",
"v5	c #782118",
"w5	c #AD6759",
"x5	c #C58F7D",
"y5	c #D8C6B5",
"z5	c #EADECD",
"A5	c #E4D9C8",
"B5	c #9B948A",
"C5	c #131110",
"D5	c #221E1A",
"E5	c #A69585",
"F5	c #A87D6D",
"G5	c #8A362B",
"H5	c #8A2117",
"I5	c #93392C",
"J5	c #733429",
"K5	c #6A2C23",
"L5	c #73362C",
"M5	c #764A3E",
"N5	c #6D4034",
"O5	c #552C23",
"P5	c #493129",
"Q5	c #5E4B41",
"R5	c #756155",
"S5	c #79685C",
"T5	c #0E0A08",
"U5	c #340202",
"V5	c #640805",
"W5	c #5C0C07",
"X5	c #700F0A",
"Y5	c #3D0503",
"Z5	c #310303",
"`5	c #490504",
" 6	c #3A0101",
".6	c #3C0202",
"+6	c #3E0504",
"@6	c #430404",
"#6	c #6F0B0C",
"$6	c #520A0B",
"%6	c #4A3B34",
"&6	c #604F46",
"*6	c #6C5A50",
"=6	c #79675D",
"-6	c #B5ACA1",
";6	c #CDBFB0",
">6	c #D5C9BC",
",6	c #C4A393",
"'6	c #864D44",
")6	c #5D0D06",
"!6	c #89554A",
"~6	c #CD9B86",
"{6	c #D5B39C",
"]6	c #D1BFAE",
"^6	c #E6D8C6",
"/6	c #C1B7AA",
"(6	c #4B4743",
"_6	c #857B70",
":6	c #B7998A",
"<6	c #B68674",
"[6	c #A55C4C",
"}6	c #AD5744",
"|6	c #9B5949",
"16	c #794135",
"26	c #977264",
"36	c #95776B",
"46	c #785C4F",
"56	c #4E352D",
"66	c #6B5348",
"76	c #554239",
"86	c #7A675A",
"96	c #7D6C5F",
"06	c #6F6055",
"a6	c #39302B",
"b6	c #0D0908",
"c6	c #520604",
"d6	c #82100A",
"e6	c #7B110B",
"f6	c #7D160D",
"g6	c #8C180F",
"h6	c #3C0503",
"i6	c #210201",
"j6	c #440504",
"k6	c #420404",
"l6	c #320203",
"m6	c #2D0405",
"n6	c #280405",
"o6	c #362925",
"p6	c #635248",
"q6	c #776459",
"r6	c #937D6F",
"s6	c #A48F82",
"t6	c #BDAB9D",
"u6	c #C9BCAD",
"v6	c #C2A695",
"w6	c #B26254",
"x6	c #A24233",
"y6	c #8A4439",
"z6	c #B68C7D",
"A6	c #BC917F",
"B6	c #D5C0AF",
"C6	c #C7B8AB",
"D6	c #6C665F",
"E6	c #060407",
"F6	c #49443E",
"G6	c #AF9180",
"H6	c #AC7764",
"I6	c #B25D4A",
"J6	c #9C4A37",
"K6	c #934C3C",
"L6	c #855F50",
"M6	c #998070",
"N6	c #816B5F",
"O6	c #816859",
"P6	c #6C5549",
"Q6	c #5A443A",
"R6	c #533C33",
"S6	c #7D6A5C",
"T6	c #867769",
"U6	c #5A4F45",
"V6	c #1C1613",
"W6	c #3F0503",
"X6	c #7E0F0A",
"Y6	c #7F120D",
"Z6	c #6F0F0A",
"`6	c #6B100A",
" 7	c #570C07",
".7	c #120201",
"+7	c #510606",
"@7	c #5E0507",
"#7	c #3F0304",
"$7	c #2B1F1B",
"%7	c #64534A",
"&7	c #605048",
"*7	c #9C8679",
"=7	c #B8A293",
"-7	c #D9CBBB",
";7	c #DAC2B1",
">7	c #C3907F",
",7	c #B26858",
"'7	c #A35649",
")7	c #AB8375",
"!7	c #C0A091",
"~7	c #C8B7A7",
"{7	c #9A9188",
"]7	c #201D1C",
"^7	c #0C0B0C",
"/7	c #231511",
"(7	c #956A59",
"_7	c #AB8470",
":7	c #A3705F",
"<7	c #9C4B3B",
"[7	c #926255",
"}7	c #7C6155",
"|7	c #886959",
"17	c #A08270",
"27	c #977D6C",
"37	c #644E43",
"47	c #402B25",
"57	c #685146",
"67	c #847164",
"77	c #86776A",
"87	c #7D6F64",
"97	c #382E27",
"07	c #430706",
"a7	c #430504",
"b7	c #330302",
"c7	c #1F0302",
"d7	c #3D0607",
"e7	c #080506",
"f7	c #241B18",
"g7	c #473B34",
"h7	c #564941",
"i7	c #50433C",
"j7	c #705D52",
"k7	c #A38879",
"l7	c #AC9588",
"m7	c #BA9488",
"n7	c #BA8E80",
"o7	c #C89788",
"p7	c #C06B5B",
"q7	c #D3B09F",
"r7	c #C3AFA1",
"s7	c #AFA196",
"t7	c #46413D",
"u7	c #1B1716",
"v7	c #0F0D0E",
"w7	c #030202",
"x7	c #755D50",
"y7	c #BB9E8A",
"z7	c #B29986",
"A7	c #946656",
"B7	c #A17C6D",
"C7	c #836256",
"D7	c #927769",
"E7	c #A89080",
"F7	c #9F8A79",
"G7	c #5F4C42",
"H7	c #5D4A40",
"I7	c #827063",
"J7	c #7E6F64",
"K7	c #68594F",
"L7	c #3E342D",
"M7	c #150F0E",
"N7	c #2F2622",
"O7	c #60534A",
"P7	c #65574D",
"Q7	c #493C36",
"R7	c #59463D",
"S7	c #A08272",
"T7	c #B79A88",
"U7	c #BA9787",
"V7	c #AC7F70",
"W7	c #B37166",
"X7	c #9C5A50",
"Y7	c #C0AA9E",
"Z7	c #C5B5AA",
"`7	c #756C66",
" 8	c #292421",
".8	c #2D2724",
"+8	c #040404",
"@8	c #4D3C36",
"#8	c #A28171",
"$8	c #9E7868",
"%8	c #A17866",
"&8	c #9B705E",
"*8	c #866254",
"=8	c #A38F81",
"-8	c #937E70",
";8	c #978372",
">8	c #715D51",
",8	c #3B2C26",
"'8	c #776558",
")8	c #806F61",
"!8	c #746256",
"~8	c #52453D",
"{8	c #302722",
"]8	c #1B1311",
"^8	c #2B211E",
"/8	c #392F2A",
"(8	c #62544A",
"_8	c #605249",
":8	c #5E5048",
"<8	c #796054",
"[8	c #9E7C6B",
"}8	c #A78D7D",
"|8	c #BD9B8A",
"18	c #A88C7D",
"28	c #7D4F47",
"38	c #71443C",
"48	c #9E8A81",
"58	c #8D847E",
"68	c #35312F",
"78	c #2F2925",
"88	c #3F3631",
"98	c #0C0B0B",
"08	c #312B28",
"a8	c #A08E82",
"b8	c #9C7665",
"c8	c #AE8D79",
"d8	c #927767",
"e8	c #907B6E",
"f8	c #917B6D",
"g8	c #AF9885",
"h8	c #91786A",
"i8	c #503D36",
"j8	c #8C7A6C",
"k8	c #8B7B6D",
"l8	c #7F6C5F",
"m8	c #695A4F",
"n8	c #564940",
"o8	c #2D2520",
"p8	c #2B211C",
"q8	c #43352E",
"r8	c #4B3E37",
"s8	c #584A41",
"t8	c #675A50",
"u8	c #7D6E62",
"v8	c #91796B",
"w8	c #986F5E",
"x8	c #7D6B61",
"y8	c #95786B",
"z8	c #8E7165",
"A8	c #68544C",
"B8	c #655853",
"C8	c #7F7977",
"D8	c #494340",
"E8	c #40332D",
"F8	c #3E332D",
"G8	c #2C2521",
"H8	c #060505",
"I8	c #0F0E0D",
"J8	c #71665D",
"K8	c #A49184",
"L8	c #937667",
"M8	c #A38372",
"N8	c #9A7E6E",
"O8	c #A79687",
"P8	c #B5A392",
"Q8	c #B09B88",
"R8	c #9A7F6E",
"S8	c #6C5A4F",
"T8	c #9C8A7B",
"U8	c #68584D",
"V8	c #6E5F54",
"W8	c #493C35",
"X8	c #3B3029",
"Y8	c #67574D",
"Z8	c #6D5E54",
"`8	c #584C44",
" 9	c #362621",
".9	c #5B433A",
"+9	c #52413A",
"@9	c #493D39",
"#9	c #483C38",
"$9	c #473C36",
"%9	c #514036",
"&9	c #4F3F36",
"*9	c #302622",
"=9	c #1A1614",
"-9	c #070607",
";9	c #050405",
">9	c #010100",
",9	c #423833",
"'9	c #8E7C70",
")9	c #90796A",
"!9	c #A78977",
"~9	c #8D6D5F",
"{9	c #9F9083",
"]9	c #BBAB9A",
"^9	c #BDA894",
"/9	c #A48D7B",
"(9	c #A18E7E",
"_9	c #8C7D6F",
":9	c #A29181",
"<9	c #8E7D6E",
"[9	c #736458",
"}9	c #716458",
"|9	c #584940",
"19	c #69574C",
"29	c #65544A",
"39	c #7E6D62",
"49	c #332A26",
"59	c #231C1A",
"69	c #231D1B",
"79	c #201B19",
"89	c #41312B",
"99	c #483832",
"09	c #4C3C34",
"a9	c #54433B",
"b9	c #4B3D36",
"c9	c #514037",
"d9	c #2D2420",
"e9	c #191413",
"f9	c #080607",
"g9	c #0E0807",
"h9	c #604E44",
"i9	c #9D7E6C",
"j9	c #9E7763",
"k9	c #785345",
"l9	c #9F8D7F",
"m9	c #AA9583",
"n9	c #9F8C7D",
"o9	c #7E695D",
"p9	c #7A675B",
"q9	c #827164",
"r9	c #7A6659",
"s9	c #665348",
"t9	c #5D4F45",
"u9	c #5E5046",
"v9	c #58483E",
"w9	c #463A33",
"x9	c #655348",
"y9	c #58473E",
"z9	c #443932",
"A9	c #423832",
"B9	c #070505",
"C9	c #1B1615",
"D9	c #2A2521",
"E9	c #292320",
"F9	c #1F1918",
"G9	c #322824",
"H9	c #43322C",
"I9	c #62493D",
"J9	c #70584A",
"K9	c #473730",
"L9	c #59463A",
"M9	c #493931",
"N9	c #312622",
"O9	c #201A17",
"P9	c #2B1E19",
"Q9	c #896959",
"R9	c #996C58",
"S9	c #552F24",
"T9	c #2A1C17",
"U9	c #856E60",
"V9	c #866D5D",
"W9	c #978170",
"X9	c #8B7769",
"Y9	c #53433B",
"Z9	c #504239",
"`9	c #725D50",
" 0	c #6C5A4E",
".0	c #675549",
"+0	c #6B594D",
"@0	c #2E251F",
"#0	c #453831",
"$0	c #6F5B4E",
"%0	c #41352E",
"&0	c #110B0B",
"*0	c #040304",
"=0	c #0A0808",
"-0	c #1F1A18",
";0	c #302824",
">0	c #382E29",
",0	c #2D2521",
"'0	c #42342E",
")0	c #563F34",
"!0	c #8C5F4A",
"~0	c #9C7661",
"{0	c #6E574A",
"]0	c #5E4B40",
"^0	c #4D3C33",
"/0	c #40322B",
"(0	c #40322A",
"_0	c #221B19",
":0	c #756055",
"<0	c #A87562",
"[0	c #4B2219",
"}0	c #261512",
"|0	c #6D5548",
"10	c #836859",
"20	c #947C6B",
"30	c #968170",
"40	c #6B584F",
"50	c #342A25",
"60	c #746154",
"70	c #6F5E51",
"80	c #58493F",
"90	c #6C5A4D",
"00	c #473C33",
"a0	c #392D27",
"b0	c #59473C",
"c0	c #070405",
"d0	c #060405",
"e0	c #1F1A19",
"f0	c #241E1B",
"g0	c #3C312C",
"h0	c #58463D",
"i0	c #724737",
"j0	c #AC6241",
"k0	c #8C614B",
"l0	c #604C40",
"m0	c #55463D",
"n0	c #483B34",
"o0	c #2E2521",
"p0	c #251E1B",
"q0	c #0E0B0B",
"r0	c #964536",
"s0	c #531D15",
"t0	c #432018",
"u0	c #6C483A",
"v0	c #654B3F",
"w0	c #8D796B",
"x0	c #715E52",
"y0	c #443731",
"z0	c #261F1A",
"A0	c #483B32",
"B0	c #5B4A40",
"C0	c #54473D",
"D0	c #493E35",
"E0	c #342721",
"F0	c #382820",
"G0	c #110D0D",
"H0	c #2E2623",
"I0	c #62554C",
"J0	c #4A3E38",
"K0	c #5A453B",
"L0	c #8C4C35",
"M0	c #BA643E",
"N0	c #7E4D38",
"O0	c #6D4132",
"P0	c #624437",
"Q0	c #4F3F37",
"R0	c #3C312B",
"S0	c #201A18",
"T0	c #181312",
"U0	c #070606",
"V0	c #240B08",
"W0	c #5D271F",
"X0	c #381713",
"Y0	c #492C23",
"Z0	c #55392E",
"`0	c #4D3A32",
" a	c #8D7D70",
".a	c #53443C",
"+a	c #443934",
"@a	c #29211F",
"#a	c #141010",
"$a	c #0E0B0A",
"%a	c #201917",
"&a	c #372D27",
"*a	c #392E27",
"=a	c #1C1715",
"-a	c #52463E",
";a	c #5A4A40",
">a	c #4F3B32",
",a	c #753427",
"'a	c #843A27",
")a	c #7E4735",
"!a	c #A04C31",
"~a	c #683B28",
"{a	c #403028",
"]a	c #382D27",
"^a	c #2A211C",
"/a	c #010202",
"(a	c #230D0A",
"_a	c #55221A",
":a	c #341510",
"<a	c #1A0D0A",
"[a	c #32231D",
"}a	c #4C372E",
"|a	c #3F312B",
"1a	c #3D322C",
"2a	c #564C45",
"3a	c #161211",
"4a	c #171311",
"5a	c #27201C",
"6a	c #3D332E",
"7a	c #473932",
"8a	c #4C382F",
"9a	c #5F2C23",
"0a	c #5F2F24",
"aa	c #774837",
"ba	c #6E3727",
"ca	c #2B1A17",
"da	c #3A2C25",
"ea	c #332721",
"fa	c #3A2E27",
"ga	c #0E0A09",
"ha	c #120D0B",
"ia	c #1F0D0A",
"ja	c #23110E",
"ka	c #18100E",
"la	c #130B0A",
"ma	c #412A22",
"na	c #372721",
"oa	c #1F1816",
"pa	c #0B0809",
"qa	c #080606",
"ra	c #1C1714",
"sa	c #5F5045",
"ta	c #342B25",
"ua	c #372C27",
"va	c #352520",
"wa	c #4F3429",
"xa	c #503228",
"ya	c #473127",
"za	c #604234",
"Aa	c #4F3930",
"Ba	c #362822",
"Ca	c #43342C",
"Da	c #3B2F28",
"Ea	c #41342D",
"Fa	c #0F0C0B",
"Ga	c #0F0B0A",
"Ha	c #221B17",
"Ia	c #231B17",
"Ja	c #18110F",
"Ka	c #291F1B",
"La	c #281B17",
"Ma	c #312621",
"Na	c #261F1C",
"Oa	c #020202",
"Pa	c #13100F",
"Qa	c #40352E",
"Ra	c #2B221E",
"Sa	c #342924",
"Ta	c #291A15",
"Ua	c #54372B",
"Va	c #533A2F",
"Wa	c #48342B",
"Xa	c #664A3C",
"Ya	c #40312A",
"Za	c #372B25",
"`a	c #342823",
" b	c #322822",
".b	c #100D0C",
"+b	c #040405",
"@b	c #191412",
"#b	c #161210",
"$b	c #0F0B0B",
"%b	c #0C0909",
"&b	c #1F1A17",
"*b	c #211C19",
"=b	c #231E1B",
"-b	c #0D0B0B",
";b	c #080707",
">b	c #181412",
",b	c #473B33",
"'b	c #47372F",
")b	c #3D2F28",
"!b	c #47342B",
"~b	c #4E3A30",
"{b	c #4F3A31",
"]b	c #4B3D35",
"^b	c #4C3A32",
"/b	c #423029",
"(b	c #3F2F28",
"_b	c #16110F",
":b	c #130F0D",
"<b	c #1A1412",
"[b	c #110D0C",
"}b	c #261E1B",
"|b	c #2B2421",
"1b	c #25201D",
"2b	c #151110",
"3b	c #191614",
"4b	c #54453B",
"5b	c #3C2F28",
"6b	c #463730",
"7b	c #46372F",
"8b	c #46352C",
"9b	c #433128",
"0b	c #544339",
"ab	c #5C4A40",
"bb	c #423129",
"cb	c #4A382F",
"db	c #40332C",
"eb	c #302723",
"fb	c #1B1613",
"gb	c #161312",
"hb	c #1E1714",
"ib	c #15110F",
"jb	c #322924",
"kb	c #1B1614",
"lb	c #050505",
"mb	c #1D1917",
"nb	c #3D312A",
"ob	c #382D28",
"pb	c #534339",
"qb	c #47382F",
"rb	c #3D3029",
"sb	c #5E4B3F",
"tb	c #57443A",
"ub	c #4E3F36",
"vb	c #010000",
"wb	c #070707",
"xb	c #251D19",
"yb	c #29211D",
"zb	c #2C2420",
"Ab	c #28211E",
"Bb	c #171312",
"Cb	c #362C27",
"Db	c #0A0707",
"Eb	c #28221F",
"Fb	c #221D1A",
"Gb	c #3E332B",
"Hb	c #3D312B",
"Ib	c #41342E",
"Jb	c #443830",
"Kb	c #3E322C",
"Lb	c #40342D",
"Mb	c #53443B",
"Nb	c #453830",
"Ob	c #191310",
"Pb	c #030304",
"Qb	c #0F0D0D",
"Rb	c #191513",
"Sb	c #261F1B",
"Tb	c #271F1B",
"Ub	c #17110E",
"Vb	c #372F2A",
"Wb	c #2B2521",
"Xb	c #25201C",
"Yb	c #41332D",
"Zb	c #463830",
"`b	c #352C27",
" c	c #342B26",
".c	c #28211D",
"+c	c #362D28",
"@c	c #4A3B33",
"#c	c #2E231D",
"$c	c #090809",
"%c	c #110C0B",
"&c	c #211A17",
"*c	c #231B18",
"=c	c #241D19",
"-c	c #120E0D",
";c	c #302823",
">c	c #302925",
",c	c #332B26",
"'c	c #211A16",
")c	c #3F332D",
"!c	c #40342E",
"~c	c #372D28",
"{c	c #2E2520",
"]c	c #251C18",
"^c	c #0A0809",
"/c	c #12100F",
"(c	c #161212",
"_c	c #110C0A",
":c	c #3C302A",
"<c	c #221B18",
"[c	c #3A2F29",
"}c	c #463831",
"|c	c #3A2F28",
"1c	c #2B231F",
"2c	c #4A3C33",
"3c	c #0C0907",
"4c	c #090605",
"5c	c #080706",
"6c	c #1D1815",
"7c	c #1E1815",
"8c	c #100B0A",
"9c	c #0A0908",
"0c	c #1A1615",
"ac	c #2A2421",
"bc	c #473A32",
"cc	c #5F4B40",
"dc	c #4E3E35",
"ec	c #4D4037",
"fc	c #2A221E",
"gc	c #302721",
"hc	c #382E28",
"ic	c #41342C",
"jc	c #4E3F35",
"kc	c #110C09",
"lc	c #16120F",
"mc	c #0E0A0A",
"nc	c #0E0C0B",
"oc	c #110F0F",
"pc	c #1B1817",
"qc	c #513F36",
"rc	c #58463B",
"sc	c #312823",
"tc	c #2C2520",
"uc	c #28201D",
"vc	c #4B3C33",
"wc	c #534338",
"xc	c #493B31",
"yc	c #0F0C0C",
"zc	c #1F1715",
"Ac	c #17100E",
"Bc	c #1F1917",
"Cc	c #3A2E28",
"Dc	c #493A32",
"Ec	c #3F322C",
"Fc	c #362D27",
"Gc	c #332822",
"Hc	c #382C25",
"Ic	c #5B4A3E",
"Jc	c #090708",
"Kc	c #060507",
"Lc	c #130F0F",
"Mc	c #0D0B0A",
"Nc	c #0E0C0C",
"Oc	c #0F0D0C",
"Pc	c #1C1614",
"Qc	c #3F342E",
"Rc	c #433832",
"Sc	c #4C4038",
"Tc	c #3D322B",
"Uc	c #130E0B",
"Vc	c #0D0A0A",
"Wc	c #1A1613",
"Xc	c #2E2621",
"Yc	c #312722",
"Zc	c #342A24",
"`c	c #4C3F37",
" d	c #4B3D34",
".d	c #050403",
"+d	c #1F1815",
"@d	c #2F221C",
"#d	c #392A22",
"$d	c #44372F",
"%d	c #5D4B40",
"&d	c #493B32",
"*d	c #191512",
"=d	c #382A23",
"-d	c #3D2D25",
";d	c #5C3F32",
">d	c #644434",
",d	c #634739",
"'d	c #523F34",
")d	c #382B25",
"!d	c #322823",
"~d	c #332A24",
"{d	c #201A16",
"]d	c #050201",
"^d	c #74533F",
"/d	c #634535",
"(d	c #714D3B",
"_d	c #734E3D",
":d	c #7B5A47",
"<d	c #856552",
"[d	c #5B463A",
"}d	c #1E1916",
"|d	c #080608",
"1d	c #140E0B",
"2d	c #2D231D",
"3d	c #41322B",
"4d	c #5A4438",
"5d	c #7D5743",
"6d	c #724F3C",
"7d	c #74513F",
"8d	c #6D4C3D",
"9d	c #7B5946",
"0d	c #8F6B54",
"ad	c #725849",
"bd	c #5F4D42",
"cd	c #352B26",
"dd	c #14100E",
"ed	c #040303",
"fd	c #32261F",
"gd	c #382A24",
"hd	c #442F26",
"id	c #3A271E",
"jd	c #34251E",
"kd	c #37261F",
"ld	c #634636",
"md	c #775644",
"nd	c #6E5243",
"od	c #523F36",
"pd	c #3F312A",
"qd	c #16100E",
"rd	c #130D0D",
"sd	c #1B1211",
"td	c #150807",
"ud	c #120C09",
"vd	c #2B1F1A",
"wd	c #2D201B",
"xd	c #382821",
"yd	c #35261F",
"zd	c #291D18",
"Ad	c #3E2B22",
"Bd	c #47332A",
"Cd	c #584237",
"Dd	c #47372E",
"Ed	c #0D0504",
"Fd	c #110706",
"Gd	c #100807",
"Hd	c #0C0606",
"Id	c #1D0A08",
"Jd	c #160604",
"Kd	c #020100",
"Ld	c #0F0908",
"Md	c #463229",
"Nd	c #5E473A",
"Od	c #4B372D",
"Pd	c #3B2C24",
"Qd	c #140D0A",
"Rd	c #120B09",
"Sd	c #180E0C",
"Td	c #200D09",
"Ud	c #361710",
"Vd	c #30140E",
"Wd	c #230B07",
"Xd	c #1D0907",
"Yd	c #220D09",
"Zd	c #130504",
"`d	c #140503",
" e	c #1A110D",
".e	c #150D0A",
"+e	c #31211B",
"@e	c #34211B",
"#e	c #392720",
"$e	c #422D24",
"%e	c #442F25",
"&e	c #31241D",
"*e	c #100907",
"=e	c #150C0A",
"-e	c #1C0F0D",
";e	c #29130F",
">e	c #33140D",
",e	c #38100A",
"'e	c #45150D",
")e	c #42140C",
"!e	c #220705",
"~e	c #160504",
"{e	c #170503",
"]e	c #1E110D",
"^e	c #1A0D09",
"/e	c #271511",
"(e	c #311C16",
"_e	c #35221B",
":e	c #32211B",
"<e	c #31211A",
"[e	c #251A15",
"}e	c #080504",
"|e	c #090201",
"1e	c #260B08",
"2e	c #330F09",
"3e	c #46150B",
"4e	c #4D190E",
"5e	c #260603",
"6e	c #100706",
"7e	c #1C0E0B",
"8e	c #391C16",
"9e	c #4D2D24",
"0e	c #653C2F",
"ae	c #57352A",
"be	c #341F18",
"ce	c #0B0706",
"de	c #030201",
"ee	c #0D0405",
"fe	c #1D0B09",
"ge	c #3F1911",
"he	c #561E12",
"ie	c #582013",
"je	c #300A06",
"ke	c #130303",
"le	c #130806",
"me	c #2F1510",
"ne	c #5C2D21",
"oe	c #8B5B45",
"pe	c #834F3B",
"qe	c #683527",
"re	c #441E14",
"se	c #2F110A",
"te	c #0C0303",
"ue	c #030102",
"ve	c #050203",
"we	c #110604",
"xe	c #100503",
"ye	c #060102",
"ze	c #100605",
"Ae	c #2C1410",
"Be	c #3F1B13",
"Ce	c #713525",
"De	c #99563E",
"Ee	c #9A5138",
"Fe	c #8B402B",
"Ge	c #823C29",
"He	c #542217",
"Ie	c #240D09",
"Je	c #0B0404",
"Ke	c #090404",
"Le	c #1F0E0C",
"Me	c #43261E",
"Ne	c #452018",
"Oe	c #592A1E",
"Pe	c #672E1F",
"Qe	c #5D271A",
"Re	c #6B2A1C",
"Se	c #431D15",
"Te	c #371811",
"Ue	c #1C0B07",
"Ve	c #060202",
"We	c #070302",
"Xe	c #020001",
"Ye	c #190D0A",
"Ze	c #3E261F",
"`e	c #381C16",
" f	c #552E23",
".f	c #5A2A1E",
"+f	c #54241A",
"@f	c #5B261B",
"#f	c #461A12",
"$f	c #3E1911",
"%f	c #482319",
"&f	c #180B0A",
"*f	c #100606",
"=f	c #120707",
"-f	c #1F0A07",
";f	c #1E0A07",
">f	c #3B2019",
",f	c #251410",
"'f	c #040201",
"                                                                                                                                                              ",
"                                                                                                                                                              ",
"                                                                                                                                                              ",
"                                                                                                                                                              ",
"                                                                              . +                                                                             ",
"                                                                      @ #   $ % & * =                                                                         ",
"                                                                      - ; > , ' ) ! ~ { ] ^                                                                   ",
"                                                              /     ( _ : < [ } | 1 2 3 4 5                                                                   ",
"                                                            6 7 8 9 0 a b c d e f g h i j k l       m                                                         ",
"                                                          n o p q r s t u v w x y z A B C D E F G H I                                                         ",
"                                                        J K L M N O P Q R S T U V W X Y Z `  ...+.@.#.$.                                                      ",
"                                                  %.&.*.=.-.;.>.,.'.).!.~.{.].^./.(._.:.<.[.}.|.1.2.3.4.5.                                                    ",
"                                                    6.7.8.9.0.a.b.c.d.e.f.g.h.i.j.k.l.m.n.o.p.q.r.s.t.u.v.                                                    ",
"                                                    w.x.y.z.A.B.C.D.E.F.G.H.I.J.K.L.M.N.O.P.Q.R.S.T.U.V.W.                                                    ",
"                                                    X.Y.Z.z.`. +.+++@+#+$+%+&+*+=+-+;+>+,+'+)+!+~+{+]+^+/+                                                    ",
"                                                  (+_+:+<+[+}+|+1+2+3+4+5+6+7+8+9+0+a+b+c+d+e+f+g+h+i+j+k+                                                    ",
"                                                      l+m+n+o+p+q+r+s+t+u+v+w+x+y+z+A+B+C+D+E+F+G+m+H+I+J+                                                    ",
"                                                    K+L+M+r.N+O+P+Q+R+S+T+U+V+W+X+Y+Z+`+ @.@+@@@= #@$@%@&@                                                    ",
"                                                    *@  =@-@;@>@,@'@)@!@~@{@]@^@/@(@_@:@<@[@}@|@1@2@    2@                                                    ",
"                                                          3@4@5@6@7@8@9@0@a@b@c@d@e@f@g@h@i@j@k@l@m@n@                                                        ",
"                                                          o@p@q@r@s@t@u@v@w@x@y@z@A@B@C@D@E@F@G@H@I@                                                          ",
"                                                            J@K@L@M@N@O@P@Q@R@S@T@U@V@W@X@Y@Z@`@ #>@                                                          ",
"                                                            .#+#@###$#%#&#*#=#-#;#>#,#'#)#!#~#{#]#                                                            ",
"                                                            ^#H@/#(#_#:#<#[#}#|#1#2#3#4#5#6#7#8#9#                                                            ",
"                                                            0#a#b#c#d#e#f#g#h#i#j#k#l#m#n#o#p#q#                                                              ",
"                                                            r#= s#t#u#v#w#x#y#z#A#B#C#D#E#F#G#H#I#                                                            ",
"                                                          J#K#L#M#N#O#P#Q#R#S#T#U#V#W#X#Y#Z#`# $.$+$@$                                                        ",
"                                                        #$$$%$&$*$=$-$;$>$,$'$)$!$~${$]$^$/$($_$:$<$[$}$                                                      ",
"                                                    |$1$2$3$4$5$6$7$8$9$0$a$b$c$d$e$f$g$h$i$j$k$l$m$n$o$p$                                                    ",
"                                                q$r$s$t$u$v$w$x$H+y$z$A$B$C$D$E$F$G$H$I$J$K$L$M$N$O$P$Q$R$S$T$                                                ",
"                                              U$V$W$X$Y$Z$`$ %x$.%+%@%#%$%%%&%*%=%-%;%>%,%'%)%!%~%{%]%^%/%(%_%:%<%[%                                          ",
"                                          }%|%1%2%3%4%5%6%7%8%9%0%/+a%b%c%d%e%f%g%h%i%j%k%r l%m%n%o%p%q%r%s%t%u%v%w%x%y%                                      ",
"                                      z%A%B%C%D%E%F%G%H%I%J%K%L%M%N%& O%P%Q%R%S%T%U%V%& W%X%9 Y%Z%`% &.&+&@&#&$&%&&&*&=&-&;&                                  ",
"                                  >&,&'&)&!&~&{&]&^&/&(&_&:&<&[&}&|&1&2&3&4&P%4&5&6&4&7&8&9&0&a&b&c&d&e&f&g&h&i&j&k&l&m&n&o&p&                                ",
"                                q&;&r&s&t&u&v&w&x&y&z&A&B&C&D&E&F&G&H&I&J&K&L&M&N&O&P&Q&R&S&T& $U&V&W&X&Y&Z&`&s& *.*+*@*#*$*%*                                ",
"                                &***=*-*5%;*>*,*'*)*!*~*{*]*^*/*=@(*_*:*<*[*}*|*1*2*3*4*5*6*7*8*9*0*a*b*c*d*e*f*g*h*i*j*k*l*m*n*                              ",
"                              o*p*q*r*s*t*u*v*w*x*y*z*A*B*C*D*E*F*7*G*H*I*J*K*L*M*N*O*P*Q*R*S*T*U*V*W*X*Y*Z*`* =.=+=@=#=$=%=&=*=                              ",
"                              ==z%-=;=>=,='=)=!=~={=]=^=/=(=_=:=<=[=}=|=1=2=3=5#4=5=6=7=8=9=0=a=b=c=d=e=f=g=h=i=j=k=l=m=n=o=p=q=r=                            ",
"                              s=t=u=v=w=x=y=z=A=F%B=C=D=E=F=G=H=I=J=K=L=M=N=O=P=Q=R=S=T=U=V=W=X=Y=Z=`= -.-+-@-#-$-%-&-*-=---;->-,-                            ",
"                              '-)-!-~-{-]-^-/-(-_-z&:-<-[-}-|-1-2-3-4-5-6-7-8-9-0-a-b-c-d-e-f-g-h-i-j-k-l-m-n-o-p-;*q-Y&r-s-t-u-v-                            ",
"                            w-x-y-z-A-B-C-D-E-F-G-H-I-J-K-L-M-N-Y&O-P-Q-R-S-T-U-V-W-X-Y-Z-`- ;.;+;@;#;$;%;&;*;=;-;;;>;,;';);!;~;{;];                          ",
"                            ^;/;(;_;:;<;[;H%/-w=};|;1;2;3;4;5;6;7;8;9;0;a;b;c;d;e;f;g;N&h;i;j;k;l;m;n;o;p;q;r;>=s;t;u;v;w;x;y;z;A;B;                          ",
"                            C;D;E;F;G;H;I;J;K;>;L;x&M;N;O;+=P;Q;R;S;& T;U;V;W;X;Y;Z;0;P%`; >.>+>@>#>$>%>&>*>=>->;>>>,>'>)>!>~>{>]>^>                          ",
"                            />(>_>:><>[>}>|>1>2>3>4>5>2-6>7>8>9>0>a>b>O+c>d>e>f>g>h>i>j>k>l>m>n>o>p>q>r>s>t>u>;-v>w>x>y>z>A>B>C>D>E>                          ",
"                          F>G>H>I>J>K>L>M>N>O>P>Q>R>S>T>U>V>W>X>Y>Z>`> ,.,+,@,#,$,%,L&&,*,=,-,;,>,,,',),!,:%~,{,],^,/,(,_,:,<,[,},|,1,                        ",
"                          2,G>3,4,5,6,7,8,9,0,a,b,c,d,e,f,g,h,i,j,k,l,m,n,o,p,q,r,s,t,u,v,w,x,y,z,A,B,C,D,E,F,G,H,I,J,K,L,M,N,O,`*P,Q,                        ",
"                          R,S,T,U,V,W,X,Y,Z,`, '.'+'@'#'$'%'&'*'='-';'>',''')'!'~'{']'^'/'('_':'<'['}'|'1'2'3'4'5'6'7'8'9'0'a'b'c'd'e'                        ",
"                          f'g'h'i'j'k'l'm'n'o'p'q'r's't'u'v'w'x'y'z'A'^*B'r,C'D'P%E'F'G'H'I'J'K'L'M'N'O'P'Q'R'S'T'U'V'W'X'Y'Z'`' ).)+)@)                      ",
"                        #)$)%)&)*)=)-);)>),)')3%))!)~){)])^)/)w*()_):)<)[)})|)|)1)2)3)4)5)6)7)8)9)0)a)b)c)d)e)f)g)h)i)j)X'k)l)m)n)o)p)q)                      ",
"                        r)s)t)u)v)w)x)y)s=z)A)B)C)D)E)F)G)H)I)J)K)L)M)N)O)P)O%P%Q)R)S)T)U)V)S)W)X)Y)Z)`) !.!+!@!#!$!%!&!*!=!-!;!>!,!'!)!!!                    ",
"                        ~!{!]!^!/!(!_!:!<![!}!|!1!2!3!4!5!6!7!8!9!0!a!b!c!d!P%P%e!f!g!h!i!j!k!l!m!n!o!p!q!r!s$s!t!u!v!w!x!y!z!A!B!C!D!E!F!                    ",
"                      G!H!I!v-J!K!L!M!N!O!P!Q!R!S!T!U!V!W!X!Y!Z!`! ~.~+~@~]'#~$~%~&~*~=~-~;~>~,~'~)~!~~~{~]~^~/~(~_~:~<~[~}~|~1~2~p=3~[$4~                    ",
"                      5~6~7~8~9~0~a~2-b~c~d~e~f~g~h~i~j~k~l~m~n~o~p~q~r~s~t~u~v~w~x~y~z~A~B~C~C*D~E~F~G~H~I~J~K~L~M~N~O~P~Q~R~S~t-T~U~V~W~X~                  ",
"                      Y~Z~`~ {.{+{@{#{${%{&{*{={-{;{>{,{'{){!{~{{{]{^{/{({_{:{<{[{}{|{1{i*2{3{4{5{6{7{8{9{0{a{b{c{d{e{f{g{h{i{j{k{l{m{n{o{p{                  ",
"                    q{.$r{s{t{u{v{w{x{y{z{A{${B{C{D{E{F{G{H{I{J{K{L{M{N{O{P{Q{R{S{T{U{V{W{X{Y{Z{`{ ].]+]@]#]$]%]&]*]=]-]o{;]>],]'])]!]~]{]]]^]                ",
"                    /](]_]:]<][]}]|]1]2]3]4]5]6]7]8]9]0]a]b]c]d]e]f]O{g] *h]i]j]k]l]m]n]o]p]q]r]s]t]u]v]w]x]y]z]A]B]C]D]E]F](!G]H]I]J]K]L]B>M]                ",
"                    N]O]P]Q]R]S]T]U]V]W]X]4]Y]Z]`] ^.^+^@^#^$^%^&^*^=^-^;^>^,^'^)^!^~^{^]^^^/^(^_^:^<^[^}^|^1^2^3^4^5^6^7^8^9^0^]%a^b^c^d^e^f^                ",
"                  g^h^i^j^k^l^m^n^s{o^g~p^4]q^r^s^t^u^v^w^x^y^z^A^B^C^D^E^F^G^H^I^J^K^L^M^N^O^P^Q^R^S^T^U^V^W^X^Y^Z^`^ /./+/@/#/$/%/&/*/ ~=/-/;/              ",
"                  >/,/'/)/!/~/{/]/^/o^//(/_/:/</[/}/|/1/2/3/4/5/6/7/8/9/0/a/b/c/d/e/f/g/h/i/j/k/l/m/n/o/p/q/r/s/t/u/v/w/x/y/z/A/B/C/D/E/F/G/H/I/              ",
"                o@J/K/L/M/N/O/P/Q/R/S/T/U/V/W/X/Y/Z/`/ (.(+(@(#($(%(&(*(=(a/-(;(>(,('()(!(~({(](^(/()!((_(:(<([(}(Y^|(1(2(3(4(5(6(7(8(9(0(a(b(c(d(            ",
"                6&e(f(g(h(i(j(k(l(m(n(o(p(A{q(r(s(t(u(v(J#w(x(y(z(A(B(C(D(E(F(K-2;G(H(I(J(K(L(M(N(O(P(Q(R(S(T(U(V(W(X(Y(Z(`( _._+_@_#_$_%_&_*_=_-_            ",
"                ;_>_,_'_)_!_~_{_]_^_/_(___:_<_[_}_|_1_2_3_4_5_;-6_7_8_9_0_a_b_c_d_e_f_L]g_h_i_j_k_l_m_n_o_p_q_r_s_t_  Y(u_v_w_x_y_z_A_B_C_D_E_F_G_            ",
"                3&H_I_J_K_L_M_N_O_P_Q_R_S_T_4^U_V_W_X_Y_Z_`_ :H].:+:@:#:$:%:&:*:=:M,s;-:;:>:,:':):!:~:{:]:^:/:(:_:::    <:[:1*}:|:1:2:3:4:5:})6:7:            ",
"                  8:9:0:a:b:c:d:e:f:g:&$h:9;i:j:k:l:m:n:o:p:q:r:s:K^>=t:u:v:w:x:!]y:y:z:A:B:C:D:E:F:G:H:I:J:K:L:M:N:    O:P:Q:R:S:T:U:V:W:X:Y:Z:`:            ",
"                  Y: <.<+<@<#<$<%<&<<:*<  =<-<;<><,<'<)<!<~<s{{<G>]<^</<(<_<:<-'<<[<}<|<1<2<3<4<5<6<7<8<9<0<a<b<c<d<      e<f<g<h<i<j<k<l<m<n<o<              ",
"                p<q<r<s<t<u<v<w<x<        y<z<A<B<F>C<D<E<F<G<H<I<J<K<L<M<N<O<l*P<Q<{>R<S<T<U<V<W<-_X<Y<Z<`< [.[6@+[        @[#[$[%[&[*[=[-[;[                ",
"                  >[,['[)[![~[{[][        ^[/[([_[:[<[[[x{}[b,+:|[1[2[3[4[5[6[7[c,8[9[0[l{a[b[c[d[e[f[g[h[i[j[V(k[l[        m[n[o[p[q[r[s[t[u[                ",
"                v[w[x[y[z[A[B[C[D[        E[F[G[H[I[r^J[K[o'L[0>M[N[O[P[Q[R[S[T[U[V[W[X[Y[Z[`[ }.}+}@}#}^_G[$}%}[(&}        x_*}=}-};}>},}'})}!}              ",
"                ~}{}]}^}/}(}_}:}<}        [}}}|}1}'*2-2}3}4}5}N-6}7}o)z(8}9}0}a}b}c}d}k/e}f}g}h}i}j}T/k}l}m}n}k}o}s_p}      q}r}s}t}u}v}w}x}y}z}              ",
"                A}B}C}D}E}F}G}H}I}        J}K}L}M}N}O}P}h'Q}R}S}T}U}V}W}X}Y}q)Z}`} |.|+|@|#|$|%|&|*|=|-|;|2>}<>|,|'|%.      )|!|~|{|]|^|/|(|_|:|              ",
"                <|[|}|||1|2|3|4|5|        6|;/7|Y&8|9|0|a|*)b|c|d|e|f|g|Q>h|i|j|k|I]l|m|n|o|p|q|r|s|t|%]u|v|w|x|y|z|A|      B|C|D|E|F|G|H|I|J|K|              ",
"                L|M|N|O|P|Q|R|S|T|n<      U|V|W|X|Y|Z|2>=(`| 1.1+1@1#1$1%1&1*1_~=1-1;1>1,1'1)1!1~1{1]1^1/1(1*1_1:1<1[1    }1|11121'}31D}41516171              ",
"              819101a1b1c1d1e1f1g1h1      i1j1k1l1m1n1o1p1#:q1r1s1t1u1v1w1x1y13]z1A1B1C1D1E1F1G1H1I1J1K1L1M1N1O1P1Q1R1    S1T1U1)|V1W1X1Y1d1Z1`1              ",
"               2.2+2@2#2$2%2&2*2=2-2    V%;2>2,2U$'2)2!2~2{2]2^2/2(2_2:2<2[2}2|212223242526272829202a2b2c2d2Y|e2f2g2h2    i2j2k2l2m2n2o2p2]}q2`1              ",
"              r2s2t2u2$2v2w2x2y2z2A2      0%B2C2D2E2@*F2G2H2I2J2K2L2M2p|N2O2P2Q2R2S2T2U2V2W2X2Y2Z2`2 3.3+3D2@3#37|$3%3    &3*3=3-3;3>3,3=2'3)3!3              ",
"              ~3{3]3^3/3(3_3:3<3[3v2    }3|31323334353i*6373839303a3b3c3d3e3f3*]g3h3i3j3k3l3m3n3o3p3q3r3s3t3u3v3w3x3y3  z3N|A3B3C3D3E3F3G3H3I3J3              ",
"              K3L3M3M|N3O3P3    Q3R3S3  7$I+T3U3V3W3X3Y3Z3`3 4.4+4@4#4$4%4-'&4P%T_*422=4-4;4>4,4'4)4!4~4{4]4^45>/4(4_4    :4<4[4  }4|41424344454              ",
"                016474849404    a4b4    c4#@d4e4^>f4~2g4h4i4j4k4l4m4n4o4p4q4r4P%P%s4t4u4v4w4x4y4z4A4B4C4D4E4F4G4H4I4J4    K4L4M4  N4O4P4Q4R4S4T4              ",
"                U4V4W4X4Y4A}            Z4`4 5.5+5@5#5$5%5&5*5=5-5;5>5,5'5)5!5~5P%{5]5^5/5(5_5:5<5[5}5|51525354555657585  9505    a5b5c5d5e5f5g5              ",
"                h5]}i5j5k5l5m5          n5o5p5G4Z'q5r5s5t5u5v5w5x5b=y5z5A5B5C5~5~5D5E5F5G5H5I5J5K5L5M5N5O5P5Q5R5S5(<}/T5          U5V5a1W5X5Y5g5              ",
"                Z5`5 6.6+6@6#6$6        J %6&6*6=6-6;6>6,6'6)6!6~6{6]6^6/6(6P%~5P%O%_6:6<6[6}6|616263646566676869606a6b6          c6d6e6f6g6h6                ",
"                  i604j6k6l6m6n6        /+o6p6q6r6s6t6u6v6w6x6y6z6A6B6C6D6E6F*~5~5P%F6G6H6I6J6K6L6M6N6O6P6Q6R6S6T6q=U6V6        W6X6Y6Z6`6 7.7                ",
"                    Y:+7@7#7            85$7K}%7&7*7=7-7;7>7,7'7)7!7~7{7]7h:^74]P%P%/7(7_7:7<7[7}7|717273747576777870697          07a7b7c7                    ",
"                        d7              e7f7g7h7i7j7k7l7m7n7o7p7q7r7s7t7%@u7v7:_P%P%w7x7y7z7A7B7C7D7E7F7G725H7I7S>J7K7L7                                      ",
"                                        M7N7O7P7Q7R7S7T7U7V7W7X7Y7Z7`7/[ 8.8[_+8a%P%P%@8#8$8%8&8*8=8-8;8>8{+,8'8)8!8~8:({8                                    ",
"                                      ]8^8/8(8_8:8<8[8}8|818283848586878881}98A{|(P%~508a8*^b8c8d8e8f8g8h8i8`]j8k8l8m8n8o8                                    ",
"                                      p8q8r8s8t8u8v8w8x8y8z8A8B8C8D8t^E8F8G8{'+8H8P%P%I8J8K8L8M8N8O8P8Q8R8S887T8m(U8V8(8W8                                    ",
"                                      J}X8V|s8Y8Z8`8 9_4t..9+9@9#9$9r8%9&9*9=9-9;9>9P%P%,9'9)9!9~9{9]9^9/9(9_9:9<9U8[9}99<                                    ",
"                                      {8|919293949596979[&899909a9b9:{c9x]d9e9f9A{|(P%P%g9h9i9j9k9x/l9m9n9o9p9q9r9s9t9u9v9                                    ",
"                                      w9x9y9z9A9B9C9D9E9F9G9H9I9J9c9K9L9M9N9O9. |(T_P%P%P%P9Q9R9S9T9U9V9W9X9Y9Z9t>`9 0.0+0@0                                  ",
"                                      #0$0%0&0*0=0-0;0>0,0'0)0!0~0{0]0^0/0(0_0=0*$  |(P%P%~5:0<0[0}0|01020304050+}6070809000                                  ",
"                                      a0b0F_c0d0=]e0f0g08;h0i0j0k0l0m0n0b9o0p0q0H8  w7|(~5P%a*r0s0t0u0v0w0x0y0e9z0A0B0#0C0D0                                  ",
"                                      E0F0    H8G0H0_4I0J0K0L0M0N0O0P0Q0R0S0T0U0=<  g:~5|(4]V0W0X0Y0Z0`0 a.a+a@a#a$aQ_%a&a*a                                  ",
"                                              Z^&$=9=a-a;a>a,a'a)a!a~a{a_]]a^aE[    g:|(|(/a(a_a:a<a[a}a|a1a2a_43a4a*<                                        ",
"                                              *<=05a696a7a8a9a0aaabacadaea8;faT5    g:T_1)gahaiajakalamanaoa$}#apaqa7$                                        ",
"                                              w7rasatauavawaxayazaAaBaCa6|DaEaFa    |(|(B9GaHaIaJaKaM7LaMaNaK%C9Z^:_                                          ",
"                                              OaPaQaRaSaTaUaVaWaXaYaZaZa`aZa b.b    P%O%a%+b@bQ_#b$b%b^[&b*b=b-b;bOa                                          ",
"                                              Oa>b,bR0'b)b!b~b{bh0]b^b/b(bSa50_b    g:T_*$:bi1z<-b{'<b[b}b|b1b2bz<=<                                          ",
"                                              *$3bL}4b5b6b7b8b9b0bab6bbbcbdbeb      |(|(=0fb>bgb>bhbibF[]a;0t_jbkbH8                                          ",
"                                              lbmb8%n0nbobpbqbrb6<Q0#0sbtbubo8v/    vb|(+8wb98[_gb#bxbybzbAbBbCbQ_Db                                          ",
"                                              H8Ebj[FbGb6<HbIbJbKbnbLbMbX+NbObOa    P%~5OaPb-<wbQbR_Rb<+<+SbTbd4Ub1)                                          ",
"                                              H8-0VbWbXb6|YbZbU^`b c.c+cW8@c#cE[    vbP%|(*0i:-9$c[_Papa%c&c*c=cI                                             ",
"                                              =<-c;c>c,cTb'cxb)c!cp/%050~c{c]c1)    |(P%4]q0%blb^c/c(c%bb6u.p8_c7$                                            ",
"                                              Z^BbS0+c#0:c<c#bV650[c}c|c1cR02c3c    g:4c5c6c7c. 8c9c:/* * U0[bg:Y(                                            ",
"                                              ;92b0cacbcccdcecfcybgc>0hcbcicjckc  c4g:gaB9lcfb85g9*0lbU0H8mc_cOaw7                                            ",
"                                              *$ncocpcG8qcrc0(1asctc1bucvcwcxcI   g:P%O%~5|(Oa*<% _/^c:/yczcAcw7                                              ",
"                                              lb#be9QbgbBcCcDc!cEc c>0FcGcHcIcIa7$|(P%~5O%|(A{T_*0JcKcJcLc0#w74]                                              ",
"                                              qa=0Mc98NcOcPcCbQc>0RcScTchcraF_Uc*<vbP%P%~5P%|(Oa*0^c=0Vc9;|(vbg:                                              ",
"                                              qaWcSbBbXc;cYcZcd9,0g7`cJb d6|H8*$.d|(P%P%P%P%O%|(|(w7Oa|(O%|(g:                                                ",
"                                              c4:bibA|xbTb+d@d#dF_y3$d}c%d&d*dT_|(P%P%P%|(*$+8|(|(P%P%g:O%7$D'                                                ",
"                                              w7Mckbnc=a=d-d;d>d,d'd)dU|!d~d{d|(|(P%P%P%O%*0Z^A{T_P%g:85w7Y(]d                                                ",
"                                              .dr#!dU|bb^d/d(d_d:d<d[dqb}d=a[b*$w7P%P%P%P%:_*0Pb|d1([b.bmcw7w7                                                ",
"                                              |(1d2d3d4d5d6d7d8d9d0dadbdcddd1)w7.dvbP%P%P%4]Pb4]+8y<Db=<edOa*$1)                                              ",
"                                              edfdcbgdeahdidjdkdldmdndodYbpdqdT_g:O%P%P%P%P%4]4]4]|(|(|(w7=<rdsdtd                                            ",
"                                              P%5.uda&k+vdwdxd9bydzdAdBdCdDd_bOa    vbvbP%P%|(edT_ed*<EdFdGdHdO:IdJd                                          ",
"                                              KdO%LdvaMdNdBdMdOdPd*.&$* Qd*@w7g:      |(O%Rdm%SdTdUdVdw#WdXdYdZdJd`d                                          ",
"                                                g:@  e.e+e@e#e$e%e&e%.ed|(O%vbvb        P%*e=e-e;eUd>e,e'e)e!e~e{eK&vb                                        ",
"                                                g:]eF ^e/e(e_e:e<e[e}e% |(vbP%P%          vb|(;_2&|e1e2e3e4e5e1*5&b%4&                                        ",
"                                                7$6e7e8e9e0eaebeGdg:*<cec4deY(Y(            |(|(7$eefegeheiejekeM&KdY(                                        ",
"                                              Z;V%lemeneoepeqereseteD'}e& p}D'                uew77$vewexe<:yeD'3&Y(                                          ",
"                                              C'zeAeBeCeDeEeFeGeHeIeJeV%& 7$g:                          O%|(                                                  ",
"                                            ~'KeLeMeNeOePeQeReQeSeTeUeVeg:WeY(Xe                                                                              ",
"                                              7$YeZe`e f.f+f@f#f$f%f:*VevbY(vbvb                                                                              ",
"                                              g:Y(V%0;&f*f=f-f;fG#>f,fY(vbvbKd                                                                                ",
"                                              g:'f'f|(T_w7g:|(P%P%Y(>9g:vbg:                                                                                  ",
"                                                                                                                                                              ",
"                                                                                                                                                              ",
"                                                                                                                                                              ",
"                                                                                                                                                              ",
"                                                                                                                                                              "};
