/* XPM */
static char * ene_1_xpm[] = {
"79 130 4231 2",
"  	c None",
". 	c #110606",
"+ 	c #1C0B0A",
"@ 	c #230E0B",
"# 	c #23100D",
"$ 	c #24120F",
"% 	c #170B0B",
"& 	c #2E1A17",
"* 	c #36201C",
"= 	c #1C100F",
"- 	c #0D0706",
"; 	c #070504",
"> 	c #160806",
", 	c #2D120D",
"' 	c #411B15",
") 	c #3E1B15",
"! 	c #381914",
"~ 	c #41201A",
"{ 	c #401E19",
"] 	c #4C2821",
"^ 	c #4C2C25",
"/ 	c #321D19",
"( 	c #201212",
"_ 	c #140A0A",
": 	c #080404",
"< 	c #0E0806",
"[ 	c #211612",
"} 	c #36241E",
"| 	c #412B24",
"1 	c #2D1D19",
"2 	c #24100D",
"3 	c #411E17",
"4 	c #5B2C20",
"5 	c #663327",
"6 	c #69362A",
"7 	c #7E4536",
"8 	c #7E4434",
"9 	c #864A3B",
"0 	c #7D4D3E",
"a 	c #774A3C",
"b 	c #5A352A",
"c 	c #371B15",
"d 	c #180806",
"e 	c #1B100D",
"f 	c #241815",
"g 	c #291C18",
"h 	c #281B17",
"i 	c #271815",
"j 	c #241411",
"k 	c #2D110C",
"l 	c #5B2A1D",
"m 	c #884430",
"n 	c #8E4835",
"o 	c #9A553F",
"p 	c #A9664E",
"q 	c #B4745C",
"r 	c #B9806B",
"s 	c #B3846E",
"t 	c #A67562",
"u 	c #996250",
"v 	c #7D4231",
"w 	c #502115",
"x 	c #280E09",
"y 	c #140A08",
"z 	c #221511",
"A 	c #251814",
"B 	c #1A120F",
"C 	c #150F0C",
"D 	c #3B2923",
"E 	c #402D27",
"F 	c #352621",
"G 	c #1C1310",
"H 	c #110808",
"I 	c #230C0A",
"J 	c #3A0F09",
"K 	c #581F13",
"L 	c #803C2A",
"M 	c #A85C43",
"N 	c #BD6C4E",
"O 	c #C2795C",
"P 	c #CB937B",
"Q 	c #CB937D",
"R 	c #CEA38D",
"S 	c #C6A08B",
"T 	c #BB8A74",
"U 	c #A4634A",
"V 	c #793A27",
"W 	c #4D2016",
"X 	c #2D1711",
"Y 	c #261714",
"Z 	c #231714",
"` 	c #19120F",
" .	c #1A1310",
"..	c #18110E",
"+.	c #150E0B",
"@.	c #3A2922",
"#.	c #49342C",
"$.	c #4D3931",
"%.	c #3C2D28",
"&.	c #191110",
"*.	c #150807",
"=.	c #300E0A",
"-.	c #4C150B",
";.	c #6E2818",
">.	c #974830",
",.	c #B26045",
"'.	c #C66E51",
").	c #D68E72",
"!.	c #DBB4A2",
"~.	c #D8AB96",
"{.	c #E1C3AE",
"].	c #D6B29A",
"^.	c #BD8F76",
"/.	c #A0654D",
"(.	c #8A4F3B",
"_.	c #653B2E",
":.	c #462921",
"<.	c #37221D",
"[.	c #2C1F1B",
"}.	c #241A16",
"|.	c #1E1713",
"1.	c #1F1714",
"2.	c #201814",
"3.	c #261D18",
"4.	c #2D211D",
"5.	c #352824",
"6.	c #332622",
"7.	c #221714",
"8.	c #240E0B",
"9.	c #47170F",
"0.	c #6D2114",
"a.	c #903824",
"b.	c #B0583B",
"c.	c #C5704E",
"d.	c #CF8164",
"e.	c #D19880",
"f.	c #D1A793",
"g.	c #DAA78A",
"h.	c #DCB599",
"i.	c #CEA286",
"j.	c #B98066",
"k.	c #A25C44",
"l.	c #95513B",
"m.	c #653B2B",
"n.	c #482C23",
"o.	c #422922",
"p.	c #372620",
"q.	c #392B24",
"r.	c #382B24",
"s.	c #2D221C",
"t.	c #19110F",
"u.	c #1E1513",
"v.	c #362924",
"w.	c #3B2C27",
"x.	c #2E1C18",
"y.	c #2E110C",
"z.	c #45160E",
"A.	c #682215",
"B.	c #812D1C",
"C.	c #8F3E28",
"D.	c #B56649",
"E.	c #D08E70",
"F.	c #DAAD93",
"G.	c #D3A891",
"H.	c #CF9478",
"I.	c #CC9978",
"J.	c #B78268",
"K.	c #A26F5A",
"L.	c #8B4936",
"M.	c #6E3422",
"N.	c #48261B",
"O.	c #3F2720",
"P.	c #4B3028",
"Q.	c #473027",
"R.	c #3B2A23",
"S.	c #3E2F28",
"T.	c #48372F",
"U.	c #40322A",
"V.	c #110B09",
"W.	c #0E0908",
"X.	c #160F0E",
"Y.	c #1A1311",
"Z.	c #19100E",
"`.	c #210F0B",
" +	c #270D08",
".+	c #2B0F0C",
"++	c #3C1D19",
"@+	c #492520",
"#+	c #5C2A1F",
"$+	c #89422D",
"%+	c #B06445",
"&+	c #C88461",
"*+	c #BC785B",
"=+	c #B25F44",
"-+	c #8B4E39",
";+	c #763929",
">+	c #723527",
",+	c #662A1E",
"'+	c #431910",
")+	c #2A110D",
"!+	c #2A1712",
"~+	c #36221B",
"{+	c #412E26",
"]+	c #413029",
"^+	c #342721",
"/+	c #332721",
"(+	c #3A2C26",
"_+	c #221B16",
":+	c #0E0907",
"<+	c #160E0D",
"[+	c #110B0A",
"}+	c #060404",
"|+	c #0D0301",
"1+	c #1B0B0B",
"2+	c #353538",
"3+	c #53595E",
"4+	c #606062",
"5+	c #5C5855",
"6+	c #564744",
"7+	c #6E3A2A",
"8+	c #9B593B",
"9+	c #8F4F36",
"0+	c #8F4127",
"a+	c #70331F",
"b+	c #7D3423",
"c+	c #733E30",
"d+	c #673D33",
"e+	c #54342E",
"f+	c #372521",
"g+	c #1E1210",
"h+	c #150A08",
"i+	c #2E221D",
"j+	c #3F3029",
"k+	c #332822",
"l+	c #261D1A",
"m+	c #322721",
"n+	c #140C0B",
"o+	c #100909",
"p+	c #100808",
"q+	c #0D0605",
"r+	c #090100",
"s+	c #2F2D2E",
"t+	c #5C6469",
"u+	c #72828B",
"v+	c #697B84",
"w+	c #7F949B",
"x+	c #8BA1A7",
"y+	c #616467",
"z+	c #4E3126",
"A+	c #452318",
"B+	c #57291F",
"C+	c #6E3E32",
"D+	c #8C6755",
"E+	c #825F4E",
"F+	c #734B41",
"G+	c #88675E",
"H+	c #836D63",
"I+	c #54453E",
"J+	c #1E100D",
"K+	c #1F1512",
"L+	c #3A2D27",
"M+	c #3F332C",
"N+	c #332924",
"O+	c #302622",
"P+	c #0E0808",
"Q+	c #0F0908",
"R+	c #20120F",
"S+	c #1B0D0B",
"T+	c #180F0C",
"U+	c #3D3938",
"V+	c #5E6166",
"W+	c #62707B",
"X+	c #566571",
"Y+	c #6D7D85",
"Z+	c #91A3A7",
"`+	c #73808A",
" @	c #342E31",
".@	c #301310",
"+@	c #784036",
"@@	c #7F5C4D",
"#@	c #7A5B4C",
"$@	c #50352C",
"%@	c #421615",
"&@	c #50322D",
"*@	c #7E685D",
"=@	c #715C51",
"-@	c #422D25",
";@	c #311A13",
">@	c #2E1E19",
",@	c #2B231E",
"'@	c #2D231F",
")@	c #22110E",
"!@	c #241B14",
"~@	c #443A31",
"{@	c #4E4D49",
"]@	c #46535A",
"^@	c #445564",
"/@	c #4B5E68",
"(@	c #64716E",
"_@	c #545A5C",
":@	c #282422",
"<@	c #2E1C12",
"[@	c #6D4130",
"}@	c #7E5845",
"|@	c #794033",
"1@	c #611D17",
"2@	c #5F110E",
"3@	c #48120F",
"4@	c #6B483B",
"5@	c #6A483A",
"6@	c #44291F",
"7@	c #351E17",
"8@	c #2E1C16",
"9@	c #311A15",
"0@	c #221812",
"a@	c #3F3529",
"b@	c #4A463A",
"c@	c #3F4745",
"d@	c #454F51",
"e@	c #4D5651",
"f@	c #484F48",
"g@	c #3D3C32",
"h@	c #43341D",
"i@	c #594429",
"j@	c #83562D",
"k@	c #785430",
"l@	c #863D29",
"m@	c #872E1F",
"n@	c #7E321E",
"o@	c #6D3621",
"p@	c #774934",
"q@	c #5D3B2B",
"r@	c #291610",
"s@	c #100A09",
"t@	c #100908",
"u@	c #23120E",
"v@	c #190A09",
"w@	c #231B13",
"x@	c #343326",
"y@	c #3F4335",
"z@	c #44473A",
"A@	c #434234",
"B@	c #3E392B",
"C@	c #392F1F",
"D@	c #634623",
"E@	c #6A4D2D",
"F@	c #7A5C31",
"G@	c #826433",
"H@	c #6D4526",
"I@	c #682817",
"J@	c #672F1C",
"K@	c #6D3E29",
"L@	c #6A4533",
"M@	c #463025",
"N@	c #130B0B",
"O@	c #0C0707",
"P@	c #20120E",
"Q@	c #25100B",
"R@	c #35150D",
"S@	c #3A1D13",
"T@	c #2F2319",
"U@	c #282218",
"V@	c #2A1F15",
"W@	c #3B281A",
"X@	c #3B2615",
"Y@	c #754B24",
"Z@	c #965F2E",
"`@	c #986233",
" #	c #986E3C",
".#	c #886234",
"+#	c #4F331B",
"@#	c #402114",
"##	c #4F2A1C",
"$#	c #5E3526",
"%#	c #4E2B20",
"&#	c #2D1712",
"*#	c #241511",
"=#	c #401E15",
"-#	c #70301C",
";#	c #7E331A",
">#	c #541F0F",
",#	c #32160D",
"'#	c #502111",
")#	c #6C2D17",
"!#	c #6B341B",
"~#	c #965429",
"{#	c #A45F2D",
"]#	c #874A21",
"^#	c #6F4322",
"/#	c #6F4524",
"(#	c #56301C",
"_#	c #75432D",
":#	c #7F462C",
"<#	c #5B2F1D",
"[#	c #361912",
"}#	c #24110E",
"|#	c #1B1413",
"1#	c #341710",
"2#	c #75321B",
"3#	c #913D20",
"4#	c #612411",
"5#	c #461D0E",
"6#	c #652D16",
"7#	c #6A3118",
"8#	c #733D1F",
"9#	c #7F4A26",
"0#	c #7C4222",
"a#	c #612F19",
"b#	c #5A331C",
"c#	c #54311C",
"d#	c #6A3823",
"e#	c #834832",
"f#	c #7D402B",
"g#	c #58291B",
"h#	c #321711",
"i#	c #1B0E0B",
"j#	c #1E1A19",
"k#	c #150909",
"l#	c #582714",
"m#	c #87391E",
"n#	c #702913",
"o#	c #441508",
"p#	c #381409",
"q#	c #2C1309",
"r#	c #462516",
"s#	c #3C2113",
"t#	c #341B12",
"u#	c #3E221B",
"v#	c #311A10",
"w#	c #2B150D",
"x#	c #38180F",
"y#	c #502216",
"z#	c #722F1E",
"A#	c #60281B",
"B#	c #321610",
"C#	c #120A09",
"D#	c #231E1C",
"E#	c #473E39",
"F#	c #443B36",
"G#	c #2F2725",
"H#	c #030407",
"I#	c #240C06",
"J#	c #5B200F",
"K#	c #762612",
"L#	c #591A0C",
"M#	c #3F1209",
"N#	c #290B06",
"O#	c #461C11",
"P#	c #34120C",
"Q#	c #3C1914",
"R#	c #552720",
"S#	c #3A1912",
"T#	c #512213",
"U#	c #73321E",
"V#	c #76311E",
"W#	c #55261A",
"X#	c #281612",
"Y#	c #0F0B0C",
"Z#	c #39302C",
"`#	c #5B4E47",
" $	c #61544C",
".$	c #574D46",
"+$	c #655951",
"@$	c #64564D",
"#$	c #5B4C44",
"$$	c #3E332D",
"%$	c #110D0D",
"&$	c #090708",
"*$	c #350D07",
"=$	c #5B170A",
"-$	c #642010",
";$	c #692A15",
">$	c #5A2714",
",$	c #884326",
"'$	c #682E1B",
")$	c #512619",
"!$	c #5E2A1A",
"~$	c #3B190F",
"{$	c #35130B",
"]$	c #662F1C",
"^$	c #823E27",
"/$	c #612B1B",
"($	c #3A1911",
"_$	c #251613",
":$	c #1A1413",
"<$	c #413631",
"[$	c #695A51",
"}$	c #827167",
"|$	c #85766C",
"1$	c #6F645D",
"2$	c #564B45",
"3$	c #70635A",
"4$	c #816D61",
"5$	c #6D584D",
"6$	c #3D2D27",
"7$	c #17100F",
"8$	c #181212",
"9$	c #3C0F09",
"0$	c #632614",
"a$	c #853D1E",
"b$	c #964725",
"c$	c #A7582E",
"d$	c #9F532C",
"e$	c #955935",
"f$	c #A05932",
"g$	c #854024",
"h$	c #82371F",
"i$	c #863F26",
"j$	c #703823",
"k$	c #391B10",
"l$	c #110707",
"m$	c #150D0C",
"n$	c #4D413A",
"o$	c #7E6E63",
"p$	c #9F8E81",
"q$	c #9E8D81",
"r$	c #74655C",
"s$	c #756760",
"t$	c #857A72",
"u$	c #6C645E",
"v$	c #5A524C",
"w$	c #6A6058",
"x$	c #4E4640",
"y$	c #62574F",
"z$	c #7D7065",
"A$	c #8F8074",
"B$	c #968273",
"C$	c #826A5C",
"D$	c #4C3B34",
"E$	c #231A17",
"F$	c #291F1C",
"G$	c #19100F",
"H$	c #160505",
"I$	c #2F0D07",
"J$	c #5E2D18",
"K$	c #995531",
"L$	c #B36B3B",
"M$	c #C0743D",
"N$	c #B97947",
"O$	c #B36539",
"P$	c #A2512C",
"Q$	c #A44E2E",
"R$	c #8D472E",
"S$	c #4E2619",
"T$	c #221613",
"U$	c #1E1412",
"V$	c #53463F",
"W$	c #907E72",
"X$	c #B7A597",
"Y$	c #B4A394",
"Z$	c #816F64",
"`$	c #695952",
" %	c #978A7F",
".%	c #A89C90",
"+%	c #B2A699",
"@%	c #B3AAA0",
"#%	c #625852",
"$%	c #726860",
"%%	c #766C63",
"&%	c #5D544D",
"*%	c #766B61",
"=%	c #88776B",
"-%	c #948072",
";%	c #9D8778",
">%	c #978375",
",%	c #695B51",
"'%	c #2C221E",
")%	c #231816",
"!%	c #1E1312",
"~%	c #110807",
"{%	c #0E0403",
"]%	c #2C0F06",
"^%	c #602B16",
"/%	c #894927",
"(%	c #B56A39",
"_%	c #AD5D30",
":%	c #A64F29",
"<%	c #B35A32",
"[%	c #B05935",
"}%	c #753C25",
"|%	c #311910",
"1%	c #201411",
"2%	c #34221C",
"3%	c #251611",
"4%	c #382D28",
"5%	c #6E5D54",
"6%	c #9C887B",
"7%	c #BDA898",
"8%	c #BEAA9A",
"9%	c #957E72",
"0%	c #6E5A53",
"a%	c #88776D",
"b%	c #A8998C",
"c%	c #BFB3A6",
"d%	c #C0B4A8",
"e%	c #B4ABA0",
"f%	c #847B74",
"g%	c #6B5D56",
"h%	c #80746B",
"i%	c #867B72",
"j%	c #6D635D",
"k%	c #625A54",
"l%	c #524A45",
"m%	c #7D736A",
"n%	c #8E7D71",
"o%	c #988477",
"p%	c #AA9687",
"q%	c #AA9787",
"r%	c #78685D",
"s%	c #31231F",
"t%	c #201513",
"u%	c #1F120F",
"v%	c #1C0D09",
"w%	c #0B0302",
"x%	c #190703",
"y%	c #33170B",
"z%	c #63341B",
"A%	c #783F20",
"B%	c #8C4F29",
"C%	c #8B512C",
"D%	c #5F311C",
"E%	c #281109",
"F%	c #180F0D",
"G%	c #2E1E1A",
"H%	c #150806",
"I%	c #403731",
"J%	c #806F64",
"K%	c #AF9889",
"L%	c #C9B2A1",
"M%	c #C9B6A6",
"N%	c #AC988B",
"O%	c #907F76",
"P%	c #93867D",
"Q%	c #B7AA9E",
"R%	c #CDC2B5",
"S%	c #D0C4B7",
"T%	c #CCC1B5",
"U%	c #C2B7AC",
"V%	c #9D948B",
"W%	c #8B827B",
"X%	c #766E69",
"Y%	c #7F1B13",
"Z%	c #AB2E22",
"`%	c #90352A",
" &	c #654B44",
".&	c #7F7068",
"+&	c #998C83",
"@&	c #A0948A",
"#&	c #857970",
"$&	c #685E57",
"%&	c #4E453F",
"&&	c #7E7269",
"*&	c #918276",
"=&	c #A09184",
"-&	c #B6A494",
";&	c #BBA896",
">&	c #8D7C6E",
",&	c #40342D",
"'&	c #241715",
")&	c #322420",
"!&	c #2F1F1B",
"~&	c #2E1914",
"{&	c #1D0D0A",
"]&	c #090202",
"^&	c #090101",
"/&	c #1B0703",
"(&	c #260E06",
"_&	c #301809",
":&	c #281408",
"<&	c #150703",
"[&	c #0D0404",
"}&	c #211310",
"|&	c #311F1A",
"1&	c #281A16",
"2&	c #0E0505",
"3&	c #40342F",
"4&	c #87766C",
"5&	c #BEAB9C",
"6&	c #D0BEAE",
"7&	c #CBBAAB",
"8&	c #BFAC9D",
"9&	c #A78F81",
"0&	c #918177",
"a&	c #9D8D82",
"b&	c #BEAEA0",
"c&	c #D7CABD",
"d&	c #DAD0C3",
"e&	c #D8CFC2",
"f&	c #AFA69C",
"g&	c #958C83",
"h&	c #8A827B",
"i&	c #726B67",
"j&	c #2E0504",
"k&	c #6A190F",
"l&	c #A33A29",
"m&	c #A4503F",
"n&	c #80574D",
"o&	c #7C6E67",
"p&	c #94867D",
"q&	c #9C8E84",
"r&	c #A4988C",
"s&	c #90857B",
"t&	c #6F665E",
"u&	c #7B726A",
"v&	c #998B81",
"w&	c #BBAB9E",
"x&	c #CCBAA9",
"y&	c #C0AB99",
"z&	c #978374",
"A&	c #584A42",
"B&	c #2A1C19",
"C&	c #362722",
"D&	c #382420",
"E&	c #40231B",
"F&	c #402017",
"G&	c #250C07",
"H&	c #0B0101",
"I&	c #060000",
"J&	c #110201",
"K&	c #200603",
"L&	c #220704",
"M&	c #180504",
"N&	c #1E0E0A",
"O&	c #311D17",
"P&	c #311E19",
"Q&	c #211411",
"R&	c #140B0A",
"S&	c #54443E",
"T&	c #938075",
"U&	c #B1A093",
"V&	c #B09E92",
"W&	c #A39489",
"X&	c #A08F83",
"Y&	c #9C8679",
"Z&	c #857167",
"`&	c #A08D82",
" *	c #C1AC9D",
".*	c #D1C4B6",
"+*	c #D9CFC2",
"@*	c #DAD1C4",
"#*	c #B5AB9F",
"$*	c #9A928A",
"%*	c #9D968F",
"&*	c #7C7772",
"**	c #1B0403",
"=*	c #3D0A07",
"-*	c #6F1D15",
";*	c #90352C",
">*	c #9E5A51",
",*	c #79665F",
"'*	c #6A5D56",
")*	c #918075",
"!*	c #AEA094",
"~*	c #938980",
"{*	c #81766D",
"]*	c #8D8075",
"^*	c #978B80",
"/*	c #A5958A",
"(*	c #C3AC9C",
"_*	c #C9AA99",
":*	c #BA9C8D",
"<*	c #917C71",
"[*	c #4D403B",
"}*	c #261916",
"|*	c #321E18",
"1*	c #4C2B20",
"2*	c #5C3225",
"3*	c #3C1B11",
"4*	c #190403",
"5*	c #100201",
"6*	c #220502",
"7*	c #3A0D07",
"8*	c #310D07",
"9*	c #2B1510",
"0*	c #351E18",
"a*	c #261511",
"b*	c #120808",
"c*	c #1C1512",
"d*	c #66544C",
"e*	c #987B70",
"f*	c #976C62",
"g*	c #7A443C",
"h*	c #5B3832",
"i*	c #4D302C",
"j*	c #5B3833",
"k*	c #76635B",
"l*	c #C2B1A2",
"m*	c #CDC1B2",
"n*	c #CDC2B4",
"o*	c #CDC3B5",
"p*	c #B6AC9F",
"q*	c #948B83",
"r*	c #A69E94",
"s*	c #958D84",
"t*	c #68625C",
"u*	c #190503",
"v*	c #210202",
"w*	c #350302",
"x*	c #43120E",
"y*	c #62312C",
"z*	c #614741",
"A*	c #7C6D66",
"B*	c #806F65",
"C*	c #9E8C80",
"D*	c #A5978A",
"E*	c #807168",
"F*	c #75655C",
"G*	c #79665D",
"H*	c #786861",
"I*	c #9B756B",
"J*	c #C38070",
"K*	c #C68F7E",
"L*	c #B29688",
"M*	c #8E7A6F",
"N*	c #4F443D",
"O*	c #1C1412",
"P*	c #351B13",
"Q*	c #562A1D",
"R*	c #491E12",
"S*	c #2F190F",
"T*	c #250A04",
"U*	c #380D05",
"V*	c #571C0F",
"W*	c #5A2213",
"X*	c #461C10",
"Y*	c #442116",
"Z*	c #4C2C21",
"`*	c #3A231B",
" =	c #150503",
".=	c #3D3732",
"+=	c #8C7B70",
"@=	c #AE9083",
"#=	c #9D6A60",
"$=	c #87392F",
"%=	c #783128",
"&=	c #6F2C25",
"*=	c #782621",
"==	c #7F574E",
"-=	c #BFAA99",
";=	c #D2C3B1",
">=	c #CFC3B4",
",=	c #C5BAAC",
"'=	c #C5BBAD",
")=	c #ACA396",
"!=	c #90887E",
"~=	c #ADA59A",
"{=	c #9B948B",
"]=	c #6E6863",
"^=	c #841211",
"/=	c #771310",
"(=	c #61100E",
"_=	c #641410",
":=	c #641711",
"<=	c #2F0907",
"[=	c #310303",
"}=	c #2B0404",
"|=	c #491C19",
"1=	c #71453E",
"2=	c #94695F",
"3=	c #976458",
"4=	c #945D4F",
"5=	c #B19283",
"6=	c #8F796E",
"7=	c #634C43",
"8=	c #65473C",
"9=	c #76473E",
"0=	c #99675E",
"a=	c #A87569",
"b=	c #AE8173",
"c=	c #B79788",
"d=	c #BBA696",
"e=	c #A29487",
"f=	c #544E4A",
"g=	c #150300",
"h=	c #401C12",
"i=	c #5E2E1D",
"j=	c #734329",
"k=	c #602915",
"l=	c #6A2411",
"m=	c #843A22",
"n=	c #853F26",
"o=	c #733522",
"p=	c #6A3624",
"q=	c #5D3425",
"r=	c #46281C",
"s=	c #26130B",
"t=	c #655C57",
"u=	c #AF9B91",
"v=	c #CFA394",
"w=	c #CC7C6C",
"x=	c #C55747",
"y=	c #B84F41",
"z=	c #914A41",
"A=	c #75372F",
"B=	c #805147",
"C=	c #A18F83",
"D=	c #CCBFAF",
"E=	c #C6B9AA",
"F=	c #B7AC9F",
"G=	c #BBB0A4",
"H=	c #8F877F",
"I=	c #B3ABA2",
"J=	c #A49E95",
"K=	c #817973",
"L=	c #645E59",
"M=	c #5A0D0D",
"N=	c #6E0C0B",
"O=	c #6B100D",
"P=	c #66120D",
"Q=	c #69130E",
"R=	c #59130E",
"S=	c #2F0805",
"T=	c #2C0302",
"U=	c #330303",
"V=	c #390403",
"W=	c #5E1813",
"X=	c #913C35",
"Y=	c #AE4C42",
"Z=	c #B14F3F",
"`=	c #C24E3B",
" -	c #CC7962",
".-	c #A66250",
"+-	c #7B3A2C",
"@-	c #9B503C",
"#-	c #C15742",
"$-	c #BA5F53",
"%-	c #9A5A52",
"&-	c #9C655B",
"*-	c #B28D80",
"=-	c #BFAD9F",
"--	c #C1B4A7",
";-	c #918B83",
">-	c #282220",
",-	c #2F130C",
"'-	c #68311C",
")-	c #9D4E2A",
"!-	c #A44E28",
"~-	c #A84C27",
"{-	c #B3633B",
"]-	c #A5603B",
"^-	c #914B31",
"/-	c #78402A",
"(-	c #4E291A",
"_-	c #391A0D",
":-	c #392D28",
"<-	c #8D8078",
"[-	c #C2A398",
"}-	c #CA897B",
"|-	c #C56858",
"1-	c #BB5749",
"2-	c #A43B30",
"3-	c #852921",
"4-	c #7D291E",
"5-	c #8B4136",
"6-	c #937D74",
"7-	c #C6BBAD",
"8-	c #BFB2A4",
"9-	c #B2A89B",
"0-	c #B1A89D",
"a-	c #968E85",
"b-	c #87817A",
"c-	c #BEB7AE",
"d-	c #B1ABA2",
"e-	c #9E978F",
"f-	c #7F7871",
"g-	c #3F0A09",
"h-	c #4B0907",
"i-	c #3C0705",
"j-	c #220404",
"k-	c #230505",
"l-	c #280504",
"m-	c #390503",
"n-	c #410604",
"o-	c #440705",
"p-	c #570C07",
"q-	c #751711",
"r-	c #8E231B",
"s-	c #AC3627",
"t-	c #CE5E4A",
"u-	c #E5856C",
"v-	c #D0664F",
"w-	c #A23727",
"x-	c #B85A45",
"y-	c #D06C57",
"z-	c #C66F61",
"A-	c #B15D53",
"B-	c #9E4037",
"C-	c #995D52",
"D-	c #B39789",
"E-	c #CEBCAC",
"F-	c #BEB0A2",
"G-	c #6E625A",
"H-	c #261611",
"I-	c #481F11",
"J-	c #8E4626",
"K-	c #BD5F2F",
"L-	c #C45B2C",
"M-	c #BF5F31",
"N-	c #9A532F",
"O-	c #6D3D26",
"P-	c #4D2E1E",
"Q-	c #28160D",
"R-	c #0A0000",
"S-	c #50443E",
"T-	c #967A6F",
"U-	c #B88577",
"V-	c #C26F61",
"W-	c #C66758",
"X-	c #BA6A59",
"Y-	c #9B4D41",
"Z-	c #801B12",
"`-	c #74261F",
" ;	c #7A574E",
".;	c #A4968B",
"+;	c #BCB1A3",
"@;	c #B1A69A",
"#;	c #A79E94",
"$;	c #A39A90",
"%;	c #928A80",
"&;	c #8A837B",
"*;	c #BEB7AD",
"=;	c #AAA49B",
"-;	c #A19991",
";;	c #8A827A",
">;	c #4F110D",
",;	c #2E0907",
"';	c #0C0203",
");	c #1A0606",
"!;	c #280808",
"~;	c #3C0907",
"{;	c #4E0B07",
"];	c #450805",
"^;	c #3D0603",
"/;	c #480604",
"(;	c #420604",
"_;	c #540C08",
":;	c #991F18",
"<;	c #BD2E24",
"[;	c #CA3A2E",
"};	c #AB3024",
"|;	c #872821",
"1;	c #9C4C42",
"2;	c #AB493D",
"3;	c #A5382F",
"4;	c #9F2B24",
"5;	c #92261F",
"6;	c #80433A",
"7;	c #9B7D70",
"8;	c #C8B1A0",
"9;	c #CCB9A8",
"0;	c #A49388",
"a;	c #554941",
"b;	c #261109",
"c;	c #572A17",
"d;	c #7F391A",
"e;	c #97411F",
"f;	c #7D3C1F",
"g;	c #502918",
"h;	c #28120B",
"i;	c #100604",
"j;	c #050101",
"k;	c #26201D",
"l;	c #7A665C",
"m;	c #AC8274",
"n;	c #AE685A",
"o;	c #AA3B30",
"p;	c #9E2A21",
"q;	c #71271F",
"r;	c #491A15",
"s;	c #420A07",
"t;	c #573934",
"u;	c #8D786E",
"v;	c #AD9E91",
"w;	c #B6AB9D",
"x;	c #9F968B",
"y;	c #968F88",
"z;	c #8D867E",
"A;	c #7F7770",
"B;	c #948C83",
"C;	c #BFB8AD",
"D;	c #ADA79E",
"E;	c #A79F97",
"F;	c #988F85",
"G;	c #6B645C",
"H;	c #82221E",
"I;	c #76211D",
"J;	c #5D1F1C",
"K;	c #341411",
"L;	c #0D0302",
"M;	c #1C0404",
"N;	c #2B0605",
"O;	c #320504",
"P;	c #350604",
"Q;	c #330604",
"R;	c #340704",
"S;	c #380A07",
"T;	c #390B07",
"U;	c #3E0C06",
"V;	c #6C1F16",
"W;	c #7F2319",
"X;	c #92291F",
"Y;	c #6D1C15",
"Z;	c #411817",
"`;	c #4C2622",
" >	c #5A1F1B",
".>	c #5A1410",
"+>	c #611512",
"@>	c #813C33",
"#>	c #956255",
"$>	c #9B7B6D",
"%>	c #AF9081",
"&>	c #C1A896",
"*>	c #BFA897",
"=>	c #887164",
"->	c #2C201B",
";>	c #1D0905",
">>	c #43190C",
",>	c #582213",
"'>	c #4D2314",
")>	c #552617",
"!>	c #36150D",
"~>	c #150604",
"{>	c #140C09",
"]>	c #423934",
"^>	c #877167",
"/>	c #A47A6C",
"(>	c #A2594B",
"_>	c #8B3026",
":>	c #64120D",
"<>	c #3B0504",
"[>	c #310805",
"}>	c #491F1A",
"|>	c #6B5149",
"1>	c #9E897C",
"2>	c #A09387",
"3>	c #ABA094",
"4>	c #9A9186",
"5>	c #7D7770",
"6>	c #756F69",
"7>	c #67605B",
"8>	c #978F85",
"9>	c #ABA398",
"0>	c #B2ACA2",
"a>	c #B6ACA1",
"b>	c #9F9286",
"c>	c #71645C",
"d>	c #8C1A15",
"e>	c #701814",
"f>	c #551513",
"g>	c #4C1716",
"h>	c #481B19",
"i>	c #311311",
"j>	c #1C0403",
"k>	c #2F0604",
"l>	c #2F0503",
"m>	c #1A0202",
"n>	c #180303",
"o>	c #200404",
"p>	c #2C0705",
"q>	c #400E09",
"r>	c #2D0805",
"s>	c #36100B",
"t>	c #491B15",
"u>	c #50231D",
"v>	c #311612",
"w>	c #342621",
"x>	c #4E3F38",
"y>	c #51423B",
"z>	c #180001",
"A>	c #64433A",
"B>	c #A78271",
"C>	c #B59988",
"D>	c #A08B7E",
"E>	c #A39083",
"F>	c #BDA796",
"G>	c #B09A8C",
"H>	c #524842",
"I>	c #34160C",
"J>	c #502214",
"K>	c #71331B",
"L>	c #75361C",
"M>	c #401C0F",
"N>	c #190A07",
"O>	c #291D19",
"P>	c #5D4F48",
"Q>	c #887166",
"R>	c #93675B",
"S>	c #8F453A",
"T>	c #70231B",
"U>	c #3F0906",
"V>	c #3D110C",
"W>	c #61271F",
"X>	c #78453D",
"Y>	c #847066",
"Z>	c #A18F82",
"`>	c #A09488",
" ,	c #A3998C",
".,	c #8D847B",
"+,	c #726B65",
"@,	c #645E5A",
"#,	c #6B655F",
"$,	c #968D83",
"%,	c #ABA297",
"&,	c #B1A79B",
"*,	c #AC9C90",
"=,	c #9C867B",
"-,	c #766259",
";,	c #493A35",
">,	c #7C1918",
",,	c #781514",
"',	c #600D0C",
"),	c #450907",
"!,	c #3D0B09",
"~,	c #360F0E",
"{,	c #1E0908",
"],	c #040101",
"^,	c #0F0202",
"/,	c #1C0303",
"(,	c #250404",
"_,	c #280604",
":,	c #220403",
"<,	c #210302",
"[,	c #270604",
"},	c #3A0E0A",
"|,	c #2E0B08",
"1,	c #280A07",
"2,	c #1E0A08",
"3,	c #271512",
"4,	c #241613",
"5,	c #605046",
"6,	c #816C61",
"7,	c #87766B",
"8,	c #735E55",
"9,	c #4B3730",
"0,	c #544038",
"a,	c #9D8272",
"b,	c #CCB29E",
"c,	c #C6B2A0",
"d,	c #AB998B",
"e,	c #A79588",
"f,	c #B4A79B",
"g,	c #655E59",
"h,	c #140907",
"i,	c #25110B",
"j,	c #401C10",
"k,	c #6A301A",
"l,	c #622D17",
"m,	c #31170B",
"n,	c #0A0201",
"o,	c #38302C",
"p,	c #7A6A61",
"q,	c #947B6E",
"r,	c #8F6155",
"s,	c #82352B",
"t,	c #661009",
"u,	c #3F0704",
"v,	c #421710",
"w,	c #5C281F",
"x,	c #5B3028",
"y,	c #5C4B43",
"z,	c #877A6F",
"A,	c #A4978B",
"B,	c #A09589",
"C,	c #857C74",
"D,	c #69625D",
"E,	c #534D4A",
"F,	c #66605B",
"G,	c #958C82",
"H,	c #A79E92",
"I,	c #B6ACA0",
"J,	c #9C877B",
"K,	c #957769",
"L,	c #7A5B51",
"M,	c #4C2E28",
"N,	c #681212",
"O,	c #460A09",
"P,	c #4B0908",
"Q,	c #560C0A",
"R,	c #3D0807",
"S,	c #150203",
"T,	c #130102",
"U,	c #1F0403",
"V,	c #2A0906",
"W,	c #2D0907",
"X,	c #2A0504",
"Y,	c #220302",
"Z,	c #290503",
"`,	c #310907",
" '	c #3E120E",
".'	c #310F0B",
"+'	c #220A08",
"@'	c #0E0606",
"#'	c #1D1412",
"$'	c #736258",
"%'	c #75665C",
"&'	c #81695E",
"*'	c #8C7163",
"='	c #715D51",
"-'	c #6C5B52",
";'	c #A9988B",
">'	c #D0C1B1",
",'	c #CDBCAA",
"''	c #B9AB9C",
")'	c #AA9D90",
"!'	c #7D7268",
"~'	c #2C211D",
"{'	c #180A07",
"]'	c #31160D",
"^'	c #441C10",
"/'	c #3E180C",
"('	c #1C0804",
"_'	c #000000",
":'	c #4D4540",
"<'	c #86776D",
"['	c #977E71",
"}'	c #906054",
"|'	c #7B322A",
"1'	c #5B0703",
"2'	c #3A0704",
"3'	c #260302",
"4'	c #3E221D",
"5'	c #60443C",
"6'	c #74635A",
"7'	c #948A7E",
"8'	c #998E83",
"9'	c #988E83",
"0'	c #847B73",
"a'	c #6A645F",
"b'	c #534E4C",
"c'	c #6F6862",
"d'	c #9B9185",
"e'	c #B0A598",
"f'	c #C2B5A7",
"g'	c #AB8B7D",
"h'	c #92584B",
"i'	c #7A362C",
"j'	c #592018",
"k'	c #380B0A",
"l'	c #3C0908",
"m'	c #400605",
"n'	c #340302",
"o'	c #200202",
"p'	c #210403",
"q'	c #3B0907",
"r'	c #420B08",
"s'	c #250504",
"t'	c #180201",
"u'	c #320806",
"v'	c #3F0E09",
"w'	c #210605",
"x'	c #100404",
"y'	c #140D0B",
"z'	c #302722",
"A'	c #2D231E",
"B'	c #413630",
"C'	c #594A41",
"D'	c #5F524B",
"E'	c #8C796D",
"F'	c #A98C7C",
"G'	c #947768",
"H'	c #614B43",
"I'	c #645752",
"J'	c #A79A8E",
"K'	c #CBBAA9",
"L'	c #CAB8A6",
"M'	c #BEAD9B",
"N'	c #9D8C7C",
"O'	c #574B41",
"P'	c #130B09",
"Q'	c #200C06",
"R'	c #31130A",
"S'	c #39150A",
"T'	c #220D06",
"U'	c #19100D",
"V'	c #59504B",
"W'	c #86766E",
"X'	c #9B786B",
"Y'	c #92594C",
"Z'	c #7A3027",
"`'	c #57130D",
" )	c #320B07",
".)	c #2C0D0A",
"+)	c #402520",
"@)	c #5D4C44",
"#)	c #7D6F65",
"$)	c #8C8075",
"%)	c #90857A",
"&)	c #8B8178",
"*)	c #766E67",
"=)	c #57524E",
"-)	c #6D665E",
";)	c #8F8377",
">)	c #AA9B8D",
",)	c #B9A797",
"')	c #AF8C7B",
"))	c #9D5949",
"!)	c #84392A",
"~)	c #672A20",
"{)	c #56221C",
"])	c #781410",
"^)	c #3A0605",
"/)	c #5C0D0A",
"()	c #520A08",
"_)	c #380806",
":)	c #430F0B",
"<)	c #3D0D09",
"[)	c #1C0302",
"})	c #180302",
"|)	c #1E0503",
"1)	c #240705",
"2)	c #320A07",
"3)	c #3E0E09",
"4)	c #0A0303",
"5)	c #120D0C",
"6)	c #29201D",
"7)	c #201816",
"8)	c #251D1B",
"9)	c #423730",
"0)	c #4E413B",
"a)	c #88786C",
"b)	c #A99181",
"c)	c #A08171",
"d)	c #805C4F",
"e)	c #58362F",
"f)	c #61514B",
"g)	c #9B887C",
"h)	c #C3AA98",
"i)	c #C7B4A1",
"j)	c #B5A696",
"k)	c #786C62",
"l)	c #1F1B18",
"m)	c #070302",
"n)	c #100402",
"o)	c #1D0904",
"p)	c #1C0A05",
"q)	c #362E2A",
"r)	c #74685F",
"s)	c #97877D",
"t)	c #986E62",
"u)	c #7A3E33",
"v)	c #601C14",
"w)	c #481410",
"x)	c #462B24",
"y)	c #6A5046",
"z)	c #85776B",
"A)	c #8A7C70",
"B)	c #95887C",
"C)	c #9B9084",
"D)	c #867C73",
"E)	c #6C655E",
"F)	c #534D48",
"G)	c #706960",
"H)	c #95887D",
"I)	c #B2A496",
"J)	c #B5A494",
"K)	c #BA9B87",
"L)	c #A96D5A",
"M)	c #8C4030",
"N)	c #7A2B20",
"O)	c #6F231C",
"P)	c #8A1613",
"Q)	c #7F120F",
"R)	c #420605",
"S)	c #42110E",
"T)	c #621815",
"U)	c #55110F",
"V)	c #541914",
"W)	c #67241C",
"X)	c #511B14",
"Y)	c #2C0604",
"Z)	c #2A0805",
"`)	c #210705",
" !	c #2D0B07",
".!	c #380F0A",
"+!	c #2F0906",
"@!	c #1D0503",
"#!	c #0E0202",
"$!	c #0E0909",
"%!	c #312522",
"&!	c #29201C",
"*!	c #352A24",
"=!	c #392F2A",
"-!	c #52453F",
";!	c #78665C",
">!	c #978073",
",!	c #907567",
"'!	c #754D41",
")!	c #69352A",
"!!	c #59332A",
"~!	c #5D4A43",
"{!	c #968175",
"]!	c #BDAD9E",
"^!	c #BDB1A5",
"/!	c #796F66",
"(!	c #211C1B",
"_!	c #040202",
":!	c #0C0403",
"<!	c #0C0302",
"[!	c #403A36",
"}!	c #807670",
"|!	c #978077",
"1!	c #875E53",
"2!	c #5E3128",
"3!	c #441D18",
"4!	c #4E3028",
"5!	c #735649",
"6!	c #9B7C6B",
"7!	c #A79181",
"8!	c #A29183",
"9!	c #918072",
"0!	c #84776C",
"a!	c #82786F",
"b!	c #756F66",
"c!	c #47423E",
"d!	c #272523",
"e!	c #3C3734",
"f!	c #615851",
"g!	c #918478",
"h!	c #B1A293",
"i!	c #B4A292",
"j!	c #B69B8A",
"k!	c #AC7562",
"l!	c #974434",
"m!	c #8A291E",
"n!	c #7A241A",
"o!	c #740F0E",
"p!	c #570707",
"q!	c #260404",
"r!	c #411E1A",
"s!	c #451C19",
"t!	c #290A09",
"u!	c #421A15",
"v!	c #6A261E",
"w!	c #681B12",
"x!	c #480F0A",
"y!	c #38110C",
"z!	c #2A0F0C",
"A!	c #2B0E09",
"B!	c #230C09",
"C!	c #260C09",
"D!	c #1A0504",
"E!	c #0B0202",
"F!	c #0B0807",
"G!	c #28201D",
"H!	c #221C19",
"I!	c #241C18",
"J!	c #241E1A",
"K!	c #4F443E",
"L!	c #67564E",
"M!	c #8D776B",
"N!	c #93786B",
"O!	c #774B42",
"P!	c #682B22",
"Q!	c #5C251D",
"R!	c #4E1E19",
"S!	c #644740",
"T!	c #938278",
"U!	c #B4A597",
"V!	c #9F9083",
"W!	c #403934",
"X!	c #0A0807",
"Y!	c #020101",
"Z!	c #020001",
"`!	c #504843",
" ~	c #877972",
".~	c #896E64",
"+~	c #78564C",
"@~	c #755147",
"#~	c #6B473D",
"$~	c #603C31",
"%~	c #7B584A",
"&~	c #997362",
"*~	c #997868",
"=~	c #937D6F",
"-~	c #87776A",
";~	c #7D7166",
">~	c #6C645C",
",~	c #56514B",
"'~	c #22201F",
")~	c #191717",
"!~	c #38322F",
"~~	c #594F49",
"{~	c #7A6D63",
"]~	c #A69688",
"^~	c #9E8E80",
"/~	c #957C6E",
"(~	c #9B6352",
"_~	c #904031",
":~	c #76261E",
"<~	c #682820",
"[~	c #592A21",
"}~	c #3B1A19",
"|~	c #241110",
"1~	c #1B0404",
"2~	c #48130C",
"3~	c #631B12",
"4~	c #591A12",
"5~	c #3E1711",
"6~	c #361914",
"7~	c #2B1814",
"8~	c #34231D",
"9~	c #2F1E18",
"0~	c #0D0403",
"a~	c #030101",
"b~	c #1D1613",
"c~	c #352C28",
"d~	c #2A2320",
"e~	c #120F0E",
"f~	c #1A1412",
"g~	c #443832",
"h~	c #51403A",
"i~	c #7D6C64",
"j~	c #917A70",
"k~	c #7D584D",
"l~	c #703B2F",
"m~	c #673127",
"n~	c #602019",
"o~	c #662820",
"p~	c #5C403A",
"q~	c #857268",
"r~	c #A9978A",
"s~	c #7E7166",
"t~	c #2C2622",
"u~	c #020000",
"v~	c #1E1815",
"w~	c #75665B",
"x~	c #9B8678",
"y~	c #7E645A",
"z~	c #765B51",
"A~	c #826358",
"B~	c #8A685A",
"C~	c #8E6D5E",
"D~	c #916D5E",
"E~	c #906858",
"F~	c #866657",
"G~	c #826F61",
"H~	c #7A6D62",
"I~	c #625950",
"J~	c #48433D",
"K~	c #171515",
"L~	c #0F0D0F",
"M~	c #302B28",
"N~	c #413B37",
"O~	c #544944",
"P~	c #887A70",
"Q~	c #7F6C61",
"R~	c #7E5145",
"S~	c #8C3E32",
"T~	c #772A20",
"U~	c #5E332D",
"V~	c #68463C",
"W~	c #684338",
"X~	c #45211B",
"Y~	c #3B1B16",
"Z~	c #0F0201",
"`~	c #280704",
" {	c #340E09",
".{	c #341812",
"+{	c #3A231D",
"@{	c #34231F",
"#{	c #30211E",
"${	c #1F1411",
"%{	c #030201",
"&{	c #060403",
"*{	c #271D19",
"={	c #312722",
"-{	c #1B1513",
";{	c #040303",
">{	c #0F0C0A",
",{	c #493D37",
"'{	c #5A4A43",
"){	c #65544C",
"!{	c #846A5F",
"~{	c #8C6557",
"{{	c #7A473A",
"]{	c #6F352A",
"^{	c #5F1F18",
"/{	c #571C17",
"({	c #482E2A",
"_{	c #60504A",
":{	c #988377",
"<{	c #AE9C8E",
"[{	c #71675F",
"}{	c #27201D",
"|{	c #060303",
"1{	c #443A35",
"2{	c #8F7F73",
"3{	c #988679",
"4{	c #73554B",
"5{	c #775349",
"6{	c #866358",
"7{	c #7F554A",
"8{	c #88584B",
"9{	c #9A6253",
"0{	c #925244",
"a{	c #734539",
"b{	c #624F46",
"c{	c #7B6D62",
"d{	c #776B61",
"e{	c #5B514A",
"f{	c #3A3530",
"g{	c #0A0909",
"h{	c #080809",
"i{	c #221F1E",
"j{	c #292523",
"k{	c #68625A",
"l{	c #A0968A",
"m{	c #98897C",
"n{	c #947A6C",
"o{	c #896457",
"p{	c #79574D",
"q{	c #684B43",
"r{	c #66463D",
"s{	c #6B4C41",
"t{	c #5C4339",
"u{	c #5B3D35",
"v{	c #553A33",
"w{	c #040000",
"x{	c #080101",
"y{	c #130907",
"z{	c #1F1310",
"A{	c #160D0C",
"B{	c #0E0807",
"C{	c #050303",
"D{	c #090607",
"E{	c #1A1513",
"F{	c #211A18",
"G{	c #161110",
"H{	c #010101",
"I{	c #1B1716",
"J{	c #433B35",
"K{	c #4A3E38",
"L{	c #4D3D37",
"M{	c #77594E",
"N{	c #966757",
"O{	c #965646",
"P{	c #7C3A2E",
"Q{	c #52120E",
"R{	c #4D1613",
"S{	c #5A423D",
"T{	c #826F66",
"U{	c #78665D",
"V{	c #AC9F94",
"W{	c #A3968C",
"X{	c #5C534E",
"Y{	c #221715",
"Z{	c #62443C",
"`{	c #92766A",
" ]	c #745F56",
".]	c #613730",
"+]	c #7E5A52",
"@]	c #977C71",
"#]	c #8E6258",
"$]	c #8C3D32",
"%]	c #943B2E",
"&]	c #8A392B",
"*]	c #6E3428",
"=]	c #4E3A34",
"-]	c #695E56",
";]	c #6F645A",
">]	c #564D45",
",]	c #37332E",
"']	c #060506",
")]	c #050506",
"!]	c #131112",
"~]	c #80786E",
"{]	c #9D9183",
"]]	c #9B8D7F",
"^]	c #9F8F81",
"/]	c #A79486",
"(]	c #968275",
"_]	c #735C52",
":]	c #624D44",
"<]	c #3E2F2B",
"[]	c #453531",
"}]	c #2F2522",
"|]	c #050404",
"1]	c #010000",
"2]	c #0C0807",
"3]	c #0C0909",
"4]	c #1A1514",
"5]	c #241E1C",
"6]	c #050403",
"7]	c #2B2724",
"8]	c #433A36",
"9]	c #3B312D",
"0]	c #332723",
"a]	c #5C3F36",
"b]	c #895546",
"c]	c #924E3E",
"d]	c #6E2D23",
"e]	c #440906",
"f]	c #4A100B",
"g]	c #624139",
"h]	c #9D7E6E",
"i]	c #876F63",
"j]	c #756861",
"k]	c #9B8E85",
"l]	c #877A72",
"m]	c #3E332F",
"n]	c #694940",
"o]	c #866054",
"p]	c #7A5E53",
"q]	c #846155",
"r]	c #917367",
"s]	c #9D8377",
"t]	c #996B5F",
"u]	c #8E4034",
"v]	c #7A271C",
"w]	c #57150D",
"x]	c #40150F",
"y]	c #412D28",
"z]	c #594D47",
"A]	c #6A5F55",
"B]	c #62584F",
"C]	c #3A352F",
"D]	c #070708",
"E]	c #1A1716",
"F]	c #534B46",
"G]	c #847B71",
"H]	c #8E847A",
"I]	c #978C7F",
"J]	c #998D80",
"K]	c #8E8176",
"L]	c #87796E",
"M]	c #807166",
"N]	c #63554D",
"O]	c #54443D",
"P]	c #342927",
"Q]	c #2D2423",
"R]	c #141010",
"S]	c #120E0D",
"T]	c #191311",
"U]	c #130D0D",
"V]	c #030202",
"W]	c #100B0A",
"X]	c #251E1B",
"Y]	c #221D1C",
"Z]	c #252120",
"`]	c #221D1D",
" ^	c #0A0808",
".^	c #010001",
"+^	c #080608",
"@^	c #37322F",
"#^	c #4C433F",
"$^	c #3C3530",
"%^	c #2A201C",
"&^	c #38231D",
"*^	c #542E25",
"=^	c #6B382D",
"-^	c #653128",
";^	c #440E0A",
">^	c #370402",
",^	c #532C25",
"'^	c #956C5D",
")^	c #AB9080",
"!^	c #7F6E64",
"~^	c #77675F",
"{^	c #85746A",
"]^	c #7B6E66",
"^^	c #958277",
"/^	c #A58D7F",
"(^	c #B5A090",
"_^	c #AF9786",
":^	c #967B6D",
"<^	c #967869",
"[^	c #906053",
"}^	c #732F25",
"|^	c #51140E",
"1^	c #36110C",
"2^	c #3C241D",
"3^	c #4C3830",
"4^	c #534740",
"5^	c #63584F",
"6^	c #49413B",
"7^	c #1B1817",
"8^	c #030304",
"9^	c #070608",
"0^	c #211D1B",
"a^	c #4A443E",
"b^	c #645C55",
"c^	c #938A80",
"d^	c #B4AA9F",
"e^	c #A4998E",
"f^	c #85796F",
"g^	c #70645C",
"h^	c #5F544E",
"i^	c #534A44",
"j^	c #493E39",
"k^	c #4B3E38",
"l^	c #62534A",
"m^	c #282221",
"n^	c #2E2724",
"o^	c #483C37",
"p^	c #312825",
"q^	c #140F0E",
"r^	c #201A17",
"s^	c #221C1A",
"t^	c #1C1717",
"u^	c #120E0F",
"v^	c #020202",
"w^	c #000001",
"x^	c #030404",
"y^	c #262221",
"z^	c #4A423D",
"A^	c #4A413B",
"B^	c #3B302A",
"C^	c #3A2A24",
"D^	c #402821",
"E^	c #522C24",
"F^	c #592C25",
"G^	c #3E100C",
"H^	c #2C0101",
"I^	c #311713",
"J^	c #674E44",
"K^	c #9F8678",
"L^	c #9E8B7E",
"M^	c #7A6B62",
"N^	c #817872",
"O^	c #BBADA4",
"P^	c #AF9E90",
"Q^	c #B2A191",
"R^	c #BEAE9E",
"S^	c #B2A090",
"T^	c #A48E7E",
"U^	c #A48575",
"V^	c #98685B",
"W^	c #7C4237",
"X^	c #5D2E26",
"Y^	c #51342B",
"Z^	c #634C40",
"`^	c #655246",
" /	c #554940",
"./	c #584D45",
"+/	c #37312D",
"@/	c #110F0F",
"#/	c #010102",
"$/	c #1A1717",
"%/	c #39332F",
"&/	c #6B635C",
"*/	c #93897F",
"=/	c #A69C91",
"-/	c #B7ADA2",
";/	c #AEA49A",
">/	c #AAA096",
",/	c #A89F94",
"'/	c #92887E",
")/	c #746860",
"!/	c #5E524B",
"~/	c #4E423D",
"{/	c #4B3F3A",
"]/	c #382F2B",
"^/	c #3A302C",
"//	c #403430",
"(/	c #433731",
"_/	c #0E0B0B",
":/	c #040304",
"</	c #030305",
"[/	c #0D0C0C",
"}/	c #1A1817",
"|/	c #403833",
"1/	c #483E38",
"2/	c #3E332E",
"3/	c #41312C",
"4/	c #43302B",
"5/	c #4D322C",
"6/	c #53322A",
"7/	c #340D0A",
"8/	c #230302",
"9/	c #1F0504",
"0/	c #3E2A25",
"a/	c #80695E",
"b/	c #AB9A8C",
"c/	c #948477",
"d/	c #928882",
"e/	c #BEB0A5",
"f/	c #9E8B7F",
"g/	c #B0A194",
"h/	c #B9AA9C",
"i/	c #B09F90",
"j/	c #AF9C8D",
"k/	c #A78A7C",
"l/	c #825D51",
"m/	c #613D34",
"n/	c #674C41",
"o/	c #735D4F",
"p/	c #69574A",
"q/	c #55483F",
"r/	c #443C35",
"s/	c #3B342F",
"t/	c #131212",
"u/	c #3B3532",
"v/	c #6B625B",
"w/	c #8B8077",
"x/	c #968B80",
"y/	c #C8BDB0",
"z/	c #DFD5C7",
"A/	c #E6DDCF",
"B/	c #E1D7CA",
"C/	c #CABEB0",
"D/	c #918176",
"E/	c #6F6058",
"F/	c #372E2A",
"G/	c #292220",
"H/	c #382E2B",
"I/	c #2A221F",
"J/	c #060405",
"K/	c #020203",
"L/	c #121010",
"M/	c #171514",
"N/	c #39312C",
"O/	c #483C36",
"P/	c #42352F",
"Q/	c #463530",
"R/	c #544039",
"S/	c #5E443B",
"T/	c #583830",
"U/	c #35110D",
"V/	c #1E0303",
"W/	c #2A0C0A",
"X/	c #493029",
"Y/	c #846C61",
"Z/	c #97877C",
"`/	c #978C84",
" (	c #B5A69B",
".(	c #96867C",
"+(	c #938379",
"@(	c #AB9D90",
"#(	c #B3A698",
"$(	c #A8998B",
"%(	c #A89789",
"&(	c #A28D7F",
"*(	c #856A5E",
"=(	c #6A4B41",
"-(	c #5D463C",
";(	c #4B3C33",
">(	c #382F29",
",(	c #332E2A",
"'(	c #35302C",
")(	c #191715",
"!(	c #050405",
"~(	c #1B1918",
"{(	c #4F4A45",
"](	c #6A625B",
"^(	c #6D635C",
"/(	c #80746C",
"((	c #C3B6A9",
"_(	c #E2D6C7",
":(	c #E9DDCD",
"<(	c #E1D5C5",
"[(	c #CBBCAD",
"}(	c #AE9D8D",
"|(	c #948073",
"1(	c #7A675B",
"2(	c #161211",
"3(	c #171312",
"4(	c #140F0F",
"5(	c #090809",
"6(	c #100E0F",
"7(	c #161413",
"8(	c #171414",
"9(	c #191616",
"0(	c #332C28",
"a(	c #4E433C",
"b(	c #54463E",
"c(	c #524139",
"d(	c #64493E",
"e(	c #795548",
"f(	c #69493D",
"g(	c #2E1813",
"h(	c #180605",
"i(	c #27110E",
"j(	c #432C25",
"k(	c #68564D",
"l(	c #96897F",
"m(	c #A39A92",
"n(	c #C5B9AC",
"o(	c #B6A89A",
"p(	c #AD9F91",
"q(	c #ACA093",
"r(	c #A79B8E",
"s(	c #9F9081",
"t(	c #998677",
"u(	c #988375",
"v(	c #856E61",
"w(	c #694B40",
"x(	c #613F34",
"y(	c #53382F",
"z(	c #3A2E28",
"A(	c #2E2622",
"B(	c #2F2925",
"C(	c #2C2724",
"D(	c #0B0909",
"E(	c #1A1816",
"F(	c #383532",
"G(	c #615953",
"H(	c #756D65",
"I(	c #938A81",
"J(	c #CCC1B3",
"K(	c #DED1C2",
"L(	c #DDCCBC",
"M(	c #DFCFBE",
"N(	c #D8C9B9",
"O(	c #BFAC9B",
"P(	c #A28B7B",
"Q(	c #8F7C6F",
"R(	c #75675E",
"S(	c #040404",
"T(	c #0B0B0B",
"U(	c #201C1A",
"V(	c #181615",
"W(	c #4B423C",
"X(	c #52453E",
"Y(	c #56473F",
"Z(	c #665349",
"`(	c #715B50",
" _	c #695449",
"._	c #493A32",
"+_	c #231613",
"@_	c #372722",
"#_	c #4D4039",
"$_	c #71655E",
"%_	c #ACA59E",
"&_	c #CDC1B3",
"*_	c #C7BAAA",
"=_	c #C1B5A5",
"-_	c #AEA293",
";_	c #93867A",
">_	c #8C7D70",
",_	c #8B786A",
"'_	c #897466",
")_	c #7A6357",
"!_	c #725B4E",
"~_	c #766154",
"{_	c #645348",
"]_	c #4E443C",
"^_	c #453C34",
"/_	c #2D2825",
"(_	c #100F0E",
"__	c #050505",
":_	c #49433E",
"<_	c #4D4742",
"[_	c #736C65",
"}_	c #AFA79C",
"|_	c #CEC0B2",
"1_	c #CCB4A2",
"2_	c #C5A999",
"3_	c #C7B1A2",
"4_	c #C3AFA0",
"5_	c #B6A291",
"6_	c #A79485",
"7_	c #9C8C7F",
"8_	c #8F8177",
"9_	c #0F0E0E",
"0_	c #1A1918",
"a_	c #25211F",
"b_	c #2A2623",
"c_	c #211E1C",
"d_	c #282421",
"e_	c #352F2B",
"f_	c #352D29",
"g_	c #524841",
"h_	c #75685E",
"i_	c #847569",
"j_	c #817064",
"k_	c #6B5B51",
"l_	c #493730",
"m_	c #3A2D28",
"n_	c #342C28",
"o_	c #534B45",
"p_	c #ABA59F",
"q_	c #CEC3B6",
"r_	c #C3B8AA",
"s_	c #BCB0A2",
"t_	c #A4978A",
"u_	c #6C5A50",
"v_	c #675147",
"w_	c #67453C",
"x_	c #64372E",
"y_	c #5C362C",
"z_	c #5C4439",
"A_	c #58443A",
"B_	c #4C4038",
"C_	c #463E37",
"D_	c #3F3833",
"E_	c #312C29",
"F_	c #050607",
"G_	c #191614",
"H_	c #403935",
"I_	c #524943",
"J_	c #8D837A",
"K_	c #B3A69A",
"L_	c #AB9083",
"M_	c #A97F6F",
"N_	c #956A5C",
"O_	c #79564C",
"P_	c #6E554B",
"Q_	c #6E5C51",
"R_	c #7D6C61",
"S_	c #A09389",
"T_	c #746961",
"U_	c #0C0C0C",
"V_	c #1F1D1B",
"W_	c #262320",
"X_	c #292622",
"Y_	c #37322D",
"Z_	c #433B36",
"`_	c #433C37",
" :	c #635951",
".:	c #807267",
"+:	c #8B7C6F",
"@:	c #86776B",
"#:	c #837468",
"$:	c #706055",
"%:	c #6E5F55",
"&:	c #61574F",
"*:	c #554B45",
"=:	c #4F4844",
"-:	c #A49F99",
";:	c #C2B8AC",
">:	c #B4AA9E",
",:	c #96897E",
"':	c #796C62",
"):	c #64554D",
"!:	c #644D43",
"~:	c #593C34",
"{:	c #592821",
"]:	c #591813",
"^:	c #4A1C16",
"/:	c #4D362C",
"(:	c #524037",
"_:	c #423831",
"::	c #39322D",
"<:	c #37312C",
"[:	c #151312",
"}:	c #060606",
"|:	c #1D1B19",
"1:	c #423935",
"2:	c #7F746B",
"3:	c #93786E",
"4:	c #A75246",
"5:	c #B84F3B",
"6:	c #B35944",
"7:	c #9A513F",
"8:	c #814536",
"9:	c #5F3227",
"0:	c #39221E",
"a:	c #594E49",
"b:	c #7F7069",
"c:	c #0D0B0C",
"d:	c #211D1C",
"e:	c #2F2926",
"f:	c #342E2A",
"g:	c #443E39",
"h:	c #554F47",
"i:	c #5D534B",
"j:	c #564C44",
"k:	c #443B35",
"l:	c #4D443E",
"m:	c #7E7167",
"n:	c #9D8F81",
"o:	c #A09284",
"p:	c #A09283",
"q:	c #938678",
"r:	c #8E8175",
"s:	c #80756A",
"t:	c #71655C",
"u:	c #6A5E58",
"v:	c #A59E97",
"w:	c #BAACA0",
"x:	c #9C8E82",
"y:	c #77685E",
"z:	c #66574F",
"A:	c #56463F",
"B:	c #52342D",
"C:	c #4B251F",
"D:	c #511812",
"E:	c #500C08",
"F:	c #411B17",
"G:	c #45332C",
"H:	c #4B3C35",
"I:	c #413730",
"J:	c #372F2A",
"K:	c #342D29",
"L:	c #2A2522",
"M:	c #221E1D",
"N:	c #0F0D0C",
"O:	c #0B0A0B",
"P:	c #241D1B",
"Q:	c #4F433E",
"R:	c #774A41",
"S:	c #9D4A3B",
"T:	c #BD614B",
"U:	c #D27F66",
"V:	c #CF8972",
"W:	c #C3836D",
"X:	c #A46551",
"Y:	c #632D20",
"Z:	c #2E1816",
"`:	c #453935",
" <	c #64524B",
".<	c #100E0E",
"+<	c #24201E",
"@<	c #3B3631",
"#<	c #403B35",
"$<	c #49433D",
"%<	c #5E574F",
"&<	c #6A6157",
"*<	c #695E55",
"=<	c #564B44",
"-<	c #3D342F",
";<	c #544B43",
"><	c #877B6F",
",<	c #A89B8E",
"'<	c #AFA394",
")<	c #A79B8D",
"!<	c #7D7267",
"~<	c #5D534C",
"{<	c #675C55",
"]<	c #A0968D",
"^<	c #7C7066",
"/<	c #5F4F48",
"(<	c #614B44",
"_<	c #684840",
":<	c #693A31",
"<<	c #612A21",
"[<	c #5C1C15",
"}<	c #480F0B",
"|<	c #281C18",
"1<	c #302621",
"2<	c #322A25",
"3<	c #2B2420",
"4<	c #352E2A",
"5<	c #312D29",
"6<	c #070606",
"7<	c #1D1514",
"8<	c #593F37",
"9<	c #7D483C",
"0<	c #974E3D",
"a<	c #B8624D",
"b<	c #CA735C",
"c<	c #C6715B",
"d<	c #C1745F",
"e<	c #B06B57",
"f<	c #7E4132",
"g<	c #481F17",
"h<	c #1D1311",
"i<	c #2A211F",
"j<	c #3E3833",
"k<	c #3A3430",
"l<	c #3C3632",
"m<	c #514C45",
"n<	c #736B61",
"o<	c #797166",
"p<	c #6B635A",
"q<	c #554C46",
"r<	c #3F3631",
"s<	c #615750",
"t<	c #988B80",
"u<	c #AEA193",
"v<	c #A29589",
"w<	c #85786D",
"x<	c #5A4E46",
"y<	c #4E4541",
"z<	c #9D948D",
"A<	c #A49488",
"B<	c #76665E",
"C<	c #746158",
"D<	c #846E61",
"E<	c #876C5F",
"F<	c #785449",
"G<	c #64342C",
"H<	c #531B15",
"I<	c #3E0D09",
"J<	c #270D0A",
"K<	c #271B18",
"L<	c #342A26",
"M<	c #3C332D",
"N<	c #3A312C",
"O<	c #322A26",
"P<	c #2E2825",
"Q<	c #2A2523",
"R<	c #161514",
"S<	c #251C19",
"T<	c #5B4037",
"U<	c #74473C",
"V<	c #8B5143",
"W<	c #A67160",
"X<	c #AC7563",
"Y<	c #9F6352",
"Z<	c #98594A",
"`<	c #884E40",
" [	c #5D342A",
".[	c #341A16",
"+[	c #1A1312",
"@[	c #0F0909",
"#[	c #2B2725",
"$[	c #342F2B",
"%[	c #463F39",
"&[	c #534C45",
"*[	c #665E56",
"=[	c #736B62",
"-[	c #7A7268",
";[	c #786E65",
">[	c #655B53",
",[	c #504741",
"'[	c #82786E",
")[	c #A19689",
"![	c #A5998B",
"~[	c #9D9185",
"{[	c #6D6057",
"][	c #574D47",
"^[	c #9F978E",
"/[	c #BAA99C",
"([	c #A6988C",
"_[	c #AD9D90",
":[	c #B9A493",
"<[	c #B3A190",
"[[	c #8E766A",
"}[	c #68453C",
"|[	c #5F2A22",
"1[	c #592119",
"2[	c #401A15",
"3[	c #291C19",
"4[	c #372E29",
"5[	c #453B35",
"6[	c #483E37",
"7[	c #433934",
"8[	c #131111",
"9[	c #3A2620",
"0[	c #683E34",
"a[	c #8E5E51",
"b[	c #8B6559",
"c[	c #765045",
"d[	c #64443A",
"e[	c #653D32",
"f[	c #60372D",
"g[	c #3A1B17",
"h[	c #140D0C",
"i[	c #38322D",
"j[	c #5D564F",
"k[	c #797167",
"l[	c #887F75",
"m[	c #837B71",
"n[	c #776E64",
"o[	c #786D63",
"p[	c #675D54",
"q[	c #4F4742",
"r[	c #726961",
"s[	c #93887D",
"t[	c #A99C8E",
"u[	c #938478",
"v[	c #74675E",
"w[	c #988E84",
"x[	c #C7B8A9",
"y[	c #C2B4A6",
"z[	c #BDAD9F",
"A[	c #BBA898",
"B[	c #9E887A",
"C[	c #7F685C",
"D[	c #6B5248",
"E[	c #67443A",
"F[	c #63362D",
"G[	c #48231C",
"H[	c #2C1E1B",
"I[	c #362B26",
"J[	c #403530",
"K[	c #493D36",
"L[	c #4A403A",
"M[	c #4F463F",
"N[	c #342E2B",
"O[	c #350F0C",
"P[	c #6D1F17",
"Q[	c #8F3327",
"R[	c #A33F2D",
"S[	c #B0452D",
"T[	c #A33B26",
"U[	c #742519",
"V[	c #52271F",
"W[	c #502C24",
"X[	c #3A1813",
"Y[	c #2A2624",
"Z[	c #3D3833",
"`[	c #393430",
" }	c #4B443F",
".}	c #655D56",
"+}	c #7C7269",
"@}	c #887E73",
"#}	c #8D8378",
"$}	c #8E8478",
"%}	c #958A7E",
"&}	c #968B7E",
"*}	c #6B625A",
"=}	c #514A45",
"-}	c #6E645D",
";}	c #988C81",
">}	c #A09386",
",}	c #8F8277",
"'}	c #918982",
")}	c #CDC0B3",
"!}	c #CBBDAE",
"~}	c #AE9789",
"{}	c #8F6D62",
"]}	c #64443D",
"^}	c #6E5950",
"/}	c #907B6E",
"(}	c #91796C",
"_}	c #745B51",
":}	c #513B33",
"<}	c #392925",
"[}	c #2D2320",
"}}	c #302723",
"|}	c #3D3530",
"1}	c #3E3732",
"2}	c #3B0B08",
"3}	c #62140B",
"4}	c #993524",
"5}	c #B6442E",
"6}	c #BB4128",
"7}	c #B5341E",
"8}	c #9A2212",
"9}	c #6A150E",
"0}	c #461711",
"a}	c #41130E",
"b}	c #2B2825",
"c}	c #3A3431",
"d}	c #6C655D",
"e}	c #726B62",
"f}	c #686057",
"g}	c #4D453F",
"h}	c #4C453F",
"i}	c #665D55",
"j}	c #7F736A",
"k}	c #8F8478",
"l}	c #988E81",
"m}	c #9E9386",
"n}	c #453F3A",
"o}	c #675F56",
"p}	c #8B8074",
"q}	c #93877B",
"r}	c #928B82",
"s}	c #D1C6B6",
"t}	c #BCAB9D",
"u}	c #A59183",
"v}	c #988276",
"w}	c #77685F",
"x}	c #8B7D73",
"y}	c #A69386",
"z}	c #9A8476",
"A}	c #755D53",
"B}	c #543A32",
"C}	c #3D241E",
"D}	c #1A100F",
"E}	c #2A2420",
"F}	c #423932",
"G}	c #4A413A",
"H}	c #38312D",
"I}	c #171413",
"J}	c #4C0B08",
"K}	c #6A1008",
"L}	c #992114",
"M}	c #AA2C1B",
"N}	c #AA301D",
"O}	c #AF301C",
"P}	c #A42716",
"Q}	c #77140B",
"R}	c #3D0503",
"S}	c #1E0302",
"T}	c #151212",
"U}	c #2C2826",
"V}	c #36302D",
"W}	c #48413B",
"X}	c #675E56",
"Y}	c #897E72",
"Z}	c #9C8D7F",
"`}	c #8E7F72",
" |	c #756A60",
".|	c #5D554E",
"+|	c #5F544D",
"@|	c #73655B",
"#|	c #918376",
"$|	c #A6998B",
"%|	c #9A8E82",
"&|	c #7F746A",
"*|	c #655C55",
"=|	c #645B53",
"-|	c #5F564E",
";|	c #695F57",
">|	c #857F78",
",|	c #CEC4B7",
"'|	c #BFB2A6",
")|	c #B0A193",
"!|	c #B1A295",
"~|	c #B2A396",
"{|	c #B8A799",
"]|	c #A49285",
"^|	c #795C54",
"/|	c #662D26",
"(|	c #5B251E",
"_|	c #391C17",
":|	c #332420",
"<|	c #38312C",
"[|	c #51463E",
"}|	c #63574D",
"||	c #5C5048",
"1|	c #3E3632",
"2|	c #181515",
"3|	c #5B0805",
"4|	c #7A0C06",
"5|	c #95160B",
"6|	c #9E2011",
"7|	c #A9301D",
"8|	c #B93D23",
"9|	c #B3341D",
"0|	c #971E12",
"a|	c #6E1109",
"b|	c #3B0403",
"c|	c #1F1B1A",
"d|	c #342F2C",
"e|	c #635850",
"f|	c #6D5D54",
"g|	c #8A796D",
"h|	c #9E8B7C",
"i|	c #AB9889",
"j|	c #BBAD9E",
"k|	c #B0A699",
"l|	c #867A70",
"m|	c #8D776A",
"n|	c #ADA194",
"o|	c #AEA294",
"p|	c #AB9E90",
"q|	c #9C9082",
"r|	c #8A7F74",
"s|	c #655B55",
"t|	c #433C38",
"u|	c #5B5753",
"v|	c #AA9C91",
"w|	c #A99E92",
"x|	c #B6A899",
"y|	c #BDAD9D",
"z|	c #C4B1A0",
"A|	c #AF9888",
"B|	c #7E5C51",
"C|	c #62261E",
"D|	c #682E24",
"E|	c #673F35",
"F|	c #5E4E46",
"G|	c #6C6055",
"H|	c #6E6257",
"I|	c #62574E",
"J|	c #3C3531",
"K|	c #161312",
"L|	c #7E0E08",
"M|	c #A5150D",
"N|	c #9B130C",
"O|	c #87110A",
"P|	c #9A1D11",
"Q|	c #A22113",
"R|	c #971F11",
"S|	c #972115",
"T|	c #951E14",
"U|	c #75120C",
"V|	c #181616",
"W|	c #2F2B28",
"X|	c #665A51",
"Y|	c #756257",
"Z|	c #7A665A",
"`|	c #AA9686",
" 1	c #C2B2A3",
".1	c #CFC3B5",
"+1	c #B5A69A",
"@1	c #8C786D",
"#1	c #8C7669",
"$1	c #AD9C8D",
"%1	c #C5B9AA",
"&1	c #BDB0A2",
"*1	c #B4A698",
"=1	c #B8AA9B",
"-1	c #A6998C",
";1	c #80756B",
">1	c #625952",
",1	c #3B3633",
"'1	c #746B65",
")1	c #84766E",
"!1	c #928378",
"~1	c #AC9E90",
"{1	c #C0B2A1",
"]1	c #C6B7A6",
"^1	c #C6B5A3",
"/1	c #AE8F7E",
"(1	c #8F574A",
"_1	c #804033",
":1	c #7A4B3E",
"<1	c #79594B",
"[1	c #69564B",
"}1	c #6F6157",
"|1	c #7A6C61",
"11	c #6A5C53",
"21	c #5B5048",
"31	c #3B3531",
"41	c #540604",
"51	c #8A0F09",
"61	c #9E150D",
"71	c #98110A",
"81	c #8E0E08",
"91	c #98140D",
"01	c #9C150C",
"a1	c #93140D",
"b1	c #87160E",
"c1	c #7A140C",
"d1	c #6D100A",
"e1	c #151313",
"f1	c #2E2926",
"g1	c #4B413A",
"h1	c #604E44",
"i1	c #876E60",
"j1	c #998172",
"k1	c #AE9885",
"l1	c #BCA694",
"m1	c #C2AB9A",
"n1	c #B59C8D",
"o1	c #98776A",
"p1	c #957C70",
"q1	c #B3A495",
"r1	c #B8A999",
"s1	c #B4A596",
"t1	c #AC9F91",
"u1	c #AB9D8F",
"v1	c #797066",
"w1	c #3E3834",
"x1	c #948A81",
"y1	c #C6B6A6",
"z1	c #C0AC9B",
"A1	c #C4B2A2",
"B1	c #CABAAA",
"C1	c #B09889",
"D1	c #916B5C",
"E1	c #8B6152",
"F1	c #866153",
"G1	c #7E6154",
"H1	c #7D685A",
"I1	c #807163",
"J1	c #8A7A6C",
"K1	c #625349",
"L1	c #4A3F38",
"M1	c #352F2C",
"N1	c #4D0806",
"O1	c #740C09",
"P1	c #770A08",
"Q1	c #730A07",
"R1	c #760B06",
"S1	c #860F08",
"T1	c #95130C",
"U1	c #92120B",
"V1	c #820E08",
"W1	c #6C0A06",
"X1	c #4E0503",
"Y1	c #3F0604",
"Z1	c #181514",
"`1	c #362F2B",
" 2	c #553931",
".2	c #87594B",
"+2	c #936659",
"@2	c #A18070",
"#2	c #A28171",
"$2	c #A07E70",
"%2	c #A77F72",
"&2	c #A67163",
"*2	c #8F5A4B",
"=2	c #7D5D52",
"-2	c #957F72",
";2	c #AB9A8B",
">2	c #AE9F91",
",2	c #A7998C",
"'2	c #AB9E91",
")2	c #887E74",
"!2	c #3B3632",
"~2	c #736E69",
"{2	c #ABA197",
"]2	c #CCC0B0",
"^2	c #D7CAB9",
"/2	c #C0AD9D",
"(2	c #AC9587",
"_2	c #B5A294",
":2	c #B0998A",
"<2	c #A68575",
"[2	c #9B7666",
"}2	c #855F52",
"|2	c #846557",
"12	c #8F7868",
"22	c #938172",
"32	c #89786A",
"42	c #66584D",
"52	c #5A4D44",
"62	c #433C36",
"72	c #2B2623",
"82	c #190F0E",
"92	c #430A08",
"02	c #650D0C",
"a2	c #550607",
"b2	c #620606",
"c2	c #5D0504",
"d2	c #740B07",
"e2	c #9B140E",
"f2	c #A0140E",
"g2	c #8D0D08",
"h2	c #7F0A06",
"i2	c #6C0905",
"j2	c #4A0705",
"k2	c #0C0A0A",
"l2	c #221D1B",
"m2	c #4F453F",
"n2	c #433833",
"o2	c #3F251F",
"p2	c #703126",
"q2	c #884539",
"r2	c #98695C",
"s2	c #9F6E60",
"t2	c #96584C",
"u2	c #97564A",
"v2	c #AD7667",
"w2	c #A87E6F",
"x2	c #8F665A",
"y2	c #997366",
"z2	c #BCAEA0",
"A2	c #C2B6A8",
"B2	c #AB9F92",
"C2	c #867D73",
"D2	c #48423E",
"E2	c #4C4845",
"F2	c #CBBFB2",
"G2	c #D2C6B6",
"H2	c #C4B5A6",
"I2	c #A1887A",
"J2	c #926C5F",
"K2	c #8A5D51",
"L2	c #855347",
"M2	c #875346",
"N2	c #845345",
"O2	c #876456",
"P2	c #947C6D",
"Q2	c #9C8676",
"R2	c #938475",
"S2	c #6F6459",
"T2	c #554C44",
"U2	c #433B37",
"V2	c #15100E",
"W2	c #1D0807",
"X2	c #460706",
"Y2	c #450504",
"Z2	c #360302",
"`2	c #280102",
" 3	c #650C0A",
".3	c #A11B14",
"+3	c #A81B13",
"@3	c #8F120C",
"#3	c #86110B",
"$3	c #83120B",
"%3	c #670B07",
"&3	c #480504",
"*3	c #0C0B0B",
"=3	c #241F1E",
"-3	c #453E39",
";3	c #615850",
">3	c #675C53",
",3	c #53453D",
"'3	c #5C2922",
")3	c #6F2C23",
"!3	c #7A4D45",
"~3	c #8F695E",
"{3	c #906458",
"]3	c #9A7063",
"^3	c #BD9E8E",
"/3	c #C2A697",
"(3	c #AD8C7E",
"_3	c #A98B7B",
":3	c #A99585",
"<3	c #BDAEA0",
"[3	c #D0C4B5",
"}3	c #BCB0A3",
"|3	c #A1978D",
"13	c #57524D",
"23	c #282624",
"33	c #898077",
"43	c #CBBEAF",
"53	c #D1C4B2",
"63	c #CFC1B1",
"73	c #C2AF9F",
"83	c #B49583",
"93	c #AC7865",
"03	c #AB7261",
"a3	c #A77263",
"b3	c #905E4F",
"c3	c #7D594B",
"d3	c #88695A",
"e3	c #987D6C",
"f3	c #968677",
"g3	c #796D61",
"h3	c #645950",
"i3	c #2C2825",
"j3	c #1E1918",
"k3	c #140D0D",
"l3	c #2F0504",
"m3	c #2F0403",
"n3	c #64110C",
"o3	c #A2221A",
"p3	c #961D16",
"q3	c #720E09",
"r3	c #7F120D",
"s3	c #87150E",
"t3	c #6B0D08",
"u3	c #410403",
"v3	c #0E0C0C",
"w3	c #6D6259",
"x3	c #69574E",
"y3	c #60382F",
"z3	c #541A13",
"A3	c #572F28",
"B3	c #8D6C5E",
"C3	c #AA8E7E",
"D3	c #B59F90",
"E3	c #C7B1A0",
"F3	c #C4AC9B",
"G3	c #B09486",
"H3	c #AF9181",
"I3	c #B59B8A",
"J3	c #C7B6A6",
"K3	c #DDD2C4",
"L3	c #D6C9B9",
"M3	c #B9AA9B",
"N3	c #8C7D72",
"O3	c #3A342F",
"P3	c #34312F",
"Q3	c #918983",
"R3	c #CABFB3",
"S3	c #D2C5B6",
"T3	c #CDBEAE",
"U3	c #C1AD9C",
"V3	c #B79F8D",
"W3	c #AE8574",
"X3	c #9D6D5C",
"Y3	c #88574A",
"Z3	c #784034",
"`3	c #724235",
" 4	c #774B3E",
".4	c #7B6154",
"+4	c #7A685C",
"@4	c #685A50",
"#4	c #6B5F55",
"$4	c #2D2725",
"%4	c #2A2421",
"&4	c #0F0505",
"*4	c #941D16",
"=4	c #7D1610",
"-4	c #5E0C09",
";4	c #851914",
">4	c #8A1A16",
",4	c #5C0D0C",
"'4	c #3B0605",
")4	c #0F0D0D",
"!4	c #38322E",
"~4	c #75675D",
"{4	c #78675D",
"]4	c #7F655A",
"^4	c #814E43",
"/4	c #75342A",
"(4	c #723026",
"_4	c #855042",
":4	c #AA8A7B",
"<4	c #C9B4A4",
"[4	c #D1BFAD",
"}4	c #C8B5A5",
"|4	c #B6A295",
"14	c #B09B8E",
"24	c #C4AF9F",
"34	c #D5C1B1",
"44	c #DDD0C2",
"54	c #D3C7B8",
"64	c #B5A698",
"74	c #7A6E65",
"84	c #282625",
"94	c #7E7975",
"04	c #B9B2A9",
"a4	c #CABCAD",
"b4	c #BFAB9A",
"c4	c #C1A997",
"d4	c #B18F7F",
"e4	c #875347",
"f4	c #682017",
"g4	c #611911",
"h4	c #601F17",
"i4	c #663128",
"j4	c #6A4A40",
"k4	c #6F584D",
"l4	c #57473F",
"m4	c #51463F",
"n4	c #2A2422",
"o4	c #1D1918",
"p4	c #6F0D0A",
"q4	c #600A08",
"r4	c #5C0C0A",
"s4	c #861A15",
"t4	c #831B16",
"u4	c #570E0D",
"v4	c #480908",
"w4	c #390706",
"x4	c #433A35",
"y4	c #7A6B5E",
"z4	c #8E7A6A",
"A4	c #886E5F",
"B4	c #7B564A",
"C4	c #81564B",
"D4	c #815247",
"E4	c #7A463B",
"F4	c #7E473A",
"G4	c #A08071",
"H4	c #C6B3A1",
"I4	c #DACAB8",
"J4	c #D5C6B6",
"K4	c #B9A294",
"L4	c #A08178",
"M4	c #AF968A",
"N4	c #D6C4B6",
"O4	c #DBD0C2",
"P4	c #C3B4A6",
"Q4	c #4C4741",
"R4	c #100E0D",
"S4	c #080707",
"T4	c #332F2D",
"U4	c #6C6763",
"V4	c #AFA69B",
"W4	c #B3A395",
"X4	c #A99282",
"Y4	c #B29A89",
"Z4	c #AE8C7A",
"`4	c #975E4E",
" 5	c #7E2F23",
".5	c #69140D",
"+5	c #5F150E",
"@5	c #60241C",
"#5	c #653B31",
"$5	c #64493F",
"%5	c #523D35",
"&5	c #40332E",
"*5	c #272221",
"=5	c #25201E",
"-5	c #3D0706",
";5	c #4C0707",
">5	c #3F0404",
",5	c #5E0807",
"'5	c #861310",
")5	c #851612",
"!5	c #73120E",
"~5	c #580B08",
"{5	c #251F1C",
"]5	c #887465",
"^5	c #9C8270",
"/5	c #8D705F",
"(5	c #5F3E34",
"_5	c #573D35",
":5	c #5A4038",
"<5	c #785447",
"[5	c #926B5C",
"}5	c #AC8C7B",
"|5	c #C4AC99",
"15	c #D8C8B7",
"25	c #D8CBBC",
"35	c #BFA597",
"45	c #A37B6F",
"55	c #9C8177",
"65	c #CEBEB0",
"75	c #CDBFB0",
"85	c #A79789",
"95	c #5E544C",
"05	c #171412",
"a5	c #252221",
"b5	c #9B8B7F",
"c5	c #9B8071",
"d5	c #A58A78",
"e5	c #AE8D79",
"f5	c #9C6C5B",
"g5	c #7F392D",
"h5	c #711910",
"i5	c #6B1810",
"j5	c #6F231A",
"k5	c #814236",
"l5	c #775246",
"m5	c #6F5246",
"n5	c #56433A",
"o5	c #56483F",
"p5	c #3B332E",
"q5	c #3D3632",
"r5	c #1B1614",
"s5	c #240706",
"t5	c #290605",
"u5	c #5E0808",
"v5	c #780F0D",
"w5	c #7C120F",
"x5	c #7A100D",
"y5	c #620B08",
"z5	c #340605",
"A5	c #0F0C0C",
"B5	c #29221F",
"C5	c #836F61",
"D5	c #977D6C",
"E5	c #7E5C4D",
"F5	c #653E33",
"G5	c #604139",
"H5	c #927264",
"I5	c #B79888",
"J5	c #C5AC9B",
"K5	c #C6B0A0",
"L5	c #CAB7A6",
"M5	c #CBB7A6",
"N5	c #906A60",
"O5	c #735952",
"P5	c #B3A498",
"Q5	c #B7AA9C",
"R5	c #6E655D",
"S5	c #272320",
"T5	c #413E3C",
"U5	c #997C6C",
"V5	c #AB8C79",
"W5	c #AA826E",
"X5	c #8D5546",
"Y5	c #671D14",
"Z5	c #5E0D08",
"`5	c #691008",
" 6	c #762118",
".6	c #7B4034",
"+6	c #7D584A",
"@6	c #7B5E50",
"#6	c #5E4940",
"$6	c #5F4F45",
"%6	c #5A4F47",
"&6	c #4C433D",
"*6	c #332E2C",
"=6	c #24201F",
"-6	c #1F0A08",
";6	c #2F0404",
">6	c #490605",
",6	c #660A08",
"'6	c #700B09",
")6	c #610908",
"!6	c #0A0809",
"~6	c #61534B",
"{6	c #7A6558",
"]6	c #856859",
"^6	c #704B3F",
"/6	c #4A231D",
"(6	c #3C1D18",
"_6	c #715247",
":6	c #9F8070",
"<6	c #C2A896",
"[6	c #CCB8A6",
"}6	c #D3C1B0",
"|6	c #CDB6A4",
"16	c #A78778",
"26	c #5F4038",
"36	c #2C201E",
"46	c #59514B",
"56	c #645E58",
"66	c #2D2927",
"76	c #010304",
"86	c #51443B",
"96	c #957A6A",
"06	c #B2907C",
"a6	c #B58B76",
"b6	c #9D6554",
"c6	c #7D2F24",
"d6	c #6B1711",
"e6	c #62130D",
"f6	c #7C3025",
"g6	c #915A4A",
"h6	c #957261",
"i6	c #806759",
"j6	c #655046",
"k6	c #6B5B50",
"l6	c #625850",
"m6	c #48413C",
"n6	c #35302D",
"o6	c #2F0605",
"p6	c #510604",
"q6	c #710908",
"r6	c #6C0808",
"s6	c #490404",
"t6	c #191312",
"u6	c #443831",
"v6	c #6B5A4E",
"w6	c #785F51",
"x6	c #755042",
"y6	c #744335",
"z6	c #56251D",
"A6	c #53342C",
"B6	c #785A4F",
"C6	c #A4897A",
"D6	c #C8B19F",
"E6	c #D6C2AE",
"F6	c #D8C4B2",
"G6	c #D6C5B3",
"H6	c #C7B2A1",
"I6	c #9B7E71",
"J6	c #57423A",
"K6	c #1B1715",
"L6	c #060505",
"M6	c #040405",
"N6	c #060507",
"O6	c #010103",
"P6	c #2F2924",
"Q6	c #846E62",
"R6	c #AE8976",
"S6	c #B7856F",
"T6	c #AF6C58",
"U6	c #994232",
"V6	c #751A11",
"W6	c #510B06",
"X6	c #60251C",
"Y6	c #835647",
"Z6	c #9F7D6B",
"`6	c #8D7767",
" 7	c #69564C",
".7	c #6E5E53",
"+7	c #736358",
"@7	c #706359",
"#7	c #584E46",
"$7	c #483F3A",
"%7	c #3F3632",
"&7	c #6C0D09",
"*7	c #870F0B",
"=7	c #830C0B",
"-7	c #580608",
";7	c #250203",
">7	c #56463C",
",7	c #6E5649",
"'7	c #6F5043",
")7	c #71493C",
"!7	c #805142",
"~7	c #764336",
"{7	c #866053",
"]7	c #A98F80",
"^7	c #BEAB9B",
"/7	c #CFC0B0",
"(7	c #CFBEAD",
"_7	c #D3BDAB",
":7	c #DCCBBA",
"<7	c #928279",
"[7	c #342623",
"}7	c #090808",
"|7	c #3A312E",
"17	c #3C322D",
"27	c #29221E",
"37	c #0F0B0B",
"47	c #040305",
"57	c #030204",
"67	c #67584F",
"77	c #9F7D6D",
"87	c #B37E6B",
"97	c #BA735D",
"07	c #AE5440",
"a7	c #862116",
"b7	c #5E0B05",
"c7	c #612921",
"d7	c #845548",
"e7	c #927465",
"f7	c #928072",
"g7	c #7C6B5D",
"h7	c #826E60",
"i7	c #756356",
"j7	c #706357",
"k7	c #63584D",
"l7	c #544941",
"m7	c #4C413B",
"n7	c #480A0A",
"o7	c #6F100C",
"p7	c #77100B",
"q7	c #580807",
"r7	c #390405",
"s7	c #221D1A",
"t7	c #483D36",
"u7	c #5B4940",
"v7	c #62493E",
"w7	c #624236",
"x7	c #623C30",
"y7	c #795142",
"z7	c #876253",
"A7	c #977A6C",
"B7	c #BFAB9B",
"C7	c #D1C1B0",
"D7	c #D5C9BB",
"E7	c #D0C4B8",
"F7	c #D6C6B7",
"G7	c #DDCEBE",
"H7	c #BFB2A5",
"I7	c #6D655F",
"J7	c #3C3430",
"K7	c #231C18",
"L7	c #040302",
"M7	c #443C37",
"N7	c #90786C",
"O7	c #AB7B6A",
"P7	c #B15C48",
"Q7	c #AB4430",
"R7	c #882317",
"S7	c #66130D",
"T7	c #693B33",
"U7	c #947062",
"V7	c #A8907F",
"W7	c #A79787",
"X7	c #8D7E70",
"Y7	c #6A5B50",
"Z7	c #65584E",
"`7	c #796C61",
" 8	c #73665A",
".8	c #685A51",
"+8	c #6F6258",
"@8	c #4C423B",
"#8	c #5E4F46",
"$8	c #59453C",
"%8	c #63483D",
"&8	c #634237",
"*8	c #5E382D",
"=8	c #704F42",
"-8	c #6E574C",
";8	c #816E64",
">8	c #D4C6B7",
",8	c #C7B9AB",
"'8	c #C9BAAE",
")8	c #DED0C2",
"!8	c #D2C3B4",
"~8	c #8B7F76",
"{8	c #322C29",
"]8	c #191413",
"^8	c #2B2523",
"/8	c #332B26",
"(8	c #1B1613",
"_8	c #121211",
":8	c #6C5E55",
"<8	c #A37E6D",
"[8	c #A96855",
"}8	c #963F2F",
"|8	c #842318",
"18	c #76281F",
"28	c #795448",
"38	c #9C8374",
"48	c #B09E8D",
"58	c #AA9C8C",
"68	c #948678",
"78	c #786A5F",
"88	c #554942",
"98	c #6C6056",
"08	c #7F7065",
"a8	c #77685B",
"b8	c #5B4F45",
"c8	c #362C26",
"d8	c #5A463C",
"e8	c #5D3E33",
"f8	c #5C392F",
"g8	c #61392E",
"h8	c #6A4336",
"i8	c #745345",
"j8	c #654D43",
"k8	c #604E46",
"l8	c #9B8C81",
"m8	c #C6B8AA",
"n8	c #CAB8A9",
"o8	c #C6AFA0",
"p8	c #C8B2A4",
"q8	c #A69387",
"r8	c #594A44",
"s8	c #3A302B",
"t8	c #2F2824",
"u8	c #28211E",
"v8	c #0D0A09",
"w8	c #4E4843",
"x8	c #9A8679",
"y8	c #B6917E",
"z8	c #AC7965",
"A8	c #9F5F4E",
"B8	c #904D3E",
"C8	c #8C6659",
"D8	c #907669",
"E8	c #937F71",
"F8	c #AA9989",
"G8	c #9B8B7C",
"H8	c #938476",
"I8	c #6A5E54",
"J8	c #594E45",
"K8	c #706155",
"L8	c #736458",
"M8	c #796A5D",
"N8	c #63564C",
"O8	c #4D4139",
"P8	c #665449",
"Q8	c #624035",
"R8	c #643F33",
"S8	c #6B493D",
"T8	c #75594D",
"U8	c #4C3730",
"V8	c #221411",
"W8	c #645952",
"X8	c #CCBBAD",
"Y8	c #A59386",
"Z8	c #736359",
"`8	c #443530",
" 9	c #4E4039",
".9	c #493B35",
"+9	c #41342F",
"@9	c #2F2724",
"#9	c #201A19",
"$9	c #080706",
"%9	c #020303",
"&9	c #383735",
"*9	c #76675F",
"=9	c #A18475",
"-9	c #B59481",
";9	c #B49380",
">9	c #A27F6F",
",9	c #9E8375",
"'9	c #988677",
")9	c #9F8D7C",
"!9	c #988678",
"~9	c #98887B",
"{9	c #6F6359",
"]9	c #61544A",
"^9	c #5F5147",
"/9	c #6F6054",
"(9	c #756457",
"_9	c #615147",
":9	c #433730",
"<9	c #352D28",
"[9	c #594C45",
"}9	c #695B50",
"|9	c #68554A",
"19	c #634A3E",
"29	c #5C4035",
"39	c #553A31",
"49	c #4E3D35",
"59	c #36312D",
"69	c #8A8178",
"79	c #A49C92",
"89	c #3F342F",
"99	c #483933",
"09	c #4C3D37",
"a9	c #4D3F38",
"b9	c #4C3E37",
"c9	c #4B3E36",
"d9	c #382E29",
"e9	c #251F1D",
"f9	c #020102",
"g9	c #0D090A",
"h9	c #322925",
"i9	c #79685E",
"j9	c #B19B8C",
"k9	c #BEA997",
"l9	c #B8A493",
"m9	c #C0B1A3",
"n9	c #97887B",
"o9	c #6B5D53",
"p9	c #56483E",
"q9	c #65554A",
"r9	c #7B6A5E",
"s9	c #7A695C",
"t9	c #66564B",
"u9	c #55463D",
"v9	c #413832",
"w9	c #61554C",
"x9	c #69594F",
"y9	c #504037",
"z9	c #503D34",
"A9	c #362822",
"B9	c #17110F",
"C9	c #0D0B0B",
"D9	c #403C39",
"E9	c #43403D",
"F9	c #382F2C",
"G9	c #493831",
"H9	c #524039",
"I9	c #473832",
"J9	c #463831",
"K9	c #4E3F39",
"L9	c #493C35",
"M9	c #2E2623",
"N9	c #161212",
"O9	c #130F0D",
"P9	c #1D1614",
"Q9	c #4D433D",
"R9	c #B6A597",
"S9	c #B9AA9A",
"T9	c #B5A595",
"U9	c #BAAB9D",
"V9	c #CBBEAE",
"W9	c #B0A292",
"X9	c #9E8F81",
"Y9	c #65584F",
"Z9	c #514239",
"`9	c #746357",
" 0	c #5E5147",
".0	c #57473E",
"+0	c #544A42",
"@0	c #574C44",
"#0	c #61534A",
"$0	c #4A3D36",
"%0	c #2E231F",
"&0	c #16100E",
"*0	c #050304",
"=0	c #151010",
"-0	c #2D2422",
";0	c #45322C",
">0	c #5C4137",
",0	c #5D4237",
"'0	c #553C32",
")0	c #594137",
"!0	c #513F36",
"~0	c #4D3E35",
"{0	c #3C3029",
"]0	c #1D1715",
"^0	c #070405",
"/0	c #0B0808",
"(0	c #1B110F",
"_0	c #A19184",
":0	c #BAA899",
"<0	c #B7A595",
"[0	c #B5A496",
"}0	c #C0B2A4",
"|0	c #AD9E8D",
"10	c #9C8B7D",
"20	c #7B6E63",
"30	c #382E28",
"40	c #55463E",
"50	c #52433A",
"60	c #453830",
"70	c #423933",
"80	c #564B43",
"90	c #493E38",
"00	c #463B35",
"a0	c #2F2622",
"b0	c #201917",
"c0	c #090606",
"d0	c #352B27",
"e0	c #493A34",
"f0	c #694E43",
"g0	c #7E5847",
"h0	c #805543",
"i0	c #7D513E",
"j0	c #714938",
"k0	c #5D4034",
"l0	c #523B31",
"m0	c #4F3B32",
"n0	c #554238",
"o0	c #392A24",
"p0	c #191310",
"q0	c #080605",
"r0	c #0B0809",
"s0	c #181210",
"t0	c #221915",
"u0	c #1E1512",
"v0	c #070201",
"w0	c #38332F",
"x0	c #8B8175",
"y0	c #C2B3A2",
"z0	c #C2AF9E",
"A0	c #C3B2A0",
"B0	c #B7A799",
"C0	c #8D7D70",
"D0	c #817367",
"E0	c #91867B",
"F0	c #6F675F",
"G0	c #25221F",
"H0	c #120E0B",
"I0	c #231B18",
"J0	c #3A2F29",
"K0	c #3E322B",
"L0	c #463D37",
"M0	c #28221E",
"N0	c #110D0B",
"O0	c #241D1A",
"P0	c #1F1815",
"Q0	c #030303",
"R0	c #251E1C",
"S0	c #342A27",
"T0	c #473932",
"U0	c #694F43",
"V0	c #956957",
"W0	c #9E6752",
"X0	c #9F5E47",
"Y0	c #AC654A",
"Z0	c #A05D43",
"`0	c #824936",
" a	c #684437",
".a	c #533C32",
"+a	c #47342C",
"@a	c #35251F",
"#a	c #261E18",
"$a	c #0C0907",
"%a	c #010100",
"&a	c #0E0A0A",
"*a	c #171211",
"=a	c #221814",
"-a	c #554C45",
";a	c #9A897B",
">a	c #B6A392",
",a	c #BAAA9A",
"'a	c #AA9888",
")a	c #948172",
"!a	c #6E6259",
"~a	c #8C8278",
"{a	c #6A625A",
"]a	c #181311",
"^a	c #332722",
"/a	c #221A16",
"(a	c #1B1410",
"_a	c #291E1A",
":a	c #211C1A",
"<a	c #110F0D",
"[a	c #040403",
"}a	c #0C0706",
"|a	c #151210",
"1a	c #2D2622",
"2a	c #54443C",
"3a	c #775044",
"4a	c #A3604A",
"5a	c #B56448",
"6a	c #BF6E50",
"7a	c #C87657",
"8a	c #B66145",
"9a	c #964D37",
"0a	c #714536",
"aa	c #4A342C",
"ba	c #372822",
"ca	c #201815",
"da	c #181312",
"ea	c #32251F",
"fa	c #30221C",
"ga	c #160D0A",
"ha	c #251C18",
"ia	c #64534B",
"ja	c #9C897C",
"ka	c #A58F7E",
"la	c #77655C",
"ma	c #554944",
"na	c #2A211D",
"oa	c #2F2623",
"pa	c #030203",
"qa	c #131110",
"ra	c #2D2520",
"sa	c #43332C",
"ta	c #5B3A30",
"ua	c #8A4432",
"va	c #A44830",
"wa	c #B95336",
"xa	c #C95537",
"ya	c #B8452A",
"za	c #953C28",
"Aa	c #673225",
"Ba	c #3E2822",
"Ca	c #30211C",
"Da	c #211714",
"Ea	c #221A17",
"Fa	c #46352D",
"Ga	c #46342C",
"Ha	c #403732",
"Ia	c #7C6C62",
"Ja	c #A08D7F",
"Ka	c #B09887",
"La	c #B0917E",
"Ma	c #7C6558",
"Na	c #4B372F",
"Oa	c #201715",
"Pa	c #0F0A0A",
"Qa	c #140F0D",
"Ra	c #130E0C",
"Sa	c #29211E",
"Ta	c #372B25",
"Ua	c #312520",
"Va	c #482B22",
"Wa	c #82422F",
"Xa	c #94412C",
"Ya	c #963520",
"Za	c #A3341E",
"`a	c #A4331E",
" b	c #963521",
".b	c #672C1E",
"+b	c #3F271F",
"@b	c #271914",
"#b	c #120B09",
"$b	c #070505",
"%b	c #110E0C",
"&b	c #241B17",
"*b	c #3C2D26",
"=b	c #4B3830",
"-b	c #1B1412",
";b	c #483831",
">b	c #796155",
",b	c #987968",
"'b	c #A37864",
")b	c #77594A",
"!b	c #372621",
"~b	c #0A0707",
"{b	c #18110F",
"]b	c #0A0908",
"^b	c #161311",
"/b	c #2D2521",
"(b	c #372C27",
"_b	c #2E241F",
":b	c #392822",
"<b	c #7D4535",
"[b	c #7C3626",
"}b	c #6C1A10",
"|b	c #641910",
"1b	c #612519",
"2b	c #522A1F",
"3b	c #382219",
"4b	c #0D0908",
"5b	c #090707",
"6b	c #3B2F28",
"7b	c #372C26",
"8b	c #2C231E",
"9b	c #392B25",
"0b	c #5B463C",
"ab	c #6E5346",
"bb	c #714D3E",
"cb	c #54392E",
"db	c #2D221D",
"eb	c #1C1715",
"fb	c #0B0A09",
"gb	c #181412",
"hb	c #372D27",
"ib	c #2C231F",
"jb	c #2C221F",
"kb	c #4A3931",
"lb	c #65473A",
"mb	c #6F3F32",
"nb	c #5D2920",
"ob	c #401A13",
"pb	c #402018",
"qb	c #301C16",
"rb	c #211511",
"sb	c #18120F",
"tb	c #0E0A07",
"ub	c #030302",
"vb	c #090706",
"wb	c #14110F",
"xb	c #1E1816",
"yb	c #342B25",
"zb	c #3F342D",
"Ab	c #42342D",
"Bb	c #483730",
"Cb	c #49332B",
"Db	c #4B2B22",
"Eb	c #3B251E",
"Fb	c #32261F",
"Gb	c #30201A",
"Hb	c #2B1B15",
"Ib	c #1C110E",
"Jb	c #070707",
"Kb	c #28201C",
"Lb	c #322923",
"Mb	c #2D241F",
"Nb	c #2A211C",
"Ob	c #392D27",
"Pb	c #513E34",
"Qb	c #5F4539",
"Rb	c #52392E",
"Sb	c #32201A",
"Tb	c #291914",
"Ub	c #1B1310",
"Vb	c #1A1411",
"Wb	c #251D1A",
"Xb	c #261F1C",
"Yb	c #352B26",
"Zb	c #43352E",
"`b	c #4B3931",
" c	c #472F28",
".c	c #4E281E",
"+c	c #503229",
"@c	c #433229",
"#c	c #422B23",
"$c	c #2C1B15",
"%c	c #110907",
"&c	c #0C0B0A",
"*c	c #2E2621",
"=c	c #2A221E",
"-c	c #281F1B",
";c	c #362A25",
">c	c #493830",
",c	c #3F2F27",
"'c	c #2F221D",
")c	c #1C1513",
"!c	c #1E1814",
"~c	c #1D1713",
"{c	c #0F0C09",
"]c	c #231C19",
"^c	c #342B26",
"/c	c #42352E",
"(c	c #44342D",
"_c	c #4A3129",
":c	c #56251B",
"<c	c #522A20",
"[c	c #2E201B",
"}c	c #291D18",
"|c	c #33211A",
"1c	c #1A0F0C",
"2c	c #0E0C0D",
"3c	c #100D0E",
"4c	c #332823",
"5c	c #1F1814",
"6c	c #332824",
"7c	c #3D2F29",
"8c	c #47362E",
"9c	c #41322B",
"0c	c #1F1816",
"ac	c #261F1A",
"bc	c #15110F",
"cc	c #080708",
"dc	c #0B0908",
"ec	c #261E1A",
"fc	c #42322A",
"gc	c #4F3C32",
"hc	c #4D362E",
"ic	c #401D16",
"jc	c #351B16",
"kc	c #1C130F",
"lc	c #0A0604",
"mc	c #070607",
"nc	c #2F2521",
"oc	c #3C302A",
"pc	c #342924",
"qc	c #2B221E",
"rc	c #382D27",
"sc	c #44352E",
"tc	c #312822",
"uc	c #241C19",
"vc	c #3C2F28",
"wc	c #1B1411",
"xc	c #080808",
"yc	c #15100D",
"zc	c #362720",
"Ac	c #513A2F",
"Bc	c #54372D",
"Cc	c #462218",
"Dc	c #2C130E",
"Ec	c #110A08",
"Fc	c #090807",
"Gc	c #1C1816",
"Hc	c #1F1A17",
"Ic	c #473A32",
"Jc	c #41332C",
"Kc	c #3B2F29",
"Lc	c #4A3B33",
"Mc	c #463931",
"Nc	c #342A24",
"Oc	c #362B24",
"Pc	c #392D26",
"Qc	c #231A15",
"Rc	c #020201",
"Sc	c #110F0E",
"Tc	c #110E0E",
"Uc	c #0E0B0C",
"Vc	c #211713",
"Wc	c #402C23",
"Xc	c #4E352B",
"Yc	c #381F18",
"Zc	c #1B0B08",
"`c	c #251F1B",
" d	c #2B241F",
".d	c #312924",
"+d	c #362C27",
"@d	c #483A32",
"#d	c #4A3B32",
"$d	c #3A2D26",
"%d	c #3F322C",
"&d	c #4A3C34",
"*d	c #4C3E35",
"=d	c #45352D",
"-d	c #120C0A",
";d	c #070605",
">d	c #1D1817",
",d	c #0C0A0B",
"'d	c #080506",
")d	c #120B0A",
"!d	c #261F1B",
"~d	c #2F2722",
"{d	c #211C19",
"]d	c #2B231F",
"^d	c #41352E",
"/d	c #43362E",
"(d	c #211B18",
"_d	c #2F2621",
":d	c #3D322B",
"<d	c #392C25",
"[d	c #1C1613",
"}d	c #080607",
"|d	c #110D0E",
"1d	c #191414",
"2d	c #1A1615",
"3d	c #0D0C0B",
"4d	c #0B0706",
"5d	c #130F0E",
"6d	c #2C241F",
"7d	c #221C18",
"8d	c #2C2420",
"9d	c #2E2521",
"0d	c #221B18",
"ad	c #3A3029",
"bd	c #181310",
"cd	c #030102",
"dd	c #070404",
"ed	c #100C0B",
"fd	c #382E27",
"gd	c #3A2F28",
"hd	c #211B17",
"id	c #010202",
"jd	c #0F0C0D",
"kd	c #191514",
"ld	c #141111",
"md	c #251D19",
"nd	c #2F2620",
"od	c #161210",
"pd	c #201B17",
"qd	c #3D332C",
"rd	c #463A32",
"sd	c #433830",
"td	c #332720",
"ud	c #342820",
"vd	c #141211",
"wd	c #13100F",
"xd	c #0B090A",
"yd	c #120F0F",
"zd	c #151111",
"Ad	c #201916",
"Bd	c #342C26",
"Cd	c #41362F",
"Dd	c #483B33",
"Ed	c #322823",
"Fd	c #2E231D",
"Gd	c #30251E",
"Hd	c #0E0C0B",
"Id	c #080606",
"Jd	c #302520",
"Kd	c #322620",
"Ld	c #100D0B",
"Md	c #1D1815",
"Nd	c #40342C",
"Od	c #332923",
"Pd	c #302721",
"Qd	c #1E1916",
"Rd	c #0A090A",
"Sd	c #120E0C",
"Td	c #271F1A",
"Ud	c #41352D",
"Vd	c #3C2F27",
"Wd	c #291E19",
"Xd	c #160F0D",
"Yd	c #171210",
"Zd	c #42362F",
"`d	c #45382F",
" e	c #4C3D33",
".e	c #100C0C",
"+e	c #231B17",
"@e	c #1F1713",
"#e	c #050504",
"$e	c #221B17",
"%e	c #2E251F",
"&e	c #2A221D",
"*e	c #4A3930",
"=e	c #4B382D",
"-e	c #3A2B23",
";e	c #29221D",
">e	c #3E3129",
",e	c #4D3D33",
"'e	c #281F1A",
")e	c #2C221D",
"!e	c #251D18",
"~e	c #0D0A08",
"{e	c #352A23",
"]e	c #47382E",
"^e	c #3B2D25",
"/e	c #3F2F26",
"(e	c #46352B",
"_e	c #4B392E",
":e	c #4F3C31",
"<e	c #48382F",
"[e	c #40332C",
"}e	c #2D231D",
"|e	c #42342B",
"1e	c #1C1614",
"2e	c #1F1917",
"3e	c #191412",
"4e	c #110E0D",
"5e	c #080504",
"6e	c #5C4234",
"7e	c #6F4E3C",
"8e	c #674A3B",
"9e	c #533F34",
"0e	c #4E3C32",
"ae	c #58453A",
"be	c #685246",
"ce	c #695345",
"de	c #49392F",
"ee	c #201915",
"fe	c #1C1612",
"ge	c #211915",
"he	c #171311",
"ie	c #130E0D",
"je	c #231B19",
"ke	c #251E1A",
"le	c #151211",
"me	c #0F0C0B",
"ne	c #0B0707",
"oe	c #000101",
"pe	c #1D1410",
"qe	c #443228",
"re	c #5B4234",
"se	c #5C4032",
"te	c #543C2F",
"ue	c #48352C",
"ve	c #3E2E26",
"we	c #3F3028",
"xe	c #4B3A30",
"ye	c #503E33",
"ze	c #47372E",
"Ae	c #372B24",
"Be	c #070506",
"Ce	c #1C1515",
"De	c #2E2019",
"Ee	c #3F2D25",
"Fe	c #46332A",
"Ge	c #4D382C",
"He	c #5C4133",
"Ie	c #634637",
"Je	c #5A4134",
"Ke	c #49372D",
"Le	c #3A2C25",
"Me	c #312620",
"Ne	c #352923",
"Oe	c #423229",
"Pe	c #352820",
"Qe	c #120D09",
"Re	c #14100E",
"Se	c #1D1411",
"Te	c #100D0C",
"Ue	c #160F0B",
"Ve	c #47342B",
"We	c #61483B",
"Xe	c #715241",
"Ye	c #7F5743",
"Ze	c #815842",
"`e	c #75523F",
" f	c #5F4437",
".f	c #413028",
"+f	c #271E1A",
"@f	c #413329",
"#f	c #31251F",
"$f	c #2B1F1B",
"%f	c #15100F",
"&f	c #0D0A0B",
"*f	c #241A15",
"=f	c #4E3B31",
"-f	c #644B3E",
";f	c #674D3E",
">f	c #624536",
",f	c #624131",
"'f	c #5D3E30",
")f	c #543A2E",
"!f	c #4D372D",
"~f	c #3D2D26",
"{f	c #271E19",
"]f	c #0A0505",
"^f	c #100907",
"/f	c #241814",
"(f	c #271A17",
"_f	c #281A18",
":f	c #201514",
"<f	c #201412",
"[f	c #190F0F",
"}f	c #050302",
"|f	c #150E0C",
"1f	c #332620",
"2f	c #40312A",
"3f	c #382A24",
"4f	c #2B1F1A",
"5f	c #231914",
"6f	c #271C16",
"7f	c #271D18",
"8f	c #392C26",
"9f	c #291915",
"0f	c #271612",
"af	c #261410",
"bf	c #341913",
"cf	c #421E17",
"df	c #452019",
"ef	c #311814",
"ff	c #291513",
"gf	c #1B0D0C",
"hf	c #110C0A",
"if	c #2B201B",
"jf	c #42332C",
"kf	c #534238",
"lf	c #503F35",
"mf	c #3E312A",
"nf	c #2D221E",
"of	c #0F0B09",
"pf	c #090605",
"qf	c #100B08",
"rf	c #130D0A",
"sf	c #0A0606",
"tf	c #170C0A",
"uf	c #1A0C0A",
"vf	c #210C0A",
"wf	c #3D1711",
"xf	c #532016",
"yf	c #501C13",
"zf	c #41140E",
"Af	c #30110E",
"Bf	c #200C0A",
"Cf	c #0B0303",
"Df	c #342922",
"Ef	c #4C3A31",
"Ff	c #5A463B",
"Gf	c #503E35",
"Hf	c #2E2420",
"If	c #110C0B",
"Jf	c #0A0605",
"Kf	c #1E0B09",
"Lf	c #36140F",
"Mf	c #491A13",
"Nf	c #4A1810",
"Of	c #280C09",
"Pf	c #120504",
"Qf	c #070303",
"Rf	c #0A0706",
"Sf	c #2A1F1B",
"Tf	c #352622",
"Uf	c #3F2F28",
"Vf	c #42322B",
"Wf	c #403029",
"Xf	c #3E2E27",
"Yf	c #382923",
"Zf	c #30231E",
"`f	c #241915",
" g	c #130D0B",
".g	c #1C1312",
"+g	c #090504",
"@g	c #0B0405",
"#g	c #160706",
"$g	c #1C0805",
"%g	c #1A0604",
"&g	c #110404",
"*g	c #130908",
"=g	c #0B0505",
"-g	c #0B0606",
";g	c #1E100E",
">g	c #46281E",
",g	c #75523E",
"'g	c #8A664C",
")g	c #745541",
"!g	c #4F362C",
"~g	c #37241F",
"{g	c #281915",
"]g	c #180E0C",
"^g	c #1B0F0D",
"/g	c #231512",
"(g	c #150B08",
"_g	c #060302",
":g	c #040201",
"<g	c #110705",
"[g	c #2A140F",
"}g	c #472117",
"|g	c #743E29",
"1g	c #A76845",
"2g	c #B9754D",
"3g	c #9A5B3D",
"4g	c #653727",
"5g	c #3D1E17",
"6g	c #100806",
"7g	c #090505",
"8g	c #200E0A",
"9g	c #1B0C0A",
"0g	c #0F0605",
"ag	c #100505",
"bg	c #1A0906",
"cg	c #451E16",
"dg	c #6B3222",
"eg	c #8C422A",
"fg	c #A75C3B",
"gg	c #B46D46",
"hg	c #A25D3B",
"ig	c #823D26",
"jg	c #60281A",
"kg	c #2D0D08",
"lg	c #080202",
"mg	c #0F0404",
"ng	c #1B0907",
"og	c #120604",
"pg	c #060202",
"qg	c #070101",
"rg	c #120403",
"sg	c #35130C",
"tg	c #4F2216",
"ug	c #6D2E1D",
"vg	c #883D25",
"wg	c #864027",
"xg	c #7E3C26",
"yg	c #71311F",
"zg	c #501C11",
"Ag	c #2F0E09",
"Bg	c #190704",
"Cg	c #140604",
"Dg	c #100403",
"Eg	c #0E0303",
"Fg	c #090303",
"Gg	c #1A0806",
"Hg	c #36150E",
"Ig	c #371712",
"Jg	c #3A1A13",
"Kg	c #502316",
"Lg	c #532214",
"Mg	c #451B10",
"Ng	c #36130B",
"Og	c #250805",
"Pg	c #140402",
"Qg	c #0A0202",
"Rg	c #070202",
"Sg	c #060101",
"Tg	c #130403",
"Ug	c #190C0A",
"Vg	c #1C0C09",
"Wg	c #190805",
"Xg	c #110403",
"Yg	c #030000",
"Zg	c #040203",
"                                                                                                                                                              ",
"                                                                                                                                                              ",
"                                                                                                                                                              ",
"                                                                                                                                                              ",
"                                                                                                                                                              ",
"                                                                                                                                                              ",
"                                                                                                                                                              ",
"                                                                    . + @ # $ % & * =   - ;                                                                   ",
"                                                                  > , ' ) ! ~ { ] ^ / ( _ : <                                                                 ",
"                                                          [ } | 1 2 3 4 5 6 7 8 9 0 a b c d e                                                                 ",
"                                                        f g h i j k l m n o p q r s t u v w x y z A B C                                                       ",
"                                                      D E F G H I J K L M N O P Q R S T U V W X Y Z B `  ...                                                  ",
"                                                  +.@.#.$.%.&.*.=.-.;.>.,.'.).!.~.{.].^./.(._.:.<.[.}.|.1.2.                                                  ",
"                                                    3.4.5.6.7.8.9.0.a.b.c.d.e.f.g.h.i.j.k.l.m.n.o.p.q.r.s.                                                    ",
"                                                    t.u.v.w.x.y.z.A.B.C.D.E.F.G.H.I.J.K.L.M.N.O.P.Q.R.S.T.U.                                                  ",
"                                                  V.W.X.Y.Z.`. +.+++@+#+$+%+&+*+=+-+;+>+,+'+)+!+~+{+]+^+/+(+_+                                                ",
"                                                  :+<+Z.[+}+|+1+2+3+4+5+6+7+8+9+0+a+b+c+d+e+f+g+h+i+j+k+l+m+                                                  ",
"                                                    n+o+p+q+r+s+t+u+v+w+x+y+z+A+B+C+D+E+F+G+H+I+J+K+L+M+N+O+                                                  ",
"                                                    P+Q+R+S+T+U+V+W+X+Y+Z+`+ @.@+@@@#@$@%@&@*@=@-@;@>@,@k+'@                                                  ",
"                                                          )@!@~@{@]@^@/@(@_@:@<@[@}@|@1@2@3@4@5@6@7@8@                                                        ",
"                                                          9@0@a@b@c@d@e@f@g@h@i@j@k@l@m@n@o@p@q@r@s@t@                                                        ",
"                                                          u@v@w@x@y@z@A@B@C@D@E@F@G@H@I@J@K@L@M@g+N@O@                                                        ",
"                                                          P@Q@R@S@T@U@V@W@X@Y@Z@`@ #.#+#@###$#%#&#                                                            ",
"                                                          *#=#-#;#>#,#'#)#!#~#{#]#^#/#(#_#:#<#[#}#                                                            ",
"                                                          |#1#2#3#4#5#6#7#8#9#0#a#b#c#d#e#f#g#h#i#                                                            ",
"                                                          j#k#l#m#n#o#p#q#r#s#t#u#v#w#x#y#z#A#B#C#D#                                                          ",
"                                                      E#F#G#H#I#J#K#L#M#N#O#P#Q#R#S#y.T#U#V#W#X#Y#Z#`# $                                                      ",
"                                                  .$+$@$#$$$%$&$*$=$-$;$>$,$'$)$!$~${$]$^$/$($_$:$<$[$}$|$1$                                                  ",
"                                                F#2$3$4$5$6$7$8$+ 9$0$a$b$c$d$e$f$g$h$i$j$k$l$m$&.n$o$p$q$r$s$t$u$                                            ",
"                                          v$w$x$y$z$A$B$C$D$E$F$G$H$I$J$K$L$M$N$O$P$Q$R$S$+ T$T$U$V$W$X$Y$Z$`$ %.%+%@%                                        ",
"                                        #%$%%%&%*%=%-%;%>%,%'%)%!%~%{%]%^%/%(%_%:%<%[%}%|%1%2%3%4%5%6%7%8%9%0%a%b%c%d%e%f%                                    ",
"                                    g%h%i%j%k%l%m%n%o%p%q%r%s%t%f u%v%w%x%y%z%A%B%C%D%E%F%1 G%H%I%J%K%L%M%N%O%P%Q%R%S%T%U%V%W%X%                              ",
"                            Y%Z%`% &.&+&@&#&$&%&&&*&=&-&;&>&,&'&)&!&~&{&]&^&/&(&_&:&<&[&}&|&1&2&3&4&5&6&7&8&9&0&a&b&c&d&e&f&g&h&i&                            ",
"                          j&k&l&m&n&o&p&q&r&s&t&u&v&w&x&y&z&A&B&C&D&E&F&G&H&I&J&K&L&M&N&O&P&Q&R&S&T&U&V&W&X&Y&Z&`& *.*+*@*#*$*%*&*                            ",
"                          **=*-*;*>*,*'*)*!*~*{*]*^*/*(*_*:*<*[*}*|*1*2*3*4*5*6*7*8*G&9*0*a*b*c*d*e*f*g*h*i*j*k*l*x&m*n*o*p*q*r*s*t*                          ",
"                          u*v*w*x*y*z*A*B*C*D*E*F*G*H*I*J*K*L*M*N*O*P*Q*R*S*T*U*V*W*X*Y*Z*`* =.=+=@=#=$=%=&=*===-=;=>=,='=)=!=~={=]=                          ",
"                ^=/=(=_=:=<=v*[=}=|=1=2=3=4=5=6=7=8=9=0=a=b=c=d=e=f=g=h=i=j=k=l=m=n=o=p=q=r=s=t=u=v=w=x=y=z=A=B=C=D=E=F=G=V%H=I=J=K=L=                        ",
"              M=N=O=P=Q=R=S=T=U=V=W=X=Y=Z=`= -.-+-@-#-$-%-&-*-=---;->-,-'-)-!-~-{-]-^-/-(-_-:-<-[-}-|-1-2-3-4-5-6-7-8-9-0-a-b-c-d-e-f-                        ",
"              g-h-i-j-k-k-l-m-n-o-p-q-r-s-t-u-v-w-x-y-z-A-B-C-D-E-F-G-H-I-J-K-L-M-N-O-P-Q-R-S-T-U-V-W-X-Y-Z-`- ;.;+;@;#;$;%;&;*;=;-;;;                        ",
"                >;,;';);!;~;{;];^;/;(;_;:;<;[;};|;1;2;3;4;5;6;7;8;9;0;a;b;c;d;e;f;g;h;i;j;k;l;m;n;o;p;q;r;s;t;u;v;w;x;y;z;A;B;C;D;E;F;G;                      ",
"            H;I;J;K;L;M;N;O;P;Q;R;S;T;U;V;W;X;Y;Z;`; >.>+>@>#>$>%>&>*>=>->;>>>,>'>)>!>~>{>]>^>/>(>_>:><>[>}>|>1>2>3>4>5>6>7>8>9>0>a>b>c>                      ",
"        d>e>f>g>h>i>L;j>k>l>m>n>o>p>q>r>s>t>u>v>w>x>y>5.z>A>B>C>D>E>F>G>H>i;I>J>K>L>M>N>O>P>Q>R>S>T>U>V>W>X>Y>Z>`> ,.,+,@,#,$,%,&,*,=,-,;,                    ",
"      >,,,',),!,~,{,],^,/,(,_,:,<,[,},|,1,2,3,4,5,6,7,8,9,0,a,b,c,d,e,f,g,h,i,j,k,l,m,n,o,p,q,r,s,t,u,v,w,x,y,z,A,B,C,D,E,F,G,H,I,J,K,L,M,                    ",
"        N,O,P,Q,R,S,T,U,V,W,X,Y,Z,`, '.'+'@'#'l+#$$'%'&'*'='-';'>',''')'!'~'{']'^'/'('_':'<'['}'|'1'2'3'4'5'6'7'8'9'0'a'b'c'd'e'f'g'h'i'j'                    ",
"          k'l'm'n'o'p'q'r's't':,u'u'v'w'x'y'z'A'B'C'D'E'F'G'H'I'J'K'L'M'N'O'P'Q'R'S'T'U'V'W'X'Y'Z'`' ).)+)@)#)$)%)&)*)+,=)-);)>),)')))!)~){)                  ",
"          ])h-^)/)()_):)<)[)})|)1)2)3)|)4)5)6)7)8)9)0)a)b)c)d)e)f)g)h)i)j)k)l)m)n)o)p)q)r)s)t)u)v)w)x)y)4$z)A)B)C)D)E)F)f=G)H)I)J)K)L)M)N)O)                  ",
"        P)Q)R)S)T)U)V)W)X)Y)Z)`) !.!+!@!#!$!%!&!*!=!-!;!>!,!'!)!!!~!{!]!^!/!(!_!],:!<![!}!|!1!2!3!4!5!6!7!8!9!0!a!b!c!d!e!f!g!h!i!j!k!l!m!n!                  ",
"        o!p!q!r!s!t!u!v!w!x!y!z!A!B!C!D!E!F!G!H!I!J!K!L!M!N!O!P!Q!R!S!T!U!V!W!X!Y!Z!Y!`! ~.~+~@~#~$~%~&~*~=~-~;~>~,~'~)~!~~~{~]~^~/~(~_~:~<~[~                ",
"                }~|~1~2~3~4~5~6~7~8~9~0~a~b~c~d~e~f~g~h~i~j~k~l~m~n~o~p~q~r~s~t~}+u~v~w~x~y~z~A~B~C~D~E~F~G~o$H~I~J~K~L~M~N~O~P~Q~R~S~T~U~V~W~                ",
"                X~Y~^,Z~`~ {.{+{@{#{${%{&{*{={-{;{>{,{'{){!{~{{{]{^{/{({_{:{<{[{}{|{1{2{3{4{5{6{7{8{9{0{a{b{c{d{e{f{g{h{i{j{k{l{m{n{o{p{q{r{s{t{              ",
"                u{v{Z _'w{x{y{z{A{B{C{D{E{F{G{C{H{I{J{K{L{M{N{O{P{Q{R{S{T{U{V{W{X{Y{Z{`{ ].]+]@]#]$]%]&]*]=]-];]>],]'])]!].=~] ,{]]]^]/](]*@_]:]              ",
"                <][]}]|]1]Y!_!|{;{2]3]4]5]G{6]_'']7]8]9]0]a]b]c]d]e]f]g]h]i]j]k]l]m]n]o]p]q]r]s]t]u]v]w]x]y]z]A]B]C]D]D]E]F]t&G]H]I]J]K]L]M]N]O]              ",
"                  P]Q]R]S]T]U]V]W]X]Y]Z]`] ^H{.^+^@^#^$^%^&^*^=^-^;^>^,^'^)^!^~^{^]^^^/^(^_^:^<^[^}^|^1^2^3^4^5^6^7^8^9^0^a^b^c^d^e^f^g^h^i^j^k^l^            ",
"                    m^n^9]o^p^q^r^s^(!t^u^v^w^v^x^y^z^A^B^C^D^E^F^G^H^I^J^K^L^M^N^O^P^Q^R^S^T^U^V^W^X^Y^Z^`^ /./+/@/#/)]$/%/&/*/=/-/;/>/,/'/)/!/~/            ",
"                    1{{/]/9]^///(/X]_/  :/#/</D][/}/|/1/2/3/4/5/6/7/8/9/0/a/b/c/d/e/f/Z>g/h/i/j/k/l/m/n/o/p/q/r/s/E]H{8^t/u/v/w/x/y/z/A/B/C/v;D/E/            ",
"                      F/G/l)n^H/I/J/    K/</h{L/M/I{N/O/P/Q/R/S/T/U/V/W/X/Y/g/Z/`/ (.(+(@(#($(%(&(*(=(8=-(;(>(,('()(v^!(~({(](^(/(((_(:(<([(}(|(1(            ",
"                        2(3(S]4(        :/5(6(7(8(9(0(a(b(c(d(e(f(g(h(i(j(k(l(C,m(n(o(p(q(r(s(t(u(v(w(x(y(z(A(B(C(L/!(D(E(F(G(H(I(J(K(L(M(N(O(P(Q(R(          ",
"                                        S(T(t/U(j#V(M~W(X(Y(Z(`( _._+_Y @_#_'*$_%_&_*_=_-_;_>_,_'_)_!_~_{_]_^_J{/_(___  E(:_<_[_}_|_1_2_3_4_5_6_7_8_          ",
"                                        __9_0_a_b_c_d_e_f_g_h_i_j_k_I+l_m_n_]>o_p_q_r_s_t_{~u_v_w_x_y_z_A_B_C_D_E_M/F_  G_H_I_J_K_L_M_N_O_P_Q_R_Z/S_T_        ",
"                                        U_V_W_W_X_Y_.=Z_s/`_ :.:+:@:#:$:%:&:*:=:-:;:>:,:':):!:~:{:]:^:/:(:_:::<::@[:}:    |:1:2:3:4:5:6:7:8:9:0:a: ~b:        ",
"                                        c:d:e:7]f:g:h:i:j:k:l:m:n:o:p:q:r:s:t:u:v:w:x:y:z:A:B:C:D:E:F:G:H:I:J:K:L:M:N:    O:P:Q:R:S:T:U:V:W:X:Y:Z:`: <        ",
"                                        .<+<,(@<#<$<%<&<*<=<-<;<><,<'<)<J]!<~<{<]<!*^</<(<_<:<<<[<}<z!|<1<2<3<n^4<5<)(    6<7<8<9<0<a<b<c<d<e<f<g<h<i<        ",
"                                        E]E_`_j<k<l<m<n<o<p<q<r<s<t<u<u<v<w<x<y<z<A<B<C<D<E<F<G<H<I<J<K<L<M<N<O<P<Q<R<      S<T<U<V<W<X<Y<Z<`< [.[+[@[        ",
"                                        j##[5<$[W!%[&[*[=[-[;[>[,[&%'[)[![~[{[][^[/[([_[:[<[[[}[|[1[2[3[4[5[6[7[]>Q<8[        9[0[a[b[c[#~d[e[f[g[h[          ",
"                                        a_f:%[%/i[k<j[k[l[m[n[*%o[p[q[r[s[t[u[v[w[x[y[z[A[B[C[D[E[F[G[H[I[J[K[L[M[N[c_ ^      O[P[Q[R[S[T[U[V[W[X[            ",
"                                        +<Y[Z[Z[`[%/ }.}+}@}#}$}%}&}*}=}-};}>},}'})}!}~}{}]}^}/}(}_}:}<}[}6)}}|}$^1}e_e~      2}3}4}5}6}7}8}9}0}a}            ",
"                                      (_b}c}%<d}e}f}g}h}i}j}k}l}m};};[V'n}o}p}q}r}s}t}u}v}w}x}y}z}A}B}C}g+D}+[E}F}G}H}I}      J}K}L}M}N}O}P}Q}R}S}            ",
"                                      T}U}V}W}X}Y}Z}`} |.|+|@|#|$|%|;)&|*|=|-|;|>|,|'|W&)|!|~|{|]|^|/|(|_|:|<|[|}|||1|2|      3|4|5|6|7|8|9|0|a|b|            ",
"                                      c|d|H_e|f|g|h|i|j|k|l|=@m|;'n|o|p|q|r|s|t|u|$;v|w|q(x|y|z|A|B|C|D|E|F|-]G|H|I|J|K|    b|L|M|N|O|P|Q|R|S|T|U|            ",
"                                      V|W|x$X|Y|Z|u(`| 1.1+1@1#1$1%1&1*1=1-1;1>1,1'1)1!1~1{1]1^1/1(1_1:1<1[1}1|1112131[:    41516171819101a1b1c1d1            ",
"                                      e1f16^g1h1i1j1k1l1m1n1o1o]p1q1r1s1t1u1t_v1w1[_x1I)y1z1A1B1C1D1E1F1G1H1I1J1K1L1M1c|  N1O1P1Q1R1S1T1U1V1W1X1Y1            ",
"                                      Z1`1o,:- 2.2+2@2#2$2%2&2*2=2-2;2>2e=,2'2)2!2~2{2]2^2/2(2_2:2<2[2}2|212223242526272829202a2b2c2d2e2f2g2h2i2j2R,          ",
"                                    k2l2J{m2n2o2p2q2r2s2t2u2v2w2x2y26_''z2A2B2C2D2E2^[F2G2H2I2J2K2L2M2N2O2P2Q2R2S2T2U2f1V2W2X2Y2Z2`2 3.3+3@3#3$3%3&3          ",
"                                    *3=3-3;3>3,3'3)3!3~3{3]3^3/3(3_3:3<3[3[3}3|313233343536373839303a3b3c3d3e3f3g3h3`_i3j3k3l3m3    n3o3p3q3r3s3t3u3          ",
"                                    v3E_][w3h_x3y3z3A3B3C3D3E3F3G3H3I3J3K3L3M3N3O3P3Q3R3S3T3U3V3W3X3Y3Z3`3 4.4+4@4#4g_$4%4G{&4        *4=4-4;4>4,4'4          ",
"                                    )4!4e|~4{4]4^4/4(4_4:4<4[4}4|414243444546474a_849404q_a4b4c4d4e4f4g4h4i4j4k4l4m4]>n4e:o4          p4q4r4s4t4u4v4w4        ",
"                                    e~x4y4z4A4B4C4D4E4F4G4H4I4J4K4L4M4N4O4P4B)Q4R4S4T4U4V4W4X4Y4Z4`4 5.5+5@5#5$5%5&5F/*5=50^        -5;5>5,5'5)5!5~5P;        ",
"                                    {552]5^5/5(5_5:5<5[5}5|515253545556575859505Y!H{|]a55>b5c5d5e5f5g5h5i5j5k5l5m5n5o5p5q5C(r5      s5t5  u5v5w5x5y5z5        ",
"                                  A5B552C5D5E5F5^ G5H5I5J5K5L5M5:*N5O5P5Q5R5S5']H{w^_'_'T5$'U5V5W5X5Y5Z5`5 6.6+6@6#6$6%6&6*6=6      -6    ;6>6,6'6)6h-        ",
"                                  !6%4~6{6]6^6/6(6_6:6<6[6E-}6|6162636465666L/)]w^_'!(8^76869606a6b6c6d6e6f6g6h6i6j6k6|1l6m6n6=5          o6p6q6r6s6          ",
"                                  t6u6v6w6x6y6z6A6B6C6D6E6F6G6H6I6J6_'e~0^%4K6L6.^_'M6N6O6P6Q6R6S6T6U6V6W6X6Y6Z6`6 7.7+7@7#7$7%7          &7*7=7-7;7          ",
"                                  }{>7,7'7)7!7~7{7]7^7/7(7_7:7|_<7[7}7k;|7172737#/w^#/4757766777879707a7b7c7d7e7f7g7h7i7j7k7l7m7        n7o7p7q7r7            ",
"                                s7t7u7v7w7x7y7z7A7B7C7D7E7F7G7H7I7: =5J7%7]/=!K7L7_'v^M6v^_'M7N7O7P7Q7R7S7T7U7V7W7X7Y7Z7`7 8.8+8@8                            ",
"                                O<#8$8%8&8*8=8-8;8{|>8,8'8)8!8~8{8]8^8H}|/N</8(8V]_'#/K/#/w^_8:8<8[8}8|818283848586878889808r%a8b8                            ",
"                                c8d8e8f8g8h8i8j8k8l8m8n8o8p8q8r8O+s8p^t8F/N/u8v8v^_'w^H{#/M6_'w8x8y8z8A8B8C8D8E8F8G8H8I8J8K8L8M8N8                            ",
"                                O8P8t{Q8R8S8T8U8V8W8+1X8Y8Z8V$`8 9.9+9=!@9%4#9$9H{_'_'_'#/%9_'&9*9=9-9;9>9,96_'9)9!9~9{9]9^9/9(9_9:9                          ",
"                              <9[9}9|919293949S<_'596979+,89`89909a9b9c9d9e9T}']_'_'_'.^f9v^g9K|h9i9j9k9l9,)m9Q5n9|1o9X(p9q9r9s9t9u9                          ",
"                              v9||w9x9y9z9A9B9|]Y!C9D9E9F9G9H9I9J9K9a9L92/M9N9___'_'_'_'#/8^O9P9<+Q9D/R9S9T9U9V9W9X9Y94[N+Z9`9L8 0.0                          ",
"                            s/+0@0#0k_$0%0&0*0|]%$=0s^-0;0>0,0'0)0A_!049~0{0]0^01]_'_'_'K//0Y.}.(0t~*<_0:0<0[0}0|01020%&P:30405,Y(5060                        ",
"                            70809000(/a0b0c0H{D(]0}{d0e0f0g0h0i0j0k0l0m0n0o0p0q0Y!1]_'_'f9r0s0t0u0v0w0x0y0z0A0B0C0D0E0F0G0H0I0={J0K060                        ",
"                            n_L0M0N0V2O0P0}+Q0N:R0S0T0U0V0W0X0Y0Z0`0 a.a+a@a#a$a  %a_'_'w^&a*aP9=aU'^0-a;a>a,a'a)a!a~a{a+<]a={^a/a(a_a                        ",
"                            :aE}<aV][a}a&{H{!(|a1as82a3a4a5a6a7a8a9a0aaabacaV2[a    _'_'_'_/daI0eafagahaiajaW4S^kalamaw1I}]ana                                ",
"                            ]0oa  pav^V]Y!.^']qaraz(satauavawaxayazaAaBaCaDaN0;{    H{H{H{v8Eak+FaGa->}aHaIaJaKaLaMaNaOaPaQaRa                                ",
"                                          H{__.<SaTaUaVaWaXaYaZa`a b.b+b@b#b$bV]      H{#/S4%b&b*b=bj+b~-b;b>b,b'b)b!b7$~b{b                                  ",
"                                          Q0]b^b/b(b_b:b$~<b[b}b|b1b2b3b#b4b;         Y!H{5bX!$aca^a6b7b8b9b0babbbcbdbeb..[                                   ",
"                                          V]fbgbhb30ibjbkblbmbnbobpbqbrbQasbtb          ubS(__vbwbxbX]ybzbAbBbCbDbEbFb,@GbHbIb                                ",
"                                          $9Jb_/KbLbMbNbObPbQbRbSbTbUbV2Vbdbha          H{f9K/5bv~Wbb0XbYbZb`b c.c+c@cq.#c$c%c                                ",
"                                          ]b}7&c*c30=c-c-c;c>c=b,c'cI0)c!cKb~c          Y!v^K/Q0{cv~]cX]^c/c(c_c:c<c[c}c|c1c                                  ",
"                                          !(2c3cH!4c4cA'5cWb6c7c8c9c_b0cNbacbc          Y!v^M6ccJbdcbc3(ecfcgchcicjct0..kclc                                  ",
"                                        Y!mc8[@/r5ncocpc)ct6qcrcscZbtcucvc/+wc        ubpa8^xcO:h{5(C9g{yczcAcBcCcDcEcC{&{L7                                  ",
"                                        v^FcGcHcA(hbIcJc-cP9&!KcLcMcNcA'OcPcQc        RcL6)4ScC9O:)4TcUck2VcWcXcYcZc}+L6;{                                    ",
"                                          ;{`c d.d+d@d#d$d4c%d&d*dzbKc=d*!Nb-d        Y!;dI{>d2(Tc)4,dmc:/'d)dB - ;{:/!([a                                    ",
"                                          pa!d~d{d]d^d/d_b(d_dJ0^d:d7b<d*{[d          #/#/}d|d1d2dK|3dS(pa:/L6L6pa;{4d$b                                      ",
"                                          .^5d6d,@7d8d9dO0]00d]dhbad=cK7P9bd        H{#/8^8^K/&$N9>d3(']K/'])]v^pacddd                                        ",
"                                          H{edfdgdhdxb8d(bB^c8I/XbSab0|.b~S]      H{_'idM6M68^8^jdkdE]ld}dS4g{:/v^H{%{                                        ",
"                                          H{vbmdnd]codpd.dqdrdsdc8z'8btdudV2      %aw^#/8^)]S(K/}7vdkdwdxdydzd|]H{H{                                          ",
"                                          _'S(ed]aAd[d5d{dBdCdDd60EdK7FdGdwb      H{w^w^#/M6__:/k2Hd ^C9v3,dIdf9Y!                                            ",
"                                          _'Q0RamdJdKd2.LdMd~dzbMcNdOdEdPdQd      .^_'_'w^v^}d}dccRd ^5b$bV]H{%a                                              ",
"                                          H{Q0SdTdOdUdVdWdXdYd]dB^Zd`d e eec      Y!_'_'_'Q0__']}d.e-{+e@e4dw^H{                                              ",
"                                          H{#e$e%e&ead*e=e-e3.hd;e.d_d>e,e'e      Y!_'_'_'H{Q0S(}7LdP0)e!e~eC{                                                ",
"                                          _'vb{e]e^e/e(e_e:e<e[evc'ebc}e|e3.2]      _'_'_'H{v^H{1e9dib2e3e4eF!5e                                              ",
"                                          _'6]'e@c6e7e8e9e0eaebecedeeefegeheX!      _'_'_'_'_'_'iejekexblemene2]                                              ",
"                                          oeQ0peqereseteuevewexeyezeVdAeA'!c~b        _'_'_'_'_'Beec$d^aebhe*aCe$b                                            ",
"                                          H{v^#bDeEeFeGeHeIeJeKeLeMeNeVdOePeQe          _'_'_'_'L6Reb~SeX.TeTcTc|]V]                                          ",
"                                            V]v^UeVeWeXeYeZe`e f.f+f-cm+@f#fC             H{H{H{;{~b .$f[.Y.%f&f}d*0                                          ",
"                                            C{V]*f=f-f;f>f,f'f)f!f~fi+{f5cbcId            H{H{6]]f^f(0/f(f_f:f<f[fo+                                          ",
"                                            }fV]|f}.1fj+2f3f4f5f6f7f)e8fdbYd2]            #/f9Z.9f0fafbfcfdfefffgfl$_!                                        ",
"                                          %{Y!H{}+hfifjfkflfmfnfT]ofpfqfV.4brf              H{sftfufvfwfxfyfzfAfBfCfa~                                        ",
"                                            %{H{pap0DfU.EfFfGfHfVbIf$!IfsfddJf              V]V]_!{%KfLfMfNfV>OfPfa~V]                                        ",
"                                            Qf_!RfSfTfUfVfWfXfYfZf`f g&0.g7.+g                  a~cd@g#g$g%g&gCfu~1]V]                                        ",
"                                            *g=g-g;g>g,g'g)g!g~g{gz{)d]g^g/g(g                      *0&{_g_gC{C{:gV]                                          ",
"                                            @'<g[g}g|g1g2g3g4g5g+ 6g7gh,8g9g0g                                                                                ",
"                                          [&agbgcgdgegfggghgigjgkg{%lgmgngogpg                                                                                ",
"                                          qgL;rgsgtgugvgwgxgygzgAgBgCgDgEglg                                                                                  ",
"                                          a~FgGgHgIgJgKgLgMgNgOgPgQgCfRg],                                                                                    ",
"                                          _!cdSgTg> UgVgWgXgE!SgYg1]u~H{                                                                                      ",
"                                              Y!V]ZgC{}fV]V]Y!.^.^Z!H{                                                                                        ",
"                                                                                                                                                              ",
"                                                                                                                                                              ",
"                                                                                                                                                              "};
