/* XPM */
static char * ene_5_xpm[] = {
"79 130 4075 2",
"  	c None",
". 	c #0E0B0A",
"+ 	c #0C0807",
"@ 	c #070404",
"# 	c #110909",
"$ 	c #110808",
"% 	c #0E0606",
"& 	c #090403",
"* 	c #22130E",
"= 	c #241510",
"- 	c #0A0505",
"; 	c #22110D",
"> 	c #341913",
", 	c #24100E",
"' 	c #1F110F",
") 	c #2C1B19",
"! 	c #150A09",
"~ 	c #0F0707",
"{ 	c #1F1412",
"] 	c #35221D",
"^ 	c #241714",
"/ 	c #462920",
"( 	c #4F3027",
"_ 	c #190908",
": 	c #371A15",
"< 	c #401C17",
"[ 	c #5E3327",
"} 	c #734435",
"| 	c #47251E",
"1 	c #26100F",
"2 	c #2B1915",
"3 	c #1B100F",
"4 	c #231512",
"5 	c #1E1210",
"6 	c #1D1311",
"7 	c #271A17",
"8 	c #110B09",
"9 	c #22130F",
"0 	c #2F1A14",
"a 	c #451C16",
"b 	c #51241B",
"c 	c #5F281E",
"d 	c #884433",
"e 	c #985842",
"f 	c #87513F",
"g 	c #47241C",
"h 	c #744A3B",
"i 	c #41271F",
"j 	c #1D110F",
"k 	c #0E0706",
"l 	c #070403",
"m 	c #060302",
"n 	c #110B0A",
"o 	c #1B1110",
"p 	c #2E1F1B",
"q 	c #190E0C",
"r 	c #1D0C09",
"s 	c #32130D",
"t 	c #5F271C",
"u 	c #883F2F",
"v 	c #85402F",
"w 	c #9E503C",
"x 	c #995942",
"y 	c #986B54",
"z 	c #744636",
"A 	c #824A39",
"B 	c #6C3F30",
"C 	c #3F241D",
"D 	c #100606",
"E 	c #090504",
"F 	c #0D0806",
"G 	c #100907",
"H 	c #19110D",
"I 	c #160E0D",
"J 	c #11090A",
"K 	c #170E0F",
"L 	c #2B1D1C",
"M 	c #27110D",
"N 	c #4F2318",
"O 	c #4D1D14",
"P 	c #743122",
"Q 	c #A2523C",
"R 	c #A95E46",
"S 	c #B36D54",
"T 	c #A26D5A",
"U 	c #B89985",
"V 	c #AD8774",
"W 	c #B2806C",
"X 	c #A56A52",
"Y 	c #784131",
"Z 	c #170605",
"` 	c #080405",
" .	c #170F0C",
"..	c #211713",
"+.	c #19100D",
"@.	c #1B100C",
"#.	c #100908",
"$.	c #0C0705",
"%.	c #050303",
"&.	c #090605",
"*.	c #0E0808",
"=.	c #201715",
"-.	c #332620",
";.	c #3D2D26",
">.	c #2A1F1B",
",.	c #211615",
"'.	c #38241F",
").	c #331913",
"!.	c #521E13",
"~.	c #5E261A",
"{.	c #874532",
"].	c #A2513A",
"^.	c #BD7C64",
"/.	c #C99681",
"(.	c #C79A83",
"_.	c #DDC1AC",
":.	c #D6A891",
"<.	c #C17D63",
"[.	c #B97456",
"}.	c #773C2B",
"|.	c #3D1811",
"1.	c #250E09",
"2.	c #150C0B",
"3.	c #18100F",
"4.	c #2A1D19",
"5.	c #221814",
"6.	c #100B0A",
"7.	c #0C0706",
"8.	c #1D1513",
"9.	c #231915",
"0.	c #2F231E",
"a.	c #352722",
"b.	c #352420",
"c.	c #34201B",
"d.	c #321712",
"e.	c #45170E",
"f.	c #6F3829",
"g.	c #844A38",
"h.	c #975037",
"i.	c #BF8F78",
"j.	c #DAC9B4",
"k.	c #D7BDAA",
"l.	c #C9A08B",
"m.	c #CC9074",
"n.	c #D3957A",
"o.	c #B9785D",
"p.	c #864D3B",
"q.	c #56271C",
"r.	c #3E1A14",
"s.	c #271512",
"t.	c #241A16",
"u.	c #291F19",
"v.	c #241B17",
"w.	c #060404",
"x.	c #17110F",
"y.	c #372A23",
"z.	c #382A24",
"A.	c #2A1E1A",
"B.	c #1E1311",
"C.	c #220D0A",
"D.	c #481B13",
"E.	c #471A11",
"F.	c #692E20",
"G.	c #844331",
"H.	c #9B5338",
"I.	c #AB6950",
"J.	c #D5AD93",
"K.	c #D0A990",
"L.	c #BA755A",
"M.	c #B86447",
"N.	c #C16C51",
"O.	c #B2664B",
"P.	c #6D3122",
"Q.	c #562419",
"R.	c #4E1E15",
"S.	c #25100D",
"T.	c #1C100F",
"U.	c #2B201C",
"V.	c #362A23",
"W.	c #3D3029",
"X.	c #44362F",
"Y.	c #120C0B",
"Z.	c #231B18",
"`.	c #322620",
" +	c #382A23",
".+	c #402E28",
"++	c #2D140F",
"@+	c #411810",
"#+	c #572719",
"$+	c #763623",
"%+	c #883321",
"&+	c #90412B",
"*+	c #AF6049",
"=+	c #C09983",
"-+	c #D29E81",
";+	c #C87554",
">+	c #AC5438",
",+	c #B95F42",
"'+	c #B76444",
")+	c #763621",
"!+	c #37130C",
"~+	c #58291D",
"{+	c #432018",
"]+	c #1E1110",
"^+	c #120A09",
"/+	c #251C17",
"(+	c #55433A",
"_+	c #47362F",
":+	c #2E231F",
"<+	c #0D0A0C",
"[+	c #2A1F1A",
"}+	c #201815",
"|+	c #191310",
"1+	c #2E221D",
"2+	c #2C1F1B",
"3+	c #25120E",
"4+	c #2E110B",
"5+	c #3B170E",
"6+	c #4D1C10",
"7+	c #602012",
"8+	c #7E351F",
"9+	c #A75F49",
"0+	c #AF7F6B",
"a+	c #C17353",
"b+	c #AF5A3F",
"c+	c #8D4731",
"d+	c #7E3926",
"e+	c #773A27",
"f+	c #4F1B0F",
"g+	c #1F0603",
"h+	c #381912",
"i+	c #391A14",
"j+	c #352721",
"k+	c #49382E",
"l+	c #2F241F",
"m+	c #1F1714",
"n+	c #130E0C",
"o+	c #140F0E",
"p+	c #251B18",
"q+	c #1A1210",
"r+	c #050101",
"s+	c #191717",
"t+	c #514545",
"u+	c #6C4741",
"v+	c #54251B",
"w+	c #68351E",
"x+	c #9D5F3E",
"y+	c #9C5C39",
"z+	c #924A2B",
"A+	c #782C1B",
"B+	c #5F281A",
"C+	c #421511",
"D+	c #4A1813",
"E+	c #2D0D0A",
"F+	c #392923",
"G+	c #36201B",
"H+	c #120605",
"I+	c #0B0606",
"J+	c #241A17",
"K+	c #43342C",
"L+	c #2D2420",
"M+	c #1B1613",
"N+	c #110B0B",
"O+	c #231A17",
"P+	c #201716",
"Q+	c #0C0707",
"R+	c #090404",
"S+	c #0B0504",
"T+	c #242C30",
"U+	c #495D6B",
"V+	c #5B6C7B",
"W+	c #576D7B",
"X+	c #464D51",
"Y+	c #63453A",
"Z+	c #966035",
"`+	c #643E23",
" @	c #5C1C13",
".@	c #40110E",
"+@	c #9D3D33",
"@@	c #BE4B3D",
"#@	c #943B32",
"$@	c #6C4B42",
"%@	c #53322A",
"&@	c #2A0D09",
"*@	c #080404",
"=@	c #0F0A0B",
"-@	c #030203",
";@	c #0A0707",
">@	c #0C0808",
",@	c #0B0707",
"'@	c #211916",
")@	c #1D1412",
"!@	c #32221B",
"~@	c #2A2B30",
"{@	c #374C5E",
"]@	c #576D7A",
"^@	c #647B85",
"/@	c #5D6E76",
"(@	c #504C4C",
"_@	c #2B1A11",
":@	c #372E23",
"<@	c #3C2E23",
"[@	c #681F18",
"}@	c #852A21",
"|@	c #892926",
"1@	c #8A352F",
"2@	c #955B4D",
"3@	c #5A2C21",
"4@	c #451B12",
"5@	c #110706",
"6@	c #0F0A09",
"7@	c #231614",
"8@	c #281712",
"9@	c #7D5645",
"0@	c #4D463E",
"a@	c #404646",
"b@	c #515E68",
"c@	c #536168",
"d@	c #727F80",
"e@	c #62645B",
"f@	c #444030",
"g@	c #776C49",
"h@	c #665A44",
"i@	c #853D2F",
"j@	c #7A2821",
"k@	c #500D0E",
"l@	c #67201C",
"m@	c #8D493C",
"n@	c #6E3426",
"o@	c #5B2A1E",
"p@	c #150B0A",
"q@	c #0F0909",
"r@	c #2A1815",
"s@	c #482219",
"t@	c #6E4030",
"u@	c #584A3C",
"v@	c #484C44",
"w@	c #445050",
"x@	c #455251",
"y@	c #697574",
"z@	c #61604E",
"A@	c #423B25",
"B@	c #9D8949",
"C@	c #5A4D2F",
"D@	c #755444",
"E@	c #984D40",
"F@	c #84261F",
"G@	c #7D261E",
"H@	c #8C3628",
"I@	c #944632",
"J@	c #562C21",
"K@	c #0D0809",
"L@	c #241816",
"M@	c #170E0E",
"N@	c #311C17",
"O@	c #66291B",
"P@	c #4F261A",
"Q@	c #544533",
"R@	c #444435",
"S@	c #3D4437",
"T@	c #39433C",
"U@	c #404841",
"V@	c #323226",
"W@	c #433518",
"X@	c #AF8637",
"Y@	c #6B4719",
"Z@	c #211814",
"`@	c #411915",
" #	c #6F2319",
".#	c #812D21",
"+#	c #862D22",
"@#	c #7C3D2F",
"##	c #3D2018",
"$#	c #120B0B",
"%#	c #3B2825",
"&#	c #1F0D0A",
"*#	c #762A1B",
"=#	c #5A2114",
"-#	c #34261C",
";#	c #353327",
">#	c #2C2E23",
",#	c #22251C",
"'#	c #202017",
")#	c #28150C",
"!#	c #6F5121",
"~#	c #C49233",
"{#	c #8D511C",
"]#	c #211008",
"^#	c #0B0204",
"/#	c #41140E",
"(#	c #511910",
"_#	c #3F130D",
":#	c #3D1A13",
"<#	c #2F1612",
"[#	c #170F0F",
"}#	c #682617",
"|#	c #973A23",
"1#	c #661E10",
"2#	c #2D0D07",
"3#	c #2E1509",
"4#	c #321508",
"5#	c #492910",
"6#	c #532D12",
"7#	c #7E511D",
"8#	c #B07529",
"9#	c #B6702A",
"0#	c #5A3617",
"a#	c #431D0F",
"b#	c #38180E",
"c#	c #3D1F15",
"d#	c #502F24",
"e#	c #52261D",
"f#	c #230F0C",
"g#	c #0E090A",
"h#	c #260E09",
"i#	c #612417",
"j#	c #7C2A17",
"k#	c #531C0D",
"l#	c #5F3118",
"m#	c #572912",
"n#	c #8B4D21",
"o#	c #7F4720",
"p#	c #673E18",
"q#	c #B16423",
"r#	c #A56D27",
"s#	c #774521",
"t#	c #71331C",
"u#	c #4F2213",
"v#	c #502315",
"w#	c #612E1F",
"x#	c #4E2117",
"y#	c #1A120E",
"z#	c #15100E",
"A#	c #020102",
"B#	c #411B10",
"C#	c #7B331C",
"D#	c #5B1F0F",
"E#	c #491B0D",
"F#	c #3F190F",
"G#	c #482413",
"H#	c #663317",
"I#	c #462711",
"J#	c #491F10",
"K#	c #4B2A13",
"L#	c #412111",
"M#	c #41251D",
"N#	c #3A1B14",
"O#	c #86442A",
"P#	c #673925",
"Q#	c #33150F",
"R#	c #271C1A",
"S#	c #4A3A33",
"T#	c #675951",
"U#	c #594F48",
"V#	c #38302D",
"W#	c #040405",
"X#	c #2C1208",
"Y#	c #652B16",
"Z#	c #782F19",
"`#	c #561D0E",
" $	c #42180E",
".$	c #220F09",
"+$	c #321B10",
"@$	c #2B1B0F",
"#$	c #180C08",
"$$	c #24120D",
"%$	c #311914",
"&$	c #4B2D25",
"*$	c #542319",
"=$	c #93452B",
"-$	c #7C3C27",
";$	c #2C1713",
">$	c #291E1C",
",$	c #51443E",
"'$	c #8B7D73",
")$	c #7B7169",
"!$	c #524A46",
"~$	c #7F7064",
"{$	c #6E6157",
"]$	c #38312E",
"^$	c #010102",
"/$	c #000001",
"($	c #311108",
"_$	c #7C371E",
":$	c #662311",
"<$	c #4B190D",
"[$	c #210705",
"}$	c #432F27",
"|$	c #3F302A",
"1$	c #0A0405",
"2$	c #0A0303",
"3$	c #2C140F",
"4$	c #2F1712",
"5$	c #6B2D1C",
"6$	c #852F1E",
"7$	c #782C1E",
"8$	c #271613",
"9$	c #372925",
"0$	c #665750",
"a$	c #968A81",
"b$	c #998E84",
"c$	c #8A7D76",
"d$	c #847972",
"e$	c #746B65",
"f$	c #1D1C15",
"g$	c #524B45",
"h$	c #867B70",
"i$	c #86766A",
"j$	c #7B6D61",
"k$	c #473E39",
"l$	c #040203",
"m$	c #180806",
"n$	c #5E2411",
"o$	c #8C391C",
"p$	c #5E1F0F",
"q$	c #43130A",
"r$	c #3D1914",
"s$	c #2B1714",
"t$	c #0D0102",
"u$	c #340E08",
"v$	c #612416",
"w$	c #74311A",
"x$	c #A74B2A",
"y$	c #9E3D25",
"z$	c #531C14",
"A$	c #190F0F",
"B$	c #443631",
"C$	c #695A53",
"D$	c #A5998D",
"E$	c #A19489",
"F$	c #847870",
"G$	c #7B716B",
"H$	c #7C726C",
"I$	c #908881",
"J$	c #AFA8A0",
"K$	c #7C736B",
"L$	c #35371F",
"M$	c #2E2623",
"N$	c #4B433F",
"O$	c #776D65",
"P$	c #8D8277",
"Q$	c #9C8B7C",
"R$	c #9A8A7A",
"S$	c #4F453D",
"T$	c #000000",
"U$	c #0A0504",
"V$	c #170E0C",
"W$	c #401509",
"X$	c #8E371E",
"Y$	c #7E2D16",
"Z$	c #571A0E",
"`$	c #5A1F12",
" %	c #712E1C",
".%	c #6D2615",
"+%	c #7C301B",
"@%	c #923B1A",
"#%	c #B75229",
"$%	c #934426",
"%%	c #692A19",
"&%	c #250F0C",
"*%	c #0D0808",
"=%	c #483B34",
"-%	c #776A61",
";%	c #C9BCAD",
">%	c #B4A697",
",%	c #85786F",
"'%	c #625954",
")%	c #80756D",
"!%	c #9E9389",
"~%	c #ABA298",
"{%	c #ACA39A",
"]%	c #9C928A",
"^%	c #827971",
"/%	c #535820",
"(%	c #737B35",
"_%	c #746B60",
":%	c #6F655B",
"<%	c #4A403C",
"[%	c #443C37",
"}%	c #81766C",
"|%	c #94887D",
"1%	c #988575",
"2%	c #978373",
"3%	c #584C43",
"4%	c #010101",
"5%	c #020101",
"6%	c #110302",
"7%	c #58200F",
"8%	c #9A3E21",
"9%	c #88371F",
"0%	c #A04F2D",
"a%	c #BF6B3F",
"b%	c #B74E2A",
"c%	c #BB5329",
"d%	c #C85D2C",
"e%	c #C36439",
"f%	c #A86541",
"g%	c #4E2114",
"h%	c #100A0B",
"i%	c #261F1B",
"j%	c #63554D",
"k%	c #ACA194",
"l%	c #E1D7C9",
"m%	c #CABEB0",
"n%	c #88796F",
"o%	c #665B56",
"p%	c #776D66",
"q%	c #BAB0A5",
"r%	c #CFC5B8",
"s%	c #DFD6CB",
"t%	c #CFC7BD",
"u%	c #B7ADA2",
"v%	c #A89E95",
"w%	c #706963",
"x%	c #474F17",
"y%	c #6B7827",
"z%	c #514B45",
"A%	c #897F74",
"B%	c #877C71",
"C%	c #80746A",
"D%	c #4F4742",
"E%	c #3E3732",
"F%	c #8D7F72",
"G%	c #A89888",
"H%	c #AA9482",
"I%	c #917A69",
"J%	c #5B4D44",
"K%	c #0C0505",
"L%	c #160401",
"M%	c #632E1A",
"N%	c #A35736",
"O%	c #BB5E35",
"P%	c #C56E40",
"Q%	c #BE764D",
"R%	c #AA6542",
"S%	c #B95530",
"T%	c #A44626",
"U%	c #552B17",
"V%	c #080506",
"W%	c #433E3A",
"X%	c #9C9086",
"Y%	c #CDBFB0",
"Z%	c #E6DBCC",
"`%	c #CEC3B4",
" &	c #A49488",
".&	c #877A71",
"+&	c #B4AA9F",
"@&	c #DED5C9",
"#&	c #E3DBD0",
"$&	c #DCD4CB",
"%&	c #BFB7AE",
"&&	c #D1C6B8",
"*&	c #CEC2B5",
"=&	c #AA9F95",
"-&	c #A79D91",
";&	c #A0978C",
">&	c #414914",
",&	c #728125",
"'&	c #A2B239",
")&	c #4B4440",
"!&	c #746B62",
"~&	c #94887C",
"{&	c #96897D",
"]&	c #85786E",
"^&	c #534943",
"/&	c #584E48",
"(&	c #928579",
"_&	c #C4B5A5",
":&	c #B6A492",
"<&	c #9A8371",
"[&	c #655248",
"}&	c #110C0A",
"|&	c #030202",
"1&	c #190E0D",
"2&	c #1D0E0C",
"3&	c #070202",
"4&	c #050201",
"5&	c #582F19",
"6&	c #995A34",
"7&	c #915331",
"8&	c #9C7A52",
"9&	c #765D3F",
"0&	c #5F2D1B",
"a&	c #411008",
"b&	c #171111",
"c&	c #5F5955",
"d&	c #C5B8AC",
"e&	c #DED1C2",
"f&	c #E3D8C9",
"g&	c #D0C7BC",
"h&	c #84776E",
"i&	c #9C9389",
"j&	c #DAD0C3",
"k&	c #D6CDC3",
"l&	c #C7BDB4",
"m&	c #BDB1A6",
"n&	c #CCC0B1",
"o&	c #D6CABB",
"p&	c #D2C6B8",
"q&	c #D8CBBE",
"r&	c #CFC3B5",
"s&	c #A1968D",
"t&	c #5D5651",
"u&	c #667132",
"v&	c #8BA135",
"w&	c #94AA44",
"x&	c #434C24",
"y&	c #464439",
"z&	c #4E4B45",
"A&	c #766E64",
"B&	c #90877B",
"C&	c #A3988B",
"D&	c #B1A698",
"E&	c #998F84",
"F&	c #3F3733",
"G&	c #49413D",
"H&	c #ADA298",
"I&	c #CBBDAD",
"J&	c #D0C1AF",
"K&	c #C2B4A5",
"L&	c #685B52",
"M&	c #191210",
"N&	c #1D1411",
"O&	c #2D1815",
"P&	c #2A1511",
"Q&	c #110504",
"R&	c #070101",
"S&	c #020000",
"T&	c #190D05",
"U&	c #0D0100",
"V&	c #140A04",
"W&	c #020001",
"X&	c #241D1B",
"Y&	c #635853",
"Z&	c #CBC0B5",
"`&	c #DFD3C3",
" *	c #D9CDBE",
".*	c #A49B91",
"+*	c #6A6059",
"@*	c #C7BEB2",
"#*	c #B8ABA0",
"$*	c #9E9288",
"%*	c #AEA196",
"&*	c #D3C8BB",
"**	c #E4DACE",
"=*	c #DACEC0",
"-*	c #BBAFA2",
";*	c #CCBEB0",
">*	c #C0B4A7",
",*	c #9D8F84",
"'*	c #72675E",
")*	c #202212",
"!*	c #464E22",
"~*	c #789029",
"{*	c #9FC03D",
"]*	c #6C7C3A",
"^*	c #6D6B52",
"/*	c #6F6C5C",
"(*	c #80796E",
"_*	c #898074",
":*	c #A1978A",
"<*	c #AEA496",
"[*	c #A2978B",
"}*	c #584E49",
"|*	c #897F77",
"1*	c #CEC0B3",
"2*	c #C8B9A9",
"3*	c #C1AD9A",
"4*	c #CEC1AF",
"5*	c #847A6F",
"6*	c #120A0A",
"7*	c #241917",
"8*	c #351D19",
"9*	c #331711",
"0*	c #200906",
"a*	c #130302",
"b*	c #040000",
"c*	c #090302",
"d*	c #090201",
"e*	c #030101",
"f*	c #463F3B",
"g*	c #81766F",
"h*	c #C7BBAE",
"i*	c #E4DACC",
"j*	c #D0C6BC",
"k*	c #766F6B",
"l*	c #A59B93",
"m*	c #CDC3B7",
"n*	c #A6988D",
"o*	c #9D8E84",
"p*	c #B7AA9E",
"q*	c #D5CBC0",
"r*	c #E7DED1",
"s*	c #D9D0C4",
"t*	c #E5DBCE",
"u*	c #E3D9CC",
"v*	c #E3D7C9",
"w*	c #D4CABE",
"x*	c #B5A89B",
"y*	c #796C62",
"z*	c #4E4542",
"A*	c #3E4A10",
"B*	c #8DA831",
"C*	c #AECF3E",
"D*	c #8DA22E",
"E*	c #6C7140",
"F*	c #837D6C",
"G*	c #716A60",
"H*	c #81796E",
"I*	c #A2988C",
"J*	c #A89C8F",
"K*	c #A7998C",
"L*	c #8F8176",
"M*	c #8E8076",
"N*	c #BCB0A4",
"O*	c #C6B7A8",
"P*	c #B09988",
"Q*	c #C4B5A4",
"R*	c #AA9C8E",
"S*	c #1F1816",
"T*	c #201413",
"U*	c #351E19",
"V*	c #3F1B12",
"W*	c #41170D",
"X*	c #2C0C06",
"Y*	c #110202",
"Z*	c #090101",
"`*	c #180907",
" =	c #0E0403",
".=	c #0F0302",
"+=	c #1D0906",
"@=	c #130705",
"#=	c #140806",
"$=	c #171110",
"%=	c #72645C",
"&=	c #9E9086",
"*=	c #A8A098",
"==	c #7B736F",
"-=	c #5F5452",
";=	c #AA9B91",
">=	c #B0A194",
",=	c #9C8B80",
"'=	c #C3B6AA",
")=	c #DFD4C7",
"!=	c #DFD3C6",
"~=	c #CFC1B3",
"{=	c #D2C5B7",
"]=	c #E0D4C8",
"^=	c #DED3C6",
"/=	c #DCD1C4",
"(=	c #B2A598",
"_=	c #5F544D",
":=	c #3E4E11",
"<=	c #6F8425",
"[=	c #B1CB51",
"}=	c #8FA33D",
"|=	c #6A6E40",
"1=	c #726D5E",
"2=	c #59554E",
"3=	c #837B6F",
"4=	c #A79F95",
"5=	c #A69D93",
"6=	c #A59A8E",
"7=	c #91857B",
"8=	c #655953",
"9=	c #6B645E",
"0=	c #8C867F",
"a=	c #8C7A6F",
"b=	c #B8A494",
"c=	c #B3A799",
"d=	c #2A2522",
"e=	c #271814",
"f=	c #3A1D17",
"g=	c #562517",
"h=	c #642717",
"i=	c #4C190E",
"j=	c #2D0905",
"k=	c #260703",
"l=	c #110403",
"m=	c #110201",
"n=	c #140302",
"o=	c #2D110B",
"p=	c #3B1F18",
"q=	c #28130F",
"r=	c #524D4B",
"s=	c #ABA199",
"t=	c #AEA39A",
"u=	c #81665E",
"v=	c #652F29",
"w=	c #6E2822",
"x=	c #A76A62",
"y=	c #B1988C",
"z=	c #9F8D81",
"A=	c #B6A699",
"B=	c #C2B2A4",
"C=	c #C3B2A5",
"D=	c #A68F86",
"E=	c #BEAEA3",
"F=	c #BFAEA2",
"G=	c #B3A598",
"H=	c #B7AA9F",
"I=	c #C1B3A7",
"J=	c #A99B91",
"K=	c #6B5E57",
"L=	c #202218",
"M=	c #2E3B13",
"N=	c #4F6513",
"O=	c #90A442",
"P=	c #AFC451",
"Q=	c #717943",
"R=	c #91907B",
"S=	c #646159",
"T=	c #706960",
"U=	c #928B82",
"V=	c #9E968D",
"W=	c #8C8177",
"X=	c #A19387",
"Y=	c #68574F",
"Z=	c #3A2925",
"`=	c #322625",
" -	c #755D54",
".-	c #C0AE9D",
"+-	c #CBBCAA",
"@-	c #4D423B",
"#-	c #221210",
"$-	c #411F18",
"%-	c #652C1C",
"&-	c #642A17",
"*-	c #591D10",
"=-	c #3F0D06",
"--	c #350B04",
";-	c #1E0503",
">-	c #250804",
",-	c #240905",
"'-	c #491F14",
")-	c #3B1E16",
"!-	c #2A1C19",
"~-	c #8C837C",
"{-	c #C7B7AB",
"]-	c #BAA598",
"^-	c #B87765",
"/-	c #9E4234",
"(-	c #B74C3E",
"_-	c #DE8574",
":-	c #B59485",
"<-	c #AB988B",
"[-	c #B0A195",
"}-	c #84746B",
"|-	c #998076",
"1-	c #C9B3A6",
"2-	c #E4D7CA",
"3-	c #E9DFD2",
"4-	c #EAE2D4",
"5-	c #E8DED1",
"6-	c #CDC1B4",
"7-	c #AFA298",
"8-	c #91847C",
"9-	c #70615A",
"0-	c #5C504A",
"a-	c #625F58",
"b-	c #515443",
"c-	c #475C11",
"d-	c #677A24",
"e-	c #A2B06B",
"f-	c #939E68",
"g-	c #727359",
"h-	c #625D55",
"i-	c #5B564F",
"j-	c #79736C",
"k-	c #989187",
"l-	c #95897D",
"m-	c #9F9184",
"n-	c #5A4B44",
"o-	c #61544E",
"p-	c #7E736B",
"q-	c #B49E8D",
"r-	c #CDB8A5",
"s-	c #D0BDAB",
"t-	c #715B4F",
"u-	c #1C0F0E",
"v-	c #522317",
"w-	c #73321B",
"x-	c #70311A",
"y-	c #662614",
"z-	c #641D0D",
"A-	c #451809",
"B-	c #5A2312",
"C-	c #572214",
"D-	c #552416",
"E-	c #3A1D15",
"F-	c #3C312D",
"G-	c #A89A8E",
"H-	c #D3C0B1",
"I-	c #A8958B",
"J-	c #BB8577",
"K-	c #BB675A",
"L-	c #DC5A48",
"M-	c #E39F8E",
"N-	c #C19F90",
"O-	c #B4A79C",
"P-	c #83776F",
"Q-	c #86786F",
"R-	c #BAA89C",
"S-	c #DFCBBA",
"T-	c #E2D0BE",
"U-	c #E9DECF",
"V-	c #F0E7D8",
"W-	c #F0E7D9",
"X-	c #EFE6D8",
"Y-	c #D7CCBF",
"Z-	c #B1A598",
"`-	c #8B7D72",
" ;	c #796C63",
".;	c #4D443E",
"+;	c #7A7163",
"@;	c #6F6C62",
"#;	c #5A5B4B",
"$;	c #566917",
"%;	c #87A024",
"&;	c #92A44B",
"*;	c #8F9767",
"=;	c #6F6D5B",
"-;	c #736D65",
";;	c #6C6861",
">;	c #5F5A56",
",;	c #847D76",
"';	c #8D7F75",
");	c #79695E",
"!;	c #756B62",
"~;	c #BBB1A5",
"{;	c #CABDAD",
"];	c #CCB4A1",
"^;	c #C5A996",
"/;	c #CEB49F",
"(;	c #B7A08E",
"_;	c #49413B",
":;	c #170A08",
"<;	c #693727",
"[;	c #83301A",
"};	c #A04421",
"|;	c #9A4323",
"1;	c #903419",
"2;	c #8E4223",
"3;	c #A8512E",
"4;	c #7D3720",
"5;	c #532416",
"6;	c #391D15",
"7;	c #5A4D47",
"8;	c #B19C8F",
"9;	c #C5B09F",
"0;	c #AA9587",
"a;	c #B58473",
"b;	c #B86E61",
"c;	c #C43C31",
"d;	c #BC6A5C",
"e;	c #BB806F",
"f;	c #87615A",
"g;	c #996A60",
"h;	c #A98C7F",
"i;	c #C7A796",
"j;	c #C3A18D",
"k;	c #D0B19D",
"l;	c #D6C2B0",
"m;	c #E3D4C2",
"n;	c #EADECD",
"o;	c #ECE2D2",
"p;	c #E5DACB",
"q;	c #D3C7B8",
"r;	c #ADA093",
"s;	c #625952",
"t;	c #3F392D",
"u;	c #635D4F",
"v;	c #736C5E",
"w;	c #665F52",
"x;	c #394219",
"y;	c #738821",
"z;	c #8E9953",
"A;	c #818164",
"B;	c #686258",
"C;	c #64605A",
"D;	c #55504C",
"E;	c #7D756E",
"F;	c #8B7F74",
"G;	c #73655B",
"H;	c #C5B7A7",
"I;	c #C6B5A3",
"J;	c #CAB29D",
"K;	c #BA9B87",
"L;	c #B89683",
"M;	c #C4AB99",
"N;	c #6C5E55",
"O;	c #250D08",
"P;	c #712E1A",
"Q;	c #8E3D1F",
"R;	c #B4552E",
"S;	c #AB421F",
"T;	c #863D21",
"U;	c #AA603B",
"V;	c #6C3623",
"W;	c #331811",
"X;	c #372621",
"Y;	c #7E6D64",
"Z;	c #BAACA0",
"`;	c #BDA594",
" >	c #A89080",
".>	c #9D6A5C",
"+>	c #9E362C",
"@>	c #A0261C",
"#>	c #CF6F5D",
"$>	c #C67768",
"%>	c #C04F3E",
"&>	c #BD6655",
"*>	c #BD8B7C",
"=>	c #CEB7A5",
"->	c #AA8675",
";>	c #C9AF9D",
">>	c #C0AB99",
",>	c #B89D8C",
"'>	c #D5C3B3",
")>	c #DCCBBA",
"!>	c #D9C8B7",
"~>	c #CABDAF",
"{>	c #D3C9BB",
"]>	c #BBAFA1",
"^>	c #7E7166",
"/>	c #6A5F54",
"(>	c #37322B",
"_>	c #8A7F6D",
":>	c #9F917F",
"<>	c #7F7365",
"[>	c #352F27",
"}>	c #465019",
"|>	c #8B9B35",
"1>	c #A8B749",
"2>	c #8B8E5D",
"3>	c #605A4A",
"4>	c #3C3935",
"5>	c #4B4642",
"6>	c #676059",
"7>	c #9A9085",
"8>	c #9C8F84",
"9>	c #725C52",
"0>	c #968578",
"a>	c #BDAB9A",
"b>	c #C6AF9B",
"c>	c #B1917E",
"d>	c #B79582",
"e>	c #BA9F8D",
"f>	c #816B5E",
"g>	c #0D0304",
"h>	c #0F0404",
"i>	c #46190D",
"j>	c #6D2A17",
"k>	c #A24926",
"l>	c #A74521",
"m>	c #5B2917",
"n>	c #5D3322",
"o>	c #3E2119",
"p>	c #1F1613",
"q>	c #6A5F58",
"r>	c #A18D80",
"s>	c #BDAB9C",
"t>	c #BEAC9D",
"u>	c #83796F",
"v>	c #612721",
"w>	c #AD291E",
"x>	c #D23428",
"y>	c #EC715C",
"z>	c #D75746",
"A>	c #BB3424",
"B>	c #AD4F41",
"C>	c #B95046",
"D>	c #9D5E55",
"E>	c #593C32",
"F>	c #593D35",
"G>	c #4C372F",
"H>	c #4E3C35",
"I>	c #705C54",
"J>	c #80695F",
"K>	c #AC998C",
"L>	c #C7B6A7",
"M>	c #BFB2A5",
"N>	c #CEBFAF",
"O>	c #9A8D80",
"P>	c #87796C",
"Q>	c #544B43",
"R>	c #796F60",
"S>	c #665950",
"T>	c #5A504A",
"U>	c #39322C",
"V>	c #1A190E",
"W>	c #424919",
"X>	c #666E30",
"Y>	c #8E896D",
"Z>	c #736C5D",
"`>	c #3D3934",
" ,	c #3A3735",
".,	c #49433F",
"+,	c #867C72",
"@,	c #9D897C",
"#,	c #897669",
"$,	c #675E56",
"%,	c #AD9A8C",
"&,	c #BEA18E",
"*,	c #A67E6F",
"=,	c #AD806F",
"-,	c #977868",
";,	c #1C0F0C",
">,	c #0F0303",
",,	c #380C05",
"',	c #611F11",
"),	c #782C16",
"!,	c #8C3F20",
"~,	c #5E301C",
"{,	c #4F2E1E",
"],	c #1E0F09",
"^,	c #3C342F",
"/,	c #907C71",
"(,	c #B49E8F",
"_,	c #BBA798",
":,	c #B6A89B",
"<,	c #564541",
"[,	c #78201C",
"},	c #9F2018",
"|,	c #BA211D",
"1,	c #E14133",
"2,	c #CF3526",
"3,	c #98130D",
"4,	c #9F1A13",
"5,	c #9E1816",
"6,	c #AC1B16",
"7,	c #751C17",
"8,	c #97483E",
"9,	c #8C493C",
"0,	c #674638",
"a,	c #552620",
"b,	c #3F1A17",
"c,	c #57433D",
"d,	c #9B8377",
"e,	c #AB9B8E",
"f,	c #BAA899",
"g,	c #C9B9A8",
"h,	c #918579",
"i,	c #766B63",
"j,	c #322C24",
"k,	c #53483F",
"l,	c #7B6B60",
"m,	c #807165",
"n,	c #5D5048",
"o,	c #28221B",
"p,	c #48501A",
"q,	c #5A6B16",
"r,	c #54582C",
"s,	c #4E4138",
"t,	c #3B342F",
"u,	c #35322F",
"v,	c #3A3532",
"w,	c #573F39",
"x,	c #8F5C4E",
"y,	c #896456",
"z,	c #392F2A",
"A,	c #725F56",
"B,	c #A37363",
"C,	c #A56053",
"D,	c #A3695B",
"E,	c #BA9481",
"F,	c #AD907D",
"G,	c #0E0605",
"H,	c #170402",
"I,	c #3D1109",
"J,	c #571E12",
"K,	c #522211",
"L,	c #431F10",
"M,	c #1B0B07",
"N,	c #010103",
"O,	c #5B4E47",
"P,	c #9C7E71",
"Q,	c #B1988A",
"R,	c #B69D8D",
"S,	c #A28F83",
"T,	c #574B46",
"U,	c #471E1C",
"V,	c #8D352B",
"W,	c #971816",
"X,	c #C52C22",
"Y,	c #BF281E",
"Z,	c #9B100B",
"`,	c #8A1D17",
" '	c #8B1D1A",
".'	c #9F241C",
"+'	c #A12B23",
"@'	c #BC6154",
"#'	c #C47A64",
"$'	c #C0755E",
"%'	c #9D4436",
"&'	c #93261C",
"*'	c #5C2019",
"='	c #372724",
"-'	c #5C524C",
";'	c #A99B8B",
">'	c #BCA994",
",'	c #AB9886",
"''	c #5E5047",
")'	c #6D5B48",
"!'	c #9A826A",
"~'	c #8B7365",
"{'	c #7C6555",
"]'	c #715140",
"^'	c #3D2821",
"/'	c #27290F",
"('	c #464818",
"_'	c #5C4E27",
":'	c #674A3C",
"<'	c #4F413A",
"['	c #36312E",
"}'	c #393431",
"|'	c #4D3B36",
"1'	c #66332A",
"2'	c #6C3E33",
"3'	c #331D19",
"4'	c #22100E",
"5'	c #7D4D40",
"6'	c #BB8F7F",
"7'	c #C8A593",
"8'	c #C29783",
"9'	c #BA9E8C",
"0'	c #574B44",
"a'	c #0F0403",
"b'	c #391408",
"c'	c #5C2D18",
"d'	c #4D2916",
"e'	c #110705",
"f'	c #282220",
"g'	c #917E72",
"h'	c #C6B6A9",
"i'	c #D5C4B4",
"j'	c #B29D8F",
"k'	c #89766C",
"l'	c #513F38",
"m'	c #520908",
"n'	c #8F1E17",
"o'	c #9B1310",
"p'	c #C6271F",
"q'	c #BA211B",
"r'	c #6B0B0A",
"s'	c #270606",
"t'	c #8D2620",
"u'	c #CB3B2E",
"v'	c #BE3F2F",
"w'	c #BC3528",
"x'	c #CD4231",
"y'	c #D75C46",
"z'	c #C14A36",
"A'	c #BB382B",
"B'	c #A53A2D",
"C'	c #51211B",
"D'	c #2A2322",
"E'	c #766A62",
"F'	c #9E8D7E",
"G'	c #A79481",
"H'	c #958579",
"I'	c #4E453F",
"J'	c #362F29",
"K'	c #6C533E",
"L'	c #7E5F4D",
"M'	c #9C8070",
"N'	c #D0A487",
"O'	c #CB8859",
"P'	c #8D422A",
"Q'	c #3E1B11",
"R'	c #2D1E12",
"S'	c #2B2114",
"T'	c #493C36",
"U'	c #63574F",
"V'	c #3D3632",
"W'	c #2C2725",
"X'	c #524843",
"Y'	c #53443E",
"Z'	c #624A42",
"`'	c #44342F",
" )	c #412821",
".)	c #967363",
"+)	c #BA9A87",
"@)	c #C4A38E",
"#)	c #C9A691",
"$)	c #755D51",
"%)	c #0D0606",
"&)	c #1E0C08",
"*)	c #200B05",
"=)	c #280E07",
"-)	c #37190D",
";)	c #351A0D",
">)	c #59534F",
",)	c #A3958B",
"')	c #C7BBAF",
"))	c #C6B7AC",
"!)	c #A69284",
"~)	c #5E4C44",
"{)	c #371D17",
"])	c #4C0807",
"^)	c #780E0B",
"/)	c #8B0F0C",
"()	c #AC1814",
"_)	c #960E0C",
":)	c #4A0303",
"<)	c #370B09",
"[)	c #A0483F",
"})	c #CB4D3F",
"|)	c #AE4733",
"1)	c #A54F3B",
"2)	c #D74E39",
"3)	c #D64939",
"4)	c #A74031",
"5)	c #A05345",
"6)	c #8D372D",
"7)	c #78352D",
"8)	c #3D1512",
"9)	c #302A27",
"0)	c #7A6E64",
"a)	c #84756A",
"b)	c #7D6F65",
"c)	c #453930",
"d)	c #5F3321",
"e)	c #4B2216",
"f)	c #9C5E4B",
"g)	c #B8684E",
"h)	c #CE4C2E",
"i)	c #B03924",
"j)	c #5E271A",
"k)	c #3C231B",
"l)	c #281A16",
"m)	c #4F3D36",
"n)	c #675850",
"o)	c #413936",
"p)	c #211D1C",
"q)	c #453C38",
"r)	c #3F3531",
"s)	c #4D3F39",
"t)	c #3E302B",
"u)	c #2A1917",
"v)	c #574239",
"w)	c #A68777",
"x)	c #BB917E",
"y)	c #BC856F",
"z)	c #9D735F",
"A)	c #3C2B23",
"B)	c #391A10",
"C)	c #3C1B10",
"D)	c #190906",
"E)	c #100604",
"F)	c #090303",
"G)	c #171414",
"H)	c #86807B",
"I)	c #B3A197",
"J)	c #AD887A",
"K)	c #765C54",
"L)	c #5C544D",
"M)	c #2B1E1B",
"N)	c #1D0404",
"O)	c #260202",
"P)	c #4B0505",
"Q)	c #5E0706",
"R)	c #7C0A09",
"S)	c #5F0404",
"T)	c #1A0101",
"U)	c #390708",
"V)	c #892924",
"W)	c #6F2821",
"X)	c #5D2519",
"Y)	c #6B382A",
"Z)	c #BE4030",
"`)	c #D73F31",
" !	c #C55E4B",
".!	c #713027",
"+!	c #681815",
"@!	c #571715",
"#!	c #43100E",
"$!	c #0C0204",
"%!	c #453F3B",
"&!	c #776B63",
"*!	c #817469",
"=!	c #574B43",
"-!	c #61574C",
";!	c #42372E",
">!	c #713423",
",!	c #6D2619",
"'!	c #6A291A",
")!	c #5C281A",
"!!	c #68160B",
"~!	c #641C12",
"{!	c #3F1910",
"]!	c #221711",
"^!	c #4C3E32",
"/!	c #3F3028",
"(!	c #40332E",
"_!	c #1E1A19",
":!	c #3B332F",
"<!	c #50443D",
"[!	c #483833",
"}!	c #3D2924",
"|!	c #37231E",
"1!	c #140909",
"2!	c #685146",
"3!	c #B99B8A",
"4!	c #9F7365",
"5!	c #A77C6A",
"6!	c #60483D",
"7!	c #2C150E",
"8!	c #1F0E0A",
"9!	c #1D0C08",
"0!	c #120807",
"a!	c #3D302C",
"b!	c #A6948A",
"c!	c #A48A80",
"d!	c #954E41",
"e!	c #59130E",
"f!	c #1D0F0F",
"g!	c #3F2824",
"h!	c #280F0D",
"i!	c #130102",
"j!	c #270303",
"k!	c #2E0303",
"l!	c #1C0101",
"m!	c #080001",
"n!	c #2D0807",
"o!	c #6B1D1A",
"p!	c #46110E",
"q!	c #260605",
"r!	c #620F09",
"s!	c #B5261A",
"t!	c #BD3627",
"u!	c #C04533",
"v!	c #641F18",
"w!	c #340706",
"x!	c #2F0808",
"y!	c #210507",
"z!	c #1D1919",
"A!	c #665D57",
"B!	c #A1968B",
"C!	c #766A61",
"D!	c #423934",
"E!	c #8A7C6F",
"F!	c #817568",
"G!	c #38322C",
"H!	c #461C13",
"I!	c #581F14",
"J!	c #973622",
"K!	c #712113",
"L!	c #5D1F11",
"M!	c #7F2416",
"N!	c #661B13",
"O!	c #643628",
"P!	c #7B5C4B",
"Q!	c #6B5346",
"R!	c #1A1211",
"S!	c #1D1515",
"T!	c #141010",
"U!	c #1D1816",
"V!	c #392F2B",
"W!	c #423732",
"X!	c #463933",
"Y!	c #3E2D28",
"Z!	c #553D35",
"`!	c #38201B",
" ~	c #251714",
".~	c #756358",
"+~	c #957667",
"@~	c #A07664",
"#~	c #725448",
"$~	c #150906",
"%~	c #180B08",
"&~	c #1A0B08",
"*~	c #0F0708",
"=~	c #665249",
"-~	c #917063",
";~	c #7C4B42",
">~	c #7D2E26",
",~	c #5B211B",
"'~	c #603026",
")~	c #65382E",
"!~	c #341713",
"~~	c #140505",
"{~	c #0B0202",
"]~	c #090203",
"^~	c #040202",
"/~	c #060001",
"(~	c #1C0404",
"_~	c #3A1613",
":~	c #180605",
"<~	c #260503",
"[~	c #720A08",
"}~	c #9B1511",
"|~	c #953324",
"1~	c #9D3D2B",
"2~	c #651710",
"3~	c #3A0D07",
"4~	c #260B08",
"5~	c #0A0305",
"6~	c #060405",
"7~	c #0F0C0D",
"8~	c #514844",
"9~	c #887F77",
"0~	c #837870",
"a~	c #4B3F3A",
"b~	c #594B41",
"c~	c #716054",
"d~	c #514540",
"e~	c #3B201C",
"f~	c #5F1D14",
"g~	c #57160E",
"h~	c #A72C1B",
"i~	c #B83821",
"j~	c #B83D27",
"k~	c #C13821",
"l~	c #9D3825",
"m~	c #B9684A",
"n~	c #B88366",
"o~	c #57463B",
"p~	c #170708",
"q~	c #371C1A",
"r~	c #2C1B1A",
"s~	c #0A0709",
"t~	c #191413",
"u~	c #50433D",
"v~	c #493B35",
"w~	c #48342E",
"x~	c #4D2E26",
"y~	c #6F3125",
"z~	c #391610",
"A~	c #463B35",
"B~	c #8D6E5E",
"C~	c #926C5C",
"D~	c #927464",
"E~	c #2B211D",
"F~	c #070303",
"G~	c #171211",
"H~	c #99857A",
"I~	c #9C6F64",
"J~	c #864A3E",
"K~	c #7C4C3F",
"L~	c #944B3E",
"M~	c #8B3F31",
"N~	c #612E23",
"O~	c #30130F",
"P~	c #401711",
"Q~	c #3F1913",
"R~	c #29100D",
"S~	c #160707",
"T~	c #100505",
"U~	c #050102",
"V~	c #0E0202",
"W~	c #2E120F",
"X~	c #4A0604",
"Y~	c #9A140F",
"Z~	c #B61E16",
"`~	c #A8221A",
" {	c #7A241B",
".{	c #952A1E",
"+{	c #963224",
"@{	c #330F0A",
"#{	c #030102",
"${	c #0C0809",
"%{	c #231C1C",
"&{	c #37312E",
"*{	c #6E635D",
"={	c #766B62",
"-{	c #4E3F3B",
";{	c #68584F",
">{	c #3E332D",
",{	c #38110C",
"'{	c #651109",
"){	c #70120B",
"!{	c #76140E",
"~{	c #590F08",
"{{	c #7D1E13",
"]{	c #932416",
"^{	c #933020",
"/{	c #B26245",
"({	c #A97059",
"_{	c #614038",
":{	c #1A0909",
"<{	c #311917",
"[{	c #241614",
"}{	c #060506",
"|{	c #594A43",
"1{	c #503E38",
"2{	c #5C3F36",
"3{	c #481E17",
"4{	c #541810",
"5{	c #63231A",
"6{	c #472723",
"7{	c #45362E",
"8{	c #785D51",
"9{	c #987364",
"0{	c #5B4138",
"a{	c #150C09",
"b{	c #392B26",
"c{	c #A0877D",
"d{	c #945247",
"e{	c #935E50",
"f{	c #976656",
"g{	c #972C22",
"h{	c #8C261C",
"i{	c #37100C",
"j{	c #170505",
"k{	c #421814",
"l{	c #371411",
"m{	c #381512",
"n{	c #1E0A09",
"o{	c #0B0304",
"p{	c #030001",
"q{	c #040101",
"r{	c #3F0705",
"s{	c #9A1F18",
"t{	c #9B1A16",
"u{	c #7E1815",
"v{	c #551210",
"w{	c #9D211A",
"x{	c #95231A",
"y{	c #290805",
"z{	c #050202",
"A{	c #110D0D",
"B{	c #2D2626",
"C{	c #211E1C",
"D{	c #675C54",
"E{	c #73675F",
"F{	c #3E332C",
"G{	c #5E4F46",
"H{	c #615249",
"I{	c #1E1614",
"J{	c #1D0503",
"K{	c #320402",
"L{	c #500705",
"M{	c #590808",
"N{	c #530B08",
"O{	c #490F09",
"P{	c #300504",
"Q{	c #2C0B08",
"R{	c #4A2019",
"S{	c #6B332B",
"T{	c #6F251F",
"U{	c #2E1211",
"V{	c #180D0D",
"W{	c #10090A",
"X{	c #070607",
"Y{	c #040304",
"Z{	c #332925",
"`{	c #382A26",
" ]	c #351A17",
".]	c #3F0D09",
"+]	c #600F0B",
"@]	c #6B1D15",
"#]	c #7E443A",
"$]	c #564339",
"%]	c #573A32",
"&]	c #836052",
"*]	c #7D594C",
"=]	c #422A22",
"-]	c #43342E",
";]	c #866157",
">]	c #873428",
",]	c #7B372D",
"']	c #7F2E26",
")]	c #6B130C",
"!]	c #380806",
"~]	c #0E0607",
"{]	c #060203",
"]]	c #190505",
"^]	c #1B0807",
"/]	c #0E0506",
"(]	c #070203",
"_]	c #070102",
":]	c #070103",
"<]	c #350607",
"[]	c #8B1816",
"}]	c #6D0F0E",
"|]	c #6E1513",
"1]	c #7D1511",
"2]	c #A91610",
"3]	c #87100D",
"4]	c #1D0202",
"5]	c #010001",
"6]	c #050506",
"7]	c #1B1819",
"8]	c #08080A",
"9]	c #3E3835",
"0]	c #605651",
"a]	c #322A25",
"b]	c #473C34",
"c]	c #4F423A",
"d]	c #100807",
"e]	c #180604",
"f]	c #200302",
"g]	c #2F0303",
"h]	c #5D0706",
"i]	c #961D15",
"j]	c #BD3626",
"k]	c #A4281E",
"l]	c #661813",
"m]	c #48110D",
"n]	c #421712",
"o]	c #5F1E18",
"p]	c #471512",
"q]	c #2B0C09",
"r]	c #050405",
"s]	c #090607",
"t]	c #090707",
"u]	c #150F10",
"v]	c #1F1514",
"w]	c #210F0D",
"x]	c #330805",
"y]	c #5C0F0A",
"z]	c #4E0B07",
"A]	c #8C4C3F",
"B]	c #93695A",
"C]	c #664036",
"D]	c #755549",
"E]	c #5B3E34",
"F]	c #68473A",
"G]	c #311F19",
"H]	c #1A0C0A",
"I]	c #593D34",
"J]	c #967567",
"K]	c #743F35",
"L]	c #653028",
"M]	c #613C35",
"N]	c #21100E",
"O]	c #2D241F",
"P]	c #42352E",
"Q]	c #271E1B",
"R]	c #1B1512",
"S]	c #040102",
"T]	c #080203",
"U]	c #100303",
"V]	c #1F0504",
"W]	c #260404",
"X]	c #1D0304",
"Y]	c #3A0404",
"Z]	c #3C0404",
"`]	c #750F0C",
" ^	c #AF1F18",
".^	c #B2221A",
"+^	c #700E0A",
"@^	c #0C0101",
"#^	c #0A0708",
"$^	c #2B2421",
"%^	c #1F1A18",
"&^	c #302A28",
"*^	c #61554E",
"=^	c #251F1C",
"-^	c #2A2421",
";^	c #1C1512",
">^	c #1F0A06",
",^	c #230604",
"'^	c #300402",
")^	c #760E09",
"!^	c #A82A1F",
"~^	c #C03628",
"{^	c #BE2D24",
"]^	c #AB2921",
"^^	c #93231D",
"/^	c #2E0908",
"(^	c #1E0606",
"_^	c #4F1914",
":^	c #501B13",
"<^	c #130D0D",
"[^	c #231715",
"}^	c #200B09",
"|^	c #2A0704",
"1^	c #3D0804",
"2^	c #3C0B07",
"3^	c #773D31",
"4^	c #995C4D",
"5^	c #80483C",
"6^	c #59372F",
"7^	c #4E322A",
"8^	c #422D26",
"9^	c #3E251E",
"0^	c #3A1F19",
"a^	c #774C41",
"b^	c #916C5F",
"c^	c #49211B",
"d^	c #2F1A17",
"e^	c #52433C",
"f^	c #69584E",
"g^	c #806C5E",
"h^	c #786559",
"i^	c #63534A",
"j^	c #67594D",
"k^	c #3F332D",
"l^	c #080102",
"m^	c #0E0101",
"n^	c #250403",
"o^	c #210302",
"p^	c #140101",
"q^	c #460705",
"r^	c #A82018",
"s^	c #B22019",
"t^	c #750D09",
"u^	c #040404",
"v^	c #13100F",
"w^	c #211C1A",
"x^	c #2C2624",
"y^	c #413732",
"z^	c #181412",
"A^	c #211B19",
"B^	c #050304",
"C^	c #130303",
"D^	c #2B0704",
"E^	c #350604",
"F^	c #430604",
"G^	c #6A160F",
"H^	c #933026",
"I^	c #97291F",
"J^	c #B43124",
"K^	c #8A261D",
"L^	c #260B09",
"M^	c #271D1A",
"N^	c #493832",
"O^	c #432D26",
"P^	c #090606",
"Q^	c #201311",
"R^	c #2A130F",
"S^	c #360603",
"T^	c #4B0A06",
"U^	c #6B291F",
"V^	c #996758",
"W^	c #8A5E4F",
"X^	c #63392F",
"Y^	c #4D2A22",
"Z^	c #3B1E19",
"`^	c #1C0C0A",
" /	c #2E1B16",
"./	c #6D453B",
"+/	c #46302A",
"@/	c #49342E",
"#/	c #817067",
"$/	c #A79688",
"%/	c #A79181",
"&/	c #988272",
"*/	c #937F71",
"=/	c #766255",
"-/	c #816C5E",
";/	c #7F6B5E",
">/	c #5E4C42",
",/	c #332722",
"'/	c #060303",
")/	c #050203",
"!/	c #090405",
"~/	c #100202",
"{/	c #140303",
"]/	c #280605",
"^/	c #360806",
"//	c #500E0A",
"(/	c #70130E",
"_/	c #4C0C09",
":/	c #080406",
"</	c #080606",
"[/	c #1B1614",
"}/	c #372E2A",
"|/	c #13100E",
"1/	c #15110F",
"2/	c #1F0403",
"3/	c #2E0503",
"4/	c #380403",
"5/	c #650F0A",
"6/	c #691710",
"7/	c #4E0F09",
"8/	c #5A160F",
"9/	c #3A130F",
"0/	c #6A5F56",
"a/	c #816A5E",
"b/	c #614B41",
"c/	c #44342D",
"d/	c #140E0D",
"e/	c #1B1311",
"f/	c #1D0F0E",
"g/	c #290706",
"h/	c #350402",
"i/	c #440703",
"j/	c #6D1710",
"k/	c #8B5D51",
"l/	c #8E594B",
"m/	c #764639",
"n/	c #4F2D25",
"o/	c #3B1E18",
"p/	c #271916",
"q/	c #453A33",
"r/	c #6D5D54",
"s/	c #705C51",
"t/	c #80695D",
"u/	c #907E72",
"v/	c #A8988B",
"w/	c #A89586",
"x/	c #B4A08E",
"y/	c #9D8B7B",
"z/	c #7F6659",
"A/	c #968071",
"B/	c #9D8879",
"C/	c #6B594F",
"D/	c #726054",
"E/	c #3F322B",
"F/	c #090304",
"G/	c #250504",
"H/	c #240203",
"I/	c #200304",
"J/	c #0D0101",
"K/	c #140605",
"L/	c #070405",
"M/	c #181312",
"N/	c #0C0909",
"O/	c #120E0D",
"P/	c #120D0D",
"Q/	c #0B0101",
"R/	c #220403",
"S/	c #1F0302",
"T/	c #330402",
"U/	c #440906",
"V/	c #290503",
"W/	c #150302",
"X/	c #150202",
"Y/	c #2E2D2C",
"Z/	c #938E85",
"`/	c #736157",
" (	c #44352F",
".(	c #201817",
"+(	c #040303",
"@(	c #221815",
"#(	c #2F1D1A",
"$(	c #36110F",
"%(	c #480B07",
"&(	c #470A05",
"*(	c #5C0E08",
"=(	c #732920",
"-(	c #78372B",
";(	c #885242",
">(	c #835949",
",(	c #604337",
"'(	c #3B2C26",
")(	c #6C5C52",
"!(	c #665B52",
"~(	c #6E564B",
"{(	c #7E574A",
"](	c #825C50",
"^(	c #9F8879",
"/(	c #A99585",
"((	c #AC9A8A",
"_(	c #A79383",
":(	c #7E675B",
"<(	c #A18E7E",
"[(	c #8B786A",
"}(	c #7C6A5E",
"|(	c #3B2F28",
"1(	c #070506",
"2(	c #0B090A",
"3(	c #100C0C",
"4(	c #15100F",
"5(	c #1A1312",
"6(	c #070406",
"7(	c #190303",
"8(	c #180101",
"9(	c #300503",
"0(	c #6A1B13",
"a(	c #5F1B12",
"b(	c #43140E",
"c(	c #1F0605",
"d(	c #0F0808",
"e(	c #282725",
"f(	c #251C19",
"g(	c #453933",
"h(	c #231C19",
"i(	c #020203",
"j(	c #050305",
"k(	c #3D2F2A",
"l(	c #412822",
"m(	c #310E0B",
"n(	c #3E0D09",
"o(	c #310704",
"p(	c #4D231A",
"q(	c #5A352B",
"r(	c #58392F",
"s(	c #71574B",
"t(	c #756256",
"u(	c #66564B",
"v(	c #50433B",
"w(	c #3A2F2A",
"x(	c #584139",
"y(	c #9B7260",
"z(	c #A07C6B",
"A(	c #A88F7E",
"B(	c #A48D7C",
"C(	c #A79281",
"D(	c #9D8777",
"E(	c #937B6B",
"F(	c #8C7969",
"G(	c #604D43",
"H(	c #2F2621",
"I(	c #221A17",
"J(	c #0A0607",
"K(	c #100B0B",
"L(	c #0E0909",
"M(	c #0B0706",
"N(	c #0D0909",
"O(	c #1B1312",
"P(	c #120404",
"Q(	c #2B0907",
"R(	c #290403",
"S(	c #1C0201",
"T(	c #1D0403",
"U(	c #2A0B08",
"V(	c #1E0807",
"W(	c #180503",
"X(	c #0C0202",
"Y(	c #342B26",
"Z(	c #100A09",
"`(	c #080608",
" _	c #181414",
"._	c #312623",
"+_	c #472822",
"@_	c #3E1711",
"#_	c #3A0F0A",
"$_	c #461E16",
"%_	c #4A2F26",
"&_	c #463028",
"*_	c #5C4C43",
"=_	c #89796C",
"-_	c #867366",
";_	c #50423C",
">_	c #463A33",
",_	c #826F63",
"'_	c #A58A79",
")_	c #836558",
"!_	c #9C8A7B",
"~_	c #AA9887",
"{_	c #BFAC98",
"]_	c #B39F8D",
"^_	c #957E6F",
"/_	c #513D34",
"(_	c #3E2B26",
"__	c #2E221E",
":_	c #3A2E29",
"<_	c #1A1311",
"[_	c #0F0A0A",
"}_	c #1C1513",
"|_	c #231918",
"1_	c #110D0C",
"2_	c #0E0B0C",
"3_	c #1A100E",
"4_	c #150505",
"5_	c #3F130F",
"6_	c #57170F",
"7_	c #5B160E",
"8_	c #300604",
"9_	c #1E0604",
"0_	c #130403",
"a_	c #080505",
"b_	c #14100E",
"c_	c #080708",
"d_	c #1B1615",
"e_	c #473932",
"f_	c #543C32",
"g_	c #4D2E25",
"h_	c #613227",
"i_	c #471F18",
"j_	c #4F2A21",
"k_	c #5E3E32",
"l_	c #402A22",
"m_	c #53433A",
"n_	c #756457",
"o_	c #6D5C51",
"p_	c #73645A",
"q_	c #B4A18F",
"r_	c #C3AE99",
"s_	c #927C6D",
"t_	c #AE9989",
"u_	c #BEAB99",
"v_	c #BAA795",
"w_	c #B6A391",
"x_	c #9B8574",
"y_	c #594237",
"z_	c #3C2B25",
"A_	c #251A16",
"B_	c #150C0A",
"C_	c #150D0B",
"D_	c #090505",
"E_	c #191110",
"F_	c #191211",
"G_	c #201917",
"H_	c #151111",
"I_	c #0C0A0A",
"J_	c #100D0D",
"K_	c #141112",
"L_	c #120D0C",
"M_	c #0D0908",
"N_	c #291412",
"O_	c #531814",
"P_	c #4C0F0A",
"Q_	c #3F0C08",
"R_	c #481411",
"S_	c #300C09",
"T_	c #0B0303",
"U_	c #170E0D",
"V_	c #090708",
"W_	c #161212",
"X_	c #130E0E",
"Y_	c #392C26",
"Z_	c #73594B",
"`_	c #5D4137",
" :	c #462921",
".:	c #41201A",
"+:	c #492D24",
"@:	c #5F4338",
"#:	c #46322A",
"$:	c #281D1A",
"%:	c #3A2F29",
"&:	c #4A3E37",
"*:	c #342D29",
"=:	c #4F443C",
"-:	c #A18C7C",
";:	c #CABCA9",
">:	c #B8A695",
",:	c #AA9585",
"':	c #AD9A89",
"):	c #A99686",
"!:	c #AA9787",
"~:	c #826D60",
"{:	c #523B33",
"]:	c #3F2E27",
"^:	c #2F211B",
"/:	c #1F1411",
"(:	c #110908",
"_:	c #130B0A",
"::	c #19100F",
"<:	c #271F1C",
"[:	c #161313",
"}:	c #171515",
"|:	c #1A1616",
"1:	c #191615",
"2:	c #0A0809",
"3:	c #0A0706",
"4:	c #170C0B",
"5:	c #2E0E0C",
"6:	c #230605",
"7:	c #220605",
"8:	c #4B1512",
"9:	c #3A100E",
"0:	c #110707",
"a:	c #140B09",
"b:	c #100C0B",
"c:	c #382E29",
"d:	c #241B19",
"e:	c #45332B",
"f:	c #513B32",
"g:	c #553F35",
"h:	c #452E26",
"i:	c #4E3129",
"j:	c #3C241D",
"k:	c #322520",
"l:	c #342923",
"m:	c #221B18",
"n:	c #3C322D",
"o:	c #493E36",
"p:	c #322823",
"q:	c #8C7667",
"r:	c #AB9785",
"s:	c #AC8D7D",
"t:	c #B68978",
"u:	c #947162",
"v:	c #80675B",
"w:	c #917C6D",
"x:	c #5D4A41",
"y:	c #473730",
"z:	c #3C2E28",
"A:	c #2D211C",
"B:	c #291D1A",
"C:	c #170F0E",
"D:	c #100808",
"E:	c #1C1210",
"F:	c #241916",
"G:	c #191312",
"H:	c #110E0D",
"I:	c #1B1817",
"J:	c #191616",
"K:	c #1C1817",
"L:	c #0B0809",
"M:	c #030303",
"N:	c #060202",
"O:	c #0C0606",
"P:	c #1B0F0E",
"Q:	c #160D0D",
"R:	c #0A0404",
"S:	c #2E2622",
"T:	c #56483F",
"U:	c #382D28",
"V:	c #3F2D27",
"W:	c #44332C",
"X:	c #47372F",
"Y:	c #3E2E27",
"Z:	c #4B352E",
"`:	c #604036",
" <	c #4F3F37",
".<	c #332923",
"+<	c #27201C",
"@<	c #251E1B",
"#<	c #362B26",
"$<	c #1F1917",
"%<	c #73665B",
"&<	c #897465",
"*<	c #8E4B3E",
"=<	c #B54233",
"-<	c #832F23",
";<	c #643E34",
"><	c #8A7264",
",<	c #766357",
"'<	c #574840",
")<	c #625248",
"!<	c #453831",
"~<	c #40322C",
"{<	c #3E322A",
"]<	c #251D19",
"^<	c #1C1514",
"/<	c #171312",
"(<	c #151110",
"_<	c #241F1E",
":<	c #211C1C",
"<<	c #110E0F",
"[<	c #040305",
"}<	c #211512",
"|<	c #0C0607",
"1<	c #382923",
"2<	c #140C09",
"3<	c #191614",
"4<	c #28221F",
"5<	c #4A3F38",
"6<	c #52463E",
"7<	c #31241F",
"8<	c #3E312B",
"9<	c #463831",
"0<	c #6F5A4E",
"a<	c #735D52",
"b<	c #887567",
"c<	c #584A40",
"d<	c #2E2722",
"e<	c #29211E",
"f<	c #29201C",
"g<	c #3E3630",
"h<	c #7C695C",
"i<	c #874E42",
"j<	c #87291E",
"k<	c #61160E",
"l<	c #482923",
"m<	c #7A6B5E",
"n<	c #8B796B",
"o<	c #705F53",
"p<	c #7E6D5F",
"q<	c #736457",
"r<	c #57483F",
"s<	c #44362E",
"t<	c #58483D",
"u<	c #392E28",
"v<	c #201B19",
"w<	c #1B1716",
"x<	c #2E2621",
"y<	c #3E3530",
"z<	c #2E2926",
"A<	c #231E1C",
"B<	c #2E2723",
"C<	c #100E0F",
"D<	c #180F0D",
"E<	c #1F1311",
"F<	c #261A16",
"G<	c #050505",
"H<	c #161311",
"I<	c #302824",
"J<	c #362D29",
"K<	c #50453D",
"L<	c #3F352F",
"M<	c #2B231F",
"N<	c #271E1A",
"O<	c #54443B",
"P<	c #7B685C",
"Q<	c #7F6F62",
"R<	c #6E5F54",
"S<	c #605348",
"T<	c #352D27",
"U<	c #1E1815",
"V<	c #2B2522",
"W<	c #7B6E64",
"X<	c #92796C",
"Y<	c #7C594F",
"Z<	c #502922",
"`<	c #38221D",
" [	c #68574C",
".[	c #5D4E44",
"+[	c #746356",
"@[	c #7B6859",
"#[	c #645247",
"$[	c #4E3C33",
"%[	c #44342B",
"&[	c #362923",
"*[	c #241D1A",
"=[	c #28211E",
"-[	c #3F3833",
";[	c #4B433C",
">[	c #3B3530",
",[	c #322D29",
"'[	c #0D0D0E",
")[	c #0E0C0B",
"![	c #29231F",
"~[	c #27211F",
"{[	c #241E1C",
"][	c #453B35",
"^[	c #594C44",
"/[	c #63554B",
"([	c #463D36",
"_[	c #27211E",
":[	c #28201D",
"<[	c #4A4039",
"[[	c #776A5E",
"}[	c #7F7164",
"|[	c #7F7264",
"1[	c #65594E",
"2[	c #2A2320",
"3[	c #171413",
"4[	c #B2A497",
"5[	c #B19E8E",
"6[	c #9B887A",
"7[	c #826F62",
"8[	c #443731",
"9[	c #493B34",
"0[	c #524239",
"a[	c #52433A",
"b[	c #635246",
"c[	c #58483F",
"d[	c #664F42",
"e[	c #49362D",
"f[	c #372B25",
"g[	c #3E322B",
"h[	c #4A3E38",
"i[	c #332B27",
"j[	c #423B37",
"k[	c #3C3632",
"l[	c #38332F",
"m[	c #2C2825",
"n[	c #100F0F",
"o[	c #0B0B0C",
"p[	c #141313",
"q[	c #14110F",
"r[	c #352D28",
"s[	c #443A33",
"t[	c #342C28",
"u[	c #3C332E",
"v[	c #54483F",
"w[	c #776A5F",
"x[	c #71675D",
"y[	c #2D2724",
"z[	c #161111",
"A[	c #423831",
"B[	c #796B5E",
"C[	c #76685C",
"D[	c #7D6E62",
"E[	c #6E6257",
"F[	c #3B332D",
"G[	c #746D66",
"H[	c #BAAA9B",
"I[	c #C4B7A7",
"J[	c #9F8F80",
"K[	c #75665A",
"L[	c #483A32",
"M[	c #332723",
"N[	c #41322B",
"O[	c #4B3D35",
"P[	c #523E34",
"Q[	c #533E33",
"R[	c #322420",
"S[	c #5B4B43",
"T[	c #5E5048",
"U[	c #413731",
"V[	c #332C29",
"W[	c #3A332F",
"X[	c #3E3833",
"Y[	c #111010",
"Z[	c #181616",
"`[	c #131212",
" }	c #0E0D0E",
".}	c #0F0908",
"+}	c #312924",
"@}	c #473D36",
"#}	c #594D45",
"$}	c #6D5F54",
"%}	c #74675D",
"&}	c #8F8377",
"*}	c #84786D",
"=}	c #665C54",
"-}	c #302926",
";}	c #312824",
">}	c #4B3F36",
",}	c #756659",
"'}	c #7C6D5F",
")}	c #847567",
"!}	c #584E45",
"~}	c #625B54",
"{}	c #AEA79E",
"]}	c #8D7F74",
"^}	c #A69587",
"/}	c #B1A290",
"(}	c #A08F7E",
"_}	c #867567",
":}	c #564840",
"<}	c #5B493F",
"[}	c #5A443B",
"}}	c #8D7C6D",
"|}	c #69594D",
"1}	c #756355",
"2}	c #2E241F",
"3}	c #463A32",
"4}	c #372F2B",
"5}	c #322C29",
"6}	c #3D3531",
"7}	c #2B2623",
"8}	c #191716",
"9}	c #312D2A",
"0}	c #211E1E",
"a}	c #0D0C0E",
"b}	c #0A0909",
"c}	c #080607",
"d}	c #161312",
"e}	c #302925",
"f}	c #50453E",
"g}	c #564B43",
"h}	c #695B51",
"i}	c #6E6055",
"j}	c #72655A",
"k}	c #8E8276",
"l}	c #786F65",
"m}	c #4F443D",
"n}	c #1D1715",
"o}	c #50463D",
"p}	c #64584D",
"q}	c #76695D",
"r}	c #675C53",
"s}	c #4A433E",
"t}	c #615952",
"u}	c #928072",
"v}	c #A39282",
"w}	c #9F8F7F",
"x}	c #7C6D61",
"y}	c #4F3C34",
"z}	c #5A3B31",
"A}	c #836758",
"B}	c #765F52",
"C}	c #927D6C",
"D}	c #544239",
"E}	c #3A302A",
"F}	c #251F1D",
"G}	c #211D1B",
"H}	c #2C2724",
"I}	c #221F1E",
"J}	c #312D2B",
"K}	c #252221",
"L}	c #171616",
"M}	c #131111",
"N}	c #181410",
"O}	c #100D0C",
"P}	c #0F0C0C",
"Q}	c #463D37",
"R}	c #68584E",
"S}	c #5B4E46",
"T}	c #7F7368",
"U}	c #9D9286",
"V}	c #B2A89A",
"W}	c #50463E",
"X}	c #2E2824",
"Y}	c #413933",
"Z}	c #504740",
"`}	c #82776B",
" |	c #585049",
".|	c #48413D",
"+|	c #8D7B6E",
"@|	c #958173",
"#|	c #9C8E81",
"$|	c #988A7D",
"%|	c #A79787",
"&|	c #8F7F72",
"*|	c #866B5D",
"=|	c #7A5547",
"-|	c #856B5B",
";|	c #816456",
">|	c #816658",
",|	c #5E4339",
"'|	c #291916",
")|	c #251B17",
"!|	c #18110F",
"~|	c #1C1615",
"{|	c #27221F",
"]|	c #4F4841",
"^|	c #38332E",
"/|	c #423C36",
"(|	c #2B2725",
"_|	c #221F1D",
":|	c #29211C",
"<|	c #1C1814",
"[|	c #26201E",
"}|	c #403833",
"||	c #5F5750",
"1|	c #5A514B",
"2|	c #715F55",
"3|	c #66574E",
"4|	c #82756B",
"5|	c #8C8176",
"6|	c #968B7F",
"7|	c #AB9C8D",
"8|	c #948577",
"9|	c #85786B",
"0|	c #635A52",
"a|	c #312C29",
"b|	c #423A35",
"c|	c #645A51",
"d|	c #5E544D",
"e|	c #342E2A",
"f|	c #625750",
"g|	c #A7998E",
"h|	c #A79B8E",
"i|	c #978B7F",
"j|	c #8D7A6B",
"k|	c #786659",
"l|	c #6B5247",
"m|	c #5D342A",
"n|	c #705549",
"o|	c #7D5F51",
"p|	c #7D6051",
"q|	c #684B40",
"r|	c #48332C",
"s|	c #392C25",
"t|	c #352B27",
"u|	c #504842",
"v|	c #514842",
"w|	c #635A51",
"x|	c #574F47",
"y|	c #35302D",
"z|	c #3B3532",
"A|	c #3D3631",
"B|	c #221E1B",
"C|	c #0E0A09",
"D|	c #16110F",
"E|	c #2B221E",
"F|	c #4F443E",
"G|	c #8C7F74",
"H|	c #B1A498",
"I|	c #B4AB9F",
"J|	c #A59F96",
"K|	c #988D83",
"L|	c #978C82",
"M|	c #796D63",
"N|	c #9D8E81",
"O|	c #AFA091",
"P|	c #A89989",
"Q|	c #B7AB9C",
"R|	c #958D82",
"S|	c #59524C",
"T|	c #433C37",
"U|	c #48413C",
"V|	c #47403B",
"W|	c #181515",
"X|	c #2A2725",
"Y|	c #898079",
"Z|	c #A89D93",
"`|	c #9E9184",
" 1	c #7B6558",
".1	c #502C25",
"+1	c #714034",
"@1	c #8A5F50",
"#1	c #856758",
"$1	c #8B6D5C",
"%1	c #805444",
"&1	c #61362B",
"*1	c #593F34",
"=1	c #493C35",
"-1	c #71665C",
";1	c #695E55",
">1	c #7C7065",
",1	c #877B6D",
"'1	c #63584E",
")1	c #362F2B",
"!1	c #433C36",
"~1	c #282421",
"{1	c #3E302A",
"]1	c #74685E",
"^1	c #B1A293",
"/1	c #BEB3A5",
"(1	c #CFC8BC",
"_1	c #BAB1A7",
":1	c #BBB3AA",
"<1	c #D2C8BC",
"[1	c #C0B6AA",
"}1	c #A4988C",
"|1	c #9A8B7E",
"11	c #A08F81",
"21	c #BCAFA0",
"31	c #BFB6AA",
"41	c #A59B8F",
"51	c #877D73",
"61	c #655C54",
"71	c #4D4641",
"81	c #1D1A19",
"91	c #86817C",
"01	c #CCC6BC",
"a1	c #9B8F84",
"b1	c #8E7D70",
"c1	c #624940",
"d1	c #B3917C",
"e1	c #B48E78",
"f1	c #947664",
"g1	c #785A4D",
"h1	c #754132",
"i1	c #5B2E22",
"j1	c #5D493F",
"k1	c #6C5E53",
"l1	c #766B60",
"m1	c #72665B",
"n1	c #877A6B",
"o1	c #4C433C",
"p1	c #4B423B",
"q1	c #4E453E",
"r1	c #1D1714",
"s1	c #504039",
"t1	c #403732",
"u1	c #7D6F66",
"v1	c #847E78",
"w1	c #A1968C",
"x1	c #D4CABF",
"y1	c #E2DCD0",
"z1	c #C9C0B6",
"A1	c #C9C1B6",
"B1	c #998D82",
"C1	c #6F6259",
"D1	c #9D9186",
"E1	c #C2B8AC",
"F1	c #B6AA9D",
"G1	c #B4A89B",
"H1	c #A19588",
"I1	c #756C64",
"J1	c #2D2826",
"K1	c #61605C",
"L1	c #CAC4BA",
"M1	c #9E8F83",
"N1	c #B6A898",
"O1	c #A79789",
"P1	c #AF9C8F",
"Q1	c #C3A994",
"R1	c #B5917B",
"S1	c #8C6555",
"T1	c #6C3B30",
"U1	c #712C20",
"V1	c #693A2D",
"W1	c #6B463A",
"X1	c #40322A",
"Y1	c #746458",
"Z1	c #827468",
"`1	c #6F6157",
" 2	c #64564B",
".2	c #4B3F37",
"+2	c #50453F",
"@2	c #584D46",
"#2	c #5A4F47",
"$2	c #3D3530",
"%2	c #090506",
"&2	c #2F2622",
"*2	c #796A5F",
"=2	c #8C7B6F",
"-2	c #4D4039",
";2	c #473A35",
">2	c #4C3B36",
",2	c #3F2F2C",
"'2	c #6E5A51",
")2	c #8E796D",
"!2	c #A59084",
"~2	c #C7BCB0",
"{2	c #BBAFA3",
"]2	c #C4B7AA",
"^2	c #A99D92",
"/2	c #897F76",
"(2	c #91877E",
"_2	c #AFA497",
":2	c #B5A99C",
"<2	c #A59A8F",
"[2	c #8C847C",
"}2	c #383431",
"|2	c #1D1C1B",
"12	c #A8A29B",
"22	c #BFB0A1",
"32	c #A99687",
"42	c #A48E7E",
"52	c #C1AA95",
"62	c #C1A58E",
"72	c #907160",
"82	c #6B2D22",
"92	c #6C1E15",
"02	c #672019",
"a2	c #45221C",
"b2	c #301A15",
"c2	c #635045",
"d2	c #85776A",
"e2	c #7B6F64",
"f2	c #6F6256",
"g2	c #211614",
"h2	c #5A4E47",
"i2	c #5B4F47",
"j2	c #4E433D",
"k2	c #352A26",
"l2	c #877568",
"m2	c #938175",
"n2	c #877468",
"o2	c #9E8E83",
"p2	c #8B8078",
"q2	c #80756E",
"r2	c #80655B",
"s2	c #86675B",
"t2	c #9A7568",
"u2	c #9F7E73",
"v2	c #B4988A",
"w2	c #CBB5A7",
"x2	c #CAB4A6",
"y2	c #D3CABD",
"z2	c #A3988E",
"A2	c #8C8076",
"B2	c #AA9E92",
"C2	c #B1A89D",
"D2	c #A7A098",
"E2	c #3F3B38",
"F2	c #686662",
"G2	c #C4BAAF",
"H2	c #A89588",
"I2	c #A59183",
"J2	c #AB907E",
"K2	c #B69A85",
"L2	c #997969",
"M2	c #854436",
"N2	c #6F2218",
"O2	c #711810",
"P2	c #4C1C16",
"Q2	c #4F3930",
"R2	c #725F53",
"S2	c #7E6F63",
"T2	c #6A5E54",
"U2	c #2F221F",
"V2	c #1B100E",
"W2	c #64574E",
"X2	c #665A50",
"Y2	c #4F463E",
"Z2	c #2E2521",
"`2	c #867669",
" 3	c #A89587",
".3	c #B5A291",
"+3	c #BCAA9B",
"@3	c #BDAFA1",
"#3	c #B4A294",
"$3	c #AC8F7F",
"%3	c #937468",
"&3	c #845347",
"*3	c #7C352D",
"=3	c #7B423B",
"-3	c #AA5D4F",
";3	c #C08370",
">3	c #B7A091",
",3	c #DBD0BF",
"'3	c #D5C9BA",
")3	c #A19284",
"!3	c #B5AB9E",
"~3	c #BFB7AC",
"{3	c #A9A399",
"]3	c #464340",
"^3	c #32312E",
"/3	c #ABA195",
"(3	c #B6A597",
"_3	c #9A877B",
":3	c #8A7668",
"<3	c #9E8471",
"[3	c #715345",
"}3	c #7A5A4C",
"|3	c #8E6152",
"13	c #7F5043",
"23	c #7D4839",
"33	c #755446",
"43	c #563E34",
"53	c #5A483E",
"63	c #6F6054",
"73	c #75685C",
"83	c #2F1B17",
"93	c #1D0D0A",
"03	c #1E1411",
"a3	c #4A413B",
"b3	c #6D6158",
"c3	c #71655A",
"d3	c #584F47",
"e3	c #372C27",
"f3	c #6E5E54",
"g3	c #927E70",
"h3	c #AA9485",
"i3	c #BFAA99",
"j3	c #D0BFAE",
"k3	c #D3C5B6",
"l3	c #C9BBAE",
"m3	c #9B7B70",
"n3	c #984438",
"o3	c #732D24",
"p3	c #753028",
"q3	c #822921",
"r3	c #983127",
"s3	c #A14D3F",
"t3	c #C39C89",
"u3	c #BAA696",
"v3	c #D6C7B8",
"w3	c #BDB0A2",
"x3	c #AAA094",
"y3	c #BDB4A9",
"z3	c #958E85",
"A3	c #3C3936",
"B3	c #090809",
"C3	c #76706A",
"D3	c #C5BAAE",
"E3	c #9E8D82",
"F3	c #948073",
"G3	c #AA9382",
"H3	c #94796A",
"I3	c #8B6D5D",
"J3	c #AD917E",
"K3	c #A88978",
"L3	c #85604F",
"M3	c #785C4D",
"N3	c #694F43",
"O3	c #7C6759",
"P3	c #726256",
"Q3	c #7D6E61",
"R3	c #58463E",
"S3	c #331B16",
"T3	c #250F0B",
"U3	c #150D0D",
"V3	c #463C37",
"W3	c #6B5E55",
"X3	c #766A5F",
"Y3	c #564D45",
"Z3	c #29221F",
"`3	c #4B3F38",
" 4	c #736459",
".4	c #9C8778",
"+4	c #C4AC9A",
"@4	c #CFBAA6",
"#4	c #D3C0AD",
"$4	c #CDB6A6",
"%4	c #C7B1A0",
"&4	c #BD9E8E",
"*4	c #9C564A",
"=4	c #AC7467",
"-4	c #BD7366",
";4	c #B95243",
">4	c #A64235",
",4	c #9D4E40",
"'4	c #CA8E7A",
")4	c #D5B099",
"!4	c #D6BDAC",
"~4	c #CBBDAE",
"{4	c #7E736A",
"]4	c #A0988E",
"^4	c #6C6862",
"/4	c #292320",
"(4	c #221D1B",
"_4	c #302E2B",
":4	c #87817A",
"<4	c #AFA398",
"[4	c #A8998E",
"}4	c #AC9484",
"|4	c #AB8E7B",
"14	c #9A7966",
"24	c #6D4F40",
"34	c #694E41",
"44	c #695145",
"54	c #7F6B5D",
"64	c #5D4F46",
"74	c #34231F",
"84	c #371E17",
"94	c #230F0B",
"04	c #201613",
"a4	c #40362F",
"b4	c #403731",
"c4	c #5F544B",
"d4	c #48403A",
"e4	c #302826",
"f4	c #362B27",
"g4	c #6F6055",
"h4	c #9F8878",
"i4	c #BF9F8B",
"j4	c #D5BEA9",
"k4	c #D9C6B3",
"l4	c #D8C3B1",
"m4	c #CCB5A3",
"n4	c #BD9E90",
"o4	c #AB8D82",
"p4	c #CEAE9E",
"q4	c #E1C4B3",
"r4	c #D4917E",
"s4	c #D17966",
"t4	c #C56351",
"u4	c #D17F69",
"v4	c #E1B39C",
"w4	c #DBC7B8",
"x4	c #C5B4A5",
"y4	c #685F57",
"z4	c #48423E",
"A4	c #1D1B1A",
"B4	c #2C2623",
"C4	c #3F3632",
"D4	c #272220",
"E4	c #0E0C0D",
"F4	c #110D0E",
"G4	c #3A3734",
"H4	c #A3988D",
"I4	c #94867D",
"J4	c #8E7A70",
"K4	c #BC9D8B",
"L4	c #BCA08C",
"M4	c #A78976",
"N4	c #866253",
"O4	c #653F33",
"P4	c #62453B",
"Q4	c #7D6559",
"R4	c #79665A",
"S4	c #786459",
"T4	c #574A42",
"U4	c #291C18",
"V4	c #280907",
"W4	c #2D1915",
"X4	c #3A2E28",
"Y4	c #554A42",
"Z4	c #504741",
"`4	c #1D1918",
" 5	c #43332C",
".5	c #53433B",
"+5	c #937869",
"@5	c #CBAD98",
"#5	c #D3BBA5",
"$5	c #D5C0AD",
"%5	c #D0BFB1",
"&5	c #968B81",
"*5	c #908176",
"=5	c #D3B8A8",
"-5	c #E6CCBB",
";5	c #DFCAB9",
">5	c #D6A38F",
",5	c #CF8C77",
"'5	c #C37462",
")5	c #C27861",
"!5	c #BD8E7E",
"~5	c #A3948B",
"{5	c #2A2321",
"]5	c #050407",
"^5	c #1B191A",
"/5	c #4D4540",
"(5	c #151313",
"_5	c #121010",
":5	c #726D66",
"<5	c #897D73",
"[5	c #A99285",
"}5	c #A77464",
"|5	c #B58E7A",
"15	c #9E7A68",
"25	c #492821",
"35	c #3B0B07",
"45	c #341814",
"55	c #5C473E",
"65	c #715F53",
"75	c #766358",
"85	c #3C2723",
"95	c #3E0A06",
"05	c #3B0E0A",
"a5	c #40211B",
"b5	c #3C2C27",
"c5	c #372D28",
"d5	c #564B44",
"e5	c #574E46",
"f5	c #312925",
"g5	c #312721",
"h5	c #493931",
"i5	c #4D372E",
"j5	c #715E54",
"k5	c #957C6C",
"l5	c #B69A86",
"m5	c #D6C0AB",
"n5	c #C4AD9A",
"o5	c #7F6357",
"p5	c #291A18",
"q5	c #5A4A41",
"r5	c #B39B8C",
"s5	c #C8B5A7",
"t5	c #C7AB9D",
"u5	c #D1B19F",
"v5	c #D4B4A1",
"w5	c #AA8275",
"x5	c #8C6054",
"y5	c #A99286",
"z5	c #60514A",
"A5	c #2A2220",
"B5	c #131110",
"C5	c #1A1817",
"D5	c #1E1B1A",
"E5	c #1D1A1A",
"F5	c #0F0E0E",
"G5	c #141111",
"H5	c #302D2B",
"I5	c #A27C6F",
"J5	c #7E453A",
"K5	c #73372D",
"L5	c #A25E4F",
"M5	c #81372F",
"N5	c #4F0402",
"O5	c #340906",
"P5	c #3E1D17",
"Q5	c #695549",
"R5	c #847163",
"S5	c #5D4139",
"T5	c #4B0703",
"U5	c #3E0C06",
"V5	c #3B1C16",
"W5	c #392A24",
"X5	c #392E29",
"Y5	c #564C43",
"Z5	c #38302A",
"`5	c #2B201B",
" 6	c #48332B",
".6	c #614438",
"+6	c #7F6457",
"@6	c #9E8271",
"#6	c #C0A693",
"$6	c #71655B",
"%6	c #0C0B0C",
"&6	c #120D0E",
"*6	c #40342E",
"=6	c #846E65",
"-6	c #C8A697",
";6	c #DCC4B2",
">6	c #EADACA",
",6	c #DDCDBE",
"'6	c #85756B",
")6	c #3A3430",
"!6	c #241E1D",
"~6	c #352E2A",
"{6	c #2E2825",
"]6	c #1B1918",
"^6	c #0F0F10",
"/6	c #181617",
"(6	c #060507",
"_6	c #1B1715",
":6	c #181413",
"<6	c #58514A",
"[6	c #A78D81",
"}6	c #AF7465",
"|6	c #A46855",
"16	c #90463A",
"26	c #821912",
"36	c #7F140D",
"46	c #341611",
"56	c #59483E",
"66	c #8C7B6C",
"76	c #7F6E61",
"86	c #7C5246",
"96	c #741911",
"06	c #44130D",
"a6	c #473129",
"b6	c #4B3B33",
"c6	c #5A4B42",
"d6	c #63564C",
"e6	c #4F453E",
"f6	c #3D342C",
"g6	c #382822",
"h6	c #573D33",
"i6	c #64493E",
"j6	c #867266",
"k6	c #9A867A",
"l6	c #A89A91",
"m6	c #5D5650",
"n6	c #100C0D",
"o6	c #100D0E",
"p6	c #191515",
"q6	c #1F1A19",
"r6	c #523C37",
"s6	c #B89D90",
"t6	c #D7C1AF",
"u6	c #E2D2C2",
"v6	c #BBAD9F",
"w6	c #584D45",
"x6	c #473B34",
"y6	c #3A302C",
"z6	c #292421",
"A6	c #0E0C0C",
"B6	c #0D0B0C",
"C6	c #0C0A0C",
"D6	c #766C64",
"E6	c #B59282",
"F6	c #B87663",
"G6	c #AD7665",
"H6	c #932C20",
"I6	c #9F2E21",
"J6	c #53160F",
"K6	c #42241F",
"L6	c #675248",
"M6	c #8A7666",
"N6	c #978473",
"O6	c #765B4E",
"P6	c #642F26",
"Q6	c #482E26",
"R6	c #59473D",
"S6	c #5A4B40",
"T6	c #55473E",
"U6	c #4A413A",
"V6	c #433A33",
"W6	c #5D4A3F",
"X6	c #745A4C",
"Y6	c #806658",
"Z6	c #8C796E",
"`6	c #93847A",
" 7	c #5B5450",
".7	c #231E1D",
"+7	c #2F2723",
"@7	c #39302C",
"#7	c #403733",
"$7	c #7D6E66",
"%7	c #CEBAAA",
"&7	c #BCAEA2",
"*7	c #675A54",
"=7	c #594A41",
"-7	c #312926",
";7	c #221C1A",
">7	c #241F1D",
",7	c #0D0B0B",
"'7	c #060505",
")7	c #554D48",
"!7	c #9E897D",
"~7	c #A77A6B",
"{7	c #B37767",
"]7	c #923127",
"^7	c #9B362C",
"/7	c #6C352C",
"(7	c #513830",
"_7	c #735E52",
":7	c #7D685A",
"<7	c #8E7C6C",
"[7	c #7C6658",
"}7	c #735C4F",
"|7	c #564138",
"17	c #483831",
"27	c #483C35",
"37	c #554841",
"47	c #594E44",
"57	c #423931",
"67	c #604F44",
"77	c #786154",
"87	c #8B7464",
"97	c #746257",
"07	c #3A312C",
"a7	c #25201E",
"b7	c #342D28",
"c7	c #2F2824",
"d7	c #261F1C",
"e7	c #4F423C",
"f7	c #473D38",
"g7	c #7D7269",
"h7	c #5B524C",
"i7	c #41352F",
"j7	c #3B322D",
"k7	c #2D2623",
"l7	c #131010",
"m7	c #1C1815",
"n7	c #030304",
"o7	c #000101",
"p7	c #110E0E",
"q7	c #100E0E",
"r7	c #28201E",
"s7	c #6C5F57",
"t7	c #B59A8A",
"u7	c #AE8777",
"v7	c #975649",
"w7	c #A47769",
"x7	c #7F5D52",
"y7	c #5F4237",
"z7	c #6E5549",
"A7	c #6A5246",
"B7	c #786254",
"C7	c #70584B",
"D7	c #664C40",
"E7	c #3A2A24",
"F7	c #352924",
"G7	c #443831",
"H7	c #4A3F37",
"I7	c #65584D",
"J7	c #473D35",
"K7	c #473E36",
"L7	c #483D34",
"M7	c #64544A",
"N7	c #726154",
"O7	c #6B5A4F",
"P7	c #050607",
"Q7	c #25201D",
"R7	c #372E29",
"S7	c #3B312C",
"T7	c #302521",
"U7	c #382D27",
"V7	c #4F423B",
"W7	c #443933",
"X7	c #3A312D",
"Y7	c #39302B",
"Z7	c #110F0F",
"`7	c #151211",
" 8	c #8F7C6F",
".8	c #AD8E7D",
"+8	c #AD8D7C",
"@8	c #A59182",
"#8	c #876F63",
"$8	c #745547",
"%8	c #56392F",
"&8	c #5E463B",
"*8	c #695245",
"=8	c #6B5245",
"-8	c #5C4034",
";8	c #2A1A15",
">8	c #211A17",
",8	c #2A221E",
"'8	c #675B50",
")8	c #4E443C",
"!8	c #443B34",
"~8	c #423731",
"{8	c #342B25",
"]8	c #5E4E44",
"^8	c #79685D",
"/8	c #6C6058",
"(8	c #0F0D0E",
"_8	c #161413",
":8	c #201C1A",
"<8	c #3D322C",
"[8	c #352B26",
"}8	c #6B5547",
"|8	c #4C3D35",
"18	c #56463C",
"28	c #4A3D36",
"38	c #3D332D",
"48	c #141212",
"58	c #40342D",
"68	c #8D6F60",
"78	c #A0816F",
"88	c #90796B",
"98	c #785F53",
"08	c #65493D",
"a8	c #5B4237",
"b8	c #664E43",
"c8	c #5E493E",
"d8	c #765F51",
"e8	c #6C5447",
"f8	c #41312A",
"g8	c #231B19",
"h8	c #29211D",
"i8	c #413630",
"j8	c #54473F",
"k8	c #423832",
"l8	c #3E342E",
"m8	c #665B53",
"n8	c #3C3732",
"o8	c #000102",
"p8	c #423730",
"q8	c #3C302A",
"r8	c #3C2B24",
"s8	c #6D4A3A",
"t8	c #715141",
"u8	c #705242",
"v8	c #785947",
"w8	c #70584A",
"x8	c #685246",
"y8	c #6D5749",
"z8	c #55453B",
"A8	c #382F2A",
"B8	c #28221E",
"C8	c #12100F",
"D8	c #181514",
"E8	c #624E45",
"F8	c #9B7D6B",
"G8	c #826557",
"H8	c #684A40",
"I8	c #473029",
"J8	c #564137",
"K8	c #665145",
"L8	c #675348",
"M8	c #6C594D",
"N8	c #715E51",
"O8	c #4D3F37",
"P8	c #1D1614",
"Q8	c #3D322A",
"R8	c #50443C",
"S8	c #4D423A",
"T8	c #605247",
"U8	c #3A3029",
"V8	c #52433B",
"W8	c #493D36",
"X8	c #0D0C0D",
"Y8	c #3C312C",
"Z8	c #4A3C33",
"`8	c #3D2E27",
" 9	c #3F2B23",
".9	c #5B3527",
"+9	c #784B39",
"@9	c #7A503E",
"#9	c #8C644E",
"$9	c #775746",
"%9	c #654B3F",
"&9	c #675042",
"*9	c #4C3E35",
"=9	c #2B2420",
"-9	c #1D1917",
";9	c #080707",
">9	c #0E0D0D",
",9	c #211B17",
"'9	c #826D61",
")9	c #887062",
"!9	c #7A6154",
"~9	c #534037",
"{9	c #4D3A32",
"]9	c #46362F",
"^9	c #3F2F28",
"/9	c #524137",
"(9	c #473831",
"_9	c #3F312B",
":9	c #29201B",
"<9	c #211A18",
"[9	c #1E1916",
"}9	c #5B4E45",
"|9	c #39302A",
"19	c #473B33",
"29	c #5B4C43",
"39	c #211C19",
"49	c #312823",
"59	c #3D312A",
"69	c #45342C",
"79	c #573F33",
"89	c #7F4B39",
"99	c #7A4332",
"09	c #91503B",
"a9	c #AC573D",
"b9	c #A9664E",
"c9	c #725040",
"d9	c #654D40",
"e9	c #5D483D",
"f9	c #534239",
"g9	c #4F4038",
"h9	c #1C1715",
"i9	c #010000",
"j9	c #0A090A",
"k9	c #251E1A",
"l9	c #564941",
"m9	c #79675C",
"n9	c #665349",
"o9	c #342621",
"p9	c #564035",
"q9	c #45322A",
"r9	c #3C2D27",
"s9	c #3F2E26",
"t9	c #4C3C33",
"u9	c #69574B",
"v9	c #514036",
"w9	c #1D1716",
"x9	c #27211D",
"y9	c #4C423B",
"z9	c #241C19",
"A9	c #55463D",
"B9	c #40352E",
"C9	c #0B0807",
"D9	c #120E0E",
"E9	c #392E27",
"F9	c #48352D",
"G9	c #724E3E",
"H9	c #BA613E",
"I9	c #BB5130",
"J9	c #813824",
"K9	c #A6442A",
"L9	c #7B2E1D",
"M9	c #4C3026",
"N9	c #49352C",
"O9	c #44342C",
"P9	c #534238",
"Q9	c #28211D",
"R9	c #0D0C0C",
"S9	c #121112",
"T9	c #070707",
"U9	c #050404",
"V9	c #26201D",
"W9	c #64554C",
"X9	c #705A4F",
"Y9	c #46352D",
"Z9	c #3E2B24",
"`9	c #3D2B25",
" 0	c #43322B",
".0	c #554035",
"+0	c #4A352C",
"@0	c #544036",
"#0	c #5D4C41",
"$0	c #4A3F39",
"%0	c #392D24",
"&0	c #4C3D33",
"*0	c #080706",
"=0	c #362A24",
"-0	c #3A2B24",
";0	c #552B1E",
">0	c #9F462C",
",0	c #B13A20",
"'0	c #98321C",
")0	c #6F2516",
"!0	c #5E3F31",
"~0	c #4F382E",
"{0	c #362821",
"]0	c #352923",
"^0	c #110F10",
"/0	c #120F0E",
"(0	c #261E1A",
"_0	c #675146",
":0	c #59453B",
"<0	c #453129",
"[0	c #372A24",
"}0	c #453027",
"|0	c #4F392F",
"10	c #4D382E",
"20	c #4B362C",
"30	c #3F312A",
"40	c #231A14",
"50	c #1C1816",
"60	c #281E19",
"70	c #361D17",
"80	c #692719",
"90	c #A03E25",
"00	c #A62A15",
"a0	c #922413",
"b0	c #552016",
"c0	c #4F382D",
"d0	c #7A4E3C",
"e0	c #634437",
"f0	c #3A2C26",
"g0	c #0F0D0C",
"h0	c #070606",
"i0	c #1E1918",
"j0	c #302823",
"k0	c #0D0A0B",
"l0	c #2D231F",
"m0	c #423029",
"n0	c #402E27",
"o0	c #39251F",
"p0	c #211310",
"q0	c #201310",
"r0	c #4C2D22",
"s0	c #50362B",
"t0	c #473229",
"u0	c #2C211B",
"v0	c #271E19",
"w0	c #0A0605",
"x0	c #0B0806",
"y0	c #171412",
"z0	c #28201C",
"A0	c #2E231E",
"B0	c #1C1411",
"C0	c #512219",
"D0	c #843121",
"E0	c #A33D23",
"F0	c #8A2312",
"G0	c #571108",
"H0	c #502E24",
"I0	c #62392C",
"J0	c #58382D",
"K0	c #3B2C25",
"L0	c #312722",
"M0	c #241E1B",
"N0	c #201B18",
"O0	c #050406",
"P0	c #140F0F",
"Q0	c #4D3A31",
"R0	c #2D1E19",
"S0	c #291A15",
"T0	c #22120E",
"U0	c #2B1F19",
"V0	c #483428",
"W0	c #1A110D",
"X0	c #030204",
"Y0	c #201A16",
"Z0	c #372C24",
"`0	c #291F1B",
" a	c #201511",
".a	c #572015",
"+a	c #7B2819",
"@a	c #782112",
"#a	c #511108",
"$a	c #3A1009",
"%a	c #57291E",
"&a	c #5D3F32",
"*a	c #482D24",
"=a	c #4B342B",
"-a	c #3A302B",
";a	c #433831",
">a	c #2A231F",
",a	c #0D0B0A",
"'a	c #010202",
")a	c #1A1715",
"!a	c #211C18",
"~a	c #1A1513",
"{a	c #201713",
"]a	c #2E231D",
"^a	c #1B1210",
"/a	c #150F0E",
"(a	c #473326",
"_a	c #1F1510",
":a	c #020202",
"<a	c #382C25",
"[a	c #342822",
"}a	c #362922",
"|a	c #3A1912",
"1a	c #662518",
"2a	c #64190D",
"3a	c #471008",
"4a	c #431A11",
"5a	c #673325",
"6a	c #45271E",
"7a	c #36231D",
"8a	c #362C27",
"9a	c #2C2521",
"0a	c #090808",
"aa	c #2A2420",
"ba	c #16100E",
"ca	c #30231D",
"da	c #251914",
"ea	c #251711",
"fa	c #301E17",
"ga	c #2F1D17",
"ha	c #291D19",
"ia	c #1A1411",
"ja	c #302621",
"ka	c #522318",
"la	c #692417",
"ma	c #481911",
"na	c #462419",
"oa	c #4E281E",
"pa	c #3B271F",
"qa	c #3A2C25",
"ra	c #2C2420",
"sa	c #120F0D",
"ta	c #0A0807",
"ua	c #1E1A17",
"va	c #2D2521",
"wa	c #231E1B",
"xa	c #1F1815",
"ya	c #291A16",
"za	c #2D1B14",
"Aa	c #523325",
"Ba	c #603E2F",
"Ca	c #2B1D18",
"Da	c #3E3028",
"Ea	c #1D1612",
"Fa	c #1D1815",
"Ga	c #2F2620",
"Ha	c #351F19",
"Ia	c #441F17",
"Ja	c #432821",
"Ka	c #674132",
"La	c #553226",
"Ma	c #311F18",
"Na	c #2F211C",
"Oa	c #322722",
"Pa	c #302622",
"Qa	c #221E1C",
"Ra	c #1F1A17",
"Sa	c #221D1A",
"Ta	c #302924",
"Ua	c #1C1714",
"Va	c #140E0B",
"Wa	c #1D0E09",
"Xa	c #2C1710",
"Ya	c #271610",
"Za	c #0C0A09",
"`a	c #16100F",
" b	c #030201",
".b	c #342A25",
"+b	c #2C1D17",
"@b	c #2F1C16",
"#b	c #4D362D",
"$b	c #664839",
"%b	c #583A2E",
"&b	c #3D2921",
"*b	c #231D1B",
"=b	c #29221E",
"-b	c #1E1713",
";b	c #0E0505",
">b	c #0C0B0B",
",b	c #4B3D34",
"'b	c #2E2520",
")b	c #170F0D",
"!b	c #241612",
"~b	c #563D32",
"{b	c #5C4236",
"]b	c #51382E",
"^b	c #402E26",
"/b	c #291E1A",
"(b	c #2F2823",
"_b	c #151210",
":b	c #1C1917",
"<b	c #161412",
"[b	c #1B1816",
"}b	c #161211",
"|b	c #1B1514",
"1b	c #3F231B",
"2b	c #251410",
"3b	c #241511",
"4b	c #1B120F",
"5b	c #140F0D",
"6b	c #14100F",
"7b	c #392F29",
"8b	c #362A25",
"9b	c #1D1613",
"0b	c #543F35",
"ab	c #4A382E",
"bb	c #4B382F",
"cb	c #402E25",
"db	c #2F251F",
"eb	c #352C27",
"fb	c #030302",
"gb	c #191514",
"hb	c #201A18",
"ib	c #201512",
"jb	c #3B1F17",
"kb	c #503025",
"lb	c #6A3F30",
"mb	c #3C2920",
"nb	c #231713",
"ob	c #18110E",
"pb	c #060504",
"qb	c #362C26",
"rb	c #43372E",
"sb	c #473830",
"tb	c #4F3A30",
"ub	c #241B18",
"vb	c #1C1613",
"wb	c #543F34",
"xb	c #543D30",
"yb	c #261B16",
"zb	c #211C1B",
"Ab	c #040403",
"Bb	c #080808",
"Cb	c #332821",
"Db	c #312822",
"Eb	c #191311",
"Fb	c #181110",
"Gb	c #271712",
"Hb	c #3C1F16",
"Ib	c #4F2A1E",
"Jb	c #5D3325",
"Kb	c #5E3B2C",
"Lb	c #2B1E18",
"Mb	c #17100D",
"Nb	c #0C0806",
"Ob	c #231D1A",
"Pb	c #322923",
"Qb	c #4F4036",
"Rb	c #41332C",
"Sb	c #45352D",
"Tb	c #4D3B32",
"Ub	c #42322B",
"Vb	c #281E1B",
"Wb	c #31241E",
"Xb	c #543E34",
"Yb	c #564036",
"Zb	c #46352C",
"`b	c #47362C",
" c	c #2D2621",
".c	c #080605",
"+c	c #0F0C0B",
"@c	c #16110E",
"#c	c #1F1814",
"$c	c #1C120F",
"%c	c #24130D",
"&c	c #361E17",
"*c	c #42231A",
"=c	c #3B2119",
"-c	c #0A0606",
";c	c #070504",
">c	c #0D0A0A",
",c	c #27201B",
"'c	c #2F2722",
")c	c #45372F",
"!c	c #4E3D34",
"~c	c #4A3931",
"{c	c #2D201B",
"]c	c #1E1613",
"^c	c #4C382E",
"/c	c #49372E",
"(c	c #513F35",
"_c	c #3B2E27",
":c	c #0F0D0D",
"<c	c #2C1F1A",
"[c	c #120A08",
"}c	c #1F0E09",
"|c	c #25120D",
"1c	c #181411",
"2c	c #201A17",
"3c	c #1E1816",
"4c	c #1E1715",
"5c	c #2F2520",
"6c	c #3F3129",
"7c	c #392821",
"8c	c #21120E",
"9c	c #392922",
"0c	c #4B3930",
"ac	c #554439",
"bc	c #514137",
"cc	c #3C3029",
"dc	c #110F0E",
"ec	c #0A0808",
"fc	c #1E1310",
"gc	c #3D2A22",
"hc	c #33221B",
"ic	c #0D0605",
"jc	c #100706",
"kc	c #070302",
"lc	c #161210",
"mc	c #221C19",
"nc	c #060606",
"oc	c #161110",
"pc	c #201714",
"qc	c #381D18",
"rc	c #381913",
"sc	c #1A0D0B",
"tc	c #2C1D18",
"uc	c #362822",
"vc	c #42342D",
"wc	c #44372F",
"xc	c #010100",
"yc	c #0B0A0A",
"zc	c #211D1A",
"Ac	c #1F1B19",
"Bc	c #110906",
"Cc	c #1E1917",
"Dc	c #2B110D",
"Ec	c #27120E",
"Fc	c #1C110F",
"Gc	c #130E0D",
"Hc	c #2D2520",
"Ic	c #27201E",
"Jc	c #1F110E",
"Kc	c #3C1C13",
"Lc	c #30231E",
"Mc	c #1C1412",
"Nc	c #0B0808",
"Oc	c #1A1615",
"Pc	c #191412",
"Qc	c #201916",
"Rc	c #261D19",
"Sc	c #33211B",
"Tc	c #3E221A",
"Uc	c #38231C",
"Vc	c #463229",
"Wc	c #564034",
"Xc	c #281F1B",
"Yc	c #0E0B0B",
"Zc	c #131011",
"`c	c #160E0C",
" d	c #080504",
".d	c #090807",
"+d	c #171311",
"@d	c #181311",
"#d	c #130F0E",
"$d	c #42322A",
"%d	c #4F362A",
"&d	c #53362A",
"*d	c #432D25",
"=d	c #563D31",
"-d	c #5F473A",
";d	c #48372E",
">d	c #0F0B0A",
",d	c #0A0908",
"'d	c #231B17",
")d	c #413229",
"!d	c #45342B",
"~d	c #54372B",
"{d	c #5B392B",
"]d	c #4F3327",
"^d	c #543B30",
"/d	c #614538",
"(d	c #694E3F",
"_d	c #33261F",
":d	c #0B090B",
"<d	c #020201",
"[d	c #2D221D",
"}d	c #32241F",
"|d	c #503327",
"1d	c #62392A",
"2d	c #644132",
"3d	c #7A5948",
"4d	c #5F4436",
"5d	c #49342A",
"6d	c #3B2B24",
"7d	c #221915",
"8d	c #271D19",
"9d	c #32251E",
"0d	c #3D271E",
"ad	c #683D2C",
"bd	c #7F4E39",
"cd	c #8D6049",
"dd	c #835944",
"ed	c #51382D",
"fd	c #271D18",
"gd	c #1E1712",
"hd	c #100B08",
"id	c #2B201D",
"jd	c #160F0E",
"kd	c #110C0B",
"ld	c #32241E",
"md	c #4D3529",
"nd	c #452D24",
"od	c #4B2E24",
"pd	c #7A4430",
"qd	c #9A563A",
"rd	c #9B593C",
"sd	c #92563D",
"td	c #5D4134",
"ud	c #3F3029",
"vd	c #2C201A",
"wd	c #0F0A07",
"xd	c #1B1412",
"yd	c #050403",
"zd	c #140E0C",
"Ad	c #2C1F19",
"Bd	c #51382B",
"Cd	c #4D3227",
"Dd	c #432B22",
"Ed	c #49281D",
"Fd	c #5C3121",
"Gd	c #633625",
"Hd	c #3E2921",
"Id	c #0F0A08",
"Jd	c #130D0C",
"Kd	c #0B0404",
"Ld	c #17100C",
"Md	c #211714",
"Nd	c #18120F",
"Od	c #352821",
"Pd	c #403129",
"Qd	c #47342A",
"Rd	c #3D2B23",
"Sd	c #130D0B",
"Td	c #1A0E0C",
"Ud	c #1F1614",
"Vd	c #170D0C",
"Wd	c #1F110D",
"Xd	c #0B0405",
"Yd	c #070505",
"Zd	c #4B372D",
"`d	c #513B31",
" e	c #4A362E",
".e	c #231814",
"+e	c #0D0303",
"@e	c #30140E",
"#e	c #502418",
"$e	c #4B1C12",
"%e	c #3B160D",
"&e	c #38150C",
"*e	c #1B0604",
"=e	c #29100A",
"-e	c #270E08",
";e	c #190704",
">e	c #0B0201",
",e	c #17100E",
"'e	c #281E1A",
")e	c #2E211B",
"!e	c #281D18",
"~e	c #48332A",
"{e	c #422F27",
"]e	c #281D19",
"^e	c #150F0D",
"/e	c #170604",
"(e	c #351710",
"_e	c #3A1A13",
":e	c #5F2B1E",
"<e	c #6A2B1E",
"[e	c #61291B",
"}e	c #703220",
"|e	c #441810",
"1e	c #3E160F",
"2e	c #3D1710",
"3e	c #34120D",
"4e	c #271B17",
"5e	c #2A1C18",
"6e	c #130C0A",
"7e	c #3C2921",
"8e	c #4D372D",
"9e	c #2F221C",
"0e	c #020100",
"ae	c #120503",
"be	c #170705",
"ce	c #290E09",
"de	c #30130D",
"ee	c #3A1911",
"fe	c #2D0E08",
"ge	c #190504",
"he	c #0E0302",
"ie	c #100302",
"je	c #030100",
"ke	c #160A08",
"le	c #3F1F15",
"me	c #532B1F",
"ne	c #6A402D",
"oe	c #603422",
"pe	c #34120A",
"qe	c #110A08",
"re	c #0B0302",
"se	c #0F0503",
"te	c #3E1810",
"ue	c #6F3424",
"ve	c #8B422C",
"we	c #9E5739",
"xe	c #B06040",
"ye	c #753624",
"ze	c #260C08",
"Ae	c #1B0B08",
"Be	c #472218",
"Ce	c #28100B",
"De	c #2A110C",
"Ee	c #411811",
"Fe	c #5B2317",
"Ge	c #6B2516",
"He	c #762F1D",
"Ie	c #803926",
"Je	c #702A1B",
"Ke	c #36100A",
"Le	c #190605",
"Me	c #120504",
"Ne	c #28100C",
"Oe	c #2A100C",
"Pe	c #0C0303",
"Qe	c #31120C",
"Re	c #481F16",
"Se	c #4F2118",
"Te	c #622A1D",
"Ue	c #592418",
"Ve	c #713524",
"We	c #743423",
"Xe	c #5E2316",
"Ye	c #3A110A",
"Ze	c #1A0504",
"`e	c #210906",
" f	c #130504",
".f	c #090202",
"+f	c #080202",
"@f	c #39170F",
"#f	c #522117",
"$f	c #622516",
"%f	c #6F2D1C",
"&f	c #6F3122",
"*f	c #884430",
"=f	c #87422D",
"-f	c #8B3F28",
";f	c #582316",
">f	c #290B06",
",f	c #290C08",
"'f	c #2E110C",
")f	c #531D11",
"!f	c #5D2418",
"~f	c #62281B",
"{f	c #5F2719",
"]f	c #5B2215",
"^f	c #42160D",
"/f	c #1F0704",
"(f	c #060201",
"_f	c #190503",
":f	c #170503",
"<f	c #150301",
"[f	c #0E0201",
"                                                                                                                                                              ",
"                                                                                                                                                              ",
"                                                                                                                                                              ",
"                                                                                                                                                              ",
"                                                                            . +                                                                               ",
"                                                                        @ # $ % &                                                                             ",
"                                                                * = - ; > , ' ) ! ~ { ] ^                                                                     ",
"                                                                / ( _ : < [ } | 1 2 3 4 5                                                                     ",
"                                                          6 7 8 9 0 a b c d e f g h i j k l     m                                                             ",
"                                                        n o p q r s t u v w x y z A B C D & E F G   H                                                         ",
"                                                      I J K L M N O P Q R S T U V W X Y s Z `  ...+.@.#.$.%.                                                  ",
"                                              &.*.=.-.;.>.,.'.).!.~.{.].^./.(._.:.<.[.}.|.1.2.3.4.5.6.7.                                                      ",
"                                                *.8.9.0.a.b.c.d.e.f.g.h.i.j.k.l.m.n.o.p.q.r.s.' I t.u.v.                                                      ",
"                                                w.x.y.z.A.B.C.D.E.F.G.H.I.J.K.L.M.N.O.P.Q.R.S.T.I U.V.W.X.                                                    ",
"                                                Y.Z.`. +.+B.++@+#+$+%+&+*+=+-+;+>+,+'+)+!+~+{+]+^+/+(+_+:+<+                                                  ",
"                                                [+}+|+1+2+^+3+4+5+6+7+8+9+0+a+b+c+d+e+f+g+h+i+^+j+k+l+m+                                                      ",
"                                                n+o+|+p+q+%.r+s+t+u+v+w+x+y+z+A+B+C+D+E+F+G+H+I+J+K+L+M+                                                      ",
"                                                  N+O+P+Q+R+S+T+U+V+W+X+Y+Z+`+ @.@+@@@#@$@%@&@*@=@-@;@>@I+                                                    ",
"                                                ,@,@'@)@#.#.!@~@{@]@^@/@(@_@:@<@[@}@|@1@2@3@4@5@6 6@;@&.                                                      ",
"                                                        7@8@9@0@a@b@c@d@e@f@g@h@i@j@k@l@m@n@o@p@3.q@                                                          ",
"                                                        r@s@t@u@v@w@x@y@z@A@B@C@D@E@F@G@H@I@J@K@L@M@                                                          ",
"                                                        N@O@P@Q@R@S@T@U@V@W@X@Y@Z@`@ #.#+#@###$#%#                                                            ",
"                                                        &#*#=#-#;#>#,#'#)#!#~#{#]#^#/#(#_#:#<#[#                                                              ",
"                                                        5@}#|#1#2#3#4#5#6#7#8#9#0#a#b#c#d#e#f#g#                                                              ",
"                                                          h#i#j#k#l#m#n#o#p#q#r#s#t#u#v#w#x#q y#                                                              ",
"                                                        z#A#B#C#D#E#F#G#H#I#J#K#L#M#N#O#P#Q#R#S#T#                                                            ",
"                                                      U#V#W#X#Y#Z#`# $.$+$@$#$$$%$&$*$=$-$;$>$,$'$)$!$                                                        ",
"                                                    ~${$]$^$/$($_$:$<$[$}$|$1$2$3$4$5$6$7$8$9$0$a$b$c$d$e$                                                    ",
"                  f$                            g$h$i$j$k$/$l$m$n$o$p$q$r$s$t$u$v$w$x$y$z$A$B$C$D$E$F$G$H$I$J$K$                                              ",
"                    L$                      M$N$O$P$Q$R$S$T$U$V$W$X$Y$Z$`$ %.%+%@%#%$%%%&%*%=%-%;%>%,%'%)%!%~%{%]%^%                                          ",
"                    /%(%                _%:%<%[%}%|%1%2%3%4%5%- 6%7%8%9%0%a%b%c%d%e%f%g%h%i%j%k%l%m%n%o%p%q%r%s%t%u%v%w%                                      ",
"                    x%y%            z%A%B%C%D%E%F%G%H%I%J%%.5%K%5%L%M%N%O%P%Q%R%S%T%U%R+V%W%X%Y%Z%`% &.&+&@&#&$&%&&&*&=&-&;&                                  ",
"                    >&,&'&        )&!&~&{&]&^&/&(&_&:&<&[&}&|&1&2&3&4&5&6&7&8&9&0&a&T$|&b&c&d&e&f&g&h&i&j&@&k&l&m&n&o&p&q&r&s&t&                              ",
"                      u&v&w&x&y&z&A&B&C&D&E&F&G&H&I&J&K&L&M&N&O&P&Q&R&S&T&U&V&T$/$4%W&|&X&Y&Z&`& *.*+*@*d&#*$*%*&***=*-*;*>*,*'*                              ",
"                    )*!*~*{*]*^*/*(*_*:*<*[*}*|*1*2*3*4*5*6*7*8*9*0*a*R&b*H+c*S&d*e*W&T$f*g*h*i*j*k*l*m*n*o*p*q*r*s*t*u*v*w*x*y*z*                            ",
"                      A*B*C*D*E*F*G*H*I*J*K*L*M*N*O*P*Q*R*S*T*U*V*W*X*Y*Z*`* =.=+=@=#=$=%=&=H&*===-=;=>=,='=)=!=)=u*~={=]=^=/=(=_=                            ",
"                      :=<=[=}=|=1=2=3=4=5=6=7=8=9=0=a=b=c=d=e=f=g=h=i=j=k=l=m=n=o=p=q=r=s=t=u=v=w=x=y=z=A=B=C=D=E=F=G=H=I=N*J=a$K=                            ",
"                    L=M=N=O=P=Q=R=S=T=U=V=W=X=Y=Z=`= -.-+-@-#-$-%-&-*-=---;->-,-'-)-!-~-{-]-^-/-(-_-:-<-[-}-|-1-2-3-4-5-6-7-8-9-0-V#                          ",
"                    a-b-c-d-e-f-g-h-i-j-k-l-m-n-o-p-q-r-s-t-u-P&v-w-x-y-z-A-B-C-D-E-F-G-H-I-J-K-L-M-N-O-P-Q-R-S-T-U-V-W-X-Y-Z-`- ;.;                          ",
"                  +;@;#;$;%;&;*;=;-;;;>;,;';);!;~;{;];^;/;(;_;:;<;[;};|;1;2;3;4;5;6;7;8;9;0;a;b;c;d;e;f;g;h;i;j;k;l;m;n;o;p;q;m%r;s;                          ",
"                t;u;v;w;x;y;D*z;A;B;C;D;E;F;G;y*H;I;J;K;L;M;N;T$O;P;Q;R;S;T;U;V;W;X;Y;Z;`; >.>+>@>#>$>%>&>*>=>->;>>>,>'>)>!>~>{>]>^>/>                        ",
"                (>_>:><>[>}>|>1>2>3>4>5>6>7>8>9>0>a>b>c>d>e>f>g>h>i>j>k>l>m>n>o>p>q>r>s>t>u>v>w>x>y>z>A>B>C>D>E>F>G>H>I>J>K>L>M>N>O>P>                        ",
"                Q>R>S>T>U>V>W>X>Y>Z>`> ,.,+,@,#,$,%,&,*,=,d>-,;,>,,,',),!,~,{,],^,/,(,_,:,<,[,},|,1,2,3,4,5,6,7,8,9,0,a,b,c,d,e,f,g,h,i,                      ",
"                j,k,l,m,n,o,p,q,r,s,t,u,v,w,x,y,z,A,B,C,D,E,F,j+G,H,I,J,K,L,M,N,O,P,Q,R,S,T,U,V,W,X,Y,Z,`, '.'+'@'#'$'%'&'*'='-';'>','''                      ",
"                )'!'~'{']'^'/'('_':'<'['}'|'1'2'3'4'5'6'7'8'9'0'A#a'g+b'c'd'e'f'g'h'i'j'k'l'm'n'o'p'q'r's't'u'v'w'x'y'z'A'B'C'D'E'F'G'H'I'                    ",
"              J'K'L'M'N'O'P'Q'R'S'T'U'V'W'X'Y'Z'`'D  ).)+)@)#)$)%)&)*)=)-);)T$>),)')))!)~){)])^)/)()_):)<)[)})|)1)2)3)4)5)6)7)8)9)0)a)b)0'                    ",
"              c)d)e)f)g)h)i)j)k)l)m)n)o)p)q)r)s)t)u)D v)w)x)y)z)A)B)C)D)E)F)G)H)I)J)K)L)M)N)O)P)Q)R)S)T)U)V)W)X)Y)Z)`) !.!+!@!#!$!%!&!*!=!                    ",
"            -!;!>!,!'!)!!!~!{!]!^!/!(!V#_!:!<!T'[!}!|!1!2!3!4!5!6!M,7!8!9!0!a!b!c!d!e!f!g!h!e*i!j!k!l!m!n!o!p!q!r!s!t!u!v!w!x!y!1$z!A!B!C!D!                  ",
"          E!F!G!H!I!J!K!L!M!N!O!P!Q!R!S!T!U!V!W!X!Y!Z!`! ~.~+~@~#~6.$~%~&~*~=~-~;~>~,~'~)~!~_ ~~{~]~^~/~(~_~:~<~[~}~|~1~2~3~4~5~6~7~8~9~0~a~                  ",
"        b~c~d~e~f~g~h~i~j~k~l~m~n~o~p~q~r~s~t~u~v~w~x~y~z~A~B~C~D~E~T$F~*@G~H~I~J~K~L~M~N~O~P~Q~R~S~T~U~V~W~Z X~Y~Z~`~ {.{+{@{#{${%{&{*{={-{                  ",
"        l,;{>{,{'{){!{~{{{]{^{/{({_{:{<{[{}{G~|{1{2{3{4{5{6{7{8{9{0{a{^$/$b{c{d{e{f{g{h{i{j{k{l{m{n{o{p{q{]~A#r{s{t{u{v{w{x{y{z{A{B{C{D{E{D!                  ",
"      F{G{H{I{J{K{L{M{N{O{P{Q{R{S{T{U{V{W{X{Y{Z{`{ ].]+]@]#]$]%]&]*]=]A#T$-];]>],]'])]!]~]{]]]j{^]p~/](](]_]:]<][]}]|]1]2]3]4]5]6]7]8]9]0]                    ",
"      a]b]c]d]e]f]g]h]i]j]k]l]m]n]o]p]q]r]s]t]u]v]w]x]y]z]A]B]C]D]E]F]G]H]I]J]K]L]M]N]O]P]Q]R]W&W&S]T](]U]V]W]X]Y]Z]`] ^.^+^@^/$#^$^%^&^*^                    ",
"      =^-^;^p{>^,^'^)^!^~^{^]^^^/^(^_^:^a'6~r]<^[^}^|^1^2^3^4^5^6^7^8^9^0^a^b^c^d^e^f^g^h^i^j^k^Z.5%e*e*z{l^m^n^o^p^q^r^s^t^l^T$u^v^w^x^y^                    ",
"      z^A^Y.B^C^D^E^F^G^H^I^J^K^L^M^N^O^T.P^4%>@Q^R^V]S^T^U^V^W^X^Y^Z^`^ /./+/@/#/$/%/&/*/=/-/;/>/,/^+'/)/!/z{~/{/]/^///(/_/:/-@</;@[/}/                      ",
"      |/1/>@;@p{2/3/4/5/6/7/8/9/0/a/b/c/d/P^4%=@e/f/g/h/i/j/k/l/m/n/o/p/q/r/s/t/u/v/w/x/y/z/A/B/C/D/E/` l$m #{F/h>G/H/I/J/K/{]L/,@>@M/                        ",
"      N/O/P/B^Q/R/S/T/U/V/W/X/Y/Z/`/ (.(+(A#4%s]@(#($(%(&(*(=(-(;(>(,('()(!(~({(](^(/(((_(:(<([(G;}(|(T$A#A#5]5%A#r+S&5]T$5%#{    1(2(                        ",
"      3(4(5(6(_]7(8(9(0(a(b(c(d(e(f(g(h(z{5%i(j(<^k(l(m(n(o(p(q(r(s(t(u(v(w(x(y(z(A(B(C(D(E(F(G(z,H(I(L/J(K(L(Y.M(4%T$4%-@^$#{      K@                        ",
"      N(O(q@L/P(Q(R(S(T(U(V(W(X(z{S*Y(Z(    4%`( _._+_i+@_#_$_%_&_*_=_-_;_>_,_'_)_!_~_{_]_^_/_(___m+:_<_[_}_|_x.1_L/%.t]2_A#+(                                ",
"        3_<_,@4_5_6_7_8_C^r+9_0_a_b_z#      Y{c_d_e_f_g_h_i_j_k_l_m_n_o_^&p_q_r_s_t_u_v_w_x_y_z_A_B_C_@ D_E_F_G_H_I_J_K_H_r]l$                                ",
"        F~L_M_w.N_O_P_Q_R_S_T_$ U_@       %.V_W_X_Y_Z_`_ :.:+:@:#:$:%:&:*:=:-:;:>:,:':):!:~:{:]:^:/:(:5@_:::J+<:W_[:}:|:1:2:A#                                ",
"          3:B^w.4:5:6:7:8:9:0:1&a:        |&b:Y(c:d:e:f:g:h:i:j:k:l:m:n:o:p:q:r:s:t:u:v:w:x:y:z:A:B:C:D:E:F:G:H:I__!I:J:K:L:M:                                ",
"            N:w.6.O:P:Q:R:5%'/5%m         ^~H_S:T:U:V:W:X:Y:Z:`: <.<+<@<#<$<%<&<*<=<-<;<><,<'<)<!<~<V.{<]<^</<V%(<_<:<I:_!<<[<                                ",
"                ^ }<|<a_R+V$1<2<          w.3<4<5<6<>.7<8<9<0<a<b<c<d<e<f<3(g<h<i<j<k<l<m<n<o<p<q<r<s<t<u<v<w<N(x<y<z<A<B<C<c_                                ",
"                D<E<d]J(C_+.F<            G<H<I<J<K<L<M<N<s<O<P<Q<R<S<T<U<</V<W<X<Y<Z<`<!< [.[+[@[#[$[%[&[f(*[=[-[;[>[,[A<'[c_                                ",
"                  *@      l             w.)[![~[{[][^[/[([_[:[<[[[}[|[1[=!2[3[^%4[5[6[7[8[9[0[a[b[c[d[e[f[g[h[i[j[k[l[m[n[o[o[p[                              ",
"                                        + q[r[s[t[u[v[w[(&x[y[z[A[R<B[C[D[E[F[G[N*H[I[J[K[L[M[ (N[O[P[Q[R[S[T[U[V[W[X[&^Y[Z[`[ }                              ",
"                                        .}. +}@}<[#}$}%}&}*}=}-};}>},}'}m<)}!}~}{}]}^}/}(}_}:}<}[}}}|}1}7<2}3}K<4}5}6}7}8}9}0}a}b}                            ",
"                                        a_c}d}e}f}g}h}i}j}k}l}m}n}[/o}p}h}q}r}s}t}`-u}v}w}J[x}y}z}A}B}C}D}3_l:E}F}G}_!H}I}J}K}L}M}                            ",
"                                      N}b:O}P}M/_[Q}R}S}T}U}V}E!W}U>_[X}Y}Z}`} |.|+|@|#|$|%|&|*|=|-|;|>|,|'|)|!|~|{|,[]|^|/|(|(|_|                            ",
"                                      :|<|z^[|}|||1|2|3|4|5|6|7|8|9|0|a|t[b|c|d|e|f|g|h|i|j|k|l|m|n|o|p|q|r|s|0.t|u|v|0|w|x|y|z|A|B|                          ",
"                                      C|D|E|F|G|H|I|J|I$K|L|M|N|O|P|Q|R|S|T|U|V|W|X|Y|Z|`|#, 1.1+1@1#1$1%1&1*16!=1-1;1>1,1'1)1!1.;~1                          ",
"                                      + ^<{1]1^1/1(1_1:1<1[1}17=|11121314151617181|&9101a17|b1c1d1e1f1g1h1i1Y+j1k19|l1m1n1p}o1p1q1,[                          ",
"                                    D_r1@}s1t1S>u1v1w1H=x1y1z1A1B1C1D1E1F1G1H1I1J1T$K1L1M1N1O1P1Q1R1S1T1U1V1W1X1Y1Z1T}`1 2.2+2@2#2$2                          ",
"                                    %2&2*2=2-2;2>2,2'2)2!2~2~2{2]2^2/2(2_2:2<2[2}2T$|2122232w/42526272829202a2b2c2d2e2f2F{g2V!h2i2j2                          ",
"                                    G_k2l2m2n2o2p2q2r2s2t2u2v2w2x2r&y2z2A2B2C2D2E2T$T$F2G2[-H2I2J2K2L2M2N2O2P2Q2R2S2T2T[U2p V2u[W2X2Y2                        ",
"                                    Z2f}`2 3.3+3@3#3$3%3&3*3=3-3;3>3,3'3)3!3~3{3]3W#N,^3/3(3_3:3<3[3}3|313233343536373*_839303a3b3c3d3                        ",
"                                  d/e3f3g3h3i3j3k3l3m3n3o3p3q3r3s3t3u3v3w3x3y3z3A3B3u^T$C3D3E3F3G3H3I3J3K3L3M3N3O3P3Q3R3S3T3U3V3W3X3Y3                        ",
"                                  Z3`3 4.4+4@4#4$4%4&4*4=4-4;4>4,4'4)4!4~4{4]4^48}/4(4/$_4:4<4[4O|}4|4F,1424344454.~6474849404a4b4c4d4                        ",
"                                  e4f4g4h4i4j4k4l4m4n4o4p4q4r4s4t4u4v4w4x4y4z4A4B4C4D4E4F4G4H4I4J4K4L4M4N4O4P4Q4R4S4T4U4S.V4W4X4M$Y4Z4`4                      ",
"                                  =% 5.5+5@5#5$5%5&5*5=5-5;5>5,5'5)5!5~5&!{5]5^5/5W[(5_5I:w.:5<5[5}5|515253545556575R<859505a5b5c5d5e5f5                      ",
"                                g5h5i5j5k5l5m5n5o5p5q5r5s5t5u5v5w5x5y5z5A5B5C5L}D5E5B3F5G5P^H5G|I5J5K5L5M5N5O5P5Q5R5-_S5T5U5V5W5X5Y4Y5Z5                      ",
"                                `5 6.6+6@6#622$6I %6&6*6=6-6;6>6,6'6)6!6~6t,{6]6^6/6(6_6{5:6${<6[6}6|6162636E^46566676869606a6b6c6d6e6Y}f6                    ",
"                                g6h6i6j6k6l6m6n6o6p6q6H_r6s6t6u6v6w6x6L<x6y6z6G}E4(64%A6`4B6C6(<D6E6F6G6H6I6J6K6L6M6N6O6P6Q6R6S6T6=!g}U6V6                    ",
"                                W6X6Y6Z6`6 7<+A<.7_!+7@7#7$7%7&7*7=7&:-7;7;7X}>7,7/$T$5%'7X{J_G))7!7~7{7]7^7/7(7_7:7<7[7}7|717>_2737=:s[4757                  ",
"                              g[6777879707w<a7b7c7+}d7;}e7f7g7h7i7j7i[k7`4l7m7A{n7o7T$T$4%M:p7q7r7s7t7u7v7w7x7y7z7A7B7C7D7E7F7G7H7=!I7J7K7L7                  ",
"                              v(M7N7O7L<P71:Q7R7S7w(T7'@U7c[V7W7X7W7Y7Y7X}_!Z7`7r]/$T$T$4%i(c__5u^{| 8.8+8@8#8$8%8&8*8=8-8;8>8,8![5<'8)8!8~8                  ",
"                            {8]8c[^8/8d}(8_8:8f5<8[8A.Q[}8<}|8c6]8182838i[q6l7W_}{T$T$T$T$^$6]48_5T$586878889808a8b8c8d8e8f8u<g8h8i8j8@-k8c<                  ",
"                            d738l8m8n8o8%6[:~[Y7p8q8r8s8t8u8v8w8x8y8z8A8B8U!G5C8r]T$T$T$T$o7W#48D8(<` E8F8G8H8I8J8K8L8M8N8O88<P8Q8x6q/R8S8T8                  ",
"                            U8V8W8u[}{W#X8d}_[Y8Z8`8 9.9+9@9#9$9%9&9*9>_=9-9d};9-@T$T$T$T$o7W#>9I:$^,9w('9)9!9~9{9]9>/^9/9(9_9:9*[<9[9=^F[}9|9                ",
"                          }&192938[9T$W#<<3949596979899909a9b9c9d9e9f9g9[8h9J_B6 _|&i9T$T$/$i(j9q7=[k9|&l9m9n9o9p9q9r9r8s9t9u9v9P8w9(<    x9y9                ",
"                          z9A9B9C9G<4%6]D9:[E9N[F9G9H9I9J9K9L9M9N9O9P9L[Q9N/R9S9R9    T$T$T$T$i(i(T9H:U9V9W9X9Y9Z9`9 0.0+0@0#0W6]<+<        $0                ",
"                          %0&0  *0u^Y{B3t~h9=0Y9-0;0>0,0'0)0$_!0~0{0]0E|@<2_q7^0R9      4%T$^$i(n7/0Y((0-@:+_0:0<0 6[0e[}0|01020X130        g[                ",
"                          40      M:i(R950m:`.6070809000a0b0c0d0e0]:f0Q]+<I_g0h0        -@4%i(W#G<i0j0:[h0k0l0m0n0o0p0q0r0s0A)t0u0v0                          ",
"                        w0x0      +(Y{y0x9z0A0B0C0D0E0F0G0H024I0J0K0L0&2M0c_;9            4%4%^$}{G5N0;7P}O0P00.Q0R0S0C_T0Q^U0V0W0+(                          ",
"                                    X0;9Y0Z0`0 a.a+a@a#a$a%a&a*a=ae3-a;a>a,aU9            4%/$'aE4)ad7h8!a~a3({a]a^a+.N(/an}5.(a_a&.                          ",
"                                    :ar]m:<a[a}a|a1a2a3a4a5a6a7a`88a9aM$;70a:a            5%4%h0C8K:aa![=^j0h8bacadaeafagahaiaa_</                            ",
"                                    +(u^[/k9jaA0e=kalamanaoab2paqa49ra=[4<sa            5%:a4%taua39{[vawa$<xa..yazaAaBaCaDaEa-@%.                            ",
"                                    +(;9q[FaGaz0b:HaIaJaKaLaMaNaOaPa=9_[Qat]            |&:a/$h0Ra%^SaTa+}M<UaVaB_WaXaYaZa|+`a+( b                            ",
"                                    Y{B3T!q[+<.bm++b@b#b$b%b&bf(Pa49*b:81:n7          5%r][<h0y0/<;7[/39=^=bh8-b#.`*;b@ 6@N(N/</|&                            ",
"                                    u^>bw<3<{[,b'b)b!b~b{b]b^b/bL+(b(4aa_b^$          i(2(T9h0:b<b(4[b3[}bp7|bM&ga1b2b3b4b5b6bb:+(                            ",
"                                    }{M}x9aa=97b8b9bM_Y:0babbbcbdbeb(4/4:6Y{        fbu^p70ai(/03<K:gbhbFab}9bibk)jbkblbmbnbobpb                              ",
"                                    P^[/qbrb59sbtb-0ubvbK0bbwbxbybM0v<zb3<n7        Ab0ad}C8Bbn7U!V9}bCbDbEbFbGbHbIbJbKbLbMbNbM:                              ",
"                                    C9ObPbQbq8RbSbTbUbVbWbXbYbZb`bEaj9K: c.c        +(r]h950>b'a+cra[/@cH('b#c$c%c&c*c=c-cY{;c                                ",
"                                    >c'b,c{8'c#<)c!c~c{c]cs9^c/c(c_c5bd}m7:a        5%:a:cB5:cr]4%~ar11(1_A:<cda[cd]}c|c|&^~                                  ",
"                                    b:k91c2c3c4c5cf[6c7c8cMb9c0cacbcccU<_bA#      i9T$4%R9Z73[dcG<U96becr]fcgchcicjckcN:i95%                                  ",
"                                    lcmc)[nc1(b}6bocpcqcrcsctcucvcwcL[@<Za        4%xcT$n7yczcAcB5n7M:Y{nc1(C_Bc|&'/e*5%4%                                    ",
"                                    Za>aCcR90aI_P}P}2.DcEcFcd/Gc4ch8Hcy0U9        #{5%/$/$M:[9$^Icp7G<^$i(-@:a^~A#@ '/+(                                      ",
"                                    U9och9J_(<$<[/6bJcKcN@Lc7<McNcV_N/ecNc6~       bW&T$T$4%h0Oc*bX&~|PcV_r]P^G '/|&#{|&                                      ",
"                                    ^~ec[/QcO+Rc[ak:ScTcUcVcWc`8XcYcG<}{;9A#        4%T$T$T$A#q7ZcT!h8L+}b>cC|`cU$z{^~                                        ",
"                                     d.d+d@d#dxa[0$d%d&d*d=d24-d;d>80a;9>d/$        5%T$T$T$T$^$-@i('7ec}{X{N/[c'/e*                                          ",
"                                    &.+(U9,d. 'd)d!d~d{d]d^d/d(dwb_dU9a_6@5%          i9T$T$T$T$4%i(4%^$r]:d2_-@4%<d                                          ",
"                                    |&4%|&>@}_ub[d}d|d1d2d3d4d5d6d7dM:|&'/              i9T$T$T$o74%T$5]X{H:3(U95]5%e*                                        ",
"                                    5]|&D_,@8d9d!|5b0dadbdcdddedfdgdhdl$;c                4%T$4%4%4%U9U9}_,/idjd+ %.5%e*                                      ",
"                                     bA#5%%.kdldmdndodpdqdrdsdtdudvdwd|&%.                4%5]4%4%A#U9+(,@xdMc,@N(L/5%z{                                      ",
"                                    ^~4%ydzd{aAdBdCdDdk)EdFdGdHdy.fdId+(^~                i9T$T$4%%.'/m z{%.Jda_a_Kde*z{kc                                    ",
"                                    #{5]5%LdMdNdOdPdQdRd..SdTdUdB07.|&A#|&                  5]4%5]O:d(VdWde*^~(]Xd2$5]5%e*                                    ",
"                                    A#i95]ydYdL_RcK0Zd`d e.e'7w.:aT$T$i95%                  4%5%i9q{+e@e#e$e%e&e*e=e-e;e>e                                    ",
"                                    4%i9T$|&Q+,e'es9)e!e~e{e]e^eA#5]i9i9p{                    5%z{/e(e_e:e<e[e}e|e1e2e3eV~e*                                  ",
"                                    4%i9T$^~C:4e>.g65e6e7e8e9eId^$5%i90e                      i9T$q{ae2$becedeeefegeheieje                                    ",
"                                      5%i9|&kelemeneoepee*qeC_@=e*5%T$xc                        T$i9i9xcxc4%z{3&ieree*5%5%                                    ",
"                                      5%A#seteuevewexeyezeK/AeBeCe^~T$4%                              |&:a:a|&4%5%e* b                                        ",
"                                    '/|&l=DeEeFeGeHeIeJeKeLeMeNeOe3&T$5%                                                                                      ",
"                                    e*PeQeReSeTeUeVeWeXeYeZe`e f.fi9T$i9                                                                                      ",
"                                    S&+f@f#f$f%f&f*f=f-f;f>f,fheq{i9T$i9                                                                                      ",
"                                    i9N:'f@+)fJ,!f~f{f]f^f/f>e0eS&5%4%                                                                                        ",
"                                    xc4%4%(f6%n=_f:f6%<f[fe*i9i9i9i9                                                                                          ",
"                                        e*i9i95%i9S&i9i95%q{W&i9                                                                                              ",
"                                                                                                                                                              ",
"                                                                                                                                                              "};
