/* XPM */
static char *_90c3a93ed7c441a8f4427f90721acd1[] = {
/* columns rows colors chars-per-pixel */
"100 100 254 2 ",
"   c #020005",
".  c #040109",
"X  c #0B0509",
"o  c #0C030C",
"O  c #17060A",
"+  c #12030D",
"@  c #0D0411",
"#  c #0B0A13",
"$  c #130513",
"%  c #1B0415",
"&  c #140B14",
"*  c #1A0A16",
"=  c #1B0B19",
"-  c #19151A",
";  c #270A0B",
":  c #340304",
">  c #370809",
",  c #38140E",
"<  c #240819",
"1  c #230C1D",
"2  c #23121E",
"3  c #28171A",
"4  c #321011",
"5  c #391715",
"6  c #35211B",
"7  c #1C1A23",
"8  c #260D21",
"9  c #261222",
"0  c #291423",
"q  c #231C24",
"w  c #2C1A25",
"e  c #2D1B29",
"r  c #331B26",
"t  c #321C2A",
"y  c #331E30",
"u  c #292427",
"i  c #33232C",
"p  c #382728",
"a  c #332B2C",
"s  c #39342C",
"d  c #2A2834",
"f  c #342B31",
"g  c #3B2C33",
"h  c #29313E",
"j  c #3B3535",
"k  c #470909",
"l  c #510D0A",
"z  c #58190B",
"x  c #441B12",
"c  c #491815",
"v  c #551B13",
"b  c #69100C",
"n  c #4B241A",
"m  c #512A16",
"M  c #582618",
"N  c #682917",
"B  c #772B18",
"V  c #683418",
"C  c #78341A",
"Z  c #4E1D22",
"A  c #482B26",
"S  c #572F29",
"D  c #483128",
"F  c #583326",
"G  c #453937",
"H  c #543B38",
"J  c #693627",
"K  c #6D342C",
"L  c #763925",
"P  c #4C422B",
"I  c #4A4539",
"U  c #57493B",
"Y  c #59563C",
"T  c #7B462B",
"R  c #684A39",
"E  c #734C35",
"W  c #655A3B",
"Q  c #68653C",
"!  c #776D3D",
"~  c #3C3B43",
"^  c #463E41",
"/  c #503E40",
"(  c #3E4156",
")  c #4A4544",
"_  c #554A46",
"`  c #595446",
"'  c #585452",
"]  c #665944",
"[  c #715549",
"{  c #655A54",
"}  c #5F6045",
"|  c #6C6845",
" . c #786944",
".. c #6F7243",
"X. c #7A7643",
"o. c #6A6757",
"O. c #756B58",
"+. c #7B7658",
"@. c #777261",
"#. c #860709",
"$. c #931010",
"%. c #A6090B",
"&. c #B8090B",
"*. c #AC1718",
"=. c #8C2F19",
"-. c #883819",
";. c #AC321E",
":. c #843A28",
">. c #973B25",
",. c #8E3B30",
"<. c #A92F26",
"1. c #C6080B",
"2. c #D7090A",
"3. c #CC1614",
"4. c #EB0605",
"5. c #E50808",
"6. c #F50604",
"7. c #F50805",
"8. c #EC160E",
"9. c #E12B1E",
"0. c #874219",
"q. c #974519",
"w. c #A54B18",
"e. c #AC5118",
"r. c #B85618",
"t. c #864529",
"y. c #994828",
"u. c #8C4F33",
"i. c #965435",
"p. c #A54A2A",
"a. c #AA5528",
"s. c #B65826",
"d. c #B4532F",
"f. c #A85836",
"g. c #916F3B",
"h. c #B16936",
"j. c #B76835",
"k. c #CC5E0E",
"l. c #C65D17",
"z. c #CA6419",
"x. c #D76817",
"c. c #D96D14",
"v. c #E96E08",
"b. c #EA6D0A",
"n. c #F16F04",
"m. c #E77507",
"M. c #EC7404",
"N. c #E5740B",
"B. c #EB730B",
"V. c #F17206",
"C. c #E46C14",
"Z. c #E76D14",
"A. c #E77314",
"S. c #F07412",
"D. c #C55C25",
"F. c #D24A30",
"G. c #E54A32",
"H. c #CC6427",
"J. c #D76A26",
"K. c #CD6F31",
"L. c #D67636",
"P. c #E37329",
"I. c #E27A35",
"U. c #915A46",
"Y. c #A45842",
"T. c #986845",
"R. c #877B43",
"E. c #947945",
"W. c #8C7150",
"Q. c #867859",
"!. c #AC7345",
"~. c #B57346",
"^. c #847961",
"/. c #CA7546",
"(. c #8F883F",
"). c #DA873C",
"_. c #E98739",
"`. c #EE943B",
"'. c #F5963B",
"]. c #F69B3F",
"[. c #8B8343",
"{. c #898644",
"}. c #958C43",
"|. c #9B9342",
" X c #9A9645",
".X c #878457",
"XX c #968A58",
"oX c #9A9559",
"OX c #A58A43",
"+X c #A69C44",
"@X c #B3964F",
"#X c #A59957",
"$X c #ABA342",
"%X c #B5A744",
"&X c #BCAC42",
"*X c #BFB041",
"=X c #AAA458",
"-X c #B5AB58",
";X c #BCB258",
":X c #8A8662",
">X c #938C63",
",X c #9B9662",
"<X c #AE8B62",
"1X c #A49A63",
"2X c #AAA463",
"3X c #B4AB63",
"4X c #BAB262",
"5X c #CB8E4F",
"6X c #D58845",
"7X c #E48D47",
"8X c #E79342",
"9X c #F49742",
"0X c #C6AA44",
"qX c #D6AD44",
"wX c #C9B143",
"eX c #D4B242",
"rX c #DBB242",
"tX c #D5B54C",
"yX c #C7AB5B",
"uX c #C7B658",
"iX c #D6B958",
"pX c #DBBA59",
"aX c #E6AD45",
"sX c #EEAD45",
"dX c #F3AF44",
"fX c #E3B242",
"gX c #ECB242",
"hX c #E9B44B",
"jX c #F4B242",
"kX c #FCB242",
"lX c #F3B34C",
"zX c #FCB54B",
"xX c #E9B957",
"cX c #F3B551",
"vX c #FCB751",
"bX c #F5B956",
"nX c #FCB956",
"mX c #F4BB59",
"MX c #FDBA59",
"NX c #FCBB59",
"BX c #FDBB5A",
"VX c #CF8E62",
"CX c #C3B863",
"ZX c #CBBC63",
"AX c #D8BE63",
"SX c #E6BF62",
"DX c #FCBF60",
"FX c #CEC065",
"GX c #D9C163",
"HX c #E9C263",
"JX c #F3C163",
"KX c #FBC162",
"LX c #FCC163",
"PX c #FDC264",
/* pixels */
"kXkXkXkXsXKXMXMXzXkXkXsXLXKXMXMXzXdXmXKXMXzXkXsXKXPXMXMXvXkXsXMXMXkXkXkXsXKXMXMXvXvXzXsXKXLXMXMXzXkXsXKXMXMXzXkXkXsXKXPXMXMXzXzXsXKXMXkXkXzXkXkXsXKXPXMXMXnXkXkXsXnXkXkXkXsXKXPXMXkXkXsXKXMXkXkXjXcXLXMX",
"kXkXkXkXsXDXMXMXnXkXkXsXsXLXMXnXkXkXsXMXMXnXkXkXsXKXMXMXnXkXsXMXMXnXnXkXsXKXMXMXnXzXnXsXKXPXMXMXnXkXsXKXMXnXkXkXkXsXKXPXMXnXkXkXsXKXMXkXnXnXkXvXkXsXLXMXMXnXkXkXsXnXkXkXkXsXKXPXMXkXkXsXKXMXnXnXnXPXPXMX",
"kXkXkXkXkXsXnXMXzXkXkXkXsXLXMXzXkXkXsXLXMXnXkXkXsXKXMXzXzXkXsXLXMXkXkXkXsXKXMXMXMXzXkXsXLXPXMXzXzXkXsXLXMXMXvXkXkXsXKXPXMXnXkXkXsXKXMXkXzXzXMXvXkXsXMXMXMXzXkXkXsXnXkXkXkXsXLXPXMXkXkXsXLXMXMXzXsXLXPXMX",
"kXkXkXkXkXsXnXnXkXkXkXsXlXDXMXnXvXsXLXMXMXnXkXkXsXLXMXnXkXvXsXMXMXvXkXkXsXLXMXMXzXkXkXsXLXLXMXMXzXkXsXLXMXnXkXkXkXsXLXPXMXnXkXkXkXsXnXzXkXvXzXkXkXsXMXMXMXzXkXkXsXnXzXkXkXsXLXPXMXnXvXsXLXMXMXvXsXLXPXMX",
"kXkXkXkXkXsXnXMXnXkXvXsXLXMXMXnXkXsXLXMXMXnXkXkXsXLXMXnXkXkXvXMXMXkXkXkXsXLXMXMXnXkXkXsXLXMXMXMXzXkXsXMXMXnXkXkXkXsXLXPXMXzXnXnXkXsXnXnXkXnXnXkXkXsXDXMXMXkXkXkXsXnXnXkXkXsXKXPXMXnXkXsXLXLXMXkXsXLXPXMX",
"zXkXkXkXkXsXnXMXMXzXkXsXMXMXMXzXdXbXLXMXnXkXkXkXsXMXMXzXzXzXsXLXMXMXzXkXsXLXMXMXzXzXkXsXLXMXMXMXMXkXsXMXMXMXzXkXkXsXLXPXMXzXzXkXkXsXnXnXkXkXzXkXkXsXLXMXnXkXkXkXsXMXMXzXkXdXsXMXMXMXzXsXLXPXMXkXsXLXPXMX",
"nXkXkXkXkXsXnXMXMXnXkXsXLXMXzXkXlXLXPXMXMXnXkXsXKXPXMXnXkXkXsXDXMXkXkXkXsXLXPXMXnXkXkXsXLXMXMXMXzXkXsXnXMXnXkXkXkXsXKXPXMXMXMXzXkXsXnXMXMXMXnXkXkXsXLXMXnXkXkXkXkXsXnXMXzXkXsXLXMXnXkXsXsXLXMXkXsXLXPXMX",
"nXkXvXkXkXsXnXMXMXvXkXsXLXMXnXsXLXPXMXMXnXkXsXsXLXPXMXkXkXkXsXnXnXkXkXkXsXLXPXMXnXvXkXsXLXMXMXMXzXkXsXnXMXvXkXkXkXsXKXLXMXMXMXnXkXsXnXMXzXnXzXkXkXsXLXMXMXvXkXkXkXvXMXMXzXkXsXLXMXnXkXkXsXLXMXkXsXLXPXMX",
"nXkXkXkXkXsXLXMXnXkXkXsXMXMXMXsXLXPXDXMXkXzXkXsXKXPXMXkXkXkXsXMXMXzXkXkXsXKXPXMXMXzXzXsXLXMXMXMXkXkXsXLXMXMXzXjXgXaXHXHXHXmXjXjXjXsXKXMXMXvXzXkXkXsXLXMXnXkXnXkXkXsXnXzXkXkXsXLXMXkXkXkXsXLXMXkXsXLXPXMX",
"nXkXkXkXkXsXLXMXnXkXkXsXnXnXkXsXLXPXPXMXkXkXkXsXKXMXnXkXkXkXsXDXMXnXkXkXsXKXPXMXMXzXkXsXLXMXMXkXkXkXsXKXmXmXrX&X[.X.+.@.:X.X[.$XeXaXKXMXMXMXnXkXkXsXLXMXMXzXnXnXkXlXLXzXvXkXsXLXMXkXkXkXsXLXMXkXsXLXPXMX",
"nXkXkXkXkXsXMXMXnXkXkXsXnXkXkXsXlXLXPXMXMXkXkXsXKXMXzXvXkXdXsXMXMXvXkXkXsXKXPXMXMXMXkXsXLXMXMXMXkXjXsXGX;X#X{.| j q u u d f f Y {.+XCXxXmXzXnXvXkXsXLXMXMXzXMXMXnXPXLXkXkXkXsXLXMXkXkXkXsXLXMXkXsXLXPXMX",
"MXMXzXkXkXsXLXMXMXMXkXsXnXzXkXkXsXLXPXMXnXkXkXsXKXMXvXvXvXsXKXMXMXnXkXkXsXKXPXMXvXkXkXsXKXMXMXbXgXeX+X+.' ^ j f e w w w w w w u a ) +.oXuXcXnXkXkXsXLXMXnXkXnXvXkXsXMXkXkXkXsXLXMXkXkXkXsXLXMXkXsXLXPXMX",
"MXnXnXkXkXsXKXMXnXkXkXvXMXnXkXkXsXLXPXMXnXkXkXsXKXMXnXkXkXsXKXPXMXMXnXkXsXKXPXMXnXnXkXsXKXMXmXiX%XX.U a t t t t r r r t t e e w 9 2 a I .XuXxXjXkXsXLXMXMXnXMXnXnXsXMXLXkXkXsXDXMXkXkXkXsXLXMXkXnXLXPXMX",
"MXvXkXkXkXsXKXMXkXkXkXvXMXvXkXkXsXLXMXMXnXkXkXsXLXMXnXkXkXsXKXMXMXzXkXkXsXKXPXMXMXMXkXsXKXxX;XXXY g w t t t t t t r w t e e e e w 2 $ & f Q %XfXjXsXLXLXMXvXnXzXkXsXMXLXkXkXdXsXnXkXkXkXsXLXMXvXlXMXPXMX",
"MXnXkXkXkXsXKXMXkXkXkXsXnXnXkXkXsXLXPXMXvXkXkXsXLXMXMXvXkXsXLXPXMXvXkXkXsXKXPXMXkXkXkXsXGX=XO.^ i t t t t t t t t r r t e e e e w 9 $ @ X s oXeXgXsXKXLXMXnXkXvXkXsXMXLXzXzXkXsXnXkXkXkXsXLXMXzXvXPXPXMX",
"MXnXkXkXkXsXKXMXkXkXkXsXnXnXkXkXsXKXLXMXkXkXkXsXKXMXnXkXkXsXKXmXMXnXkXkXsXKXMXMXnXkXjXaX2XO.G e t t t t t t t t t t t r e e e w q 7 * @ X a X.%XeXaXKXLXMXnXkXkXkXsXLXMXLXzXkXsXnXkXkXkXsXLXMXkXsXLXPXMX",
"nXkXkXkXkXsXKXMXvXMXvXbXMXnXkXkXsXHXGXiXtXeXeXqXAXiXtXtXeXqXZXiXiXtXhXjXsXKXLXMXkXkXfX%X+.j e t t t t t t t t t t t t r t e w w w 9 * @ . # a Q |.0XJXPXMXnXkXkXkXsXLXLXzXkXkXsXnXzXkXkXsXLXMXkXsXPXPXMX",
"nXkXkXkXkXsXKXMXMXvXsXDXmXbXgXfX0X,X@.O.o.......@.O.o.......@.O.o.[.$XwXqXZXZXpXhXhX0X[._ i r t t t t t t t t t t t t t t t e e w 9 * o .   & U {.wXsXLXMXMXzXkXkXkXsXKXMXkXkXsXnXMXnXzXvXLXMXkXdXMXPXMX",
"MXnXkXkXkXsXKXMXbXjXaXiX=X X[.X.X.:X3X;X&X0X0X0XCXuXuXuX&X%X4X-X=X|.|.|.[.+.o.+..X}.X.I w w w t t t t t t t t t t t t t t t e e w 9 * o . . - Y |.wXgXlXMXMXMXMXzXkXsXKXzXMXkXsXDXMXnXnXsXLXMXkXkXsXKXMX",
"MXMXzXkXkXsXKXxXtX%X.XO.o.W.[.[.>X2XuXpXrXrXrXwXCXuXuXuXwX0XZXuXuXuXeXrXqXCX-X#X X}.R.Q ` ` _ / j g i w 0 0 w w w w w t t t e e w 9 * o   - I .X;XfXcXsXMXMXMXzXkXkXbXMXkXkXkXsXKXMXvXnXsXLXMXkXkXsXKXMX",
"MXnXkXkXkXsXGX;X}.| ] @.XX0XeXqXGXGXpXiX%X&X%X[.o.' _ ' Y Y { { {  .+XeXrXAXiXpXgXfXrXqXZXuX;X#X{.X. .| ] ` G g i w w e t e e e w 9 * @ . u o.=XfXkXkXsXKXKXnXnXkXkXsXnXkXkXkXsXKXMXnXnXsXLXMXkXkXsXLXMX",
"MXMXvXkXgXqX3X.X .E.+X1X#XwXeX0X4X-X;X#XR.| ` G i t e e e e e e w G R.+X|.Q.Q.;XrXeX&X+X4XiXxXpXiXeXqXAXAXuX+X.X+.Q Y _ ) G f w 9 = $ @ . u | =XxXkXkXsXnXMXnXvXkXkXsXnXkXkXkXsXKXMXkXvXsXLXMXkXkXsXLXPX",
"MXnXkXgXeX XQ.W.E.%X0XyX-X0X&X X+.' _ I g i e w w w w w w w w w w i U ] U G ` #X0X%XR.| 1XZXpXuX[.|.0XHXHXpXtXiXrXrX0X3X1X,XQ.] U G u @   u | #XrXkXkXsXnXMXMXkXkXkXsXnXMXkXkXsXKXMXvXnXsXKXMXkXkXsXLXPX",
"MXnXjXrX%XE.W.<X5X0X0X1X[ U U G f w 0 9 0 0 0 0 0 0 0 9 0 0 0 0 w w t t t e g _ ] ] I I ^.1X-XXX] R.%XZXiX-X X=XeXfXqXCXZXGXiXeX0X+X! Y I G ` .X&XeXeXqXSXmXlXkXkXkXsXKXMXkXkXsXKXMXkXnXnXDXMXkXsXKXPXPX",
"MXbXfX+XR.E.<X<X@XOXR._ i 1 1 1 0 w 0 0 0 0 0 0 0 0 0 0 0 0 0 0 0 0 0 w w w w w w e w e g / U G g / | +.Q.O.+.#XeXeX%X:X1XZXiXtXuXwX&X%X3X=X X.XX.X...X.>X-XuXwXrXgXsXKXmXMXvXsXKXMXkXzXdXsXnXkXsXLXPXPX",
"MXmXtX}. .%X@XW.R G p 0 0 0 0 0 0 0 0 0 0 0 0 9 8 8 9 9 0 0 0 0 0 0 0 0 w w w 0 0 0 0 0 w 0 0 0 0 w e i f g G U ! X. .O.,XZXpXuX=X&XeXrXGXpXpXiXwXwX%X%X1XXXX...R. X%XCXuXxXcXsXKXMXkXkXkXsXnXkXsXLXPXPX",
"MXbXrX}. .$XXXU 3 1 1 1 8 8 8 8 8 8 8 9 9 0 0 0 0 0 0 0 0 0 0 0 0 0 9 2 2 9 0 0 0 0 0 0 0 w 0 0 0 0 w w w 0 0 w e p a g I ` { ] ] |.&X%X4XiXiXuXwXwXwXqXZXuX%X|.}.[.| { O.oX&X0XAXxXjXkXkXsXnXkXsXKXPXPX",
"MXbXfX|.U O.[ p 1 1 1 1 1 1 1 1 8 9 9 9 9 9 9 9 9 9 9 9 9 9 9 9 0 0 9 9 9 9 0 0 0 0 9 0 0 9 w 0 0 0 0 w w 0 0 0 w w w 9 8 1 1 8 i I | | :X3X#X}.$X&X$X+X2XuXiXiXpXeX%X,XXX..| | ^.#XeXfXgXsXbXkXkXsXLXPX",
"MXnXfX+XW G i 1 1 8 8 1 1 1 1 1 1 = = = = = = = = = = = = = = = 1 9 9 9 9 9 0 w w w 0 9 9 9 0 0 0 0 0 0 0 0 0 0 0 0 0 w w w w w w e i f G ) G U R.|.$X}.:X=XuXuXeXuX$X4XuX&X}.X.o.{  .{.+X0XmXmXnXsXLXLX",
"MXnXjXrX%XQ - = % < % % % % $ + o . . . . . . . . . . . o o o o o o o o $ $ $ * * * = = = 2 2 2 9 9 0 0 0 0 0 0 0 0 w w w w w w w w 0 0 0 9 0 e g G I G G U [ +.[.|.}.3XuXwX%X%X2XoXR.] ] [.-XwXpXjXsXMX",
"MXMXzXgXwX! 3 $ $ $ $ + o o . . . . . . . . . . . . . . . . . .     . . . . . . X X . o o o $ $ * * = = 1 1 9 9 9 9 9 9 9 9 9 9 9 9 0 0 0 0 0 0 8 1 1 8 9 2 w i G H _ Q.#X+X+X}.2XuX%XOXR.| O.R.=XtXsXnX",
"MXMXnXjXrX}.U f &   . . . . . . . . . . . . . . . .   . . . .       . . . . . . . . . . . o o o o o o o @ $ $ = = = 1 1 8 9 9 9 9 9 9 0 0 0 0 8 8 9 9 9 9 9 2 1 8 0 t G _ W W [ Q.<X#X@XOXOXXX .{ [.0XxX",
"MXMXzXkXjX0X#Xo.j X   . . . . . . . . . . . . . . .     . . .               . . . . . . .     . .     . . . . . . o o o o $ $ * = = 1 2 9 9 2 2 2 9 9 2 2 2 1 1 1 1 1 1 1 0 t G ` O.Q.E.R.OX@XE.[ | .XoX",
"mXvXvXzXkXsXiX=XX.P u X     . . . . . . . . .   . . .           . .                                   . . . . .     . . . . . . o o o $ * * * = = 1 1 1 1 1 1 1 1 1 1 1 1 1 1 9 r A H H R }.@XOXE.W.{ j ",
"nXkXkXkXkXsXmXHXtX$X..I u - # . . . . . . . . . . . . .       . ; 5 5 x x x x x x x x x x x x x 5 ; O     .               . . . . . . . . . o o o o $ $ = = = = < < 1 1 1 < 1 1 8 8 1 1 t H _ [ W.OXO.u ",
"nXkXkXkXkXsXDXLXcXfX0XoX+.Q I a q - #     . . . . . . .       O M T u.p.p.p.p.f.f.f.f.f.i.y.p.p.u.J n 5 4 4 ; ; ; ; o .     . . . . . . . . . . . . . . o o o o $ $ $ = % = < < < < < 1 8 8 8 r R  .{ i ",
"MXMXzXkXkXsXMXLXvXkXsXmXhXwX+X[.+.o.) u - .           . . .   O M t.u.t.:.y.s.s.D.D.D.D.H.d.p.t.t.:.:.:.:.L J B C M 4 +         . . . .       . . . . . . . . . . o o o @ $ % % % < < < < 1 1 1 i G ' ' ",
"mXjXkXkXkXvXMXMXzXkXsXMXKXMXjXsXAXuX+X[.| U f 7 # .     . .   O S u.T S n C a.D.z.z.z.J.K.d.C x n L >.>.;.;.>.;.;.B 5 O     . . o o + @ o . . .     . . . . . . . . . . . . o o o + $ $ $ % % % * G :X2X",
"MXzXkXkXkXsXnXzXzXkXsXMXLXvXkXsXKXmXmXxXrX%X,X+.W ) j u - .   O J u.u.S x T j.L.L.L.I.L.L.j.J 4 n t.p.d.s.s.s.s.s.>.n < o o ; 5 x M M n x ; O .           . . . . .     . . . . . . . . . . o o - ` 2XZX",
"MXMXnXkXkXsXnXMXzXkXsXMXPXLXkXsXKXMXnXkXkXsXJXxXtX-X#X{.X.o.} I E T.i.F n i.6X8X'.'.`.'.8X/.T , J !.6X)._._._._.).j.V , X ; n :.a.d.s.s.y.N 4 X   . . . . . . . . . . . .                 X - a ` {.ZXHX",
"MXMXnXkXkXsXMXnXkXkXsXDXMXkXkXsXKXMXMXnXkXsXKXMXnXjXgXgXaXSXiXoXO.!.T.R m f.6X'.'.'.`.'.9X6XT 5 L /.8X`.'.'.'.9X8Xj.T 6 X > N p.L.I.I.L.K.L , O   .     . .   . . .   . X # & * * & - s I U { {.%XqXHXKX",
"nXkXkXkXkXLXLXkXkXkXsXMXMXkXkXsXKXMXMXzXkXsXMXMXMXMXkXkXkXsXSX=XW.!.T.E F f.6X'.'.'.`.'.9X6Xt.n T /.8X`.'.'.'.9X8X/.i.F x m L d.L.I.I.I.K.t.S g j j ~ ~ ) ^ G G G G ) ) ` Q ! ! o.o.X. X&X0XuXrXgXsXKXPX",
"nXkXkXkXkXMXLXkXkXkXsXnXnXkXkXsXKXMXMXzXkXsXLXMXzXvXkXkXkXsXSX=XW.!.!.T.u.h.7X9X9X9X`.].9X6Xh.i.f.6X9X9X9X9X9X9X9X).K.h.f.h.j.L._._._.I.K.i.O..X|.$X3X3X3X-X%X%X%X%X3X;XtXrXfXaXHXxXxXgXjXsXbXkXkXsXKXPX",
"nXkXkXkXkXsXDXMXkXkXsXnXMXnXkXsXKXMXMXzXkXsXKXMXnXkXkXkXkXsXSX=XO.T.!.!.!.!.~.~.~.~.~.~.6X6X7X7X8X9X].`.9X9X9X'.'.`._._._._._._._._._.K.f.U.+XeXfXsXJXKXmXbXjXjXjXsXKXmXkXkXkXsXKXnXkXkXkXsXnXkXkXsXLXPX",
"MXzXkXkXkXsXLXMXMXkXsXnXMXzXkXsXLXMXzXkXkXsXKXMXmXcXjXkXkXsXSX#X{ H D D D D F m m F F F T u.i.j.6X8X].`.'.9X'.'.'.`._._._.L.L.L.L.K.j.Y.W.#XtXhXcXsXLXPXMXnXkXkXkXsXLXMXMXkXkXsXLXnXkXkXkXsXnXkXkXsXLXPX",
"nXkXkXkXkXsXMXMXMXkXsXLXMXkXkXsXMXMXzXnXkXsXKXmXiXwXrXgXgXaXCX.Xj - . . X X           X - 3 6 R u.h.6XVX6X7X7X`._._.I.K.s.y.L E E !  .>XuXfXbXnXkXsXLXPXMXnXkXkXkXsXKXMXzXkXkXsXLXMXkXkXsXsXnXkXkXsXLXMX",
"nXkXkXkXkXsXnXzXzXzXsXMXMXkXkXsXLXMXMXMXvXsXKXxX;X.X$X*X%X}.o.j &         O 4 6 p u 3 X   . X * 3 n F E E t.K._._.I.L.H.p.:.F g.0XeXqXHXmXnXvXkXkXsXLXPXMXkXkXkXkXsXKXMXzXkXkXsXLXMXkXnXsXMXMXkXkXsXLXMX",
"nXkXkXkXkXsXnXkXkXkXdXbXMXMXkXsXLXMXMXzXkXsXKXHX;X] I Y I s - X         ; A T U.T.U.R 6 X X X       . @ O V j.L.I.I.L.s.y.E ] oXtXgXsXKXMXkXnXvXkXsXLXPXMXkXkXkXkXsXMXvXvXkXsXLXPXMXvXvXlXLXMXkXdXsXKXMX",
"nXkXkXkXkXsXnXnXkXkXkXsXLXMXkXsXLXMXzXnXkXsXKXmXuX..s & .       X & 2 i A L f.~.6X6Xh.T M n 3 O X X X ; 5 L h.K.K.D.p.-.K @.-XtXmXkXsXDXMXzXnXnXkXsXLXPXMXkXkXkXkXsXnXkXkXkXsXLXPXMXkXkXsXMXnXkXsXKXPXMX",
"MXvXkXkXkXvXMXMXvXkXkXjXlXnXkXsXLXMXzXnXkXsXKXKXxXwX|.Q Y Y ' _ Y Q ! X.U.i.j.)._.).L.K.h.u.J M c 5 5 M u.Y.f.j.d.p.C M U ^.;XpXxXgXaXHXmXmXvXkXkXsXLXPXMXMXMXvXkXsXnXkXkXsXLXPXPXMXkXkXsXnXzXkXsXLXPXMX",
"nXkXkXkXkXsXnXnXkXkXkXkXsXnXkXsXLXMXMXMXzXsXKXKXmXmXfXeXeXwXZXiXeXeXeX0X,XO.U.T.h.f.a.a.p.y.y.t.t.L J L L t.u.u.t.J c > r H ]  .g.! g.1XuXfXlXzXkXsXKXPXMXkXkXnXkXsXnXvXvXsXLXPXLXMXzXkXsXnXkXkXsXLXPXMX",
"nXkXkXkXkXsXMXnXkXkXkXkXsXnXkXsXLXLXMXnXkXsXKXPXMXzXvXkXkXsXKXMXnXnXjXsXpXuXoX[.R.X.Q U n x 5 5 A I W { o.+.XX#X}.g.K b b #.%.%.%.*.<.u.W.-XiXxXjXsXKXPXMXkXnXkXkXsXnXnXkXsXLXPXMXMXnXkXsXnXkXkXsXLXPXMX",
"nXkXkXkXkXsXLXMXzXzXkXkXsXnXkXsXLXMXMXMXvXsXKXPXMXMXkXkXkXsXLXMXMXvXzXsXJXHXxXxXfXeX&X{._ 7 @ & U |.%XCXFXuXuX*X+X!.f.<.1.1.2.5.7.4.5.1.*.u.W.+XeXsXKXPXMXkXzXzXzXsXnXvXvXsXLXPXMXMXvXkXsXnXvXkXsXLXPXMX",
"MXvXjXjXjXhXKXMXkXnXzXkXsXnXkXsXKXLXMXMXvXsXLXPXMXMXzXkXkXsXLXMXMXnXkXsXKXKXmXpX;X}...I d # @ X u Y | +.>X=X-X&X%X!.F.3.1.2.5.4.6.6.4.6.5.2.*.i.OX0XHXKXMXzXMXnXsXKXMXkXkXsXLXPXMXkXkXkXsXnXzXkXsXLXPXMX",
"MXmXeX$X|.,XCXxXmXmXnXkXsXnXkXsXKXLXMXzXkXsXlXLXPXMXnXkXkXsXLXPXMXkXkXjXsXxXuX#XO._ j - . . . . - d ~ ^ _ ` _ U T <.*.%.%.&.2.4.4.4.4.6.6.7.5.3.<.E.2XAXmXzXnXkXsXKXMXkXkXsXLXPXMXkXkXkXsXnXMXvXsXLXPXMX",
"xXuX[.W D ) +.oX+X%XtXfXsXnXkXdXbXLXMXzXzXkXsXLXLXMXMXzXkXsXLXMXMXkXkXjXaXCXXX` f q - & . X . o q j ) ) ( ~ d = l *.<.$.#.$.1.5.4.4.6.6.6.6.4.5.3.p.W.-XpXcXzXkXsXKXMXkXkXsXLXPXMXkXkXsXLXMXMXkXsXLXPXMX",
"XX+.H v l > i G G Q }.$X0XiXgXgXsXJXMXMXMXvXsXLXMXMXnXkXkXsXLXPXMXkXkXfX0XQ.K c 2 d d e 7 - 7 7 - d h h h d d i v $.*.*.$.#.&.1.5.5.7.6.6.6.6.4.4.3.<.!.&XfXvXkXsXMXnXkXkXsXKXLXMXkXkXsXLXMXkXkXsXLXPXMX",
"a p k l k : > k k c D P Y O.[.|.+XCXxXmXMXvXsXKXPXMXnXkXkXsXKXMXMXkXfX0Xg.L b k 2 u d q - q h d & @ & - - - 4 b $.%.&.&.$.b #.%.&.2.5.6.6.6.6.6.4.5.3.<.E.uXxXlXsXnXzXkXkXsXKXLXMXkXkXsXLXMXkXkXsXLXPXMX",
"X : k k > : : : : > l k ; 3 p G U +.3XiXiXfXaXJXKXMXMXMXkXsXKXMXmXxXtXOXu.#.b v p D D D A D D D r - # # $ > b %.2.2.2.1.&.#.b #.%.&.2.5.6.6.6.6.4.5.2.*. .=XeXjXsXnXvXkXkXsXKXPXMXkXkXsXLXMXkXkXsXLXPXMX",
"O : k k k k k > 4 > 4 ; O 5 J t.E U ) ' | [.+X%XZXxXxXbXjXsXsXKXmXrX+XW K C :.i.T.g.g.!.T.T.T.T.U.L 5 4 ; k #.%.&.&.&.%.#.b l #.&.2.5.6.6.6.6.6.4.5.1.$.] oX0XrXaXbXjXkXkXsXKXPXMXkXkXsXLXMXkXkXsXMXPXMX",
"_ H A c > : > > k l l k 5 J L t.J A 3 e j G s I @.,X#X=XeXfXsXHXiX}.] H L a.j.L.P.J.J.J.J.J.J.P.J.H.e.t.V N z b b b b b l b #.&.5.4.6.6.6.6.6.6.5.2.&.#.S Y W ..}.=XwXfXgXsXKXPXMXkXkXsXKXMXkXkXdXsXLXMX",
"wX$XR.W P g 3 : > c k > N a.j.f.t.n u j ) / p 3 j ) ^ ) | |.$XoX+.] H t.a.K.P.A.A.C.B.m.m.m.m.M.B.C.x.J.D.s.q.-.C N b #.%.1.2.4.4.6.6.6.7.6.7.5.2.&.$.=.:.y.y.0.T [ ! |.%XqXHXLXMXkXkXsXKXMXkXkXjXcXLXMX",
"jXfXwX&X$XXX+.o.O.| G 5 C s.J.K.y.F ) ' { _ H H ] o.) u a G G j f p n J a.K.L.P.J.A.A.A.n.n.n.M.b.b.b.C.C.C.x.H.d.>.$.&.2.8.8.8.4.7.6.6.7.5.2.1.%.$.=.q.l.x.c.c.z.a.i.E Q  XZXHXmXkXkXsXKXMXnXnXnXPXPXMX",
"kXkXkXjXgXaXpXpXhXeX[.W u.H.P.J.w.E X.^.{ G a I ] { _ ) ' _ a u j I G 6 A J t.u.f.j.J.c.A.A.A.C.C.C.b.b.C.x.D.a.>.>.;.9.8.9.G.G.9.8.8.7.2.1.%.$.#.=.e.x.C.b.m.N.N.c.z.a.t.R +.2XiXjXkXsXKXMXMXzXsXKXPXMX",
"kXkXkXkXkXsXbXbXjXfX%XE.f.H.J.J.p.:.[ [ H 3 G | | _ G a G G G _ { { ) a i j G f A J L 0.0.0.0.q.w.l.x.x.l.s.d.p.y.Y./.F.G.F././.G.9.8.5.1.$.b b -.r.x.C.m.m.m.B.m.m.A.J.K.y.[ Q.=XtXcXsXKXMXMXvXsXKXPXMX",
"kXkXkXkXkXsXnXMXnXgXuX+XU.p.s.D.r.;.>.,.K c 3 p D f i p G j g U _ ) _ _ _ { { ) e f g i 5 4 , , x B -.p.y.-.>.y.p.~.VXVX/.F.F.G.9.8.2.&.#.b l B r.x.b.B.m.m.M.M.M.m.M.A.c.w.N H Q.;XfXsXKXLXMXkXsXKXPXMX",
"zXkXkXkXkXsXnXMXMXcXfX0XXXT.f.D.D.;.=.>.L M > > l l k 4 3 3 G o.o.) G G G _ H g i G G u - ; ; : , M L i.f.j.j.j.f.f.f.~.~.6XK.F.*.&.&.$.b z N q.z.A.B.m.m.M.M.M.M.M.M.A.x.w.z c G O.+XqXJXLXMXkXsXKXPXMX",
"nXkXkXkXkXsXnXMXMXvXjXsXAX;XOXi.:.-.B B N v k l l b b l : 5 F T T K J R [ O.{ ) G G g 3 $ ; > > M q.h.).).`.`._._.L.K.j.~.VX<XY.>.=.=.N M B w.z.c.B.m.m.m.M.M.M.M.M.M.A.C.w.z k > H [.0XsXKXMXkXsXKXPXMX",
"nXkXvXkXkXsXMXMXMXnXkXsXJXxXuX+X.XO.{ H S Z 5 c c Z Z Z 5 M -.r.x.z.l.s.f.u.F A p D i & X O < ; v t.s.L._.`.'.'.9X_./././.f.u.,.,.:.M x m T s.A.m.m.M.M.M.M.M.M.M.M.M.B.x.w.z k 4 G X.&XsXKXMXkXsXKXPXMX",
"nXkXkXkXkXsXLXMXnXkXkXsXMXMXmXsXSXGX3XoX{.X.X.X.+.Q..XX.W R y.z.C.b.b.C.J.H.r.w.0.V n ; O * * O 4 M :.i.j.L._.'.9X_.L.K.d.>.B v n x ; 2 M y.z.A.m.m.M.M.M.M.M.M.M.M.M.B.x.w.z k 4 j X.&XsXKXMXkXsXKXPXMX",
"nXkXkXkXkXsXLXMXnXkXkXsXnXnXkXsXDXLXKXmXjXgXgXsXHXxXmXrX&Xg.y.x.B.b.b.b.B.B.b.C.x.l.w.C M c , 4 x N L L y.j.).8X8X6X/.j.p.>.B z 4 % * x 0.s.c.m.m.M.m.M.M.M.M.M.M.M.M.A.J.w.z k 4 g ..&XsXKXMXkXsXKXPXMX",
"nXkXkXkXkXsXMXMXnXkXkXsXnXkXkXsXlXPXPXMXnXkXkXsXKXMXzXxXwX(.u.x.A.B.b.M.M.n.n.n.b.C.x.l.e.q.C C q.a.a.>.>.a.f.j.h.i.L C -.>.=.B k ; , V w.x.C.m.m.m.m.M.M.M.M.M.M.M.B.x.D.-.v > ; g ..&XsXKXMXkXsXKXPXMX",
"MXMXzXkXkXsXLXMXMXMXkXsXnXzXkXkXsXLXPXMXnXkXkXsXLXMXvXxXuX{.t.k.b.B.V.n.V.n.n.n.n.M.b.b.C.C.c.c.C.C.x.l.e.y.>.:.L N N N B L V n 4 4 M y.z.A.m.m.m.m.m.M.M.M.M.M.M.M.B.x.w.B k : ; s ! &XsXLXMXkXsXKXPXMX",
"MXnXnXkXkXsXLXMXnXkXkXvXMXnXkXkXsXLXPXMXnXkXkXsXLXMXnXgXwX|. .f.J.C.b.b.b.n.n.n.n.b.B.N.B.A.A.S.S.S.B.B.A.C.x.z.k.l.r.r.r.s.y.V , n 0.s.A.B.M.m.m.m.m.M.M.M.M.M.M.M.A.z.q.N > : ; g ..&XsXLXnXkXnXKXPXMX",
"MXvXkXkXkXsXLXMXkXkXkXvXMXvXkXkXsXLXMXMXnXkXkXsXLXMXnXjXfXqX4XoXW.f.D.x.C.b.b.B.C.k.l.r.s.s.r.x.C.S.M.M.M.B.M.M.m.N.N.N.A.x.w.C N 0.e.x.N.m.M.m.m.m.m.M.M.M.M.M.M.B.C.l.-.v : : 4 G R.&XsXKXMXvXlXDXPXMX",
"MXnXkXkXkXsXLXMXkXkXkXsXnXnXkXkXsXLXPXMXvXkXkXsXLXMXMXvXkXsXSX3X.X+.u.y.e.r.x.z.r.q.=.N N N N 0.r.x.C.B.n.n.M.M.m.M.M.M.B.A.x.l.z.x.A.B.m.M.M.M.M.M.M.M.M.M.M.M.M.A.J.e.N k > > 6 Q +XeXsXKXMXzXvXPXPXMX",
"MXnXkXkXkXsXLXMXkXkXkXsXnXnXkXkXsXLXLXMXkXkXkXsXLXMXnXkXkXsXJXpXuX=XX.A x v V N M , > ; ; ; ; , V q.r.C.A.B.n.M.m.m.M.M.M.m.m.m.B.B.m.M.M.M.M.M.M.M.M.M.m.M.M.n.A.x.s.-.v : : 5 I [.eXjXsXKXMXkXsXLXPXMX",
"nXkXkXkXkXsXLXMXvXMXvXmXMXnXkXkXsXLXDXMXzXkXkXsXLXMXzXcXjXrXZX-XoX+.` - o + O O + + o o o o o + ; v C a.H.C.B.M.M.M.M.M.M.M.M.M.M.M.M.M.M.M.M.M.M.M.M.M.B.B.B.S.J.s.-.l > : : p +.;XfXkXsXKXMXkXsXLXPXMX",
"nXkXkXkXkXsXLXMXMXvXsXLXMXnXkXkXsXLXPXMXnXkXkXsXKXmXcXrX$XX.' ) G f i 0 9 9 9 1 1 = = $ + o o . o O x N q.r.x.C.M.n.M.n.n.M.M.M.M.M.M.M.M.M.M.M.M.M.M.M.B.B.A.J.s.-.z > : : > G oXiXcXzXvXLXMXkXdXMXLXMX",
"MXnXkXkXkXsXLXMXnXkXsXMXMXzXkXsXsXLXPXMXkXkXkXsXJXpX;XXX` a w 0 r t i g G G G j d q = * @ o . . . . + 4 M -.e.l.C.b.V.V.n.n.M.M.M.M.m.M.M.M.M.M.M.M.B.B.A.C.l.w.C l : : : > A  .3XxXnXnXsXLXMXkXkXsXLXMX",
"MXMXzXkXkXsXKXMXzXzXcXMXMXzXkXsXLXPXMXMXkXkXjXsXGX-X+./ i e t t t i g I ] @..XO.) a $ . . . . . . . . o ; x N q.r.x.b.V.V.n.n.M.M.M.M.n.V.V.V.V.B.C.C.x.D.p.-.v > : : : , D  .%XGXmXzXvXsXKXMXkXkXsXLXMX",
"MXnXkXkXkXsXKXMXkXkXsXLXMXkXkXsXLXPXMXMXzXkXjXrX3X+.) i t t t i t G Q X.X.:XXXO.a o . . . . . . . . . . . + 4 M t.q.r.k.C.B.B.b.b.n.V.V.V.N.C.c.c.l.w.-.B z k > : : : 5 U E.&XaXJXmXnXvXsXKXMXkXkXsXLXMX",
"MXMXvXkXkXsXLXMXkXkXsXLXMXkXkXsXLXMXMXMXzXjXgX0X:X) w t t t i g G { |.%X|.O._ a - - & X . . . . . .     . . $ p U R E y.e.l.l.k.k.k.l.r.e.q.q.-.C N z k > > : : : 4 A | |.eXgXsXKXMXkXvXsXKXMXkXkXsXLXPX",
"MXnXkXkXkXsXLXMXkXkXsXMXMXkXkXsXLXMXnXkXjXgXeX Xo.g w t t t G ] Q.#X+X[.Y u & u ) ` I - . . . . . . . . . . & j | |.+XQ.[ R J v z z z z z l k k : : : : : : : 5 D W [.-XpXgXkXsXKXMXvXnXsXKXMXkXkXsXLXPX",
"MXnXkXkXkXsXLXMXkXkXsXLXMXkXkXsXLXLXMXkXjXrX$XQ p t t t t i _ Q.#X+X[.U a f I o.{.|.! s X . . . . . . o o . X a Y |.0XAXZX2XXX . .] W W U A : : : : : > A U ]  .|.&XaXJXmXkXkXsXKXMXkXnXnXDXMXkXsXKXPXPX",
"MXnXkXkXkXsXLXMXkXkXsXLXMXkXkXsXLXLXMXkXlXrX$XW 3 e i i i f / { Q.Q.] u q o.oXuXtXwX|.I # . . . . . . o . . $ & I }.0XHXKXHXxXhXxXfXrXqX4XQ.W ] W W W ! XX-XwXrXfXgXsXLXMXMXvXsXLXMXkXzXdXsXnXkXsXLXPXPX",
"MXMXvXkXkXsXnXnXkXkXsXnXMXvXkXsXLXPXMXvXjXeX X' w t t t g _ O.XXXXO.G q j +.-XtXgXfX%Xo.u . . . . . . o . # 7 = s X.%XGXJXLXMXMXMXkXjXsXHXpXpXiXeXeXeXqXHXmXjXkXkXkXsXLXMXvXvXsXLXMXkXkXkXsXnXkXsXLXPXPX",
"MXnXkXkXkXsXnXMXnXkXsXnXnXkXkXsXLXLXMXbXrX$X| j e t t t g ` @.#X#X .j j o.2XiXxXjXjXqX2Xo.-   o o o @ @ @ = 9 w i s | 2XFXmXMXnXkXkXkXsXKXMXMXnXkXkXkXsXKXMXkXkXkXkXsXDXMXnXkXsXLXMXkXkXkXsXnXkXsXKXPXPX",
"MXnXkXkXkXvXMXnXkXkXsXnXzXzXkXsXKXDXMXxXwX(.s q t t t t G ^.2X-XXX_ 3 ) :XCXxXnXkXkXsXAX>Xa X o o @ $ $ $ 9 j H U G ` >XCXHXmXvXzXkXkXsXKXPXMXkXkXkXkXsXLXMXvXMXMXkXsXLXMXkXkXsXLXMXkXkXkXsXnXkXkXsXLXPX",
"MXnXkXkXkXsXnXvXkXkXsXMXLXzXMXsXKXKXMXxXuX{.p w t y g i G @.>XQ.{ g - ] 2XGXmXMXvXkXsXSX,Xj = @ @ $ $ $ % e / { W.] H _ :XCXxXMXMXzXkXsXKXPXMXkXkXkXkXsXKXMXMXnXkXvXsXLXMXkXkXsXLXMXkXkXkXsXnXMXnXsXPXLX",
"MXnXkXkXkXsXnXnXkXkXsXDXMXzXkXsXKXKXxX;X{.U e e t y g g ` 1X4XQ.G 3 - | 3XGXmXnXkXkXsXSX2Xo.a & $ % % % % = e H ] U D p o.1XiXmXnXkXkXsXKXPXMXkXnXnXkXsXKXMXMXnXkXkXsXLXMXkXkXsXLXMXkXkXkXsXnXzXnXkXsXMX",
"MXMXzXkXkXsXnXvXzXkXsXMXMXMXjXsXmXxXiX XU 3 w w e t i U X.1X2XQ.p 3 I {.FXmXMXnXkXkXsXJXHX4Xo.- $ % % % % % 2 _  .R.] G a o.=XiXcXkXkXsXKXPXMXkXMXzXkXsXKXMXnXkXkXkXsXLXMXkXkXsXLXMXzXkXkXsXnXkXnXzXsXnX",
"MXMXnXkXkXsXnXMXzXkXsXmXHXtXeX0XZX;XoX..f + = 1 9 0 i ! %X1XQ.) - 3 Y  XHXLXMXvXkXkXsXKXHXuXO.- % $ % % % % 1 G ] R.R._ - ) oXuXxXnXkXsXKXPXMXkXnXkXkXsXKXMXMXkXkXkXsXLXMXkXkXsXLXMXMXnXkXsXnXkXnXkXsXnX",
"MXMXzXkXkXsXnXMXnXkXsXxXCX{.Y I I I G u $ o o o o + - U X.o.G 3 X u Y  XHXLXMXnXkXkXsXKXJXZX+.u - $ $ $ % % % t G U U a & a o.=XiXhXkXsXKXPXMXkXkXkXkXsXKXPXMXnXkXkXsXLXMXkXkXsXLXMXMXzXkXsXnXkXnXsXMXMX",
"MXvXzXzXkXsXMXMXkXkXsXxXuXX.a #         o o + o o + + - u q & o X s [.0XHXPXMXkXzXkXsXKXJXGX=Xo.j - + o o $ $ 2 i G G u X & a +.uXhXkXsXKXPXMXvXMXzXkXsXKXPXMXMXzXkXsXLXMXkXkXsXLXMXnXkXkXsXnXkXzXcXLXMX",
"nXkXkXkXkXsXMXLXzXkXsXbXpX-X{.Y j q = o o o o + + + + + + o o o X P |.iXJXMXnXkXkXkXsXKXKXHXiX=X' q o o o o o o $ - - $ .   - O.;XfXjXsXKXMXnXkXkXkXkXsXKXPXMXnXkXkXsXLXMXkXkXsXLXMXnXnXkXsXnXnXkXsXLXMX",
"nXkXkXkXkXsXDXLXzXkXsXbXbXjXfX0X,X.Xo._ a - @ o o o o o o o o . X P |.qXmXMXnXkXkXkXsXKXHXFX,Xo.j * + + o + $ + + o o o . . - o.;XfXjXsXKXMXzXkXkXkXkXsXKXPXMXnXkXkXsXMXMXMXvXsXLXMXvXkXkXsXnXkXkXsXLXLX",
"MXMXzXkXkXsXMXLXvXkXsXnXzXkXkXsXJXxXxXuX{...` j = .     X .   . # I $XrXJXMXnXkXkXkXaXZX3X:X_ q $ + + + o o o o o o o o .   - o.-XhXjXsXKXMXkXzXMXvXkXsXLXMXMXMXvXkXsXLXMXMXkXlXLXMXnXkXkXsXnXkXkXsXLXPX",
"MXkXkXkXkXvXMXMXzXkXsXMXLXMXkXsXKXMXlXjXgXrXZXoX| ` I j 2     . # I %XaXmXMXnXkXkXjX0X+.) a - o o o o o o o o o .     .     - o.-XrXjXsXKXMXkXkXkXkXkXsXKXMXMXMXnXkXsXKXMXkXkXsXLXLXMXkXkXsXnXkXkXsXLXPX",
"MXzXkXkXkXsXnXzXzXkXsXMXKXvXkXsXKXMXMXMXkXsXJXxXrXuX;X XY &     & Y &XsXKXMXMXvXvXjX0X{ - . o .       X X $ - & o           - o.=XtXjXsXKXMXkXzXvXkXkXsXKXMXMXnXkXkXsXKXMXkXkXsXKXPXMXkXkXsXnXkXkXsXLXPX"
};
