/* XPM */
static char *_1ddfddf3d86423fa9ae99382f8c9a9b[] = {
/* columns rows colors chars-per-pixel */
"100 100 254 2 ",
"   c #020105",
".  c #0B0205",
"X  c #03010A",
"o  c #0B030C",
"O  c #0B0A0C",
"+  c #140305",
"@  c #13040C",
"#  c #19080A",
"$  c #070614",
"%  c #0C0412",
"&  c #0D0A13",
"*  c #130514",
"=  c #130C14",
"-  c #1B0C16",
";  c #170719",
":  c #1C0C1A",
">  c #101114",
",  c #1C131B",
"<  c #191518",
"1  c #230405",
"2  c #290708",
"3  c #340305",
"4  c #3B0204",
"5  c #36070A",
"6  c #2A120D",
"7  c #38110D",
"8  c #270D19",
"9  c #240C1C",
"0  c #281716",
"q  c #24121E",
"w  c #2A131E",
"e  c #381914",
"r  c #282519",
"t  c #392718",
"y  c #383418",
"u  c #130C24",
"i  c #1A1724",
"p  c #260D21",
"a  c #280B22",
"s  c #261321",
"d  c #291222",
"f  c #251924",
"g  c #2B1A24",
"h  c #2D1B29",
"j  c #321B25",
"k  c #321C2B",
"l  c #371C2A",
"z  c #331E31",
"x  c #292528",
"c  c #352628",
"v  c #3A3628",
"b  c #2C2A37",
"n  c #352432",
"m  c #372C35",
"M  c #2C3331",
"N  c #3A3737",
"B  c #460506",
"V  c #560807",
"C  c #47160B",
"Z  c #58170B",
"A  c #481A15",
"S  c #511213",
"D  c #670708",
"F  c #6E130E",
"G  c #462717",
"H  c #562417",
"J  c #47361B",
"K  c #58381D",
"L  c #682717",
"P  c #762C13",
"I  c #68351D",
"U  c #452A27",
"Y  c #473928",
"T  c #583328",
"R  c #473B36",
"E  c #673626",
"W  c #6D3428",
"Q  c #773927",
"!  c #3D4136",
"~  c #59451E",
"^  c #4A442A",
"/  c #534629",
"(  c #5C572A",
")  c #484337",
"_  c #574A38",
"`  c #5A5537",
"'  c #724B2F",
"]  c #654B39",
"[  c #67583A",
"{  c #68643A",
"}  c #77693B",
"|  c #777138",
" . c #373642",
".. c #553D42",
"X. c #4A4645",
"o. c #544A44",
"O. c #5A564A",
"+. c #665847",
"@. c #6E574E",
"#. c #6F694F",
"$. c #776A45",
"%. c #7C7547",
"&. c #766957",
"*. c #8F0A0C",
"=. c #A60909",
"-. c #B70909",
";. c #AE1211",
":. c #862916",
">. c #972B19",
",. c #883717",
"<. c #963919",
"1. c #B03417",
"2. c #893B28",
"3. c #953A24",
"4. c #A32E23",
"5. c #C90E0F",
"6. c #D70809",
"7. c #E90708",
"8. c #F40504",
"9. c #F90303",
"0. c #F30709",
"q. c #EA1916",
"w. c #D22F20",
"e. c #E42F27",
"r. c #8F4219",
"t. c #96461B",
"y. c #A64B19",
"u. c #B4511C",
"i. c #87452A",
"p. c #974828",
"a. c #905132",
"s. c #995438",
"d. c #AB492C",
"f. c #A85628",
"g. c #B75827",
"h. c #AA5635",
"j. c #B65B33",
"k. c #85793D",
"l. c #927036",
"z. c #B76637",
"x. c #B26D35",
"c. c #C04E16",
"v. c #C65619",
"b. c #C86319",
"n. c #DA6816",
"m. c #D9721A",
"M. c #EC6E05",
"N. c #E86E0B",
"B. c #F16E06",
"V. c #F06E0A",
"C. c #E67304",
"Z. c #EA7403",
"A. c #EB7804",
"S. c #E6750A",
"D. c #EA730B",
"F. c #EA790A",
"G. c #F17304",
"H. c #E76D15",
"J. c #E77316",
"K. c #F17111",
"L. c #C85928",
"P. c #D75C27",
"I. c #E4502D",
"U. c #C96629",
"Y. c #D76924",
"T. c #DB7526",
"R. c #C76A36",
"E. c #D47238",
"W. c #E37424",
"Q. c #E1683A",
"!. c #965F4C",
"~. c #867644",
"^. c #91724A",
"/. c #887957",
"(. c #AF6E48",
"). c #B77648",
"_. c #C87546",
"`. c #8F873E",
"'. c #97883D",
"]. c #B2913D",
"[. c #B5A83E",
"{. c #F28811",
"}. c #D1923D",
"|. c #EB8C39",
" X c #EB9437",
".X c #F2953C",
"XX c #F59A3B",
"oX c #D6AA3F",
"OX c #F4A13F",
"+X c #8B8145",
"@X c #958746",
"#X c #968856",
"$X c #979052",
"%X c #A78841",
"&X c #A99743",
"*X c #B59944",
"=X c #AE8950",
"-X c #A89A57",
";X c #B89859",
":X c #B7A442",
">X c #AEA550",
",X c #B7A857",
"<X c #918861",
"1X c #A99561",
"2X c #B5AB62",
"3X c #D6894A",
"4X c #C89D45",
"5X c #CD914D",
"6X c #EC9643",
"7X c #E8924F",
"8X c #F39443",
"9X c #F49946",
"0X c #C7A844",
"qX c #D3AC43",
"wX c #D9A843",
"eX c #D8B247",
"rX c #C5AA56",
"tX c #D6AC57",
"yX c #C8B259",
"uX c #D7B457",
"iX c #E4AC44",
"pX c #E9AB47",
"aX c #EEAD45",
"sX c #F2A141",
"dX c #F2AE43",
"fX c #E6B346",
"gX c #EDB242",
"hX c #F4B142",
"jX c #FBB242",
"kX c #F2B34C",
"lX c #FCB54B",
"zX c #E7AB57",
"xX c #E8B758",
"cX c #F4B652",
"vX c #FBB751",
"bX c #F4B856",
"nX c #FBB956",
"mX c #F3B658",
"MX c #F4BA5A",
"NX c #FCB958",
"BX c #FCBA59",
"VX c #FCBB5A",
"CX c #C6AC62",
"ZX c #C7B962",
"AX c #D7B863",
"SX c #E8BC62",
"DX c #F3BE62",
"FX c #FBBF60",
"GX c #E8C163",
"HX c #F5C163",
"JX c #FBC062",
"KX c #FAC162",
"LX c #FBC163",
"PX c #FCC264",
/* pixels */
"jXjXjXjXaXKXNXxXfXeXhXaXGXAXuXuXeXqXuXAXuXeXeXqXAXAXuXuXuXeXqXuXuXeXeXeXqXAXuXuXuXtXeXqXAXAXuXtXeXqXqXAXuXuXeXqXqXqXAXAXuXuXeXeXqXAXuXeXeXeXqXqXqXAXAXuXuXuXqXqXqXuXqXqXqXqXAXAXuXiXjXpXGXxXgXjXhXcXKXNX",
"jXjXjXjXaXFXNXNXnXjXjXaXaXKXNXnXjXjXaXNXNXnXjXjXaXKXNXNXnXjXaXNXNXnXnXjXaXKXNXNXnXlXnXaXKXPXNXNXnXjXaXKXNXnXjXjXjXaXKXPXNXnXjXjXaXKXNXjXnXnXlXvXjXaXKXNXNXnXjXjXaXnXjXjXjXaXKXPXNXjXjXaXKXNXnXnXnXPXPXNX",
"jXjXjXjXjXaXnXNXlXjXjXjXaXKXNXlXjXjXaXKXNXnXjXjXaXKXNXlXvXjXaXKXNXjXjXjXaXKXNXNXNXlXjXaXKXPXNXlXvXjXaXKXNXNXvXjXjXaXKXKXNXNXjXjXaXKXNXjXvXlXNXvXjXaXNXNXNXlXjXjXaXnXjXjXjXaXKXKXNXjXjXaXKXNXNXlXaXKXPXNX",
"jXjXjXjXjXaXnXnXjXjXjXaXkXNXNXvXvXaXKXNXNXnXjXjXaXKXNXnXjXvXaXNXNXvXjXjXaXKXNXNXlXjXlXaXKXKXNXNXlXjXaXKXNXnXjXjXjXaXKXKXNXNXjXjXjXaXnXlXjXvXlXjXjXaXNXNXNXlXjXjXaXnXlXjXjXaXKXKXNXvXvXaXKXNXNXvXaXKXPXNX",
"jXjXjXjXjXaXnXNXnXlXvXaXKXNXNXnXjXaXKXNXNXnXjXjXaXKXNXnXjXjXvXNXNXjXjXjXaXKXNXNXnXjXjXaXKXNXNXNXlXjXaXNXNXnXjXjXjXaXKXPXNXlXnXnXjXaXnXnXjXnXnXjXjXaXKXNXnXjXjXjXaXnXnXjXjXaXKXKXNXnXjXaXKXKXNXjXaXKXPXNX",
"vXjXjXjXjXaXnXNXNXlXjXaXNXNXNXvXdXMXKXNXnXjXjXjXaXNXNXlXvXvXaXKXNXNXlXjXaXKXKXNXlXvXjXaXKXNXNXNXNXjXaXNXNXNXlXjXjXaXKXPXNXvXvXjXjXaXnXnXjXjXlXjXjXaXKXNXnXjXjXjXaXNXNXvXjXdXaXNXNXNXlXaXKXPXNXjXaXKXPXNX",
"nXjXjXjXjXaXnXNXNXvXjXaXKXNXlXhXkXKXPXNXNXvXhXaXKXPXNXvXjXjXaXNXNXjXjXjXaXKXPXNXvXjXjXaXKXNXNXNXlXjXaXnXNXvXjXjXjXaXKXPXNXNXNXlXjXaXnXNXNXNXNXjXjXaXKXNXnXjXjXjXjXaXnXNXlXjXaXKXNXnXjXdXaXKXNXjXaXKXPXNX",
"nXjXvXjXjXaXNXNXNXnXjXaXKXNXnXaXKXPXNXNXnXjXaXaXKXPXNXjXjXjXaXNXnXjXjXjXaXKXPXNXnXnXjXaXKXNXNXnXjXjXaXNXNXnXjXjXjXaXKXPXNXNXNXnXjXaXNXNXlXnXjXjXjXaXKXNXNXnXjXjXjXvXNXnXjXjXaXKXNXnXjXjXaXKXNXjXaXKXPXNX",
"nXjXjXjXjXaXKXNXnXjXjXaXNXNXNXaXKXPXNXNXjXlXjXaXKXPXNXjXjXjXaXNXNXvXjXjXaXKXPXNXNXvXvXaXKXNXNXNXjXjXaXKXNXNXvXjXjXaXKXPXPXNXjXjXjXaXKXNXNXlXlXjXjXaXKXNXnXjXnXjXjXaXnXvXjXjXaXKXNXjXjXjXaXKXNXjXaXKXPXNX",
"nXjXjXjXjXaXKXNXnXjXjXaXnXvXjXaXKXPXPXNXlXjXjXaXKXNXnXjXjXjXaXNXNXvXjXjXaXKXPXNXNXlXjXaXKXNXNXlXjXjXaXKXNXnXhX}.].].rXrXrX0X}.}.gXaXKXNXNXNXnXjXjXaXKXNXNXlXNXnXjXkXKXlXvXjXaXKXNXjXjXjXaXKXNXjXaXKXPXNX",
"nXjXjXjXjXaXNXNXnXjXjXaXnXjXjXaXaXKXPXNXNXjXjXaXKXNXlXnXjXaXaXFXNXnXjXjXaXKXPXNXNXnXjXaXKXNXNXnXjXjXaXHXuX,X:XY < - = = = = = y '.wXSXmXNXlXnXnXjXaXKXNXNXlXNXNXnXKXKXjXjXjXaXKXNXjXjXjXaXKXNXjXaXKXPXNX",
"NXNXvXjXjXaXKXNXNXNXjXaXnXvXjXjXaXKXPXNXNXjXjXaXKXNXlXlXlXaXKXFXNXnXjXjXaXKXPXNXlXjXjXaXKXNXNXnXjXhX*X%.x * ; h h k k h h h g : % > M -XMXlXnXjXjXaXKXNXnXjXnXlXjXaXNXjXjXjXaXKXNXjXjXjXaXKXNXjXaXKXPXNX",
"NXnXvXjXjXaXKXNXvXjXjXvXNXvXjXjXaXKXPXNXnXjXjXaXKXNXnXjXjXaXKXPXNXNXvXjXaXKXPXNXNXnXjXaXKXNXNXxX4X[ x h h k k k k k k k k h h s : o < o.$XrXcXjXjXaXKXNXNXnXNXNXvXaXNXKXjXjXaXMXNXjXjXjXaXKXNXjXNXKXPXNX",
"NXnXjXjXjXaXKXNXjXjXjXvXNXnXjXjXaXKXNXNXnXjXjXaXKXNXnXjXjXaXKXNXNXlXjXjXaXKXPXNXNXnXjXaXKXMXuX#.m h h k k k k j k k k k k k h h g q : o = ` ,XgXjXaXKXKXNXnXnXlXjXaXNXKXjXjXjXaXnXjXjXjXaXKXNXnXkXKXPXNX",
"NXnXjXjXjXaXKXNXjXjXjXaXnXnXjXjXaXKXPXNXlXjXjXaXKXNXNXlXjXaXKXPXNXlXjXjXaXKXPXNXjXjXhXaXSX;X) h k k k k k k k k k k k k k k k h h : * o     Y oXhXaXKXKXNXnXjXlXjXaXNXKXvXnXjXaXnXjXjXjXaXKXNXvXkXKXPXNX",
"NXvXjXjXjXaXKXNXjXlXjXaXnXnXjXjXaXKXKXNXlXjXjXaXKXNXnXjXjXaXKXNXNXvXlXjXaXKXNXNXvXjXjXpX-X) h n k k k k k k k k k k k k k k k h h : - o X X Y oXhXaXKXKXNXnXjXjXjXaXKXNXFXjXjXaXnXjXjXjXaXKXNXjXaXKXPXNX",
"nXjXjXjXjXaXKXNXnXNXnXFXNXnXjXjXaXHXDXmXkXhXdXpXDXmXkXcXhXpXDXmXMXvXjXjXaXKXPXNXjXjXaX'.v h n n k k k k k k k k k k k k k k k h h : - X   X 0 } ^.iXKXPXNXnXjXjXjXaXKXKXlXjXjXaXnXnXjXjXaXKXNXjXaXKXPXNX",
"nXjXjXjXjXaXKXNXNXlXaXKXNXNXjXhXiX1XX.N N M M M b N N v v !  .! ! ` :XqXqXGXGXxXlXlXqX^ f h k n k k k k k k k k k k k k k k k k h : - X         J oXpXKXNXNXvXlXlXjXaXKXnXjXjXaXnXNXlXlXcXKXNXjXdXbXKXNX",
"NXnXjXjXjXaXKXNXnXjXpXxXtX&X| ` N O.;X>X&X&X&X&X1X-X-X-X&X&X1X#X/.` ^ y r O > N %.| ) < f h h h k k k k k k k k k k k k k k k k g : -       X X J oXhXaXnXNXNXnXjXjXkXKXlXNXjXaXKXNXNXnXaXKXNXjXjXaXKXNX",
"NXNXnXjXjXaXKXNXkXrX$.O.N ` '.`./.2XMXbXgXgXgXiXAXxXxXkXgXpXGXxXxXxXaXiX0X-X#X#Xk.[ Y r 0 0 g h h h h h h k k k k z k k k h h h g : - o X X X < ~ wXMXaXKXNXNXlXjXjXkXNXjXjXjXaXKXNXlXnXaXKXNXjXjXaXKXNX",
"NXnXjXjXjXaXHXuX@X[ Y @X@X~.aXpXCXAXxXtX$X&XaX+XR N X.X.) _ o.o.+.| :XgXiXGXxXbXhXgXfXqXCXrX;X'.+._ ` X.m h k c k k k k k k h h s : - o X X y -XfXhXjXaXNXNXlXlXjXjXaXnXjXjXjXaXKXNXlXlXaXKXNXjXjXaXKXFX",
"NXNXvXjXjXiX#Xo.R ] %XuXxX^.aXiX<X#XtXrXk.| k.R x k k j k l k k k v `.&X_ v [ uXgXqX[ [ AXMXmXxXxXeXpXHXGXrX} ( ( / Y c d h h h s : ; o X X y >XcXjXjXaXnXNXNXvXjXjXaXnXlXjXjXaXKXNXlXnXaXKXNXjXjXaXKXPX",
"NXnXjXjXiX} R +X[ ~.0X;XrX~.0X0X1Xo.R c g h h j j j j j j j d d d c _ $.R c / 0XxX:XY +.SXHXxX/./ k.iXHXGXuXxXbXfXiXwXyX-X@.R c q - - o X X y >XhXjXjXaXNXNXnXjXjXjXaXNXnXjXjXaXKXNXlXnXaXKXNXjXjXaXKXPX",
"NXnXjXgX*X[ 1X/.wXqX4XAXrX_ g u a w w s s s s s s q w q q q q s s s s p q w g R [ _ c o.$X;X;X+.v @XpXGX,X^ @XfXgXwX'.2XHXHXxXuX+X| { x     y -XeXeXfXiXHXNXnXjXjXjXaXKXNXlXjXaXKXNXjXnXcXbXnXjXaXKXPXPX",
"NXNXaX] y &XCX;X%X].Y t g h d d d d d d d d s d d s s s s s s s s d d d d d d d d d d d h h d d g R $./.#.Y $XtXeX[.[ ZXZX<X,XfX/.0XgX0X<X$.} /.{ v c m ) -XwXiXiXaXaXKXNXNXnXaXKXNXjXjXjXaXnXjXaXKXPXPX",
"NXNXaX_ Y :X-X/.$.c w 9 d d d p 9 9 9 8 d d d d d d d d d p d d s d d d d d d d d d d d d d d d d d p d w w c Y ( / Y <XZXZXuXyX[ &XhXwXAXxXmXbXeX:X[.&X>X$X) x v { 0XSXxXkXhXaXKXNXjXjXjXaXnXjXaXKXPXPX",
"NXnXaX_ / }.] w 8 w p p d d d d w 8 8 8 8 d d d d d d d d s s d d d d d d d d d d d d d d d d d d d d d d d d s d d d p ; a f s Y ].iXqX#XyXuXrX:X| :XqXGXxX0X4X@X%.) i i o.&XwXGXxXjXjXjXaXnXjXdXbXKXPX",
"NXnXaX_ _ rX_ w a p p p p p d d p s d d d q q q q q 9 9 q d d d d s d d d s d d d d d d d d d d d d d d d d d d d d d d d d d d w r v R o.-XtXiX&X$.qXqXAXxX#X$XyXhXwX-X{ { ) R v &.wXhXjXaXnXlXjXaXKXPX",
"NXnXaX[ x ^ 0 : 9 9 9 9 9 9 p p 9 : - - - - - - - : : : - - : : : 9 s s s d d d s s s s d d d d d d d d d d d d d d d d d d d d d d g d d s g Y v ^ '.0XAX,X` ~.qXqXwXAXyXfXqX~.R ) v k.@X0XmXNXnXaXKXNX",
"NXnXhXgXwX/ = * : : 9 9 9 ; * o X X X X X X         X X X X X X X X X o % * % = = = = , q q q s s s s s s d d d d d d d d d d d d d d d d d d d w w 9 ; k n c #.:X0XwX#X_ %X&X*X1X#X$.R x O.+XwXbXlXaXnX",
"NXNXnXjXaX[ < o * % % * % o o X X   X X X X X X X X X X   X X X X X X X X X X X X X X X X X o o % : q q q q s d d s s d d d d d d d d d d d d d d d d d s q s d t Y ] R #.0XiX0X/.,X0XqX~.Y x _ rXwXpXnX",
"NXNXnXjXaXk.r , X X X X X X X X X X X X X X X X X   X X X   X X X X X X X X X X X X X X X X X X X X X X X o - : : : : , s s s s s g s d s p d d d s s s s p p p s s s s q U [ [ 1X/.[ uX:X@X#X} X._ iXnX",
"NXNXlXlXjXwX%.X.= X X X X X X X X X X X X X X X X   X X X X X X X X X X X X X X X X X X X X X X X X X X X X X X X X X o % * = = : : q s s s s s q p p p p p p 9 p p p p 9 9 8 c @.@.#X4X~.^.rX+X/._ -X*X",
"nXjXjXjXjXpXZX2X( > X X       X X X X X X           X     X X X               X     X X           X X X       X X X X X X   X X X X o % ; : : q q q q q 9 9 9 9 9 9 9 a a 9 8 8 8 8 w t U k.#X~.#X$.t = ",
"nXjXjXjXjXaXMXKXuX| N x & X X     X X X X                       X X   . . . . .       X X . . . . . X X X . . o X   X X       X X X X X X X X X o * * - - 9 : 9 9 9 9 9 8 8 8 8 9 a a a a w R ~.*X[.J = ",
"NXlXjXjXjXaXNXKXjXgXwX,X^ i u u X X X X X X                   X 6 W i.2.2.2.2.2.2.2.2.2.3.,.2.2.a.E 1     X X X     X $ X     X X X X X X X X X X X X X X % % % = = : : 9 9 9 9 9 9 9 p a 9 9 j c } N , ",
"NXnXnXjXjXdXNXKXNXjXaXbXxXeXeX'.( v y O o X X X X               e h.j.d.p.d.L.v.u.v.v.v.v.L.h.h.(.x.Q Q Q W Z F H e @ $ X X     X X X X X X X       X X X X X X X X X o * * * ; 8 8 9 9 a a a p d n m x ",
"NXvXjXjXjXkXNXNXvXjXaXDXKXlXjXpXHXzXrXY f o $ X X               e s.s.7 + C d.L.U.U.P.P.L.h.A 2 e W d.1.1.1.1.1.d.i.6 X X X                       X X X X X       X X X X X X X X o % ; * ; ; : : : ) CX",
"NXlXlXjXjXaXnXlXjXjXaXNXPXNXjXaXKXNXNXcXfX0X1XN x $             e l.s.0 . C d.L.U.Y.Y.Y.Y.j.H + 6 Q d.1.1.1.1.u.d.a.6   .   o # 1 1 + + + X X X   X X X X X X   X X     X X   X X X X X X X X X $ = X.2X",
"NXNXnXjXjXaXnXNXnXjXaXNXKXnXjXaXKXNXNXlXjXaXHXxXxXuX:Xk.~./.&.N t (.(.t # I 3X8X8XXX6X8X9X3XK 1 e (.6X6X7X8X7X6X7Xx.e X X o e a.E.}.z.<.P 7 .       X   X X X X                           X X X = _ ZXGX",
"NXlXlXjXjXNXFXlXjXjXaXNXNXjXjXaXKXNXNXlXjXaXKXNXNXvXjXjXjXkXDX/.Y 5X%Xt # I 3XXXXXXXXXXXXX3XK 1 t (.6X6X6X.X8X8X9X(.e   . + A 2.z..XW.Y.g.L #     X X X X X                     X X X X   X = v '.*XHXHX",
"nXjXjXjXlXKXKXlXjXjXaXnXnXjXjXaXKXNXNXvXjXaXNXNXvXnXjXjXjXaXDX/.K 5X5XG # K 3XXXXXXXXXXXXX3XI 1 G z.8X6X6X9X8X8X9X}.G     6 @.(.R.6XT.W.R.Q 1 X                         i M M M b b M { *X%X@X0XhXaXHXHX",
"nXjXjXjXjXaXNXlXjXjXaXnXnXjXjXaXKXNXNXnXjXaXKXNXnXjXjXjXjXaXDX/.J }.}.' ' s.7X9X9XXXXXXXOX9Xa.K ' }.9X6X8XXX8X8XXX8Xz.s.s.s.3X6X9X.X|.|.R.I Y [ } ~.<X<X<X#X+X`.'.@X#X#X0XiXaXpXDXmXaXhXjXaXnXjXjXaXHXPX",
"NXvXjXjXjXaXKXNXvXjXaXnXNXNXjXaXKXNXnXjXjXaXKXNXNXvXjXjXjXaXDX/.J ].%Xl.^.^.(.x.x.).=X5X5XzXzXzXsXsX9X6X8XXX8X8X8X8X6X.X.X.X.X|.XX.XE.g.i.K >XcXcXaXKXKXNXnXjXjXjXaXKXNXvXjXjXaXKXnXjXjXjXaXnXjXjXaXKXPX",
"nXjXjXjXjXaXNXNXnXjXaXNXNXjXjXaXNXNXjXlXjXaXKXNXnXjXjXjXjXaXDX/.v +.<       X         o ] =X!.z.|.9X9X9X9X9X8X.X.XXXXX|.|.|.3X3X}.E.j.' [ ;XkXlXjXaXKXPXNXNXjXjXjXaXKXNXvXjXjXaXKXNXjXjXdXaXnXjXjXaXKXKX",
"nXjXjXjXjXaXnXnXnXnXaXKXNXjXjXaXKXNXNXnXjXaXKXMX-X$.0XhXjXiXyX^ O O . . .   X X . . .     @ + 6 ' x.5X).3X7X7X|.|..X|.U.z.,.C C A G ] yXmXhXjXjXjXaXKXPXNXjXjXjXjXaXKXNXnXjXjXaXKXNXjXnXaXNXNXjXjXaXKXNX",
"nXjXjXjXjXaXnXjXjXjXaXNXNXvXjXaXKXNXNXlXlXaXKXDX#Xv `.*X%X} ` < O       X X + e t - o X X X     . * 8 @ w G ).6X.X.XT.g.t.L G @X4X].*XDXNXlXNXvXjXaXKXPXNXjXjXjXjXaXKXNXvXjXdXMXKXNXnXnXaXNXNXjXjXaXKXNX",
"nXjXjXjXjXaXnXlXjXjXjXaXNXNXjXaXKXNXvXnXjXaXKXDX#XM X       X           o - G x.5X[ 6 . X = X       . o X 6 a.3X6X|.U.g.,.H [ uXbXjXaXKXNXjXnXlXjXaXKXPXNXjXjXjXjXaXnXjXjXjXaXKXPXNXjXjXcXNXNXjXaXcXKXNX",
"nXjXjXjXjXaXnXnXjXjXjXaXNXNXjXaXKXNXnXnXjXaXKXMX-X+., X   . X   . o $ i @.!.h.R.}.}.x.I A U 6 @ .   O + 6 E ).3XR.j.d.<.W Y -XmXjXhXaXFXNXnXlXjXjXaXKXPXNXNXnXjXjXaXnXjXjXaXKXPXPXNXjXjXaXnXnXjXaXKXPXNX",
"NXlXjXjXjXkXNXNXlXjXjXjXaXnXjXaXKXNXvXnXjXaXKXKXmXuX$.M x i u < x | '.v t a.j.L.H.J.J.W.U.R.h.p.Q L W Q p.h.R.j.d.<.P 4 8 O.,XuXeXeXiXHXNXlXlXjXjXaXKXPXNXlXlXnXjXaXnXvXvXaXKXPXPXNXjXjXaXnXjXjXaXKXPXNX",
"nXjXjXjXjXaXnXnXjXjXjXjXaXnXjXaXKXNXNXNXvXaXKXPXNXvXlXjXhXpXHXxXkXkXhXiX,X_ Q i.p.p.s.a.p.p.i.2.Q Q 2.,.:.P L S L L A 8 # 2 B V V S U #.-XeXxXNXjXaXKXPXNXjXlXvXjXaXnXlXjXaXKXPXNXNXNXjXaXnXjXjXaXKXPXNX",
"nXjXjXjXjXaXKXNXnXjXjXjXaXnXjXaXKXKXNXnXjXaXKXPXNXnXjXjXjXaXKXNXNXlXcXaXHXSXyX-X$.[ _ r = . o $ = x R O.&./.#X&X+X$.' H V *.;.6.6.5.5.;.P ] /.wXhXaXKXPXNXjXnXnXnXaXnXlXjXaXKXPXNXNXlXjXaXnXjXjXaXKXPXNX",
"NXvXjXjXjXaXKXNXjXnXjXjXaXnXjXaXKXKXNXNXNXaXKXKXNXnXjXjXjXaXKXNXNXNXjXaXKXPXNXNXvXhXfX~.x $ & & < { :X2XGXxXxXqXqX*Xh.d.;.-.7.8.8.0.8.0.6.-.F / +XwXKXKXNXjXvXvXdXMXNXlXlXaXKXPXNXlXlXjXaXnXlXjXaXKXKXNX",
"NXlXjXhXiXHXHXMXlXNXnXjXaXnXjXaXKXNXNXvXjXaXMXKXPXNXnXjXjXaXKXPXNXvXjXdXMXDXMXuX,X_ x i o X X $ $ & i X.X.#.-X%.'.L.e.w.5.6.8.8.8.8.8.9.9.8.6.;.F [ AXHXNXnXNXvXaXKXNXjXjXaXKXPXNXjXjXjXaXnXNXlXaXKXPXNX",
"NXnXaXk./ ^ ( rXgXhXbXjXaXnXjXaXKXPXNXnXjXjXaXKXPXNXNXnXjXaXKXNXnXjXjXjXaXDXuX/.v & = % $     X & b  .&.b  .x , 5 *.=.*.D *.6.6.7.8.9.9.9.9.9.0.5.4.' &.xXlXnXjXaXKXNXjXjXaXKXPXNXjXjXaXNXNXnXjXaXKXPXNX",
"MXuX:XY S S 7 ) ( ( `.iXaXnXjXjXaXKXNXvXNXvXaXKXNXNXnXjXjXaXKXPXNXjXjXjXpX1XQ 2 @ x ) x i X X X $ i b u i X.b = 4 =.5.;.F D =.5.7.7.9.8.8.8.8.8.7.5.*.~ eXkXvXhXaXNXNXjXjXaXKXPXNXjXjXaXKXNXlXjXaXKXPXNX",
"[.y + S D D 3 7 C B 5 T k.+X4XiXwXHXMXNXNXlXaXKXPXNXnXjXjXaXKXKXNXjXhXeXl.+.S 1 o i b  . .& & b : x ) b i x x = 2 *.5.5.=.D D ;.-.6.7.9.9.8.8.0.0.7.-.F [ ,XkXvXaXnXvXjXjXaXKXPXNXjXjXaXKXNXjXjXaXKXPXNX",
"[.y 2 S D B + 1 5 3 4 H U 0 r y y / <XxXnXjXaXHXKXNXNXnXjXaXKXNXNXbXmX*Xp.4.Z 8 @ i m < > X X > $ X & & & O @ B *.;.5.5.5.=.D D *.;.6.0.0.8.8.9.8.0.7.=.E $.iXjXaXnXnXjXjXaXKXKXNXjXjXaXKXNXjXjXaXKXPXNX",
"[.y 3 V V 3 3 B # * 1 2 # $ O e e 0 ` ~.@X*XwXuXHXNXNXNXjXaXcXKXNXkX*XE F :.S .   X , < - - e e j < o $ ; B D *.-.-.-.-.=.F B 4 D *.5.7.0.0.9.9.8.0.7.=.V J oXhXaXnXjXjXjXaXKXKXNXjXjXaXKXNXjXjXaXKXKXNX",
",Xy B D V 3 S B 2 S L 7 @ + H h.!.E 6 o o = f ) -X+X>XkXgXgXaXKXMX0X} } G e a.5XtX}.}.}.5X5X7X7X}.s.A A 8 S ;.-.-.-.-.=.F B 7 Z *.5.7.0.9.9.8.0.8.0.6.*.S y [.wXwXbXvXjXjXaXKXKXNXjXjXaXKXNXjXjXdXaXKXNX",
"0X[ J C B 7 4 3 3 V Z 2 - G !.s.Q H 1 - x s w @ @ O x ] / k.iXSXuX+.G I ' s.}. X{.F.F.A.Z.Z.Z.A.S.m.n.P.f.L C V V B 4 3 B D =.5.7.0.9.0.0.0.9.9.8.7.;.D 4 6 J y ^ %.~.qXhXaXKXKXNXjXjXaXKXNXjXjXjXaXHXNX",
"jXgXiX} M  .i + + 1 8 - # Z 3.p.Q e # 0 +...U 0 x i = x = x v M N = U a.Q E.{.{.{.A.A.Z.A.A.A.S.S.D.Z.S.S.J.Y.U.U.j.P F -.6.6.7.8.0.0.9.9.9.0.7.6.-.*.F L g.U.g.f.Q T +.%X*XDXKXNXjXjXaXKXNXvXvXcXHXKXNX",
"jXjXjXhXgXpXrXk.#X&X~.r 2 Q L.R.z.H 0 +.rX+.0 c k.%.#.N x ) c = = = N m c a.f.).g.Y.J.D.G.G.F.{.F.F.Z.D.S.m.Y.b.U.d.>.;.6.q.e.q.q.q.q.0.0.0.6.5.=.F Z ,.Y.H.N.D.J.b.E.' e ) ,XrXxXjXjXaXKXNXNXvXaXKXPXNX",
"jXjXjXjXjXaXnXnXjXjXaX[ G h.E.W.R.L e X.#.r = < v +.N g _ #X{ N X.X.x f , = = 0 6 I p.y.y.U.x.x.g.T.W.F.S.T.h.a.2.Q.w.q.7.e.Q.Q.Q.Q.I.q.7.6.=.*.D L 2.U.S.N.N.C.S.D.W.Y.h.' 0 Y uXbXvXaXKXNXNXnXaXKXPXNX",
"jXjXjXjXjXaXnXNXlXjXkX@XK ).R.T.W.1.4.>.:.S # & R #Xo.R { v x c U / c _ $.o.m N b >   X < =     + A s.g.g.<.P d.2.h.).3Xw.e.e.e.I.e.q.7.5.=.D V C <.n.Z.C.C.N.C.Z.Z.Z.D.W.p.H t | '.aXaXKXFXnXjXaXKXPXNX",
"lXjXjXjXjXaXnXNXNXvXhX*X/.&.s.E.|.L.1.5.w.F 3 1 1 1 2 x N M x Y #Xo.` } Y c g j 0 X.m f = X + 6 + # e H W p.j.f.,.p.=XtXz._._.w.e.q.7.-.*.V C Z P U.N.Z.C.C.C.C.Z.S.S.A.S.W.R.L 6 _ zXpXKXPXNXjXaXKXPXNX",
"nXjXjXjXjXaXnXNXNXnXjXpXSXrX' p.g.d.;.;.1.Z 5 B D D D F 5 + + 7 U t } :X~.O.m j +.+.0 U 6 1 S H H A i.s.f.7X9X.X|.U.3X_.' rXxXj.1.;.=.*.D B V ,.U.J.C.D.K.C.C.D.Z.C.S.Z.Z.H.,.C 6 R } ~.pXHXNXjXaXKXPXNX",
"nXlXlXjXjXaXnXNXNXlXjXaXHXMXrX%XW 4 B D F V B B V D D F S # H g.L.g.t.,.i.A = i N Y < c # 3 A L C C r.f.x.9XXXXX|.|.T.U.j.(.~.s.x.5X' A 3 Z r.U.H.C.C.C.C.C.C.Z.Z.Z.Z.D.S.m.P B 4 1 + K iXKXnXjXaXKXPXNX",
"nXjXjXjXjXaXKXNXnXjXjXaXNXNXbXpXGXZX;X] T A 8 q i x c y y 6 L E.K.V.K.n.E.u.,.' I 6 # O   . # 2 # e i.y.U.9X9XsX.XXX|.T.H.L.2.C G ' R - . 7 P T.S.Z.C.C.C.C.Z.Z.Z.Z.Z.D.S.m.P B 3 1 2 K wXKXNXjXaXKXPXNX",
"nXjXjXjXjXaXKXNXnXjXjXaXnXnXjXaXKXPXKXxXwXwXwXwXxXzXzXpXwX/ I Y.D.Z.M.M.M.D.H.H.m.f.P 7 0 @ >     6 U A Q ).6XsX9X6X7XU.j.<.,.L 7 + .   o G f.J.A.A.A.A.C.C.Z.Z.Z.Z.Z.D.Z.m.P V 4 1 # J wXKXNXjXaXKXPXNX",
"nXjXjXjXjXaXNXNXNXjXjXaXnXjXjXaXmXKXKXNXNXjXjXaXFXNXlXlXiX[ H U.J.Z.M.M.Z.Z.Z.Z.Z.D.m.u.p.H 5 3 H ,.h.2.C L z.R.g.g.U.p.L ,.<.p.i.6   # H ,.Y.J.Z.C.Z.Z.C.C.Z.Z.Z.Z.Z.D.S.m.,.V 3 1 # J wXKXNXjXaXKXPXNX",
"NXnXlXjXjXaXKXNXNXnXjXaXnXlXjXjXaXPXPXNXnXjXjXaXKXNXbXbXcX~.G g.J.K.B.M.Z.Z.Z.Z.Z.Z.Z.S.S.m.T.Y.Y.H.J.W.U.j.P W L L L S C S L L H 1 o 7 a.Y.S.S.C.C.C.C.A.A.A.Z.S.Z.Z.D.S.m.<.V 3 1 1 J wXKXNXjXaXKXPXNX",
"NXNXnXjXjXaXKXNXnXlXjXvXNXnXjXjXaXKXPXNXnXjXjXaXKXNXnXjXaXk.t ,.U.T.H.M.M.V.B.Z.Z.Z.Z.M.B.K.K.K.B.Z.Z.Z.S.m.U.U.f.f.p.r.y.d.p.W 2 o . 7 t.J.A.A.Z.A.A.Z.Z.Z.Z.C.S.Z.Z.D.Y.r.Z 4 3 1 + J wXKXNXjXnXPXKXNX",
"NXlXjXjXjXaXKXNXjXjXjXkXnXlXjXjXaXKXNXNXnXjXjXaXKXNXnXjXjXwXrX;X!.i.R.m.N.Z.M.Z.C.N.n.b.v.v.v.b.H.K.D.Z.Z.Z.Z.Z.M.Z.D.D.J.W.E.i.e q G f.T.F.A.A.A.Z.Z.A.A.Z.Z.Z.Z.Z.Z.J.L.F B 5 3 2 1 J wXFXNXvXkXNXKXNX",
"NXnXjXjXjXaXKXNXjXjXjXaXnXnXjXjXaXKXPXNXnXjXjXaXKXNXNXnXjXaXKXDX/.Y x.h.y.g.T.N.n.c.,.:.:.:.:.:.y.n.N.B.B.B.B.N.D.D.Z.M.B.D.W.L.r.,.y.T.F.A.Z.S.A.A.A.A.Z.Z.Z.Z.Z.Z.Z.J.R.F B 5 3 2 2 K wXKXNXlXnXPXKXNX",
"NXnXjXjXjXaXKXNXjXjXjXaXnXnXjXjXaXKXPXNXjXjXjXaXKXNXnXjXjXaXKXNXuX>X~.G 6 C P ,.F Z 3 1 1 1 1 2 Z ,.g.J.G.G.G.Z.Z.Z.Z.Z.Z.C.C.D.J.H.D.D.Z.Z.Z.Z.Z.Z.Z.Z.Z.Z.Z.Z.Z.Z.D.W.f.Z 4 3 3 2 6 T iXHXNXlXaXKXKXNX",
"nXjXjXjXjXaXKXNXvXNXvXbXNXnXjXjXaXKXNXNXlXjXjXaXKXNXlXlXjXaXFXNXNXtX%.r     .     . . X X X X X @ 6 H p.Y.K.G.G.Z.B.Z.M.Z.Z.M.M.Z.C.Z.D.S.Z.Z.A.Z.Z.Z.Z.C.Z.Z.M.B.D.T.<.D B 4 5 5 e } 0XpXHXNXjXaXKXPXNX",
"nXjXjXjXjXaXKXNXNXnXaXKXNXnXjXjXaXKXPXNXnXjXjXaXKXNXvXjXjXaXSX$XO.R , * * % % $ o o % % % % % o     + 5 P u.n.K.B.Z.Z.M.M.M.Z.C.C.C.C.C.C.Z.Z.Z.B.B.Z.Z.C.Z.Z.N.J.W.j.L 4 3 3 5 5 c &.pXbXKXNXjXdXNXPXNX",
"NXnXjXjXjXaXKXNXnXjXaXNXNXlXjXdXaXKXPXNXlXjXjXaXKXNXnXvXjXqX[ x q f f g h h h h g g i * * * % % X X o * 8 E P v.K.B.M.M.Z.N.N.Z.Z.Z.Z.Z.Z.Z.Z.Z.Z.Z.Z.Z.Z.Z.Z.K.Y.t.Z 4 3 2 5 3 t $XxXbXaXKXNXjXjXaXKXNX",
"NXNXlXjXjXaXKXNXvXlXcXNXNXlXjXaXKXPXFXNXjXjXjXaXKXNXNXkX@X) f g j k l k l k h h m k : * $ X X X X X   X $ $ 5 P u.Y.N.B.B.Z.Z.G.A.Z.Z.Z.Z.Z.Z.Z.Z.Z.Z.Z.V.J.H.v.t.Z B 3 2 2 5 7 _ >XcXbXaXKXNXjXjXaXKXNX",
"NXnXjXjXjXaXKXNXjXjXaXKXNXjXjXaXKXPXNXNXlXjXjXaXKXNXmXtX| c k l l l l k k R /.-X$.N = X X X X X X           . 2 A L v.H.V.V.N.A.Z.Z.Z.Z.A.A.Z.Z.M.M.K.H.U.g.:.V 4 4 4 4 5 3 0 _ CXmXnXbXaXKXNXjXjXaXKXNX",
"NXNXvXjXjXaXKXNXjXjXaXKXNXjXjXaXKXNXNXNXlXjXjXaXKXMX,XY , g l l c l z n _ -X>X@.R < o o X         X X X     X X @ 2 I r.g.v.n.N.N.N.M.B.B.K.H.Y.Y.L.y.P Z B 3 3 3 3 4 4 5 t k.0XHXNXjXvXaXKXNXjXjXaXKXPX",
"NXnXjXjXjXaXKXNXjXjXaXNXNXjXjXaXKXNXnXjXjXjXjXaXKXMX-Xy w h l l l l n R %.;X@XX.i X & i o         X X X X X X X X X @ # 3 C P ,.,.r.y.y.y.r.P V B B 4 4 3 3 3 3 3 3 3 3 U %XqXpXKXNXvXvXaXKXNXjXjXaXKXPX",
"NXnXjXjXjXaXKXNXjXjXaXKXNXjXjXaXKXKXNXjXjXjXjXaXSX/.R g k k l l l l Y :XAX&.x < o x O.<Xc X     X X X X X X X X   . . # v Y E H V V V V V B B B 4 5 5 5 5 3 4 4 5 G / -XuXhXjXaXKXNXjXnXnXNXNXjXaXKXPXPX",
"NXnXjXjXjXaXKXNXjXjXaXKXNXjXjXaXKXKXNXjXlXjXdXpXAX_ < g k k l l l n [ @X/.R i i y @X4X2X&., X X X X X X X X X X X X X Y CXAXxX*X%.[ } } &.#.R 7 3 4 4 4 3 e ] _ } :XwXHXNXNXvXaXKXNXjXjXhXaXnXjXaXKXPXPX",
"NXNXvXjXjXaXnXnXjXjXaXnXNXlXjXaXKXPXNXlXjXjXaXAX2Xv d k k l k n m _ &X*X+.f i $ J oXpXHXZX^ o X X   X X X X X o % = o v 1XGXMXNXNXjXjXaXKXmX-X'.l.l.l.l.@X@XfXjXhXhXaXKXNXvXlXaXKXNXjXjXjXaXnXjXaXKXPXPX",
"NXnXjXjXjXaXnXNXnXjXaXnXNXlXjXaXKXKXNXnXjXaXpX#Xc - h c k z n n Y ~.qX*X^ - , X.$.aXaXHXAX_ & $ X     X X X o % ; : - - Y yXmXnXjXjXjXaXKXNXnXvXjXjXjXaXKXNXjXjXjXjXaXKXNXnXjXaXKXNXjXjXjXaXnXjXdXNXPXPX",
"NXnXjXjXjXvXNXnXjXjXaXnXlXlXjXaXKXKXNXvXjXaXDX<Xx q c n n n n v ~.wX:X) < = r #.:XgXaXKXSX+.> $ X X X % % % * * : j e 8 c <X,XcXlXjXjXaXKXKXnXjXjXjXjXaXKXNXnXNXnXjXaXKXNXjXjXaXKXNXjXjXjXaXnXjXjXaXKXPX",
"NXnXjXjXjXaXnXlXjXjXaXNXKXvXnXaXKXFXNXNXNXiXAX@.q s k n n n n Y -X-X} 0 % $ y ,XcXjXaXKXKXAX,XY & X % % % % * ; q +.~.' l s _ uXMXlXjXaXKXPXNXjXjXjXjXaXKXNXNXnXjXlXaXKXNXjXjXaXKXNXjXjXjXaXnXNXNXaXKXKX",
"NXnXjXjXjXaXnXnXjXjXaXFXNXlXhXiXDXKXNXnXaXk.y , q f k n n n n #.,XrX_ : $ $ y ,XhXjXaXKXPXKXxX#., X o % % * * ; ; w R ..c - r $XmXjXjXaXKXPXNXjXnXnXjXaXKXNXNXnXjXjXaXKXNXjXjXaXKXNXlXjXjXaXnXlXnXjXaXnX",
"NXNXvXjXjXaXnXvXvXjXaXnXMX-X| ( $.uXNXlXqX[ , s h k n n n n R @X;X@.r ; & ) *XbXjXjXaXKXPXKXNXuX_ & X o % * * * ; 0 +./.@.g < o.~.qXhXaXKXKXNXjXnXvXjXaXKXNXnXjXjXjXaXKXNXjXjXaXKXNXlXjXjXaXnXjXnXlXaXnX",
"NXNXNXjXjXaXnXNXlXjXaXNXDX@Xr o < X.O.` N = o = , g k n n _ ;XxX*XY # o $ ^ yXvXjXjXaXKXKXNXNXxX@.= o % % * * ; : 6 R &.&.U , = y -XhXaXKXPXNXjXnXjXjXaXKXNXNXjXjXjXaXKXNXjXjXaXKXNXNXNXjXaXnXjXnXdXaXnX",
"NXNXlXjXjXaXnXNXnXjXaXNXHX@Xr o < < - @ @ o @ @ o X o - g _ rX^.Y # o X v -XxXnXjXjXaXKXPXPXNXNXyX#Xc o % % * : i : 6 T !./.c i r } wXiXKXKXNXjXjXjXjXaXKXPXNXnXjXjXaXKXNXjXjXaXKXNXnXjXjXaXnXjXvXaXFXNX",
"NXlXlXlXjXaXNXNXlXjXaXNXMX0X`.) = o @ @ @ = ; ; @ @ @ + + c $.@.r X o > +.SXNXjXlXjXaXKXPXKXNXNXNXuX^ & % % * : ; * 6 E 1X&.j n x i v :XHXPXNXnXNXvXjXaXKXPXNXNXvXjXaXKXNXjXjXaXKXNXnXjXjXaXnXjXvXkXKXNX",
"nXjXjXjXjXaXNXKXvXjXaXnXNXcXhX*X{ M o O O @ @ @ @ @ @ @ @ .       X X > $.xXnXjXjXjXaXKXPXPXNXNXNXeX` < o o * ; ; % # c @.R # o X X r &XDXNXNXjXlXjXjXaXKXPXNXnXjXjXaXKXNXlXjXaXKXNXvXvXjXaXnXvXjXaXKXNX",
"nXjXjXjXjXaXKXKXlXjXaXnXnXjXjXaXSX#X) < & o o o o o @ @ @ @ * @ o & y :XDXNXnXjXjXjXaXKXPXPXPXNXnXbXaXk.r       X X X X O o X X X X r @XDXNXjXjXjXjXjXaXKXPXNXnXjXjXaXNXNXNXnXaXKXNXnXjXjXaXnXjXjXaXKXPX",
"NXNXvXjXjXaXNXKXNXjXaXnXvXjXjXaXKXNXuX$XO.< X X     . o o o o o X o y 0XHXNXnXjXjXjXaXKXPXPXPXNXvXgX%XY O       X X X X X X X X X X r @XDXNXjXvXNXlXjXaXKXNXNXNXlXjXaXKXNXnXjXvXKXNXnXjXjXaXnXjXjXaXKXPX",
"NXlXjXjXjXcXNXNXlXjXaXNXPXNXjXaXKXNXlXlXqX^.R $           X X X < | qXpXNXNXnXjXjXjXaXKXPXPXKXxXtX-Xv = & X     X X X X X X X X X X r @XDXnXjXlXjXjXjXaXKXNXNXNXvXjXaXKXNXjXjXaXKXPXNXjXjXaXnXjXjXaXKXPX",
"NXlXjXjXjXaXnXlXjXjXaXNXKXNXjXaXKXNXNXnXjXpXSX#X+X_ x O o X     y ].hXaXKXNXNXnXnXjXaXKXPXKXSX[ r < X   X X X X X X X X X X X X X X r +XDXnXjXjXvXjXjXaXKXNXNXnXjXjXaXKXNXjXjXaXKXPXNXjXjXaXnXjXjXaXKXPX",
"NXNXNXjXjXaXnXNXvXjXaXNXKXNXjXaXKXNXnXjXjXaXKXNXcXtX%.r o       y [.hXaXNXNXnXlXlXjXaXKXPXNXuX_ O                   X   X     X X o r ~.DXnXjXjXjXjXaXMXKXNXNXNXlXaXKXPXNXjXjXaXKXKXNXjXjXaXnXjXjXaXKXPX"
};
