/* XPM */
static char *a40c087242a04cefb217e95a85698a67[] = {
/* columns rows colors chars-per-pixel */
"100 100 252 2 ",
"   c #060D04",
".  c #351F06",
"X  c #032807",
"o  c #002F0C",
"O  c #003715",
"+  c #223229",
"@  c #343731",
"#  c #4C0700",
"$  c #4B3016",
"%  c #633626",
"&  c #004B07",
"*  c #005705",
"=  c #014714",
"-  c #005819",
";  c #006804",
":  c #007607",
">  c #006717",
",  c #007817",
"<  c #10741A",
"1  c #1B5123",
"2  c #2A4E31",
"3  c #007824",
"4  c #177028",
"5  c #287E2C",
"6  c #6B5D1E",
"7  c #77522C",
"8  c #465449",
"9  c #477B4A",
"0  c #536655",
"q  c #6A726B",
"w  c #872E0C",
"e  c #A82507",
"r  c #CE380F",
"t  c #94590C",
"y  c #B64B18",
"u  c #B26E1A",
"i  c #9E6A24",
"p  c #CD4A16",
"a  c #F05315",
"s  c #F67317",
"d  c #D46423",
"f  c #D27628",
"g  c #B35548",
"h  c #008806",
"j  c #008E0A",
"k  c #009A07",
"l  c #008C14",
"z  c #008518",
"x  c #009515",
"c  c #009C13",
"v  c #009A1B",
"b  c #00A905",
"n  c #01BA08",
"m  c #12BF0F",
"M  c #00A514",
"N  c #00AC14",
"B  c #00A41B",
"V  c #0DA718",
"C  c #00AB1A",
"Z  c #00B414",
"A  c #00BB13",
"S  c #0BB916",
"D  c #00B31B",
"F  c #00BB1B",
"G  c #008A29",
"H  c #009A24",
"J  c #009236",
"K  c #2C8B34",
"L  c #00A929",
"P  c #00B925",
"I  c #1AB629",
"U  c #00A532",
"Y  c #00B936",
"T  c #22B83A",
"R  c #01C807",
"E  c #00D608",
"W  c #00C414",
"Q  c #00CB13",
"!  c #00C41B",
"~  c #00CB1C",
"^  c #00D314",
"/  c #01DA14",
"(  c #06D51B",
")  c #00DD1D",
"_  c #16D818",
"`  c #2AD51C",
"'  c #00E20E",
"]  c #00EA08",
"[  c #03FA0A",
"{  c #01FE0D",
"}  c #00E413",
"|  c #00EC16",
" . c #00E31C",
".. c #01EA1B",
"X. c #01F313",
"o. c #0DF414",
"O. c #01FE13",
"+. c #0BFF15",
"@. c #00F41B",
"#. c #02FE1B",
"$. c #0AFF1B",
"%. c #17F116",
"&. c #17F815",
"*. c #13FF1D",
"=. c #1BFF1D",
"-. c #29F70C",
";. c #28FF16",
":. c #36FE19",
">. c #00C323",
",. c #00CA23",
"<. c #00C32D",
"1. c #00CC2D",
"2. c #0CCA28",
"3. c #1BC623",
"4. c #01D726",
"5. c #00C736",
"6. c #00CC32",
"7. c #01D637",
"8. c #30D838",
"9. c #00E223",
"0. c #00EA27",
"q. c #00E32B",
"w. c #19EB28",
"e. c #02F423",
"r. c #01FD23",
"t. c #0AFF24",
"y. c #07FB2A",
"u. c #01FD2C",
"i. c #14FF23",
"p. c #1BFE27",
"a. c #15FF2A",
"s. c #00E634",
"d. c #01FD33",
"f. c #03FA37",
"g. c #19FB32",
"h. c #26FE28",
"j. c #32F527",
"k. c #26FC32",
"l. c #38FF37",
"z. c #4DFF0D",
"x. c #46FF19",
"c. c #59FF15",
"v. c #61FF0D",
"b. c #77F90A",
"n. c #67FF16",
"m. c #7AFF17",
"M. c #46DA25",
"N. c #6AD629",
"B. c #44F92D",
"V. c #59FF25",
"C. c #54FB3C",
"Z. c #66FF24",
"A. c #78FF29",
"S. c #00B146",
"D. c #429348",
"F. c #4FB159",
"G. c #619263",
"H. c #79857A",
"J. c #6BBC6C",
"K. c #01DE4A",
"L. c #02FC44",
"P. c #05F04C",
"I. c #02F069",
"U. c #4DC74F",
"Y. c #49FD44",
"T. c #5EF759",
"R. c #9C931F",
"E. c #F98A2C",
"W. c #CDA623",
"Q. c #F2B42C",
"!. c #97FF0E",
"~. c #87E819",
"^. c #88FF16",
"/. c #97FE17",
"(. c #AAFF0D",
"). c #B8FF0E",
"_. c #AAFF18",
"`. c #B8FF16",
"'. c #89FF27",
"]. c #97FF25",
"[. c #87FF34",
"{. c #A6FF2A",
"}. c #B8FE26",
"|. c #A2FF32",
" X c #BBFF37",
".X c #DAC818",
"XX c #F6CE1C",
"oX c #CFFF0C",
"OX c #C8FF16",
"+X c #D7FF18",
"@X c #E3FF0D",
"#X c #FBFF07",
"$X c #FEFF0D",
"%X c #E3FF14",
"&X c #EAFF1A",
"*X c #F4FF15",
"=X c #FFFF14",
"-X c #F4FA1F",
";X c #FEFF1B",
":X c #DFCF23",
">X c #C5FF26",
",X c #DAFF27",
"<X c #C8FF37",
"1X c #D8FF34",
"2X c #E8FF26",
"3X c #F5FF23",
"4X c #FFFF23",
"5X c #F3FF29",
"6X c #FEFF2B",
"7X c #E7FF34",
"8X c #F2FB34",
"9X c #FFFF33",
"0X c #FDFF3B",
"qX c #BBB241",
"wX c #D2B853",
"eX c #E3AA41",
"rX c #EBAA41",
"tX c #ECB241",
"yX c #F5B241",
"uX c #FFB241",
"iX c #E8BA59",
"pX c #F4BA59",
"aX c #FFBA59",
"sX c #ABFF63",
"dX c #CDFF4C",
"fX c #FCFF44",
"gX c #C5C365",
"hX c #EAC365",
"jX c #F3C365",
"kX c #FFC365",
"lX c #7EB683",
"zX c #858A86",
"xX c #89968B",
"cX c #8F9891",
"vX c #959A95",
"bX c #9B9C9B",
"nX c #88A48B",
"mX c #97A899",
"MX c #9DB2A0",
"NX c #A9ADA9",
"BX c #A8B9AA",
"VX c #B9BCBA",
"CX c #BBC7BC",
"ZX c #C4C5C4",
"AX c #C6C9C7",
"SX c #C9CBCA",
"DX c #CDD2CE",
"FX c #CFD3D0",
"GX c #D7D9D7",
"HX c #E5E5E5",
"JX c #EBEDEC",
"KX c #F6F7F6",
/* pixels */
"aXkXrXuXuXuXaXkXrXuXuXaXkXkXrXuXuXuXaXrXuXuXaXaXaXkXkXrXuXuXuXuXuXaXkXrXuXuXaXaXkXkXrXuXuXuXaXaXkXrXuXuXaXaXkXkXrXuXaXaXaXaXkXrXuXuXuXaXkXrXuXaXaXaXkXkXrXuXuXaXkXkXrXuXaXaXkXkXrXuXuXuXaXaXkXrXuXuXuXuX",
"aXkXkXrXuXuXaXkXrXuXuXaXkXkXrXuXuXuXaXrXuXuXaXaXaXkXkXrXuXuXaXuXuXaXkXrXaXaXaXaXkXkXrXuXuXaXaXaXkXrXuXaXaXaXkXkXrXaXuXuXaXaXkXrXuXuXuXaXaXrXuXuXaXaXkXkXrXuXaXaXkXrXuXaXaXaXaXkXrXuXuXaXaXaXkXrXuXuXuXuX",
"aXkXkXaXaXaXaXkXrXuXuXaXkXkXrXuXuXuXaXrXuXuXaXaXaXkXrXuXaXuXaXaXuXaXkXrXuXuXaXaXkXkXrXuXuXuXaXaXkXrXuXaXaXaXkXkXrXaXuXaXaXaXkXrXuXaXaXaXaXrXuXaXaXaXkXrXuXuXaXaXaXrXuXuXaXaXkXrXrXuXuXaXaXaXkXrXuXuXuXuX",
"aXkXkXrXaXaXaXkXrXuXuXaXkXkXrXuXuXuXaXrXuXuXaXaXaXkXrXuXuXaXaXuXuXaXkXrXuXuXaXaXkXkXrXuXuXuXaXaXkXrXuXuXaXaXkXkXrXuXaXaXaXaXkXrXuXuXuXaXkXrXuXuXaXaXkXrXuXuXaXaXkXrXuXuXaXaXkXrXuXuXuXaXaXaXrXuXuXuXuXuX",
"aXkXkXrXuXaXaXkXrXuXuXaXkXkXrXuXuXuXaXrXuXuXuXaXaXaXrXuXaXaXuXaXuXaXkXrXuXuXaXaXkXkXrXuXuXaXaXaXkXrXuXaXuXaXkXkXrXuXuXaXaXaXkXrXuXuXuXaXkXrXuXaXuXaXkXrXuXuXaXaXkXrXuXuXuXaXkXrXuXuXuXuXaXaXrXuXuXuXuXuX",
"aXkXkXrXaXaXaXkXrXaXaXaXkXkXrXuXuXuXaXrXuXuXuXaXaXkXrXuXuXuXaXuXuXaXrXuXuXuXaXaXkXkXrXuXuXuXaXaXkXrXuXuXaXaXkXkXrXuXuXuXaXaXkXrXuXuXaXaXaXrXaXuXaXaXkXrXuXuXaXaXaXkXrXaXaXaXkXrXrXuXuXuXaXaXrXuXuXuXuXuX",
"aXkXkXrXuXaXaXkXrXuXuXaXkXkXrXuXuXaXaXrXuXuXaXaXaXaXrXuXuXaXuXuXaXaXrXuXuXuXaXaXkXkXrXuXuXuXaXaXkXrXuXaXaXaXaXkXrXaXuXaXaXaXkXrXuXuXuXaXkXrXuXuXaXaXkXrXuXuXaXaXkXkXrXuXuXaXaXkXrXuXuXuXaXaXrXuXuXuXuXuX",
"aXkXkXrXuXaXkXkXrXuXaXaXkXkXrXuXuXaXaXrXuXuXuXaXaXkXrXuXuXaXaXuXaXaXrXuXaXaXuXaXkXkXrXuXuXuXaXaXaXrXuXuXaXaXaXkXrXuXuXaXaXaXkXrXuXuXuXaXaXaXuXuXaXaXkXrXuXuXaXaXaXkXrXuXaXaXaXkXrXaXuXaXaXaXrXuXuXuXuXuX",
"aXkXkXrXuXaXkXkXrXaXaXaXaXrXrXuXuXaXaXrXuXuXuXaXaXkXrXuXuXaXuXuXaXaXrXuXuXuXuXaXkXkXrXuXuXaXaXaXkXrXuXaXaXaXaXkXrXuXuXaXaXaXkXrXuXaXaXaXkXrXuXuXaXaXkXrXuXuXuXaXaXkXrXuXuXaXaXaXrXuXaXaXaXaXrXuXuXuXuXuX",
"aXkXkXrXuXaXkXkXrXuXaXaXkXrXuXuXaXaXkXrXuXuXuXaXaXkXrXuXuXuXuXuXaXaXrXuXuXaXaXaXkXkXrXuXuXuXaXaXaXrXuXaXaXaXaXkXrXuXaXuXaXkXkXrXuXuXaXaXkXrXaXaXuXaXaXrXuXuXuXaXaXkXkXrXaXaXaXkXrXuXuXaXaXaXrXuXuXuXuXaX",
"aXkXkXrXuXaXkXrXrXuXaXaXkXrXuXuXaXaXrXuXuXuXuXaXaXkXrXuXuXaXaXaXaXaXrXuXuXaXaXaXkXkXrXuXuXuXaXaXaXrXuXuXaXaXaXkXrXuXuXaXaXkXkXrXuXuXuXaXkXrXuXuXaXaXkXkXrXuXaXaXaXkXkXrXuXuXaXkXrXuXaXaXaXaXrXuXuXuXuXaX",
"aXkXkXrXuXaXkXrXuXuXaXaXkXrXuXaXaXaXrXuXuXuXuXaXaXkXrXuXuXaXaXaXaXaXrXuXaXaXaXaXkXkXrXuXuXuXuXaXaXrXuXaXaXaXaXkXrXuXuXuXaXkXkXrXuXuXuXaXaXrXuXuXuXaXkXkXrXrXuXaXaXkXkXkXrXaXaXkXrXuXuXaXaXaXrXuXuXuXuXaX",
"aXkXkXrXuXaXkXrXuXuXaXaXkXrXuXuXaXaXaXuXuXuXaXaXaXkXrXuXuXuXaXuXaXaXrXuXaXaXaXaXkXkXrXuXuXuXaXaXaXrXuXuXaXaXaXkXrXuXaXaXaXkXkXrXuXuXuXaXaXrXuXuXuXaXkXkXrXrXuXaXaXaXkXkXrXaXaXkXrXuXaXaXaXaXrXuXuXaXuXaX",
"aXkXkXrXuXaXkXrXuXuXuXaXkXrXuXuXuXaXrXuXuXaXuXaXaXkXrXuXuXuXaXaXaXkXrXuXuXuXaXkXkXkXrXuXuXuXaXaXkXrXuXuXaXaXaXkXrXuXuXaXaXkXkXrXuXuXuXaXkXrXuXuXuXaXkXkXrXuXaXuXaXkXkXkXrXaXaXkXrXuXuXaXaXkXrXuXuXuXuXaX",
"aXkXkXrXuXaXkXrXuXuXuXaXkXrXuXuXaXaXrXuXuXaXuXaXaXkXrXuXuXaXuXaXaXkXrXuXuXuXaXkXkXkXrXuXuXaXaXaXkXrXuXuXaXaXaXkXrXaXaXaXaXkXkXrXuXuXaXaXaXrXuXuXuXaXkXkXrXuXuXuXaXaXkXkXrXaXaXaXrXuXuXaXaXkXrXuXuXuXuXaX",
"aXkXkXrXuXaXkXrXuXuXuXaXkXrXuXaXuXkXrXuXaXaXuXaXaXkXrXuXuXaXaXaXaXkXrXuXuXuXaXkXkXkXrXuXuXuXaXaXkXrXuXuXuXaXaXkXrXuXuXaXaXkXkXrXuXuXaXaXkXrXuXuXuXaXaXkXrXuXuXuXaXkXkXkXrXuXaXaXrXuXuXaXaXkXrXuXuXuXuXaX",
"aXkXkXrXuXaXkXrXuXuXuXaXkXrXuXuXuXkXkXuXaXaXaXaXaXkXrXuXuXaXaXaXaXkXrXuXuXaXaXkXkXkXrXuXuXuXaXaXkXrXuXuXaXaXaXkXrXuXaXaXaXkXkXrXuXuXuXaXaXrXuXuXuXaXaXkXrXuXuXaXaXkXkXkXrXuXuXaXrXuXuXaXaXkXrXuXuXuXuXaX",
"aXkXkXrXuXaXkXrXuXuXuXaXkXrXuXuXuXkXkXaXaXaXuXaXaXkXrXuXaXaXuXaXaXkXrXuXuXaXaXkXkXkXrXuXuXuXaXaXkXrXuXuXaXaXaXkXrXuXaXaXaXkXkXrXuXuXaXaXkXrXrXuXaXuXaXkXrXuXuXaXaXkXkXrXrXuXuXaXrXuXuXaXaXaXrXuXuXuXuXaX",
"aXkXkXrXuXaXkXrXuXuXuXaXkXrXuXuXuXkXrXuXaXaXuXaXaXkXrXuXuXaXaXaXaXkXrXuXuXaXaXkXkXkXrXuXaXaXaXaXkXrXuXuXaXaXaXkXrXuXuXaXaXkXkXrXuXuXaXaXaXkXrXaXaXaXaXkXrXuXuXaXaXkXkXrXuXuXuXaXrXuXaXaXaXkXrXuXuXuXaXaX",
"aXkXkXrXuXaXkXrXuXuXuXaXkXrXuXuXuXaXrXuXuXaXuXaXaXkXrXuXuXaXuXaXaXkXrXuXuXaXaXkXkXkXrXuXuXuXaXaXkXrXuXuXaXaXaXkXrXuXuXuXaXkXkXrXuXuXaXaXkXkXrXuXuXuXaXkXrXuXuXaXaXkXkXrXuXuXaXaXrXuXaXaXaXkXrXuXuXaXaXaX",
"aXkXkXaXuXaXkXrXuXuXuXaXkXrXuXuXkXaXrXaXaXaXaXaXaXkXrXuXuXaXaXaXaXkXrXuXaXaXaXkXkXkXrXuXuXuXaXaXkXrXuXuXaXaXaXkXrXuXaXaXaXkXkXrXuXaXaXaXkXkXrXuXuXaXaXkXrXuXuXaXaXkXkXrXuXuXaXaXaXuXuXaXaXkXrXuXuXaXaXaX",
"aXkXaXaXuXaXkXrXuXuXuXaXrXrXuXuXkXkXrXuXaXaXuXaXaXkXrXuXuXuXuXaXkXkXrXuXaXuXaXkXkXkXrXuXuXaXaXaXjXrXKXKXKXaXaXkXrXuXaXaXaXkXkXrXuXuXaXaXkXkXrXuXuXaXaXkXrXuXuXaXaXkXkXrXuXuXuXaXrXuXuXuXaXkXrXuXuXuXuXaX",
"aXkXkXrXaXaXkXrXuXuXuXaXrXuXuXuXkXaXrXuXuXaXaXaXkXkXrXuXuXaXaXaXkXkXrXuXuXuXaXkXkXkXrXuXuXuXGXCXk k M k k FXHXkXrXuXaXaXaXkXkXrXuXuXuXaXaXkXrXuXuXaXaXkXrXuXuXaXaXaXkXrXuXuXaXaXaXuXuXuXaXkXrXuXuXuXaXaX",
"aXkXkXaXuXaXkXrXuXuXuXaXrXuXuXuXkXaXrXuXaXuXaXaXkXkXrXuXuXaXuXaXkXkXrXuXuXaXaXkXkXrXrXuXuXSX3.R #.O.O.#.r.h U.HXrXuXuXuXaXkXkXrXuXuXaXaXkXkXrXuXaXaXaXkXrXuXuXaXaXkXkXrXuXuXaXaXrXuXuXuXaXkXrXuXuXuXaXaX",
"aXkXkXrXaXaXkXrXuXuXuXaXrXuXkXaXkXaXrXuXuXuXaXaXkXkXrXuXuXaXaXaXkXkXrXuXuXaXaXkXkXrXuXuXDX8.r.k.-.;.=.l.=.X.d.F.JXuXuXuXaXkXkXrXuXuXuXaXkXkXrXuXuXaXaXkXrXuXuXuXaXkXkXrXuXuXaXaXrXuXuXuXaXkXrXuXuXuXaXaX",
"aXkXkXrXuXaXkXrXuXuXuXaXrXuXuXkXaXkXrXuXuXuXaXaXkXkXrXuXuXuXaXaXkXkXrXuXuXuXaXkXkXrXuXGXR +.t.B.oXfXA.9X_.;.O.#.K uXuXaXaXaXkXrXuXuXaXaXaXkXrXuXuXaXaXkXrXuXuXuXaXkXkXrXuXuXaXaXrXuXuXuXaXkXrXuXuXuXaXaX",
"aXkXkXrXuXaXkXrXuXuXuXaXrXuXuXaXkXkXrXuXuXuXaXaXkXkXrXuXuXuXaXaXkXkXrXuXaXuXaXkXkXrXuX: h.=././.=X=XdX$X;Xc./.r.3.DXtXwXSXAXHXrXuXaXuXaXaXkXrXuXuXaXaXkXrXuXuXaXaXaXkXrXuXuXaXaXrXuXaXuXaXkXrXuXuXuXuXaX",
"aXkXkXrXuXaXkXrXuXuXaXaXrXuXuXuXkXkXrXuXuXuXaXaXkXkXrXuXuXuXaXaXkXkXrXuXtXcXvXvXZXrXBX_ h.+.3X%X6XfXfX#X;X%X2Xd.+.K q : E E J.vXuXuXaXaXaXkXrXuXaXuXaXkXrXuXuXuXaXkXkXrXuXuXaXaXkXaXaXaXaXkXrXuXuXuXuXaX",
"aXkXkXrXuXaXkXaXuXaXaXaXrXuXuXkXkXrXuXuXuXuXaXaXkXrXuXuXuXuXaXaXkXkXrXH.9 k 5.1.K FXq S *.x.3X4X6X;X^.$X4X=X6X(.O.M D P.e.O.f.K.H.uXuXaXaXkXrXuXuXaXaXkXrXuXuXaXaXkXkXrXuXuXaXaXkXrXaXaXaXkXrXuXuXuXuXaX",
"aXkXrXuXuXaXkXrXaXuXaXaXrXuXuXuXkXrXuXaXaXaXaXaXkXrXuXuXuXuXaXaXkXKXxXc R e.q.) ! z : $.#.,X;X4X=X$Xm.=X=X=X;X!.O.1.7.q.N d.u.N : nXyXaXaXkXrXuXuXuXaXkXrXuXuXaXaXkXkXrXuXuXaXaXkXrXuXaXaXkXrXuXuXuXuXaX",
"aXkXrXuXuXaXkXrXaXaXaXkXrXuXkXuXkXrXuXuXaXaXaXaXrXuXuXuXuXuXaXaXjXnXb O.d...C , A c D 9.O.|.4X4X=X=Xm.;X=X;X,XO.*.6., z Q ^ W C x j DXaXaXkXrXuXaXaXaXkXrXuXuXuXaXkXkXrXrXuXuXaXaXrXuXaXaXkXrXuXuXuXaXaX",
"aXkXrXuXuXaXkXrXaXaXaXkXrXuXuXuXkXkXuXuXaXaXaXaXrXuXuXaXaXaXaXkXhXG Y ! r.L.f.C v * C 7.l.l.*X$X$X6XA.4X;X;X,X#.^ , > c D 1.>.z > , FXaXaXkXrXuXaXaXaXkXrXuXuXuXaXkXkXkXrXuXaXaXkXaXuXaXaXkXrXuXuXuXaXaX",
"aXkXrXuXuXaXkXrXaXuXaXkXrXuXuXuXaXrXuXuXuXaXaXkXrXkXuXuXaXuXaXkXJX; L Z j 1.1.s.N M , D _ &.Z.4X=X[.Y.}.;X*X:.{ ~ , 9.O.{ #.+.O.X.mXJXpXaXkXrXuXuXaXaXkXrXuXuXuXaXaXkXkXrXuXuXaXaXrXaXuXaXkXrXuXuXaXaXaX",
"aXkXrXuXuXaXkXrXaXaXaXkXrXuXuXuXaXrXuXuXaXaXkXkXrXuXuXuXaXaXaXkXKXnXL e.#.f.u.) ! B C z W r.C.%X&XV.r.^.*XoX#.e.9.9.r.{ /.{.m.].{.~.b B GXkXrXuXaXaXaXkXrXuXuXuXaXaXkXkXrXuXuXaXkXrXuXuXaXkXrXuXuXuXaXaX",
"kXkXrXuXuXaXkXrXuXuXaXkXrXuXuXuXaXrXuXuXuXuXaXaXrXuXuXuXaXuXaXVXbXlX[ OX`.].+XOXe.} } / M ,.O.c.Z.t.O.O.^.-.e.0.O.V.1X+X4X;X&X5X;X3X[.OXU.bXrXuXaXaXaXkXrXuXuXaXaXaXkXkXrXuXuXaXkXrXuXuXaXkXrXuXuXuXaXaX",
"kXkXrXuXuXaXkXrXaXuXaXkXrXuXuXuXaXrXuXuXaXaXaXaXrXuXuXaXaXuXVXM.b.8X8X=X#X0X6X*X&X!.#.h.f.6.A #.O.l.y.a.#.@.>.D | ;.Z.v.Z.A.Z.%X=X4X3X$X,XC.F.JXuXaXaXkXrXuXuXuXaXaXaXkXrXuXuXaXkXrXuXuXaXkXrXuXuXaXaXaX",
"kXkXrXuXuXaXkXrXaXaXaXkXrXuXuXaXaXrXuXuXuXaXaXaXrXuXuXuXaXAXN.2X#X6X6X;X@X7XA.[.^.c.#.@.A ' e.4.@.l.7.#.@.N ^ { *.^.'.^.!.;X=X_.^.}.6X#X4X1Xx.0 uXaXaXkXrXuXuXuXuXaXaXkXrXuXuXaXaXrXuXuXaXkXrXuXuXuXaXaX",
"kXkXrXuXuXaXkXrXaXuXaXkXrXuXuXaXaXrXuXuXuXaXaXaXrXuXuXuXCXE '.5X;X0X6X>X`. X}.4X;X+X`.=.O.0.5.Z >.u.~ @.M c ..u.p.OX;X#X=X4X;X4X4X4X6XOX X7X].U.GXaXaXkXrXuXuXuXuXaXaXkXrXuXuXaXkXrXuXuXaXkXrXuXuXuXaXaX",
"kXkXkXrXuXaXkXaXaXuXaXkXrXuXuXaXkXrXuXuXuXuXaXkXrXuXuXVX8.O.{.6X^.>X;X&X=X;X;X;X4XOX^.o.W ! | | ,.F N N h ' 0.1.@.j.dX=X|.;X4X6X;X4X9X%XOXc.x.X.vXaXaXkXrXuXuXuXuXaXkXkXrXuXuXaXkXrXuXuXaXkXrXuXuXuXaXaX",
"kXkXkXrXuXaXrXrXaXuXaXkXrXuXaXaXkXrXuXuXuXkXkXkXrXuXSX4.l.O.:.x.^.;X6X4X=X;X9X*XOXh.X.A #.O.p._ ^ ~ c W ( W :.n.` ,.j.M.Y.3X5X0X*X;X3X&Xx.a.i.O.( SXaXkXrXuXuXaXuXaXaXkXrXuXuXaXkXrXuXuXaXkXrXuXuXuXaXaX",
"kXkXkXrXuXaXrXuXuXuXaXkXrXaXaXaXkXrXuXuXuXuXaXkXrXuXBX] { +.i.;.$X4X4X=X=X2X+X-.X.' Q O.n._.j._ h.O.! #.O./.N.-X).!.I 8.i.{ #.).c.+X^.O.i.h.O.O.R SXaXkXrXrXuXuXuXaXkXkXrXuXuXaXkXrXuXuXaXkXrXuXuXuXaXaX",
"kXkXkXrXuXaXrXuXuXuXaXkXrXaXaXaXkXrXuXuXuXuXaXkXrXtXb #.#.X.w.&.).=XoX#X(.m.{ F ^ 4.=.OX&X>XT.`.*.u.! O._.6X}.b.*XfXsXB.m Q .. .O.#.O.{ +.[ { O.k ZXaXkXkXrXuXuXaXaXkXkXrXuXaXaXaXrXuXuXaXaXrXuXuXaXaXaX",
"kXkXkXrXuXaXrXuXuXuXaXkXrXuXuXaXkXrXuXuXuXuXaXkXrXtX< ..@.3.h.{ h.n.:.v.t.O.^ %.B.>X2X=XOXC.7X#X|.u.Z #.dX6X$X(.Z.fX9X!.%.D C D ! u.A e.#.O.O.2.vXuXaXkXkXrXuXuXuXaXkXkXrXuXuXaXaXrXuXuXaXaXrXuXuXuXaXaX",
"kXkXkXrXuXaXrXuXuXuXaXkXrXuXaXaXkXrXuXuXuXuXaXkXrXuXZXR Z #.$.{ t... .O.y.) @.V.5X4X;XoXx.2X;X4XsXk.4.#.>X;X=X4X|.A.=X4X/.e.v l C B j 0.@.) c cXuXaXaXaXkXrXrXuXaXaXkXkXrXuXuXaXaXrXuXaXaXaXrXuXuXuXaXaX",
"kXkXrXuXuXaXrXuXuXuXaXkXrXuXuXaXkXrXuXaXaXuXaXkXrXuXHXG.F } #.{ q.W D / P | r.}.1X4X=Xz.,X4X;X1XL.S ,.=.r.3X;X6X4X}.,X4X;X{.@.C = , j P c F l AXuXaXaXaXkXkXrXuXuXaXaXkXrXuXaXaXaXrXuXuXaXaXrXuXuXuXaXaX",
"kXkXrXuXuXaXrXuXuXuXaXkXrXuXuXaXkXrXuXaXaXaXaXkXrXuXuXtX9 M 4.s.<.L U U 1.f.<X=X;X$X(.%X=X=X].b.{ A Z r.t./.#X=X=X;X>X@X0X&X| Z , G U <.9.5.6.T qXuXaXaXkXkXrXuXaXaXkXkXrXuXuXuXaXrXuXuXaXaXaXuXuXuXaXaX",
"kXkXrXaXaXaXrXuXuXuXaXkXrXuXuXaXkXrXaXuXaXaXaXkXrXuXuXKX0 z x P , > > >.;.}.;X;X4X).&X=X4X4X&Xp.w.6.U ) O.%X=X0X4X=X,X1X6X#X).@.! C D z ! e.4.l cXaXaXaXkXkXrXaXaXaXkXkXrXkXuXkXaXrXuXuXaXaXrXuXuXuXaXaX",
"aXkXrXaXaXaXrXuXuXuXaXkXrXuXuXaXkXrXuXuXaXaXaXkXrXuXuXvX, F Z B z G <.r.^.9X4X;X&X;X=X=X;X;XoX+.{ ! & R O.:.2X4X=X;X6X@X=X;X`.#.$.^ #.#.<.s.r.#.b SXuXaXkXkXrXaXaXaXaXkXrXuXaXkXaXrXuXuXuXaXrXuXuXuXaXaX",
"aXrXuXaXuXaXrXuXuXuXaXkXrXuXuXaXkXrXuXuXaXaXaXkXrXuXiXq v L.Q L 6.5.1.g.[.9X4X).+X4X$X;X;XOX;.{ | >.> ) $.#.Z.(.*X6X9X+X X5Xm.O.Y.' >.d.d.d.u.d.0.nXpXaXkXkXrXuXaXaXkXkXrXuXuXaXkXrXuXuXaXaXrXuXuXuXaXaX",
"aXrXaXaXuXaXrXuXuXaXaXkXrXuXuXaXkXrXuXuXuXaXaXkXrXuXSX; 0.q.W I.<.P ' T.'.4X(.n.fX9X=X8X<X^.#.#.9.H , 1.e.l.a.O.%X;X=X=XZ.n.O.h.k.{ I.7.r.O.P.d.,.: iXaXkXkXrXuXaXaXaXkXrXuXkXkXaXrXuXuXuXaXrXuXuXuXaXaX",
"aXrXuXaXuXaXrXuXuXuXaXkXrXuXuXaXkXrXuXuXuXaXaXkXrXuXSXh  .P f.e.N / { +.O.).b.-X4X;X4X+XO.&.t.K.M 3 G L 9.a.e.{ ;.Z.&X/.$.p.$.$.i.7.<.M Z [ O.z x * iXaXkXkXrXuXuXaXaXaXrXuXaXaXaXrXuXaXaXaXrXuXuXaXaXaX",
"aXrXuXaXuXaXrXuXaXaXaXkXrXuXuXaXkXrXuXuXuXaXaXkXrXuXSX; * u.X.Z A *.h.$.O.#.h.oX=X$XoX{ { / 0.c & 3 > , N ^ / { a.t.#.O.O.*.O.{ k.O.} N > ,...M = * JXaXkXkXrXuXuXaXaXkXrXuXuXkXaXrXuXuXaXaXrXuXuXaXaXaX",
"aXrXrXaXuXaXrXuXaXaXaXkXrXuXuXaXkXrXuXuXuXaXkXkXrXuXSX& B ~ ! z ,.g.g.+.t.k.k.;././.:.{ $.d.6.: = - G l D j O.$.#.p.*.l.*.$.a.$.#.#.#.,.Y 6.M P L BXKXaXaXkXrXuXuXaXaXaXrXuXaXkXaXrXuXaXaXaXrXuXuXaXaXaX",
"aXkXrXaXuXaXrXuXuXaXaXkXrXuXuXaXkXrXuXuXaXaXkXkXrXuXKXmX4 D L x 1.) O.O.d.$.+.h.#.a.g.+.t.r.D : = B > l l M r.{ $.=.#.i.+.k.Y.t.#.a.#.d.D C c <.1 SXaXaXkXkXrXuXuXaXaXkXrXuXuXkXaXrXuXaXaXaXrXuXuXuXaXaX",
"aXkXaXuXuXaXrXuXuXaXaXkXrXuXuXaXkXrXuXuXaXaXkXkXrXuXuXaXbXcXcXD.Z #.#.#.O.$.O.$.e.4.&.*.{ @.c - H P J 5.z D X.#.#.p.@.O.i.h.k.{ #.r.#.O.N c B 1 VXuXaXaXkXkXrXuXuXaXaXkXrXuXuXkXaXrXuXuXaXaXrXuXaXaXaXaX",
"aXkXrXaXuXaXrXuXuXaXaXkXrXuXuXaXkXrXuXaXaXaXkXkXrXuXaXaXaXaXkXH.q.#.O.O.a.#.O.=.*.! h.O.X.,.> Y 4.6.S.P l z F e.#.) @.r.$.h.{ O.t.@.^ u.N     ZXuXuXuXaXaXkXrXuXaXaXaXkXrXuXuXaXaXrXuXuXkXkXrXuXuXuXuXaX",
"aXkXrXuXaXaXrXuXaXaXaXkXrXuXuXaXkXrXuXuXaXaXkXkXrXuXuXuXuXaXaXH.#.O.O.O.$.O.#.*.t.! 4.@.M , x Z O.Z v n A B ; ^ O.~ #.#.#.a.r.r.#.{ X.F H.iXhXrXuXaXaXaXaXkXrXuXaXaXaXkXrXuXaXaXaXrXuXuXkXaXrXuXuXuXuXaX",
"aXkXrXuXuXaXrXuXuXuXaXkXrXuXaXaXkXrXuXuXaXaXkXkXrXuXuXaXuXaXaXH.O.' ..O.O./ ..O.u.^ M h z B D q.r.! 7.9.u.! * L >.,.r.r.u.@. .O.O.O.O.V vXaXkXrXuXuXaXaXaXkXrXuXuXaXaXkXrXuXuXaXaXrXuXkXkXaXrXuXuXuXuXaX",
"kXkXrXuXuXaXrXuXuXaXaXkXrXaXaXaXaXrXuXuXaXaXkXkXrXuXuXuXuXuXaXH.q.Q O.O.u./ X.O.#.~ l bX; B N r.#./ M ~ r.{ N Y z h n  .O...^ { O.#.n NXuXaXkXrXuXuXaXaXaXkXrXuXaXaXaXkXrXuXuXaXaXrXuXuXkXkXrXuXuXuXuXaX",
"kXkXrXuXuXaXrXuXuXaXaXkXrXuXaXaXkXrXuXaXaXaXaXkXrXuXaXaXuXuXaXGXK W O.d.u.} W e.1.* ZXmXY v  .u.{ { C 0.#.Q P Y 4 FXBX* k ~ b X.O.b BXaXuXaXkXrXuXuXaXuXaXkXrXuXaXaXaXkXrXuXuXuXaXrXuXuXkXaXrXuXuXuXaXaX",
"kXkXrXuXuXaXrXuXuXaXaXkXaXuXaXaXkXrXuXuXaXaXaXkXrXuXuXaXaXuXaXkXHX5 } f.] Z N D.mXrXuX2 - l e.u.{ L.1.d.r.X.x v = zXuXJXJX8 8 9 9 MXuXuXuXaXkXrXuXaXaXuXaXkXrXaXaXaXaXkXrXuXuXaXaXrXuXkXkXaXrXuXuXaXaXaX",
"kXkXrXuXuXaXrXuXuXaXkXkXrXuXuXaXkXrXuXaXaXaXaXkXrXuXuXuXuXuXaXkXrXGXxXzXzXzXzXKXkXrXuX+ 3 B ..) #.O.K.O.O.} x >.> q uXuXuXaXaXaXrXuXuXuXuXaXkXrXaXuXaXuXaXkXrXuXuXuXaXkXrXuXkXkXaXrXuXuXaXaXaXuXuXuXuXaX",
"kXkXrXuXuXaXrXuXuXaXkXkXrXuXuXaXkXrXuXuXaXaXaXkXrXuXuXuXaXuXaXkXrXuXuXuXuXaXkXkXkXrXuXO H x F | r.L.P.{ r.c P 1.> q uXuXuXaXaXkXrXuXuXuXaXaXkXrXuXuXaXuXaXkXrXuXaXaXaXkXrXuXuXkXkXrXuXaXaXaXrXuXuXuXaXaX",
"kXkXrXuXuXaXrXuXuXaXkXkXrXuXuXaXkXrXuXuXaXaXaXkXrXuXuXaXuXuXaXkXrXuXaXaXaXaXkXkXkXrXuXDX; j >.P d.u.R { 9.c P l 1 eXuXaXaXaXaXkXrXuXuXuXaXaXkXrXuXaXaXuXaXkXrXuXaXaXaXkXrXuXaXkXaXrXuXuXuXaXrXuXuXuXuXaX",
"kXkXrXuXuXaXrXuXuXaXkXkXrXuXuXaXkXkXrXaXaXaXaXkXrXrXuXuXuXuXaXkXrXuXuXuXaXaXkXkXkXrXuXJX8 L B v C j M c M > B ; 0 rXuXuXuXaXaXkXrXuXuXaXaXkXkXrXuXaXaXuXaXkXrXuXuXaXaXkXrXuXkXkXaXrXuXuXaXaXrXuXuXaXaXaX",
"kXkXrXuXuXaXrXuXuXaXkXkXrXuXuXaXkXkXrXuXaXaXaXkXkXrXuXuXuXuXaXkXrXuXuXuXaXaXkXkXkXrXuXaXZX* 3 P M c > D M D > q jXrXuXaXuXaXaXaXrXuXuXaXaXkXkXrXuXuXaXaXaXkXrXuXuXaXaXkXrXuXaXkXaXrXuXaXaXaXrXuXuXaXaXaX",
"kXkXrXuXuXaXrXuXuXaXkXkXrXuXuXaXkXkXrXuXaXaXaXkXkXkXrXuXuXaXaXkXrXuXuXaXaXaXkXkXkXrXuXuXZXo = : j H 3 v D z X ZXkXrXuXuXuXaXaXkXrXuXaXaXaXaXkXrXuXuXuXaXaXkXrXuXaXaXaXkXrXuXuXaXkXrXuXuXaXaXrXuXuXaXaXaX",
"kXkXrXuXuXaXrXuXuXaXkXkXrXuXuXaXaXkXrXuXaXuXaXkXkXkXrXuXuXaXaXkXkXrXuXuXuXaXkXkXkXrXuXJXg w X = = G J > > o . 8 hXrXuXuXuXaXaXkXrXuXuXaXaXkXrXuXuXuXaXaXaXkXrXuXuXaXaXkXrXuXuXkXaXrXuXuXuXkXkXuXuXuXuXaX",
"kXkXrXuXuXaXrXuXuXaXaXkXrXuXuXaXaXkXrXuXuXuXaXkXkXkXrXuXuXaXaXkXkXrXuXuXaXaXkXkXkXrXuXHX# $ 7 % $ O O O o w a # HXrXuXuXuXaXkXkXrXuXaXaXaXkXrXuXuXuXaXaXaXaXrXuXaXaXaXkXrXuXuXaXaXrXuXuXuXkXkXuXuXuXuXaX",
"kXkXrXuXuXaXrXuXuXaXaXkXrXuXuXaXaXkXrXuXuXuXaXkXkXkXrXuXaXaXaXkXkXrXuXuXaXaXkXkXkXrXuXNXe d p s .Xu X X e a Q.w NXrXuXuXuXaXkXkXrXuXuXaXaXkXrXuXuXuXaXuXaXkXrXuXuXaXaXkXrXuXuXaXaXrXuXuXuXkXkXuXuXuXuXaX",
"kXkXrXuXuXaXrXuXuXuXaXkXrXuXuXuXaXkXrXuXuXuXaXkXkXkXrXuXuXaXaXaXkXrXuXuXuXaXkXkXkXrXuXwX6 f .Xt R.i f i .XXXR.t gXrXuXuXaXaXaXkXrXuXuXaXaXkXrXuXuXuXuXaXaXkXrXuXaXaXaXkXrXuXuXaXaXrXuXuXuXaXrXuXuXuXuXaX",
"kXkXrXuXuXaXrXuXuXuXaXkXrXuXuXuXaXkXrXuXuXuXaXaXkXkXrXuXuXuXaXkXkXrXuXuXuXaXkXkXkXrXuXaXVX. s f y E.Q.s i 6 p @ hXrXuXuXuXaXkXkXrXuXuXaXaXkXrXuXuXuXuXaXaXkXrXuXuXaXaXkXrXuXaXaXaXrXuXuXkXkXrXuXuXuXuXaX",
"kXkXrXuXuXaXrXuXuXuXaXkXrXuXuXaXaXkXrXuXuXuXaXaXkXkXrXaXaXaXaXaXkXrXuXaXaXaXkXkXkXrXuXaXwX8 2 u W.f :XXXy r X gXkXrXuXuXuXaXaXaXrXuXuXaXaXkXrXuXuXuXaXaXaXkXrXuXuXaXaXkXrXuXaXaXaXrXuXaXaXkXrXuXuXuXaXaX",
"kXkXrXuXuXaXrXuXuXuXaXkXrXuXuXaXaXkXrXuXuXuXaXaXkXkXrXuXuXuXaXaXkXrXuXuXaXaXkXkXkXrXuXuXiXZX@ u Q.f $ w w   q hXkXrXuXuXuXaXaXkXrXuXaXaXaXkXrXuXuXuXuXaXaXkXrXuXuXuXaXkXrXuXuXaXaXrXuXaXaXkXrXuXuXuXuXaX",
"aXkXrXuXuXaXrXrXuXuXaXkXrXuXuXuXaXkXrXuXuXuXaXaXkXkXrXuXaXaXuXaXkXrXuXuXaXaXkXkXkXrXuXuXyXaXiX+ % 7 @ @ + iXjXkXkXrXuXaXuXaXaXkXrXuXuXaXaXkXrXuXuXuXuXaXaXkXrXuXaXuXaXaXrXuXuXaXkXrXuXaXaXaXrXuXuXuXuXaX",
"aXkXrXuXuXaXkXrXaXuXaXkXrXuXuXaXaXkXrXuXuXuXuXaXkXkXrXuXuXuXuXaXkXrXuXuXuXaXkXkXkXrXuXuXuXaXaXkXkXbXuXuXaXaXkXkXkXrXuXuXaXaXkXkXrXuXuXaXaXkXrXuXuXuXuXaXaXkXrXuXaXaXaXkXrXuXuXaXkXrXaXaXaXaXrXuXuXuXuXaX",
"aXkXrXuXuXaXaXrXaXuXaXkXrXuXuXuXaXkXrXuXuXuXuXaXkXkXrXuXuXaXaXaXkXrXuXuXuXaXkXkXkXrXuXuXuXuXaXkXkXrXuXuXuXaXkXkXkXrXuXuXuXaXkXkXrXuXaXaXaXkXrXuXuXuXaXaXaXkXrXaXaXaXaXkXrXuXuXaXaXrXuXuXuXaXrXuXuXuXuXaX",
"aXkXrXuXuXaXkXrXaXaXaXkXkXrXuXaXaXkXrXuXuXuXuXaXkXkXrXuXaXaXuXaXkXrXuXuXaXaXkXkXkXrXuXuXaXaXaXkXkXrXuXuXuXaXkXkXkXrXuXuXuXaXkXkXrXuXuXuXaXkXrXuXuXuXuXaXkXkXrXuXuXaXaXkXrXuXaXaXkXrXuXuXuXaXrXuXuXuXuXaX",
"aXkXrXrXuXaXkXaXuXuXaXkXkXrXuXuXuXaXrXuXuXuXuXaXkXkXrXuXuXaXuXaXkXrXuXaXaXaXkXkXkXrXuXuXaXaXaXkXkXrXuXuXuXaXkXkXkXrXuXuXuXaXaXkXrXuXuXuXaXkXrXuXuXuXuXaXkXkXrXuXaXaXaXkXrXuXaXaXrXuXuXuXuXaXrXuXuXuXuXaX",
"aXkXkXrXuXaXaXrXuXuXaXkXkXrXuXuXuXaXrXuXuXuXuXaXkXkXrXuXaXaXuXaXkXrXuXaXuXaXkXkXkXrXuXuXuXaXaXkXkXrXuXuXuXaXkXkXkXrXuXuXaXaXaXkXrXuXuXuXaXkXrXuXuXuXuXaXaXkXrXuXaXuXaXkXrXuXaXkXrXuXuXuXaXaXrXuXuXuXuXaX",
"aXkXkXrXuXaXaXrXuXuXaXkXkXkXrXuXuXaXrXuXuXaXaXaXkXkXrXuXuXuXaXaXkXrXuXuXaXaXkXkXkXrXuXuXuXaXaXkXkXrXuXaXaXaXkXkXkXrXuXuXaXaXaXkXrXuXuXuXaXkXrXuXuXuXuXaXaXkXrXuXaXaXaXkXrXuXaXkXrXuXuXuXaXaXrXuXuXuXuXaX",
"aXkXkXrXuXuXaXrXuXuXaXkXkXkXrXuXuXaXrXuXaXaXaXaXkXkXrXuXuXaXaXaXkXrXuXaXaXaXkXkXkXkXrXuXaXaXaXkXkXrXuXuXaXaXkXkXrXrXuXuXuXaXkXkXrXuXuXuXaXkXrXuXuXuXuXaXkXkXrXuXaXuXaXkXrXuXaXrXuXuXuXaXaXaXaXuXuXuXaXaX",
"aXkXkXrXuXuXaXrXuXuXaXkXkXkXrXaXaXaXrXuXaXuXuXaXkXkXrXuXuXuXuXaXkXrXuXuXaXaXkXkXkXkXrXuXuXaXaXkXkXrXuXuXuXaXkXkXrXuXuXuXuXaXkXkXrXuXuXuXaXkXrXuXuXuXaXaXkXkXrXuXaXaXaXkXrXuXaXrXuXuXuXuXaXaXrXuXuXuXuXaX",
"aXkXkXrXuXuXaXrXuXaXaXaXkXkXrXuXuXaXrXuXaXuXuXaXkXkXrXuXaXaXuXaXkXrXuXaXaXaXaXkXkXkXrXuXuXaXaXkXkXrXuXuXaXaXkXkXrXuXuXuXuXaXkXkXrXuXuXuXaXkXrXuXuXuXaXaXkXkXrXaXaXaXaXkXrXuXaXrXuXuXuXuXaXaXrXuXuXuXuXaX",
"aXkXkXrXuXuXaXrXuXaXaXaXkXkXrXuXaXaXrXuXuXaXuXaXkXkXrXuXaXaXaXaXkXrXuXuXaXaXaXkXkXkXrXuXaXaXaXkXkXrXuXaXaXaXkXkXrXuXuXuXuXaXaXaXrXuXaXaXaXkXrXuXuXaXuXaXkXkXrXuXaXaXkXkXrXuXaXrXuXuXuXuXaXaXrXuXuXuXuXaX",
"aXkXkXrXuXuXaXrXuXuXaXaXkXkXrXuXuXaXrXaXaXaXuXaXkXkXrXuXuXaXuXaXkXrXuXuXuXaXaXkXkXkXrXuXuXaXaXkXkXrXuXuXaXaXkXkXrXuXuXuXaXaXkXkXrXaXuXaXaXkXrXuXuXuXaXaXkXkXrXuXaXaXkXkXrXuXaXrXuXuXuXaXaXkXrXuXuXuXuXaX",
"aXkXkXrXuXaXaXrXuXaXaXaXkXkXrXaXaXaXrXuXuXuXuXaXkXkXrXuXuXaXuXaXkXrXuXuXaXaXaXkXkXkXrXuXuXaXaXkXkXrXuXuXaXaXkXkXrXuXuXuXaXaXkXkXrXuXaXaXaXkXrXuXuXuXaXaXkXkXrXaXaXaXaXkXrXuXaXrXuXuXaXuXaXkXrXuXuXuXuXaX",
"aXkXkXrXuXuXaXrXuXuXuXaXkXkXrXuXuXaXkXrXaXaXuXaXkXkXrXuXuXuXuXaXkXrXuXuXaXaXaXkXkXkXrXuXuXaXaXkXkXrXuXuXuXaXaXkXrXuXuXaXaXaXkXkXrXuXaXaXaXkXrXuXuXuXaXaXkXkXrXaXaXaXkXkXrXuXaXrXuXuXaXuXaXkXrXuXuXuXaXaX",
"aXkXkXrXuXaXaXrXuXuXuXaXkXkXrXuXuXaXkXrXaXaXaXaXkXkXrXuXuXuXuXaXkXrXuXuXaXaXaXkXkXkXrXuXuXaXaXkXkXrXuXaXaXaXkXkXrXuXuXaXaXaXkXkXrXuXaXaXkXkXrXuXuXaXaXkXkXkXrXuXaXaXaXkXrXuXaXrXuXaXaXuXaXkXkXrXuXuXuXaX",
"aXkXkXrXaXaXaXrXuXuXuXaXkXkXrXuXuXaXkXrXuXaXuXaXkXkXrXuXuXuXuXaXkXrXrXuXuXuXaXaXkXkXrXuXuXaXaXkXkXrXuXuXaXaXkXkXrXuXuXaXaXaXaXrXuXuXuXaXkXkXrXuXuXaXaXkXkXrXrXuXuXaXkXkXrXuXaXrXuXaXaXaXaXkXkXrXuXuXaXaX",
"aXkXkXrXuXaXaXkXrXuXuXaXkXkXrXuXuXaXkXrXuXaXuXaXaXkXrXuXuXaXuXaXkXkXrXuXuXaXaXkXkXkXrXaXuXaXaXkXkXrXuXaXaXaXkXkXrXuXaXaXaXaXkXrXuXuXuXaXaXkXrXuXaXaXaXkXkXrXuXuXaXaXkXkXrXuXaXrXuXaXuXuXaXkXkXrXuXuXaXaX",
"aXkXkXrXuXaXaXkXrXuXuXaXkXkXrXuXuXaXkXrXuXuXaXaXaXkXrXuXuXaXuXaXkXkXrXuXuXuXaXkXkXkXrXuXuXaXaXaXkXrXuXuXuXaXkXkXrXuXuXaXaXaXkXrXuXuXuXaXkXkXrXuXuXaXaXkXkXrXuXaXuXaXkXrXuXuXaXrXuXuXuXuXaXkXkXrXuXuXaXaX",
"aXkXkXrXuXuXaXkXrXuXuXaXkXkXrXuXuXaXaXrXuXaXuXuXaXkXrXuXuXuXaXuXaXkXrXuXuXuXaXkXaXkXrXuXaXaXaXaXkXrXuXuXuXaXkXkXrXuXuXuXaXaXkXrXuXuXuXaXkXkXrXuXuXaXaXaXkXrXaXaXaXaXkXrXuXuXaXrXuXuXuXaXaXkXkXrXuXuXaXaX",
"aXkXkXrXuXuXaXkXrXuXuXaXkXkXrXuXuXaXaXrXaXuXaXuXaXkXrXuXuXaXaXuXaXkXrXuXuXaXaXkXkXkXrXuXuXaXaXaXkXrXuXuXaXaXkXkXrXuXuXuXaXkXkXrXuXuXuXaXkXkXrXuXuXaXaXkXkXrXuXaXaXaXkXrXuXuXaXrXrXuXaXuXaXkXkXrXuXuXaXuX",
"aXkXkXrXuXuXaXkXrXuXuXaXkXkXrXuXuXuXaXrXuXaXaXuXaXkXrXrXuXuXuXaXaXkXrXuXuXaXaXaXkXkXrXuXuXaXuXaXkXrXuXaXaXaXaXkXrXuXuXuXaXaXkXrXuXuXuXaXaXkXrXuXuXaXaXkXkXrXaXaXaXaXkXrXuXuXaXkXrXuXuXaXaXkXkXrXuXaXaXuX",
"aXkXkXrXuXuXaXkXrXuXuXaXkXkXrXuXuXaXaXrXuXuXaXaXaXkXkXrXuXuXaXaXaXkXrXuXaXuXaXaXkXkXrXuXuXaXaXaXkXrXuXuXaXaXkXkXrXuXuXuXaXkXkXrXuXaXaXaXaXkXrXuXaXaXaXkXkXrXuXaXaXkXkXrXuXaXaXkXrXuXuXaXaXkXkXrXuXuXaXuX",
"aXkXkXrXuXuXaXkXrXuXuXaXkXkXrXuXuXuXaXrXuXuXaXuXaXkXkXrXuXuXaXaXaXkXrXuXaXaXaXkXkXkXrXuXuXaXuXaXkXrXuXuXaXaXaXkXrXuXuXaXaXkXkXrXuXuXaXaXkXkXrXuXaXaXaXkXkXrXuXaXaXkXrXrXuXaXaXkXrXuXaXaXaXkXkXrXuXuXuXuX",
"aXkXkXrXuXuXaXkXrXuXuXaXkXkXrXuXuXuXaXrXuXuXaXuXaXkXkXrXuXuXuXuXaXkXrXuXuXuXaXaXkXkXrXuXuXuXuXaXkXrXuXuXaXaXkXkXrXuXuXaXaXkXkXrXuXuXuXaXkXrXrXuXaXaXaXkXrXrXuXuXaXkXrXuXaXaXaXkXrXuXuXaXaXkXkXrXuXuXuXuX",
"aXkXrXrXuXuXaXkXrXuXuXaXkXkXrXuXuXaXaXrXuXuXuXuXaXkXkXrXuXuXuXuXaXkXrXuXuXuXaXkXkXkXrXuXaXaXaXaXkXrXuXuXaXaXkXkXrXuXuXaXaXkXkXrXuXuXuXaXkXrXuXuXuXaXaXkXrXuXuXaXaXkXrXuXaXaXkXkXrXuXuXaXaXkXkXrXuXuXuXaX",
"aXkXrXuXuXuXaXkXrXuXuXaXkXkXrXuXuXuXaXrXuXuXaXuXaXaXkXrXuXuXuXuXaXkXrXuXuXuXaXaXkXkXrXuXaXuXaXaXkXrXuXuXuXaXaXkXrXuXaXaXaXkXkXrXuXuXuXaXkXrXuXuXaXaXkXkXrXuXuXaXaXkXrXuXuXaXkXkXrXuXuXuXaXkXkXrXuXuXuXaX"
};
