/* XPM */
static char *_0396718bed2412aedd88ca4c3ef2242ajUos0yYwPk9yOMn[] = {
/* columns rows colors chars-per-pixel */
"100 100 256 2 ",
"   c #05021E",
".  c #0A031D",
"X  c #18091C",
"o  c #2D131D",
"O  c #050221",
"+  c #0A0626",
"@  c #12132F",
"#  c #2F0C2C",
"$  c #09263B",
"%  c #163031",
"&  c #322B34",
"*  c #51151B",
"=  c #68191A",
"-  c #572519",
";  c #772819",
":  c #4E0C2F",
">  c #6E0C33",
",  c #512D32",
"<  c #723030",
"1  c #194A37",
"2  c #2F4D34",
"3  c #396738",
"4  c #714D32",
"5  c #635832",
"6  c #4C7238",
"7  c #182848",
"8  c #093649",
"9  c #113451",
"0  c #2F324C",
"q  c #212852",
"w  c #4F354E",
"e  c #72304D",
"r  c #642655",
"t  c #0A4857",
"y  c #134B55",
"u  c #2E4C53",
"i  c #346C4D",
"p  c #11536C",
"a  c #2C546C",
"s  c #116A70",
"d  c #177878",
"f  c #326B75",
"g  c #504C54",
"h  c #6F5054",
"j  c #4F724B",
"k  c #726D52",
"l  c #4F566D",
"z  c #70546B",
"x  c #516B73",
"c  c #706E72",
"v  c #84191C",
"b  c #902D18",
"n  c #AE3213",
"m  c #8C1037",
"M  c #AC0937",
"N  c #8E3130",
"B  c #AC3629",
"V  c #CA3A0A",
"C  c #CA1739",
"Z  c #914D1D",
"A  c #B14D19",
"S  c #91661B",
"D  c #B26B1C",
"F  c #91512D",
"G  c #AF532E",
"H  c #936A32",
"J  c #B96728",
"K  c #B97727",
"L  c #A96737",
"P  c #AB6E32",
"I  c #B87738",
"U  c #CF4E11",
"Y  c #C95817",
"T  c #F35206",
"R  c #D16D18",
"E  c #EE7410",
"W  c #C6542F",
"Q  c #C66926",
"!  c #CF742D",
"~  c #C67936",
"^  c #EC742B",
"/  c #8F1146",
"(  c #9A1745",
")  c #A71847",
"_  c #B2114B",
"`  c #902D4F",
"'  c #B02E52",
"]  c #913765",
"[  c #B43567",
"{  c #CF1751",
"}  c #E4165C",
"|  c #C72858",
" . c #D02F59",
".. c #EA295A",
"X. c #D3346A",
"o. c #E92867",
"O. c #F0346E",
"+. c #8D4F50",
"@. c #AF4E4E",
"#. c #926F4F",
"$. c #AF714C",
"%. c #8F516C",
"&. c #B3516D",
"*. c #8E6F6C",
"=. c #B0706F",
"-. c #CF4F52",
";. c #CB7350",
":. c #E56453",
">. c #D04E70",
",. c #EC4E72",
"<. c #F84776",
"1. c #CD6F70",
"2. c #EB6B73",
"3. c #578A3C",
"4. c #238578",
"5. c #568849",
"6. c #63915F",
"7. c #728B76",
"8. c #A68C2C",
"9. c #B48833",
"0. c #D68F1A",
"q. c #F78807",
"w. c #F69709",
"e. c #E98F16",
"r. c #F58917",
"t. c #F59618",
"y. c #F3AC0F",
"u. c #F6A917",
"i. c #F6B418",
"p. c #D88528",
"a. c #C88739",
"s. c #D19332",
"d. c #EC8E2A",
"f. c #F59828",
"g. c #F49A34",
"h. c #D8A82B",
"j. c #F6A928",
"k. c #F6B428",
"l. c #EAA931",
"z. c #F4A738",
"x. c #F6B434",
"c. c #F5B43B",
"v. c #F8B739",
"b. c #EEC71C",
"n. c #958A51",
"m. c #B18C50",
"M. c #908B72",
"N. c #AF8F70",
"B. c #9FA761",
"V. c #B7A676",
"C. c #C78848",
"Z. c #C99848",
"A. c #D79B46",
"S. c #D38F55",
"D. c #C79857",
"F. c #E5934F",
"G. c #DAA54A",
"H. c #CDA655",
"J. c #D8A657",
"K. c #E8AA4A",
"L. c #F3AA46",
"P. c #F4B443",
"I. c #F5B44D",
"U. c #F9B54E",
"Y. c #F5B948",
"T. c #E7AA55",
"R. c #EEB050",
"E. c #EBB256",
"W. c #F5B552",
"Q. c #F9B751",
"!. c #F5B957",
"~. c #FAB954",
"^. c #FABB59",
"/. c #CC926F",
"(. c #E89569",
"). c #CFAC6F",
"_. c #D7A967",
"`. c #D7B678",
"'. c #E9AC6E",
"]. c #E7B668",
"[. c #F5BB64",
"{. c #EBC151",
"}. c #F0C46F",
"|. c #175A88",
" X c #136B8D",
".X c #306F8B",
"XX c #296796",
"oX c #4F748A",
"OX c #566394",
"+X c #717688",
"@X c #F03181",
"#X c #8C7387",
"$X c #B27487",
"%X c #A0659A",
"&X c #DA5C92",
"*X c #EE5289",
"=X c #CF7386",
"-X c #EB7487",
";X c #188C8B",
":X c #308E90",
">X c #27A99F",
",X c #1791AE",
"<X c #3093AF",
"1X c #2FABB4",
"2X c #508B92",
"3X c #718F8E",
"4X c #55A499",
"5X c #71A699",
"6X c #4C93AD",
"7X c #7095A9",
"8X c #50AAB2",
"9X c #70ADB0",
"0X c #5FC6BD",
"qX c #2E95C2",
"wX c #36AEC4",
"eX c #49B1C5",
"rX c #5CB3C4",
"tX c #34C9CB",
"yX c #4FCCCC",
"uX c #6ACDCF",
"iX c #65E2D7",
"pX c #8F908D",
"aX c #AE9589",
"sX c #92AA95",
"dX c #B0AD92",
"fX c #909AA8",
"gX c #8FADAA",
"hX c #AEB6A8",
"jX c #D1918D",
"kX c #ED8E90",
"lX c #CEAD8C",
"zX c #C8B998",
"xX c #D7B898",
"cX c #E5B188",
"vX c #E09EA4",
"bX c #CCBBA5",
"nX c #A0CBAC",
"mX c #B1C8B3",
"MX c #D4C48F",
"NX c #D7C598",
"BX c #E9CC92",
"VX c #F5E19B",
"CX c #CBC5A9",
"ZX c #D6C8A8",
"AX c #DAD3AB",
"SX c #D2CDB4",
"DX c #DAD6B5",
"FX c #E7CDAB",
"GX c #E5D7A9",
"HX c #E5DBB7",
"JX c #EAE4BA",
"KX c #F4E9BB",
"LX c #F8F1BE",
"PX c #9BCBC6",
"IX c #E4DDC5",
"UX c #F4ECC4",
/* pixels */
"!.I.Q.W.A.G @.S.}.9._././.xXN.jXlXBXBXBXCX;X4XlXR.R.G.s.K.K.I.K.R./.1./.J._.C.].1XcX_._.~.A.B A.].).]._.D.J.`.).].Q W R.R.V.].dXsXJ.D._.(.1.jXS.Q.T.R.R.A.s.T.T.E.5X:X3XVXNXFXxX/.N.lXBX/._.D.m.cX;.' W ",
"W.I.!.!.C.N N ( H.Z.J.'.lX=.@.` @.=.MXMX5Xd s 2XT.s.G R p.].dXK.C.;.(.'.W.2.>.R.).].].dX9XdX!.V.1X1X).&.o.N.sX1X8X_.].sX4X`.T._.].C.,.(.W.'./.:.K.V.).K.Q A J K.sXd s d NXMXlX$.@.N $.).MX`.D.S.$.` ` G ",
"W.I.Q.~.A.` m : s.~ ;.$.m.#.H.9.` ` dXBX:Xs p s N.Q Q s.).4X4.D.S.S.T.T.T.F.F.~.R.!.[.2X>X6XlXgXhXzX].'.'.].`.CXhXdXdX<X<XV.I.[.W.R.F.F.T.].(.;.T.3X:X7._.! R C.4.p p d zXFXN.N #.D.pX$.$.;.$.s.I > ( @.",
"W.I.Q.!.Z.Z.L L W %.%.+.h.i.M.#.s.9., V..Xp t 9 c G d.m.s d s M.T.T.].E.^ T.F.W.K.^ ^._.'.R.g.f.t.q.f.r.q.t.f.r.f.g.g.]._.].E.! W.K.T.F.F.].K.(.T.d s d x J.R #.t y t s dXM., 0.9.7.Z.b.8.[ #X&.+.#.P D.",
"I.W.W.!.9.R.c.G N 6XwXpXb.y.Z.).i.0.Q +.u 8 8 0 g h m.9 t y s 3X_.T.W.!.F.!.I.L.W.L.f.q.f.z.z.z.z.z.t.q.q.q.g.z.z.z.g.g.r.r.g.L.W.R.W.I.F.I.R.'.).;Xp t 8 h $.g g 0 8 8 c G J y.b.sXu.y.b.<XwX+X' C.{.].",
"W.W.^.E.K a.a.=.<X<XwXpXw.e.Q t.w.R E A 7 0 h h e z c 0 $ y s 7.T.S.T.R.R.W.L.f.g.g.f.z.f.t.z.f.f.j.z.j.t.z.z.t.f.g.g.w.z.z.r.z.f.g.I.K.W.E.C.C._.;Xp 9 $ g z h e z g $ h R R r.w.s.q.w.0.1XwX<X2XB Z.I ",
"W.~.~.~.$.p.+.6XeXeX<X2XR Y A E E Y U A 0 g &.>.>.X.&.l 7 t s M.D.T.G.Q.z.r.f.d.g.f.I.t.u.z.w.u.x.j.u.j.c.y.u.j.x.u.u.z.w.z.I.f.z.f.q.f.L.W.F.A.H.:Xt 9 u g &.1.&.&.` g < U R Y E R Y R $.<XwXeX8X+XL a.",
"I.Q.~.^.Z.$.=.OXqX<X*.! Q A b U U A B = 0 e >.pXfX=.>.w 0 8 s 6.6 J.L.g.r.q.q.g.z.I.u.x.P.y.y.y.y.x.j.v.x.v.x.k.y.y.y.u.P.j.j.L.z.f.q.q.g.g.W.n.i 6.p $ l %.>.aX9X$XX.g X b A A U A n J ! ~ 6X<X<X%.%.).",
"W.!.Q.^.Q.D.=.` ` 6X! q.E Y ; N b < l 9 7 z $X9X9XpX| w 0 3 3.m.L.f.g.f.z.t.g.P.c.W.x.y.x.k.k.k.x.x.W.~.}.Y.Y.x.k.v.i.k.x.i.k.!.x.z.f.t.L.r.g.f.G.k j 1 l %.&.9X9XgX[ w $ y w v ` v A E E q.pXoX) +.&.).",
"W.W.U.^.W.D.` e v.0.! q.E G l |. Xp |.p 7 e ] pXgX=. .w j 3.G.z.q.q.f.W.x.j.u.x.P.k.v.P.~.K.Z.I #.h a Z Z h l k #.m.s.E.c.k.P.x.P.y.j.x.c.W.r.q.f.L.m.6 g e | pXgX#X| & 8 p p p  Xa %.U E e.J i.h.` &.BX",
"~.W.Q.Q.K.G.#.h y.E n S J .X,X|.c #.#.P & & e &.' | r w 9.z.q.f.t.t.z.z.u.y.x.k.c.!.H.#.h ( ( h +..X,X$.! 3X,Xg +.e _ m *.m.T.!.k.v.i.u.x.z.z.j.t.g.f.A.k w %.&.' [ e + 4 I #.*.a  X,Xc K Z U w.h.` dX].",
"W.I.^.^.K.C.V.h d.E U b *  X X9.e.(.F.F.h.F # r w w g A.z.g.t.j.t.z.P.j.k.k.k.K.m.N N x c X.aXL G 3XtX1X|.yXyX+.W =.jX[ 7.h > H Z.Y.y.x.i.j.P.f.w.g.f.f.R.$.q w e : , P l.F.F.K.s.*.,Xa = n U e.9.#.zX/.",
"W.I.U.^.K.B.3X2X3X*.+.N < p I (.2.,.,.2.:.F.Z + + 4 K.r.r.t.P.z.j.x.k.c.x.R.P - m N #.x ' o.xXN.G G 7XeX<XwX*.A $.lX=XX.+.x $.N m 4 Z.x.Y.c.k.j.x.P.g.q.q.f.D.& + o ! F.:.2.,.,.2.K.h a b F *.M.4.3X3XdX",
"W.I.U.^.R.4.d d 4.d d p 7 g F.,...{ ' _ O.2.G @ H z.f.f.q.q.z.y.y.k.k.c.).< > N F m.7.c >.jXHXsX2X=.Y 6X8Xc Q c 2XzXFX=.[ 4XM.$.N v : #.].x.y.x.u.u.z.q.r.g.g.A.& , :.,.o._ _ | O.2.~ 9 t s ;X;X4.d 4.sX",
"I.U.^.^.G.H.:Xd p y t 8 8 h F.<.| H 9.F | ,.W H z.r.f.j.f.z.!.c.P.c.R.#.Z J J I m.2Xh  .,.ZX).d.! *.G *.:XG #.=.p.f.NXjX,.&.oX7.m.~ Q W +.N.!.P.P.v.~.z.f.f.f.d.A.F :.,.) P 9.N  .2.~ p 8 8 p p s d 3XGX",
"Q.Q.~.^.R.J.J.7.s y 9 $ $ g F.<._ L I F ' O.~ L.g.f.r.g.j.y.c.v.k.].k ;Xf k #.2X2X7X' 1.vXJX).W G G G s.c.~ G F @.! xXFX=X&.=.8X4X7.#.c ;X4.M.P.k.k.x.u.c.t.f.g.g.F.-.>.m I I H ..,.~ 9 $ 0 y p f dXBXFX",
"U.^.^.^.I.^._.dX5X2Xs t $ u p.,.{ < F > o.2.g.E f.g.j.z.j.y.v.i.G.< < 3X5XsXsX9XpX| <.jXGXGX8XtXuX1X$.J ;.! 7XtXuXwXgXJXGX,.>.| 5XsXsXgX5X3Xm #.!.y.x.j.u.z.g.f.g.r.F.,.{ < F m ..2.I 9 $ p :X4XsXzXBXBX",
"W.~.~.^.T.sX>X;Xd d s t $ 9 I 2.o.{ { _ -.L.d.f.f.q.t.x.y.y.c._.e ) { } ] 1.1.` X.@XjXhXbXGX9X8XyXtX=.-.G W 5XtX0X1XdXKXCXbX>.@X&.@.1.&.| o.| m #.}.k.y.y.z.t.q.g.f.d.(.| _ { ..,.:.+.@ 8 p d d ;X4.:XhX",
"Q.Q.~.^.H.d s s p y y y 9 $ 4 ;.:.*Xo. .K.f.z.g.g.z.c.x.k.y.]., t z &.&.z *X*X' aXbXZXaX=.FX#.+.c 1X+XG G @.:X:X+.+.dXzX#XlXSXbX#X[ *X>.z &.] l 9 M.[.i.k.j.P.z.f.z.g.f.S.o.,.,.:.L 0 9 y p p p p d d 7.",
"~.U.U.~.I.H.4.d .Xf p t 8 @ @ w W -.W F.r.g.z.r.z.j.P.c.c.Y.*.u |.|. X Xa %.%.l pXHXbX=./.SXaX2X>X:X,X6Xx 1X:X:X1XoXSXhX1.M.SXDX.Xz %.z  X X|.XXp l N.x.Y.x.P.j.t.f.z.f.g.;.W W N 0 @ $ 8 p s f f d M.R.",
"^.U.Q.~.I.K.G.2X Xs s t t $ + @ & # m.f.f.g.r.f.z.j.P.k.x.m.l +.zX7X,X X|. X X X7XHXGXdXpXDXgXiX1X1XwX<X.XwX1X<XyXiXCXhXpXCXUXDX X X X X X X,XdXaXz l J.i.x.P.j.z.r.f.g.r.K.w # @ @ @ 7 9 p s d :Xm.G.K.",
"W.U.^.^.I.Z.e.G h g u c w 0 0 g +Xh z.z.r.q.t.z.c.c.k.i.G.J OX+XhXgXtX8X,X,X:XwXgX`.R E ! cXM.tXtXtXyX<X:X1XyXwXtXtXS._.E R ! ZX8X8X,X<X2X1XtXhXfXz *.I c.i.v.c.z.z.q.q.g.g.D.x +X7 0 : g x u l h R 0.T.",
"W.U.U.^.G.W.J D A @.' #Xz l 0 0 l A.g.f.f.g.z.P.P.k.v.v.H J P a.9XZXCXHX8XtXmXSX/.e.w.w.D D.d.).5XiXyXyXyX1XiXyXdXH.A.L R w.e.e.bXIX9XtXmXDXSXmXaX! a.A m.k.v.x.P.P.z.f.t.z.g.#.l 0 u l c *.@.B Y R A.K.",
"Q.U.U.^.I.c.p.F A.@.G pXpX7.l 0 n.g.z.f.f.z.w.j.x.k.i.D.b G J R 2X9XFXHXzXbXJXKXJ.w.e.lXR A P l.Z.8X7.yXtX4X4X4Xl.s.F Y ~ _.t.u.xXIXIXdXNXFXGX<X=.Q P N h !.i.k.x.w.j.j.f.g.t.K.g l c pXpX*.~ I 9.A l.K.",
"U.U.^.^.A.i.e.$.$.^ @.e > : : w K.r.f.t.f.j.j.j.i.y.x.H F Z J a.B.gXKX_.e.G.ZXM.ZXl |.dXr.Q K y.s.K 0.V.3Xh.p.L t.l.Z R 0.hXa pXzXpXZXt.e.ZXJX7Xs.Q J Z F D.i.i.j.j.c.f.f.q.f.g.m.# : > e N Q ~ P A y.h.",
"W.Q.~.^.I.Z.Q $.C.G -.' ' ` > C.r.f.z.z.z.z.j.x.v.x.].g F G A ! a.gXHX).y.J.hXrXNXhXgXbXt.R H P 0 h K +.r H $.0 4 P Z e.0.SXfXZXsX9XZXj.w.ZXAX3Xp.J A Z h *.P.v.x.j.j.z.z.f.z.r.L.+.e ( ' ;.G J a.A a.E.",
"U.~.Q.^.K.f.e.Z m.~ W a.@.' @.L.f.f.z.L.t.u.c.x.k.i.N.g #.A Y ! oXhXKXGX`.HXlX&.lX).IXUXhXf ` _ r r e [ [ ' ` a > _ w oXHXKXDX(.aX=.xXAXMXKXJX2X*.R J F g , R.y.k.P.j.j.t.z.g.f.g.S.( -.-.W ^ ~ F U w.G.",
"W.^.Q.^.~.T.a.Y I Z.a.J ;.) A.r.g.z.w.z.j.j.k.i.k.k.#.l h G J ;.fXHXHX}.}.bX>.N.lXlXZX'.IX6X[ o.) X.>.>.X.X.X.[ _ o.z 7XHX`.bXlXlX1.;.GXE.BXJXAXpX$.Q F k p C.i.k.k.j.z.t.z.t.R.r.g.@.@.W ! L A.N R Z.I.",
"Q.Q.Q.^.Q.J.u.R Y L s.I L $.L.g.t.g.z.L.j.P.P.x.v.W.& 9 h F g c hX7.JXV.).KXHXKXJXDXDXGXUXUXbX[ ` ,.X.| =.{ X.[ ` =.HXLXIXAXHXJXHXKXHXGXC.NXDXpXfXl +.4 g $ #.x.v.x.U.c.j.L.z.f.g.d.J.$.J $.a.G Y 0.h.Y.",
"^.U.U.W.~.NXH.y.D b L 4 $.T.f.r.q.z.f.g.c.u.x.k.k.J.- e p u 0 ZXM.hX+.xXHXKXDXDXDXDXHXJXDXDXJXXX&.X.X.3X8X&.X.O.OX7XUXDXDXUXAXHXHXAXJXJXFXjX#.fXdXpXu u u F 4 P.y.v.k.j.L.t.z.f.q.r.z.Z.I Z G b 0.u.H.`.",
"Q.U.~.^.`.sXhXsX~ R U b b L.r.f.f.g.z.z.j.v.c.x.k.Z.7 F +..X9 c 3X#XjXGXHXCXKXAXJXSXmXJXDXJXDX9X+X*XX.%.oX' X.>.2XPXDXIXDXDXhXHXDXHXGXHXFXxX*.hXl x f a I < @ I.k.v.P.c.j.L.t.z.r.f.d.Z.b n U R N.c hXPX",
"Q.U.^.^.dX9XmXgXJ.w.Y Y p.g.r.r.z.f.f.j.u.k.k.k.v.m.u a ! x f u fXz lX3XHXCXHX.X8X3X;X3X;XmXDXSXmX1.,.X.| ,.*XaXmXDXIX2X:X5X;X5X:X3XDXAXSXsXN.+XoXy 2X#.G f % K.x.x.x.j.u.j.f.g.g.q.r.R.Y A R y.lX9XmX7X",
"Q.U.U.[.sXPX5XsX_.K.! d.L.E r.q.z.z.z.z.x.x.v.~.Q.P a .Xc $.f y c #.J hXHXJXHXhXmXCXsXhXpXbXxXDXJXZX=X>.O.&.jXGXJXHXDXsX7XbXaXSXhXdXUXIXHXV.J c x y 2XQ f f p G.I.~.x.k.c.z.L.t.g.E r.g.g.! S.].lX5XsXhX",
"Q.Q.Q.].dXgXsXvXO.].G.A.g.d.f.q.z.g.t.L.x.x.k.k.v.$.p ,X,XF u 7 +XN.lXZX`.NXS.t.cX;.E xXjXjXHXLXCXNXDXfX3XhXAXMXHXUXZX-XZXF.E jXF.e.xXcXxXxXaXpXx 7 k *.,X Xp G.k.x.k.u.I.j.f.z.g.E g.E R.A.T.S.,.NX4XhX",
"U.U.^.`.5XPXpX(.2.=.] G.r.E E r.z.f.z.c.c.c.k.i.v.m..X%.;Xx & g c aX1.=.R /.N./.1.=./.aX/.| lXNXHXZXDXHXHXHXAXAXFXNX>.-.jX/.1.1.1././.1.;.=X=XaXc 7 , .Xx %.p G.k.i.x.v.c.z.z.g.g.E E E L.$.` S.:.`.2XhX",
"U.Q.~.dXhX9XaXF.'.T.%.G.E g.f.q.z.f.f.f.u.i.v.~.Y.m.p r ` s @ l c $X} 1./.G b = * * = b F /.=XX.xXUX;.S.CX! xXHXjX>.>.1.B ; * * * ; B $.aX1.{ aXz u @ s ] u $ J.P.I.x.u.u.j.j.f.g.r.g.d.d.m.$.W.;.].2XmX",
"U.~.Q.^.cXhXpX].].m.Z.g.E g.r.q.z.f.z.z.j.P.k.v.U.Z.s g N 9 0 g >.=XjX@.=   O O # O O O O * L =.NXHXHXaX@ ZXHXFXjX1.A o   O O . X O O + ; =.=.=X$Xu $ 0 < i y R.P.x.x.P.u.P.f.f.f.r.r.g.E R.m.D.[.m.gXmX",
"Q.^.~.^.).gX-X>./.H m.d.^ f.g.f.g.g.f.j.L.u.c.c.k.J.p m.p.7 0 ` O.=.B X O O O ( X.m O O     o #.>.2.bXZXM.DXxX,.1.Z   O O O + )  .: O O O * $.>.X.w 0 h K n.u P.x.Y.j.j.L.g.t.z.r.z.d.g.E (.k $.1.2./.sX",
"Q.Q.U.^.Q.]./.2.(.S.S.E ^ d.f.q.w.L.g.L.f.c.P.x.k.l.a H A , a ] @.@.X . > > # X.-XX.: m > O O , $.X.FXUXUXKXjX .G . O # m > > ,.*X) # > > O - @.' r 0 Z H g c x.k.P.I.j.z.g.L.z.q.r.g.d.E g.=.T.:.1.kX[.",
"^.I.Q.Q.Q.Z.Q.E.J.H.K.E E ^ E q.w.z.c.P.P.P.c.c.i.x.l h B w & >.&.= O +  .O.( &.7X%.| O.{   O O H 1.HXgX2XSXxX@.Z   O : o.o.` #X7X%.| o.( O O N >.[ q : F c n.i.k.x.Y.I.I.P.c.z.q.q.r.d.^ d._.H.'.^.K.K.",
"W.U.^.^.Q.J.c 3XK.n.g.T ^ p.r.E q.c.j.j.j.c.c.x.i.k.*.|.w q r ` @.+ O + ' O.` h z h ' <.) O O O H } zXgX1XZX1.-.4 O O #  .X.e +.z e  .*X> O O * #.` w q u  X9.i.c.Y.Y.c.u.x.x.z.q.r.E d.E E m.B.`.3XM.I.",
"Q.U.Q.^.^.D.3XN.I.T.g.T ^ ^ ^ E q.w.u.x.u.W.x.x.c.k.N.9 9 w o.&.N + @ > ` ' F ! N.~ F ' ] ` # O S @.SXUXIXKXzXF 4 O : ` ` N L ~ $.I ` ' ` > + X #.{ [ 7 t 9 G.x.P.c.P.c.i.x.j.q.q.r.E ^ T T W.T.T.3X7.R.",
"Q.U.Q.[.}.(./.!.(.-Xd.T T E T E q.q.j.x.c.P.c.c.c.i.D.9 $ 0 ' @.= @ ) *X%X|.~ pXrXM.9.|.%X*X) + S A bXIXFXHXjXA 4 : X.*XoXz ! 9X9XP #.XX&X>.> + #.) ( 7 $ u W.k.Y.P.c.P.x.c.t.q.q.E T E T T A.,.R.T.S.(.",
"U.Q.Q.}.(.,.X.(.S.(.d.:.gXaXfXuXS.s.j.j.x.c.c.P.P.x.E.9 @ w  .$.= $ ) *XfX X! M.8X*.a.|.%X*X( @ S P FXIXFXSXNXL 4 #  .*XoXz R 2X6XK H XX&X>.> @ #.' ' 9 7 #.x.Y.Y.Y.x.P.j.x.d.d.sX9XN.gXN.T T.2.'.-.,.*X",
"U.U.Q.^.(.kX-X(.W.R./.fXyXeXuXyXuXiXgXj.u.c.P.c.Y.P.x.c q z o.@.F 9 7 e ] ` F p.Q p.F ] ` e $ @ J s.bXUXDXCXZX0.F 7 0 e ] e K p.! ! < %.` r 7 & L ' [ h @ m.k.Y.P.c.x.c.x.J.uXuXuX8XrXyXuX;.cXE.^.-XkXkX",
"U.Q.Q.^.~.[._.!.K.zXiXuX2X3X+X+X3X<X9XdXu.P.P.c.x.c.x.m.0 c *.L P 7 9 9 [ o.) h #.4 ) O.' 9 8 5 J `.SXSXzXCXIXa.P 9 9 w X.X.e +.h < ' X.` 9 9 , P $.*.*.7 P.k.c.k.P.Y.j.J.sXeX6X3X+X+X7X8XiXPXW.K.E.T.[.",
"I.~.Q.^.^.hXyXdXW.sX1X+X*.h %.%.z 3XrXyXaXj.P.Y.k.x.k.#.|.oX=.R J , t 9 | O.) %X7X#X) o.{ q 9 L K cXlXZ.m.Z.CX_.L 4 9 e o.o.` #X+X%.| O.' p t F D ! pX.X|.9.k.x.x.Y.k.l.uXuX7X*.%.%.%.z pX6XuXJ.E.9X0X_.",
"Q.^.~.^.[.hXyXhXnXuX4Xz &.O.*X,.>.z 3X<XpXx.k.k.v.x.s.OXz .XpX=.Q A a p e ] u &X&XX.0 ` ` t F @.GXzXK     & s.AXjXG g g ` e r &X-X' w ` w p e J J aX+X.Xz l x.v.x.i.x.f.8X<X#X%.>.*X&X>.h +XrXuX`.9X0X].",
"Q.Q.U.^.}.[.J.[.9X<X+Xz ,.>.1.>.,.%.c 6XgXl.j.k.x.k.#.z %.XXpXaXp.$.$.l s s p ] O.` p p p H $.o.lXD.o O     5 `.-X} $.h p p p X.X.g p p p k m.~ C.aXpXXX*.a h.k.k.k.u.).9X3Xh =X,.=.=X&X&.c 2XeXlX].T.[.",
"^.U.~.~.^.}.].!.dX6X+X%.>.=.M.=.>.&.g 2XeXaXt.e.u.l.h ] ] +XaXdXxXvX>.I n.x s s l p a +.P W xXZXlXS   O O O   9.bXZX1.G H z p p l |.p c $.J =XvXxXdXpXl &.e I u.u.e.t.9X<XoXh &X>.*.*.&.>.w 3X9XT.[.!.[.",
"W.U.^.^.!.R.g.!.PX<X+Xe o.=.*.=.X.%.z .X<Xm.u.u.l.i.w [ ] #XaXlXlXvX1...@.$.$.L L L J G ;.:.ZXHXD.o O O O O O S lXUXcX-.$.J K L L L I J $.^ jXxXlXlX$X+X[ ` #.k.h.u.u.3X,X+Xw &.&.M.N.>.[ z 2XyXlXR.z.[.",
"Q.U.Q.^.}.K.K.I.hX8X3Xw [ ,.&.X.[ r l u #.y.u.u.i.y.w e z 7XaXlXzXZXGXGXMX! /.p.p.N.! /.HXHXAXCXD   O O O O O X m.DXJXHXFX;.! D.R S.C.S.NXBXZXZXlXlXfX6X` w P y.i.l.y.l.x c 0 ] X.X.X.X.] +X<XrX_.K.l.!.",
"Q.U.Q.^.[.BXR.L.~.9X.X+Xw ' ] ' w w g u 5 h.u.y.y.y.5 q .X6XaX/././.ZXHXJXUXMXZXNXAXHXUXUXxXzXlX4 O O       O   8.bXZXFXUXJXJXAXNXMXSXJXHXHXzX;.N.S.7X6Xa q 8.y.y.i.e.B.u 2 z 0 e ] ] e g oX<X).I.z.P.}.",
"U.U.^.^.U.^.R.L.].PX<XoXoXg 0 0 7.j 3.8.n.B.y.E.T.y.H 0 .X+XI W B G m.s.H.DX6.Z.lXAXxXh.NXzXDXm.. O O O         4 NXzXHX`.G.FXZXH.m.sXFXA.a.C.A W W *.+Xa 7 0.i.`.y.Z.7.9.H 6.g 6.7 0 x oX:XeXzXK.K.R.^.",
"U.U.Q.^.^.}.!.T.Z.dXgX6XXX.XoX7 6.6.j h.3.6.0.]._.0.0.a l *.G M v B A Z.MXHXzXG.h.Z.Z.m.KXUXHXP   O O O         o ).IXUXBXC.s.s.l.V.AXZX`.Q G b v B G *.l 0 u.s.xXk.B.6.9.8.6.6.j oXoX.XXX7XgXG.Z.R.W.^.",
"U.~.^.^.[.T.'.!.Z.9.H.aX<XXX Xp i i i j 1 5.8.y.s.H y.g z *.G B v G ~ /.zXM.zX1.~ L =.' FXHXZXP   O O O           m.SXUXN.@.N ~ W jXdXM.NX;.Q B B A G *.l H i.5 u.y.i i j 1 j i a a .X,X6XH.9.9.R.].J.].",
"Q.^.Q.^.T.(.cXE.K.0.0.s.N.V.i c 9.5 u 1 5 i 3 i.3 5 y.9.h %.#.Y B W J /.V.k lXcXN.lX=.@.ZXHXZXH O O O O O       . #.HXKXjX@.V./.N.cXN.k zXC.G B A Y $.%.g y.y.1 P 0.y 1 5 1 u k #.i n.V.a.0.u.s.I.T.2.T.",
"~.~.Q.^.^.].E.[.A.a.R 0.0.a.i i 8.H u 5 9.n.1 5 1 1 l.i.H h k #.$.$.N.N.M.pXaXlXZXlXzXJXGXHXSXS O O O O -       . N.HXHXJXFXV.xXxXlXaXaXaX=.$.$.F +.k g 0.y.s.2 5 2 2 8.8.1 2 8.5.i n.! w.K K ~ R.E.[.R.",
"^.Q.U.~.].]._.T.!.s.K Z R Y F 1 2 5 1 % y n.H 1 1 1 0.Q u.H 0 h h c h g l oXoX+XzXm.4 bX2.F.AXN.o O O Z Y - O   - ZX`.K.S.hXD /.aXoXoX.Xx h h h z g g 0.h.D 9.1 % 2 8.j 1 1 2 6 1 2 Y Y R Z ! ].].].`.].",
"^.U.Q.^.7.d ;X:X4.7.m.A b G =.h *.=X=Xz % y 2 & % % K b i.e.0.H 7 q u y 8 8 p XXoXN.5 lX .:.`.SXN.k #.1.jX/.#.k zXSXs.:.:.aXZ N..X.Xp $ 7 u u 0 7 8.h.e.0.Z P % % 2 u 1 @ $X-X=Xg $X$.Z b G M.2X>X:Xd d ",
"Q.U.Q.}.M.s p d s s s w h kX<.<.O.O.O.X.' # % % % 9.z.s.9.P y.h.+ @ @ , + O O |.a =.*.N.' -.NXSXIXFXcXxXZXjXxXHXDXDX;.-.' sX7.#..Xt O O : # @ @ 5 i.0.I D.L.z.4 % % $ e &.O.O.O.*XO.kXN.< p d s s s p s ",
"Q.U.Q.^.V.s y y p t t 9 z O.O.o.} } } _ { m b R ! e.E E d.R A 0.4 h & # @ O O , .X$.*.*.+.N.AXAXMXGXDXHXpXHXHXGXZXDXzX=.+.M.#.#..X# O O @ @ k @ D K Y ^ E E E d.R Y # _ | { } } { o.O.=X@ t t t t y p s ",
"W.U.U.^.E.x p t 9 9 8 &.<.X. .{ ) _ _ ( ( m Z.C.A Y Y Q ~ n n n H 9 9 F & O O > f H ; +.m.H._.GXHXIXGXNXdXBXDXHXHXMX).N.$.F Z k l : O O e ` a 9 S n A $./.Y U Y J G.#./ ) m _ ) _ { } O.,.h t 9 8 t s sX",
"I.I.^.^.W.D.s t t 8 7 ,.O.} _ _ m m > > > P j.j.l.9.H h.j.s.b b 4 9 a < w   O & |.#.* D s.).ZXDXAXE.h.k.lXc.h.MXHXDXxXJ.0.; S z |.X O & e e a w Z b #.}.i.9.I s.k.y.l.< > > > > ) _ { o.O.[ $ 8 t t 7.AX",
"W.Q.Q.^.^.E.H.f t y &.O.o.X.' > : 4 H H m.f.w.E e.w.t.p.0.t.p.; F u a h h + O @ e #.S =.N.lXDXDXp.0.u.0.l.0.0.e.J.IXbXN.*.$.H h z   O , +.g l k ; F R.w.0.e.w.w.e.e.w.l.$.L F , > ( | o.o.>.z 9 8 M.GXGX",
"U.~.^.^.Q.}.T.T.m.*.<.o.} { _ m Z.~.l.s.t.e.p.a.K E q.q.R R e.A ; z z g #., + @ ] , - N b h.J.DXI R R E R R ^ G /.AXh.R F ; - w ] O @ h +.h l H ; R E J E q.q.Q ~ p.R q.L.p.P.Y.H ) _ } o.O.&XM.lXGXGXKX",
"U.~.~.^.W.s.s.A.K.H.O.{ { ) > 4 x.u.E J Q ! Q Y Q n R E E ; Y Y ; *.=.z k 4 7 O 9 h *.m.)./.).lXjXjXvXjXaXvXlXdXlXzX/.).m.N.*.& q @ 7 k +.=.c H A Y A A E E A G Y Y ! Q p.Y f.u.A.> m _ { } 1.BXBX).h.BX",
"Q.Q.Q.^.].D.Q A A.J.' ) m > : #.j.E K s.A G a.Z G A b U E ; F n b #.oXc #.4 7 $ 0 0 h h e ` +.[ [ &.X.@X>.o.X.&.[ %.] ` +., g & 7 7 $ $.*.*.oXH N b Z A T Y n A b G a.n Q s.Q e.P.: > > ) ' =.BXN.A a.CX",
"Q.U.U.U.V.8X9.H G.D.X._ ) m : 9.t.J g.R P s.S L b Y n b A K 4 v ; H +X$.pX#.7 @ l +XaXCXM.FXc CXdX*.AXaX] AXzXh AXM.dXdXdXpXhXc g $ w #.pX=.oXH ; ; H D n b V J Z L D Q Q e.s.R j., > / _ { 1.BXN.H N.<X",
"Q.W.~.~.!.H.B.5.3.m.X./ > : # H t.~ w.A Q J Z b L Y V < A.D o * - H oXx pXH 7 @ g pXdXJXhXKXdXUXAXzXLXGXM.LXKXdXLXAXZXJXCXCXSXc 7 $ g m.+Xa x S - * X 0.m.v U K Z ; G G Q e.h.R z.o : > m _ =.B.5.6.lXHX",
"W.U.~.^.K.T.n.3.6 5.g / > # # , R.Y t.A D Z Z S J U G ].e.- - o # H $Xe *.#.w @ c x c AXCXLXSXUXJXHXLXKXdXUXUXCXUXKXSXUXdXhXc l l 7 h m.w %.=.4 # o * S L.lXU U P Z b D Z R 0.R Z.X # : > m 6 6 5.3.MXHX",
"W.I.U.^.G.BXm.3.6 5.j 2 & # X F 9.p.Z P S F J Y n V J.w.R v b = X H =X] N.#.z 0 3XpXhXaXpXdXdXDXCXJXUXUXCXUXUXhXHXSXsXsXpXpXhXpXl g #.n.+.=.=., X b n v e.I.m.U U J L S H K A g.F , # # 2 3 3.6 6 3.GXJX",
"Q.Q.U.^.G.MXMX5.6 6 3.6 2 % 4 R n a.Y ; n U U n $.`.j.e.b n n b X H H *.m.M.c z l +XhXJXCXDXdXdXdXpXpX3Xc pXpXM.hXdXhXDXDXbXCXl 0 c *.x m.$.#.o X n n n Z e.!./.B V U V b b p.P n ~ @ % 6 6 3.3 6 B.KXAX",
"U.U.^.^.E.lXNX).5.3 2 6 2 2 R R A b Z A v n n D.E.e.Q n n n n b # H k #.2XM.c *.z g x AXhXUXCXUXJXCXKXJXCXKXKXCXUXUXSXUXhXdXc 0 *.*.*.c n.#.#.X X n n n n B R z.].$.n b b A Z Y A E F 2 6 6 3 6 B.JXGXMX",
"Q.~.~.R.R.E.lX`.).3.6 2 2 +.^ e.A p.A b v * m.p.Y V V n n b ; * X 5 c a  Xc f c %Xe w +Xc DXdXLXDXDXUXUXzXUXKXbXKXUXdXSXx x h %.*.c a c p |.#.X # = b b n V V V Y J.H ; v b Q K R d.^ 2 2 3 6 dXHXDXNXVX",
"I.~.~.^.K.T.K.J.G.Z.n.3 2 @.:.l.q.A 9.9.9.D ! V V V V n v h &.X./ , k 9 oXJ #.x pX$X*.h z +Xc DXsXdXLXKXaXKXJXM.SXCXl oXe z N.aX*.x $.#.a 9 #.: ) >.=.< b n V V V U a.D K 8.K R w.;.:.& 2 j V.xXZXGXBXmX",
"I.~.~.^.W.R.G.H.m.#.k j 2 h ' I w.E A ; n J n n n n b ; &.*XO.>.' > k f z A E pXaXaXaXlXm.G #.oXoXc hXhXx CXfXg 2XoXL L N.aXaXaXaX*.R Y a p H m >.>.,.-X+.; b n n V A A b b R w.K.B ' 2 2 j c M.dXMXBXGX",
"Q.W.U.^._.7.d d ;Xt y y 2 kX} #.u.q.E A ; n n b b ; =X2.<. .jX>.) m h a x Q ;.3XaX=.` +.).A.a.P P ~ l h G l #.p.P J a.H.aX+.+.N.aX3X~ $.f g 4 m ' -X=XX.<.kX*.v b b n b ; A e.y.G.M ,.aX1 y t s ;Xs f sX",
"^.U.U.Q.N.s p t y y 8 8 *.kX} @.Y.u.e.p.A ; * = = , 2.,.1.-XX.>.&.` , [ 1.:X2XaX&.1.lXgXfX}.`.H.D.N.D.^ _.p.D.B.A.H.MXlX4XlX/.&.=.pX2X+X=X+.e %.&.@.,.1.-.O.-.* = = - Z ! 0.t.y.H.{ ,.cX@ 8 8 p p y p x ",
"W.I.~.^.W.n.p t 8 9 7 7 *.O.C M H 0.0.p.! G < =.1.,.' jX>.' &.&.-X,.) > [ a z $X&.aXhXdXfXaXfXxX_._.`._.n.).lXcX`.zX7XdXdXhXhX=.%.&.a l ' > | *X1.| ' ' -X=. .2.1.*.< J p.0.0.9.< C } 2.0 9 y 9 8 t a NX",
"Q.I.~.^./.T.m.p 8 8 $ w -Xo.{ > , # X . X . & ,.O.( h -X) ..' 1. .B > : 9 p oX] 3X:X>X4XxXaXfX`.p.;.-X2.1.,.2.C.s.zX7XdXzX>X>X:X%.c .Xa @ : v B -.>. .' X.kX:  .<.&.. . . + X , : M { O.1.$ $ 8 t x MXMX",
"Q.I.U.^.R.I.K.H.*.u 8 0 -X..C > $.B o X X + + >.O.( +.,.` X.< W A n = ` + @ ` w :X;X>XN.=.sXzXxXC.=...C -.{ -.$.K.FXdXaX=.#X>X;Xa r ` @ < > b A A Q m >.) ,.: | ,.h O . X X = :.+.M } O.1.8 9 x dX}.BXVX",
"W.W.~.^.I.S.s.P.^ ;.l t h ,.{ m < N : # # + e |  .&.| ,.' ,.N n F ; ; &.X : : 7 f %.f @.&.>X9XZXjX2.-.$.F -.2.-XlXzX>Xc @.&.x c p # : # e ' b F Z A m 2.( >.| [ &.[ # X : # = @.> M ..1.g p c S.cXP.S.BX",
"U.W.^.^.F.<.,.G.-.XXp .Xa >...C M m > > > , 2.{ ( -Xo.&.' *X' b N ; &.` # _ ) # 0 r 0 @.*.:XhX/.&...-.G J B ....1.zX5X:X$.h r r 7 : _ / # 1.F ; Z b X.>.X.' O.=._ ..&.> > > > m M { ..%.f a p OX/.).,.,.",
"Q.~.~.^.R.,.,.V.OX|.|.oXf 2.O...} C C M m , -XO._ kXO./ ` ' O.N $.;.+.# > o.{ > + # q 0 g pXzXxXjX@. .C | {  .=.cXZXlXc u 0 q # # ( } } # : $.N.+.' <.` ` | <.$X} O.1.> M M C { } ..<.*.oXx |.XX+XlXO.2.",
"I.Q.~.^.Z./.J.aX=X&.z 2Xk %. .' | ..} m > @ *.*X .jX<.| ( : ` @.4 : : # ) O.<.> # # : z %.N.N.N.jX(...O.-.O...cXlXN.N.*.*.r # # X ` O.O.: # : : #.@.` : ) X.,.=XO.2.& : m _ } ..'  .&.l c 3X] 1.=XlXlXaX",
"W.~.^.~.Z.a.H.$X=X>.&.M.pXf 9 7 9 ` e y t 8 $ =XO.1.2.<.O.o.) ( ( ) m > | *X=.# : > ( @ 9 l k m.&.@.>.*.:X&.1.&.$.#.k a 7 : ( > : # -X<.` > ( M m ( | O.O.<.kX .<.*.$ 8 p 0 ` w 9 $ p 7.sX&.[ 1.jX=.lXF.",
"W.W.I.~.E.T.P +X$X&.+.dXsXoXj x f f :X4.p 9 0 =.<.' aX-X<.<.<.O.<.<.o.) ,.jX& > / } ,.O O $ u l +./ ` g :Xe / %.c l u @ O ] o.{ / : h -X>._ O.,.<.<.<.<.,.kX*.O.2.h u t s ;X4.x x x x 5XnXsX[ 1.$X%.lXcX",
"~.I.Q.Q.A.m.F <X<X<X7XnXnXsXN.3Xx s d 4.x u + h 2.O.( h =.1.1.=.+.e m 2.&.[ > _ o.<.=.O + $ $ @ % : # > 0 > # # $ @ $ $ + w =XO.o.) r X.1.>.m < %.=.=.=.*.< ' <.1.  $ x :X4.d a 3X3XV.mXnXnX,X<XqX+X$.).",
"W.I.^.^.$.$.Z <XqX<X7XnXnXM.%.3Xf s s 7.u @ + @ &.<.o./ r ( : : : ' >.@.O.&._ o.O.$X% % @ 9 9 7 7 : . O * . o # 7 9 9 $ @ % & -XO.{ m <. .&.[ e : : > ` : ' O.2.w @ @ @ x oXs s x c =.sXmXPX,X<XwX+X$.@.",
"W.I.Q.^.Z.Z.L 6XqX,X<X8X3XX.X.z d s x $ $ $ t 8 w -X<.o.=.O.o.X.| | ..O.<.` } O.-Xk 1 3 6.*.p p u w N ; < < < 0 y p p B.j 3 % $X<.O.| ' O.o.| |  .o.o.*X( O.<./.$ t t $ 8 a f s l [ [ =.4X4X,X,XwX*.m.).",
"W.I.U.W.K a.I *.+XXX8XeXpX&X&X%.d f t 8 8 a p 8 8 *.,.O. .=X-X2.2.,.>.' / ' 2.(._.k 2 j 5.G.+XXXXXx +.m.:Xa.z l <X|.N.m.5.3 % m.).-X,.) '  .,.,.2.2.2.=.o.<.-Xg 8 t d y 8 8 a f f X.X.1.6X8XqXOX+XG ].;.",
"I.I.~.!.I K.l.L @.XX<X<X6XoXoXa s p t t k :Xp t 8 @ h =X,.' ( _ _ ) _ | 2.J.Z.6.5 2 % j 6.J.H.3X.X6Xc a.h.m.+X<X.XM.G.m.5.3 % 2 5 #.J.-X,.| _ ) ) ) ` X.2.=.& @ 9 t s x a p s s a x 6X+XqX<X<X+X@.C.R.].",
"W.W.^.^.a.C.L L $.OXz +.e @.k k n.m.m.G.Z.:Xs y $ @ @ m._./.2.O.<.O.<.F.A.A.Z.3 6 j % 2 n.m.K.Z.3X.X2X*.=.+X2X.XV.A.G.m.j % 2 3 i 2 T.Z./.-X<.<.<.<.1.J.G.4 @ @ 9 t d 7.G.D.m.m.k c z +.z z OX%.G I C.D.",
"W.!.!.^.A.N / > a.I L L #.m.D.m.n.G.9.a.A.6Xs y $ $ & G.K.K.jX-X2.1._.'.[.G.K.5.5.n.k 2 m.].I.K.T.B.2X:XoX6X7.H.A.K.!.R.j 1 m.6.j n.G.W.W.J./.2.2.-X_.G.G.m.7 $ $ a s 3XA.~ m.).N.D.m.I $.G J a.I > ` @.",
"I.W.Q.^.a.N ` ` A.A.R.K.E.#.#.m.$.J ! A.R.:Xs y 8 8 m.^.#.H._./.'.'.vXE.N.H.R.B.m.I.K.j G.dX`.I.R.T.D.N.M.H.G.G.K.I.sXE.n.k !.T.n.Z._.).).'.'.'.cXcXR.m.Z.I.g 8 8 a p M.W.a.R L m.N.+.D.K.R.K.l.$.m ` @.",
"W.W.Q.!.C.@.@.C.A.a.A.C.$.F Q Q R s.A.K.W.x f t u m.~.^.D.T.K.K.W.[.H.Q.E.W.U.K.W.Q.^.Z.~.E.J.U.W.K.G.Z.J.].G.K.^.U._.~.G.R.~.^.E.R.^.E.!.W.G.W.!.G.R.J.G.U.T.k t y s m.E.G.G.p.R J G L $.A.s.~ l.G @.W ",
"W.I.I.!.R.J.T.T.A.A.G.R.K.R.K.K.I.A.~.I.Q.n.c m.E.I.G.R.Q.Q.I.R.U.^.W.Q.R.G.K.R.U.U.Q.Q.^.W.R.D.E.U.U.R.!.R.^.U.lXE.R.^.P.Q.Q.^.Q.G.W.Z.U.~.I.U.Q.R.Q.!.W.R.G.I.G.n.l J.W.Q.G.W.R.K.K.!.A.E.A.Z.T.T.T.K.",
"!.I.Q.Q.I.!.Q.!.Q.Q.Q.I.Q.W.Q.Q.U.Q.Q.U.!.I.I.Q.^.U.Q.Q.U.^.I.U.U.^.Q.Q.I.^.P.^.Q.U.Q.Q.^.Q.~.I.U.~.U.Q.^.U.^.U.^.Q.I.Q.I.Q.U.^.Q.W.W.Q.Q.U.U.U.Q.Q.Q.U.^.I.~.Q.I.U.W.Q.W.Q.W.U.~.U.U.^.I.^.I.!.W.Q.~.Q.",
"Q.U.^.^.Q.Q.Q.Q.U.^.I.U.!.W.Q.^.U.^.Q.Q.U.~.I.~.^.U.^.U.U.^.I.W.U.^.Q.^.Q.Q.I.^.U.Q.^.Q.Q.Q.U.U.Q.Q.Q.^.^.U.^.U.^.U.Q.U.Q.^.~.^.~.^.U.Q.^.I.^.U.^.Q.^.Q.^.U.^.U.U.Q.^.Q.^.~.Q.Q.~.Q.U.^.I.^.I.^.I.Q.Q.Q."
};
