/* XPM */
static char *cf20347f27bc4d55a36b08f323778f02[] = {
/* columns rows colors chars-per-pixel */
"100 100 207 2 ",
"   c black",
".  c #3E1F1B",
"X  c #3C251E",
"o  c #143425",
"O  c #183726",
"+  c #1B3D28",
"@  c #342C20",
"#  c #3D2C21",
"$  c #2C3626",
"%  c #243B27",
"&  c #2D3A28",
"*  c #3B3424",
"=  c #363827",
"-  c #3C3B26",
";  c #313D2A",
":  c #431F1E",
">  c #42281F",
",  c #452622",
"<  c #492524",
"1  c #432C23",
"2  c #4C2A25",
"3  c #4D2C29",
"4  c #522D2B",
"5  c #582F2D",
"6  c #443426",
"7  c #443B26",
"8  c #4A3B27",
"9  c #443528",
"0  c #4C312B",
"q  c #563526",
"w  c #553B26",
"e  c #55312E",
"r  c #59322D",
"t  c #5C3C29",
"y  c #573130",
"u  c #5C3432",
"i  c #5C3F30",
"p  c #68392C",
"a  c #603733",
"s  c #643A35",
"d  c #683E36",
"f  c #693E38",
"g  c #1E432B",
"h  c #1F4429",
"j  c #22452A",
"k  c #28442B",
"l  c #244A2C",
"z  c #294D2A",
"x  c #364229",
"c  c #3A452A",
"v  c #3C4B2D",
"b  c #26522D",
"n  c #2C542D",
"m  c #2B592F",
"M  c #33542B",
"N  c #3F502F",
"B  c #335C2E",
"V  c #3A5C2D",
"C  c #234D31",
"Z  c #284E32",
"A  c #265335",
"S  c #295636",
"D  c #2B5C33",
"F  c #285738",
"G  c #27583A",
"H  c #2B5C3A",
"J  c #3D5531",
"K  c #345A35",
"L  c #3E5A33",
"P  c #3D612E",
"I  c #2E6333",
"U  c #2E623C",
"Y  c #356331",
"T  c #396632",
"R  c #336D36",
"E  c #3C6C33",
"W  c #31663B",
"Q  c #3B6638",
"!  c #336C3A",
"~  c #396E3B",
"^  c #357137",
"/  c #3A7337",
"(  c #357138",
")  c #3C7538",
"_  c #3F7839",
"`  c #434529",
"'  c #4B4429",
"]  c #454C2C",
"[  c #5A462D",
"{  c #42512F",
"}  c #4D502D",
"|  c #50512F",
" . c #435531",
".. c #425C34",
"X. c #4B5B32",
"o. c #585632",
"O. c #64422C",
"+. c #6C422D",
"@. c #654D2F",
"#. c #70432E",
"$. c #6D4233",
"%. c #644F30",
"&. c #6C4139",
"*. c #744334",
"=. c #7B4635",
"-. c #764A32",
";. c #73453A",
":. c #7C4A3B",
">. c #645732",
",. c #715030",
"<. c #7D5335",
"1. c #7B5A35",
"2. c #42652F",
"3. c #456335",
"4. c #4D6336",
"5. c #446A31",
"6. c #4B6E31",
"7. c #4A6638",
"8. c #4C6A3A",
"9. c #536536",
"0. c #526D3B",
"q. c #596C39",
"w. c #437436",
"e. c #4C7433",
"r. c #457937",
"t. c #497A37",
"y. c #41763A",
"u. c #447B39",
"i. c #497E39",
"p. c #507A37",
"a. c #53723D",
"s. c #5B743D",
"d. c #5B793F",
"f. c #606035",
"g. c #577740",
"h. c #5C7D41",
"j. c #607F41",
"k. c #814C35",
"l. c #844E3C",
"z. c #884F3A",
"x. c #875439",
"c. c #8C533C",
"v. c #92563D",
"b. c #965A3E",
"n. c #995B3E",
"m. c #8C643B",
"M. c #93663E",
"N. c #976441",
"B. c #9C6341",
"V. c #9B6C41",
"C. c #9D7241",
"Z. c #A26D41",
"A. c #A26D44",
"S. c #A47245",
"D. c #AA7A41",
"F. c #47803A",
"G. c #4C833B",
"H. c #568137",
"J. c #5B8337",
"K. c #52863B",
"L. c #5A8639",
"P. c #55893B",
"I. c #5C8C3C",
"U. c #5F903C",
"Y. c #618E3B",
"T. c #64933D",
"R. c #68963D",
"E. c #6B983D",
"W. c #6D993D",
"Q. c #729C3D",
"!. c #759E3D",
"~. c #789F3D",
"^. c #77A03C",
"/. c #79A13D",
"(. c #7CA33D",
"). c #7EA53E",
"_. c #5F8043",
"`. c #638541",
"'. c #638545",
"]. c #658841",
"[. c #658846",
"{. c #81A73E",
"}. c #83A83E",
"|. c #87AB3E",
" X c #89AA3E",
".X c #8DAA3C",
"XX c #89AD3E",
"oX c #92AA3B",
"OX c #96AA3A",
"+X c #98AA3A",
"@X c #8DB13C",
"#X c #92B23B",
"$X c #96B23A",
"%X c #92B63B",
"&X c #98B23A",
"*X c #96B93A",
"=X c #98BA3A",
"-X c #EBAA41",
";X c #F2B241",
":X c #F7B241",
">X c #FFB241",
",X c #F2BA59",
"<X c #F7BA59",
"1X c #FFBA59",
"2X c #F2C365",
"3X c #F7C365",
"4X c #FFC365",
/* pixels */
"1X4X-X>X>X>X1X4X-X>X>X1X4X4X-X>X>X>X1X-X>X>X1X1X1X4X4X-X>X>X>X>X>X1X4X-X>X>X1X1X4X4X-X>X>X>X1X1X4X-X>X>X1X+ + 4X-X>X1X1X1X1X4X-X>X>X>X1X4X-X>X1X1X1X4X4X-X>X>X1X4X4X-X>X1X1X4X4X-X>X>X>X1X1X4X-X>X>X>X>X",
"1X4X4X-X>X>X1X4X-X>X>X1X4X4X-X>X>X>X1X-X>X>X1X1X1X4X4X-X>X>X1X>X>X1X4X-X1X1X1X1X4X3X-X>X>X1X1X1X4X-X>X1Xz 5.2.4X-X1X>X>X1X1X4X-X>X>X>X1X1X-X>X>X1X1X4X4X-X>X1X1X4X-X>X1X1X1X1X4X-X>X>X1X1X1X4X-X>X>X>X>X",
"1X4X4X1X1X1X1X4X-X>X>X1X4X4X-X>X>X>X1X-X>X>X1X1X1X4X-X>X1X>X1X1X>X1X4X-X>X>X1X1X4X4Xl l >X>X1Xl l -X>Xz V J.H.B -X1X>Xl l 1X4X-X>X1X1X1X1X-X>X1X1X1X4X-X>X>X1X1X1X-X>X>X1X1X4X-X-X>X>X1X1X1X4X-X>X>X>X>X",
"1X4X4X-X1X1X1X4X-X>X>X1X4X4X-X>X>X>X1X-X>X>X1X1X1X4X-X>X>X1X1X>X>X1X4X-XO O O O o j E E j o n E Y O O 5.J.T.T.J.P o h T E z o O O >X:X1X4X-X>X>X1X1X4X-X>X>X1X1X4X-X>X>X1X1X4X-X>X>X>X1X1X1X-X>X>X>X>X>X",
"1X4X4X-X>X1X1X4X-X>X>X1X4X4X-X>X>X>X1X-X>X>X>X1X1X1X-X>X1X1X>X1X>X1X4XM 2.5.5.5.M l w.t.Y P e.F.w.P 5.H.T.R.R.T.J.6.T r.r.z M 5.5.P >X1X4X-X>X1X>X1X4X-X>X>X1X1X4X-X>X>X>X1X4X-X>X>X>X>X1X1X-X>X>X>X>X>X",
"1X4X4X-X1X1X1X4X-X1X1X1X4X4X-X>X>X>X1X-X>X>X>X1X1X4X-X>X>X>X1X;X>Xj j V L.T.T.T.p.B w.G.K.I.Y.K.G.K.Y.T.R.E.E.E.(.!.K.G.t.B e.T.T.p.z j j -X1X>X1X1X4X-X>X>X1X1X1X4X-X1X1X1X4X-X-X>X>X>X1X1X-X>X>X>X>X>X",
"1X4X4X-X>X1X1X4X-X>X>X1X4X4X-X>X>X1X1X-X>X>X1X1X1X1X-X>X>X1X>X>Xn E w.r.P.T.R.R.Y.H.G.K.U.T.T.T.P.K.T.R.E.(.).).|.(.P.P.I.J.Y.T.I.G.w.w.T j o >X1X1X4X-X>X>X1X1X4X4X-X>X>X1X1X4X-X>X>X>X1X1X-X>X>X>X>X>X",
"1X4X4X-X>X1X4X4X-X>X1X1X4X4X-X>X>X1X1X-X>X>X>X1X1X4X-X>X>X1X,X>Xn w.i.G.G.P.T.E.!.Q.R.T.T.R.R.R.T.T.T.R.!.}.XX|.}.!.I.T.R.R.T.I.K.G.G.r.Y j M P 1X1X4X-X>X>X1X1X1X4X-X>X1X1X1X4X-X1X>X1X1X1X-X>X>X>X>X>X",
"1X4X4X-X>X1X4X4X-X1X1X1X1X-X-X>X>X1X1X-X>X>X>X1X1X4X-X;X;X,X>X>X1Xn w.G.G.K.I.(.|.|.}.(.E.R.R.E.(.(.T.R.{.|.|.|.!.R.R.R.R.T.I.K.G.G.G.T l z p.p.z 1X4X-X>X>X>X1X1X4X-X>X>X1X1X1X-X>X1X1X1X1X-X>X>X>X>X>X",
"1X4X4X-X>X1X4X4X-X>X1X1X4X-X>X>X1X1X4X-X>X>X>X1X1X4X-Xo o o o o V p.J.I.I.I.T.Q.).|. X|.(.E.E.(.}.|.!.E.Q.{.{.!.E.E.(.).!.T.K.F.F.P.I.H.p.p.e.P j 1X1X-X>X>X>X1X1X4X4X-X1X1X1X4X-X>X>X1X1X1X-X>X>X>X>X1X",
"1X4X4X-X>X1X4X-X-X>X1X1X4X-X>X>X1X1X-X>X>X>X>X1X<X4XM V V M n b 5.I.T.R.R.R.R.R.Q.).{.{.).Q.Q.}.|.|.|.Q.I.!.(.Q.Q.(.|.{.Q.P.P.I.I.T.E.E.T.Y.e.n b z 4X4X-X>X1X1X1X4X4X-X>X>X1X4X-X>X1X1X1X1X-X>X>X>X>X1X",
"1X4X4X-X>X1X4X-X>X>X1X1X4X-X>X1X1X1X-X>X>X>X>X1X1X+ 5.I.Y.J.i.t.i.K.T.T.R.R.R.R.E.E.E.E.E.E.Q.|.XX|.|.(.R.E.^.{.}.|.|.Q.I.K.R.).{.{.).Q.T.P.G.t.t.Y + + -X-X>X1X1X4X4X4X-X1X1X4X-X>X>X1X1X1X-X>X>X>X>X1X",
"1X4X4X-X>X1X4X-X>X>X1X1X4X-X>X>X1X1X1X>X>X>X1X1Xo O M p.Y.T.I.K.F.G.P.I.I.T.T.T.E.^.(.Q.R.(.|.@XXX|.|.{.(.(.).|.|.XX@X|.!.Q.(.|.XX}.(.E.T.K.G.G.G.r.E T B -X>X1X1X1X4X4X-X1X1X4X-X>X1X1X1X1X-X>X>X1X>X1X",
"1X4X4X-X>X1X4X-X>X>X>X1X4X-X>X>X>X1X-X>X>X<X>Xl z z z V J.T.T.I.I.I.I.P.K.U.E.E.(.|. X{.^.XX*X*X%X X|.XXXX|.|.|. X@X$X*X%XXX|.|.|.(.R.T.I.G.G.G.G.i.t.r.T + 1X>X1X4X4X4X-X1X1X4X-X>X>X1X1X4X-X>X>X>X>X1X",
"1X4X4X-X>X1X4X-X>X>X>X1X4X-X>X>X1X1X-X>X>X1X+ T r.r.r.r.K.P.I.Q.(.(.(.Q.P.R.).{.}.XXoX#X@X%X*X*X*XoXXX@X%XXX|.XX.X*X*X=X%XXX|.|.|.(.R.I.K.G.G.G.G.E n n n >X>X>X1X1X4X4X-X1X1X1X-X>X>X1X1X4X-X>X>X>X>X1X",
"1X4X4X-X>X1X4X-X>X>X>X1X4X-X>X1X>X4X-X>X1X1X+ B w.K.P.G.G.I.W.).XXXX X{.Q.E.!.|.XXXX.X#X$X&X*X*X%XoX@X#X$XXX{.)..X&X$X%X@XXX|.|.).Q.R.I.P.G.G.K.P.t.Y V n >X>X>X1X4X4X4X-X>X1X1X-X>X>X1X1X4X-X>X>X>X>X1X",
"1X4X4X-X>X1X4X-X>X>X>X1X4X-X>X>X>X4X4X>X1X<X1Xz P I.U.K.G.T.).|.|.|.|.|.{.E.T.(.|.|. X@X#X$X*X*X@X X#X$X*X@X).!. X$X*X@XXX|.|.}.!.E.R.T.I.P.K.P.T.I.G.F.E l j j 1X4X4X4X-X>X>X1X-X>X>X1X1X4X-X>X>X>X>X1X",
"1X4X4X-X>X1X4X-X>X>X>X1X4X-X>X>X>X4X4X1X1X1X% 5.J.T.T.I.P.P.T.(.|.|. X}.!.R.T.E.(.|.|.XXXX@X@XXXXX X#X&X*X%XXX{.|.@XXXXX|.|.|.|.{.!.R.I.I.U.T.T.T.T.I.K.i.w.w.T j 4X4X-X-X>X>X1X-X>X>X1X1X1X-X>X>X>X>X1X",
"1X4X4X-X>X1X4X-X>X>X>X1X4X-X>X>X>X4X-X>X1XM 5.J.R.R.T.I.K.F.K.E.(.~.~.!.E.T.T.T.Q.(.).}.XX@X@X@XXX X#X$X*X*X%XXX X@X@XXX|.).).).).Q.T.T.R.Q.!.Q.R.R.T.I.P.G.G.r.V z 4X-X>X>X>X1X-X>X1X1X1X4X-X>X>X>X1X1X",
"1X4X4X-X>X1X4X-X>X>X>X1X4X-X>X>X>X1X-X>Xo V J.T.T.T.I.K.G.G.K.T.T.P.P.P.T.R.E.E.E.E.E.).#X$X*X*X@X X#X$X*X*X%XXXoX$X$X@X}.!.E.E.E.T.I.!.|.|.|.).E.R.T.T.I.K.G.i.r.B O -X>X>X1X1X-X>X1X1X1X4X-X>X>X1X1X1X",
"1X4X4X1X>X1X4X-X>X>X>X1X4X-X>X>X4X1X-X1Xo z 2.5.5.i.i.i.P.U.T.T.T.I.K.G.P.E.(.).}.XX X@X$X&X*X*X%XoX$X$X*X%X@X%XOX$X*X%X@XXX(.T.T.E.!.}.XX|.|.|.).R.P.P.I.P.5.V V b 4X-X>X>X1X1X1X>X>X1X1X4X-X>X>X1X1X1X",
"1X4X1X1X>X1X4X-X>X>X>X1X-X-X>X>X4X4X-X>Xl l l b m R _ G.T.R.R.R.R.R.T.T.T.!.|.|.@X%XOX$X$X*X*X*X*XOX$X$X*X@X@X%XOX$X*X*X*X*XXX^.E.Q.(.|.|.|.|.XX|.!.I.K.P.I.5.l O 4X4X-X>X>X>X1X-X>X>X>X1X4X-X>X>X>X>X1X",
"1X4X4X-X1X1X4X-X>X>X>X1X-X>X>X>X4X1X-Xg D R R w.t._ G.T.R.R.R.R.R.R.!.).{.|.|.|.XXXXoX$X$X$X*X*X*XOX$X$X*X*X%XXXoX$X*X*X*X*X*X.XQ.T.T.(.|.|.|.|.|.}.!.P.G.K.i.E j 1X4X-X>X>X1X1X1X>X>X>X1X4X-X>X>X>X1X1X",
"1X4X4X1X>X1X4X-X>X>X>X1X-X>X>X>X4X1X-X>Xb Y y.F.G.K.I.R.!.(.(.(.Q.T.T.!.XX%X@XXX|. X.X#X$X$X*X*X*XOX$X$X*X*X%XXX X#X$X$X*X*X%X XR.P.I.T.E.E.E.W.W.E.R.P.F.G.G.i.E b 4X-X>X>X1X1X-X>X>X>X1X4X-X>X>X>X1X1X",
"1X4X4X-X1X1X4X-X>X>X>X1X-X>X4X1X4X1X-X>Xz Y i.G.K.I.R.Q.{.|.|.|.(.P.P.Q.#X=X*X@X|.{.{.|.@X*X*X*X*XOX$X$X*X*X%XXX|.|.#X#X%X%X@X{.R.T.R.I.G.G.G.K.I.P.G.K.P.K.G.F.i.T z -X>X>X1X1X-X>X>X>X1X4X-X>X>X>X1X1X",
"1X4X4X-X>X1X4X-X>X>X>X1X-X>X>X4X1X4X-Xj E i.G.G.G.P.E.{.|.|.|.|.~.I.!.@X$X$X*X%X|.Q.E.Q.^.@X*X*X*XOX$X*X*X*X*X%X).(.|.XXXXXXXX|.{.{.(.T.G.G.F.I.!.R.P.T.T.T.K.i._ r.E j >X>X1X1X-X>X>X>X1X4X-X>X>X>X1X1X",
"1X4X4X-X>X1X4X-X>X>X>X1X-X>X>X1X2X4Xn T t.i./ r.P.R.(.|.XXXX|.(.T.P.).&X=X&X*XXX(.E.Q.(.}.@X*X*X*XOX$X*X*X*X*X*X X).(.{.|.|.XX.X@X@X|.!.T.G.F.T.{.(.Q.!.Q.T.U.G./ E Y j >X>X1X1X-X>X1X>X1X4X-X>X>X>X>X1X",
"1X4X4X-X>X1X4X-X>X>X1X1X-X>X>X>X4XO B r.i.E z T P.!.).).{.{.(.T.K.I.).#X#X%X@X!.R.Q.).@X*X$X*X*X*XOX$X$X$X*X*X*XOXXXQ.(.}.|.@XOX$X#XXX|.(.I.G.T.{.|.|.|.(.E.T.K.w.m j -X;X>X1X1X4X1X1X1X1X4X-X>X>X>X>X1X",
"1X4X4X-X>X1X4X1X>X1X1X1X-X>X>X4X4X-Xz n n z g D y.K.K.K.I.T.Y.K.T.|.).^.^.^.!.E.Q.).|.@X*X$X*X*X*XOX@XXX@X%X*X*X+X@XE.E.Q.Q.|.OX$X$X#XXX|.(.Y.T.{.XX|.|.|.(.P.K.P.r.D g >X>X1X1X4X-X1X1X1X4X-X>X>X>X>X1X",
"1X4X-X>X>X1X4X-X1X>X1X1X-X>X>X>X4X-X>Xo o + b I R ^ R ^ i.G.G.F.T.|.^.T.T.T.T.Q.).|.XX#X*X&X*X%X%X.XXX|.XX@X%X%XOX#X).Q.T.R.(. X#X&X$X{.!.Q.I.P.Q.{.|.XX X|.W.I.P.t.R m l >X1X1X4X-X>X1X1X4X-X>X>X>X>X1X",
"1X4X-X>X>X1X4X-X1X1X1X4X-X>X4X:X4X-X:X>X+ l R / / ^ ^ ) F.G.G.K.I.E.E.R.T.I.T.(.|. X#X*X%X$X%XXX|.|.XXXX|.|.|.XXoX$X#X).R.T.R.^.@X$X@XR.K.P.K.K.P.Q.{.}.{.{.).R.t./ ^ R b O >X1X1X-X>X1X1X4X-X>X>X>X1X1X",
"1X4X-X>X>X1X4X-X1X1X1X4X-X>X>X>Xo 4X>X+ C D R G.K._ _ i.G.G.K.R.(.(.Q.T.I.T.(.|.|. X#X@X).|.XX|.(.(.@X@X|.(.(.|. X@XXX(.T.I.R.).XX}.W.P.K.I.T.I.K.I.T.T.Y.P.I.K.i.i./ m h >X,X1X4X1X>X1X1X4X-X>X>X>X1X1X",
"1X4X-X>X>X1X4X-X1X>X1X4X-X:X>Xb n z g b Q y.i.K.K._ _ i.i.K.T.(.XX|.Q.T.T.~.|.XX}.{.XX}.^.).|.|.).{.%X#XXXQ.!.|.|.|.|.(.R.P.E.|.|.(.T.K.P.T.R.T.P.K.G.G.i._ ^ _ G.G.r.V z >X:X1X1X-X1X>X1X4X-X>X>X1X1X1X",
"1X4X-X>X>X1X4X-X1X1X1X3X-X>XO Y r.B b E K.T.T.K._ / / ) ) I.).|.|.}.R.I.(.}.|.|.(.E.E.^.}.|.|.|.@XoX$X$X%X^.Q.}.|.|.|.|.(.I.E.|.|.|.).T.P.T.R.R.T.I.G.G.G.F._ _ F.G.G.i.V O >X1X4X-X>X>X1X4X-X>X>X>X1X1X",
"4X4X-X>X>X1X4X-X>X>X1X4Xo o o Y i.r.r.K.T.R.R.K.^ y.i.y.^ I.|.XX{.W.P.P.T.R.W.Q.Q.R.T.!.|.XX|.XX%X+X$X=X#X^.T.E.).XXXXXX(.I.T.(.|.XX|.(.R.I.Q.!.E.T.I.K.G.F.i./ T t.G.G.Y O >X1X4X-X>X>X1X4X-X>X>X>X1X1X",
"4X4X-X>X>X1X4X-X1X>X1XB V V V 5.F.G.P.T.R.T.T.P.K.G.F.F.K.Y.~.(.Q.I.P.I.I.P.P.T.R.R.R.!.|.|.|.|.XX.X$X%XXXQ.T.T.Q.(.(.|.(.I.I.E.(.{.{.|.!.I.!.{.!.Q.R.K.F.G.G.w.n E r.w.T b >X1X4X-X>X>X1X4X-X>X>X1X1X1X",
"4X4X-X>X>X1X4X-X1X1XV J.Y.Y.Y.P.K.G.P.T.R.T.I.E.!.P.u.i.W.W.K.K.I.T.!.).).Q.T.T.R.R.T.Q.|.|.|.|.Q.W.@XXXQ.E.Q.(.R.I.I.!.(.I.I.R.E.E.Q.{.!.I.!.|.}.}.~.K.y.G.G.t.R n z n E w.z 1X1X-X>X>X1X4X-X>X>X>X1X1X",
"4X4X-X>X>X1X4X-X1X5.p.T.E.R.R.E.R.P.P.T.R.R.Q.).).I.i.F.T.Y.i._ K.!.}.XXXX(.E.!.Q.T.I.E.|.XX{.Q.I.I./.^.E.!.).|.(.T.K.T.T.P.I.T.R.T.R.E.R.I.T.!.|.XX(.i.( u.F.i.R l o O V Y l 1X4X-X>X>X1X4X-X>X>X>X1X1X",
"4X4X4X-X>X1X4X1Xj e.Y.T.R.T.T.!.{.R.T.E.R.E.(.{.(.I.K.K.P.K.F.y.I.{.XX|.}.(.!.{.).E.P.T.}.|.!.P.G.P.T.R.E.).|.|.|.(.P.G.K.P.T.E.T.T.T.P.P.T.I.T.(.{.!.J.y.) i.u.R n h 4X+ + >X1X4X-X>X>X1X4X-X>X>X>X1X1X",
"4X4X4X-X>X1X-X-X1XM 6.Y.R.T.I.E.|.{.).).R.P.I.R.E.T.T.T.T.K.t.K.E.}.XX{.!.(.{.|.|.(.I.T.{.Q.I.K.G.P.T.T.E.{.|.|.XX(.P.F.I.!.{.(.T.I.T.G.G.T.T.T.I.K.I.Q.Y./ ) ) ^ R D g -X>X>X1X4X-X>X>X1X4X-X>X>X>X1X1X",
"4X4X4X-X>X1X-X>X>Xn 5.P.I.I.I.E.|. XXX|.!.T.I.T.T.R.R.T.I.i.y.T.^.!.Q.Q.R.(.|.|.{.Q.P.I.E.I.P.T.I.K.I.T.E.{.|.|.|.(.P.F.I.{.XX}.Q.T.I.y.y.K.T.T.K.u.i.T.P./ ^ ^ ^ ( I g -X>X>X1X4X-X>X>X1X4X-X>X>X>X1X1X",
"4X4X4X-X>X1X-X>Xz E G.G.K.P.T.!.}.|.|.|.|.(.E.T.R.T.T.T.i.) i.Q.!.P.K.I.T.(.|.{.Q.P.K.K.K.P.T.).Q.P.K.I.R.).|.|.|.(.P.F.I.(.|.|.|.Q.K._ ^ _ P.T.K.F.F.i._ ^ ^ R R R I l -X>X1X1X1X-X>X>X1X1X-X>X>X1X1X1X",
"4X4X4X-X>X1X-Xn w.i.G.G.P.T.T.E.!.{.|.|.(.Q.R.R.R.T.T.P.F.K.I.T.I.K.P.T.R.(.{.T.P.T.T.I.K.R.).|.{.Q.P.G.I.(.XX|.XX(.P.F.K.T.!.|. X!.K.F.y.) P.I.i.i.K.P.G.^ ^ I b l n I b O >X1X1X-X>X>X1X1X-X>X>X>X1X1X",
"4X4X4X-X>X1X-Xn E y.F.P.T.R.R.T.E.).XX|.(.Q.!.!.Q.T.P.G.P.U.T.I.P.G.P.I.I.R.R.i.G.T.R.T.I.(.|.|. X).I.F.P.E.).|.).W.P.K.P.G.T.!.!.R.K.G.F.y.K.K._ i.I.T.P.y._ Y + o l D b O >X1X1X-X>X1X1X1X-X>X>X>X1X1X",
"4X4X-X>X>X1X-X>Xz Y i.I.T.T.T.R.E.).|.|.|.|.|.|.(.T.K.K.U.T.R.T.T.K.G.F.y.y.y._ K.T.R.T.T.(.|.|. X).I.F.G.P.E.{.R.K.K.I.T.P.K.P.P.K.G.G.G.F.y./ _ K.T.T.I.G.G.w.z 1X1Xg -X>X1X1X1X-X>X>X1X1X-X>X>X>X1X1X",
"4X4X-X>X>X<X-Xl I t.P.P.P.P.P.R.(.|.{.(.{.XX|.XX|.(.T.K.P.U.T.R.T.I.G._ ^ R ) K.Y.T.I.K.K.!.|.|. X).I.F.G.P.Q.{.E.P.K.I.T.T.I.I.K.G.G.G.G.G._ y.K.T.T.I.K.K.I.I.p.V o o -X>X>X>X1X-X>X>X1X1X1X>X>X>X1X1X",
"4X4X-X1X1X1Xl m / K.P.K.G.K.I.Q.|.}.(.E.Q.).|.|.|.|.(.T.P.P.T.T.T.T.K.) ^ ^ y.I.R.T.I.G.i.Q.|.|. X).I.P.T.E.(.(.Q.T.P.T.R.R.R.T.I.G.F.K.K.i._ i.I.T.T.T.I.P.T.R.T.e.V V M 4X:X4X1X-X>X>X1X1X-X>X>X>X1X1X",
"1X4X-X1X1Xg D R ^ / t.G.G.P.!.|.}.!.E.R.I.T.{.|.|.|.|.(.I.G.K.K.P.T.P.i.) ^ y.I.R.T.T.I.K.Q.|.|.|.(.I.R.{.}.(.Q.E.T.T.T.T.R.R.R.T.P.t.P.P.y.i.G.K.U.E.(.!.R.T.R.T.Y.Y.I.5.j 1X4X1X-X>X>X>X1X-X>X>X>X1X1X",
"1X-X>X1X>X1Xb m m E i.P.P.I.).}.^.E.E.!.I.P.Q.(.(.^.Q.R.P.F.y._ i.P.P.G.i.) y.I.R.T.P.G.K.T.!.}.(.R.T.Q.|.XX}.(.E.R.R.T.I.T.R.R.R.P.G.I.T.P.P.P.K.T.(.|.}.(.E.R.T.P.K.K.p.e.M 1X4X-X>X>X1X1X-X>X>X>X1X1X",
"1X-X1X1X>X1XO g n r.P.T.I.I.!.!.E.E.(.{.E.T.T.R.R.R.T.P.G.F.t.y.i.K.G.F.F._ y.I.T.I.i.y.F.G.T.).Q.I.T.(.|.|.|.|.!.R.T.I.P.T.T.T.T.I.K.T.R.R.R.T.T.!.|.|.{.~.R.T.T.G.) / K.p.M 4X1X-X>X>X>X1X-X>X>X>X1X1X",
"1X-X>X1X>X1Xo b r.P.T.T.T.T.I.T.E.(.|.|.{.(.E.T.R.R.T.T.P.P.I.Y.T.T.G._ ) ^ y.I.P.i.i.F.G.G.T.{.!.T.T.(.|.|.|.|.!.R.T.P.G.K.F.i.T.I.K.T.R.R.R.E.(.}.|.|.Q.K.K.P.K.G.u./ Y M 1X1X1X-X>X1X1X1X-X>X>X1X1X1X",
"1X-X>X1X>X1Xo B G.U.R.R.T.I.K.P.E.{.XX|.XX).T.T.R.R.R.T.U.I.I.T.R.T.I.i./ R _ G.i.) K.I.I.K.P.T.R.R.R.(.|.|.XX|.!.T.P.F.i.F.y._ K.P.G.K.I.T.T.Q.|.XX|.|.Q.K.P.P.G.G.F.y.m o >X4X1X-X>X>X1X1X-X>X>X1X1X1X",
"1X-X-X1X>X1Xo n i.U.R.R.I.K.K.I.R.(.}.|.XX(.I.I.T.T.T.T.T.I.P.I.T.R.R.I.i./ ^ ^ / t.I.R.T.I.G.y.K.T.R.(.|.|.|.{.Q.I.y.^ _ i.y._ G.P.G.y.K.R.E.!.{.|.|.|.^.R.T.T.K.G.F.i.T l 1X2X1X-X>X1X1X1X-X>X>X1X1X1X",
"1X4X-X1X>X1XO b / I.R.R.I.K.I.I.P.I.Q.|.XX(.P.K.P.P.P.P.P.I.U.I.I.T.R.T.I.G.^ ^ i.I.T.R.R.T.P._ K.T.R.(.|.|.).Q.E.I._ ^ ^ ) / _ P.T.I.G.I.(.{.(.!.).}.!.E.R.R.T.U.G._ _ w.E z 4X1X-X>X1X1X1X-X>X>X>X1X1X",
"1X4X1X>X>X1XO l ! P.T.I.K.K.I.P.G.P.R.}.).W.P.K.P.G.G.G.P.U.T.P.K.I.U.I.P.i.^ ^ G.T.R.R.R.R.I.y.G.T.T.W.Q.{.).R.R.I.i.) ^ ^ y.K.T.R.R.R.!.|.XX).T.E.(.!.E.R.R.R.T.i.^ ^ / E l 4X1X-X>X>X1X1X-X>X1X1X1X1X",
"1X4X-X1X>X1XO g H K.I.t.y.G.G.G.P.T.Q.).R.K.K.I.T.P.G.K.T.R.T.I.K.G.K.G.y./ ^ / K.T.R.R.R.T.P.y.i.P.T.K.G.!.(.R.T.I.G._ ^ _ K.T.R.T.R.(.{.|.|.(.I.T.Q.    E.T.T.T.G.) ^ D l >X1X1X-X>X>X4X4X-X>X>X>X>X1X",
"1X4X-X>X1X1X-Xg C Q y.! _ G.G.P.T.T.R.T.P.K.I.T.T.T.P.P.T.R.T.T.I.G.G.F.i._ ) y.P.T.R.R.T.P.i.i.F.G.P.i.y.T.Q.R.I.P.G._ y.K.T.R.R.T.I.T.R.Q.!.E.T.Q.        T.P.P.P.K.) R D j 1X1X-X>X>X4X1X-X>X>X>X>X1X",
"1X4X-X>X>X1X-X>X+ A H H ) F.F.P.T.R.T.K.G.P.T.R.R.R.I.G.P.T.R.R.T.F.F.G.G.y.) F.P.T.T.R.T.G._ F.G.G.G.y._ K.T.T.P.G.G._ y.P.I.I.U.I.G.K.I.T.R.T.T.(.        Y.F.G.P.K.( ! I h o 1X-X>X4X4X1X-X>X>X>X>X1X",
"4X4X-X>X>X1X-X>X+ A H l T i._ K.T.T.I.K.G.P.T.R.R.T.K._ ) K.T.T.P.t.i.G.G.y._ F.G.P.T.R.T.G._ F.G.G.G.y.^ / K.T.P.G.G.y.^ _ _ y.G.G.K.I.T.R.R.T.P.Q.        Y.F.F.y.W U U H g O 1X-X>X>X4X4X-X>X>X>X>X1X",
"4X4X-X>X>X1X-X>X>Xl C g n Y R K.T.P.G.G.G.K.I.T.R.R.K.^ R y.G.i.K.K.F.y.y.y.i.F.G.K.T.T.K.y./ _ F.F.u.) ^ ^ _ G.i.i.F.y.^ ^ ) i.F.G.K.T.R.R.T.P.K.I.R.R.    P.i.F.~ G C H H g O 1X-X>X>X4X1X-X>X>X>X1X1X",
"4X4X-X>X>X1X-X>X:X1XO 4X1Xh I i.P.i.) i.G.F.F.P.T.I.K.t./ ^ ^ ! y.P.i.^ ^ y.G.G.F.G.U.P._ ^ ^ ^ y.i.) / ) ^ ^ ^ ^ _ i._ ^ ^ y.G.G.F.G.T.T.I.P.G.G.G.G.G.T.Q.K._ i.) D g C A g 1X1X-X>X4X4X1X-X>X>X1X1X1X",
"4X4X-X>X>X1X-X>X>X1X4X2X-Xg H ! _ / ( ) i.F._ i.G.i.K.P.t.^ ^ ! ! ~ ~ ^ ^ u.G.G.u.y.I.P._ ^ ^ ^ ) ) ^ y.i._ ^ ^ ^ ^ ) / ^ ^ y.G.G.i.y.I.I.i.i.G.G.G.G.G.G.i.) ^ ) t.E j + g 4X4X1X-X>X>X1X1X1X>X>X>X>X1X",
"4X4X-X>X>X1X-X>X>X1X4X4X-Xg C H U D D ! t.i.! y.F.i.F.K.) ! ! ! W U ! ( ! y.F.i._ / i.G.i.) _ K.K.K.i.F.F._ ) y.u._ ^ ^ ) y.y.y.y._ ) K.K./ _ i.G.G.F.i.) ( ^ ^ ^ _ ~ A g O >X4X4X-X>X1X1X1X-X>X>X>X1X1X",
"4X4X-X>X>X1X-X>X>X1X4X4X-X>XO C F j l W y.t.W ) F.G.y.! U H H H H U ! ! U ) i.) ^ ^ ^ _ i.y.i.I.T.T.P.K.K.i.i.F.F.u./ ^ ) i.y.^ ! ( _ F.F._ ( _ F.G.i.( ( ^ ^ ^ ! W U H C O 1X4X1X-X>X>X>X1X-X>X>X>X>X1X",
"4X4X-X>X>X1X-X>X>X1X4X4X-X>X>Xg g + l H ! ( W W ) i.y.W U F j g C H U U U W ! ! ^ ^ ^ ^ _ i.G.P.T.T.T.T.T.Y.P.G.y.) ^ ^ ^ ) / ! W ( i.G.G.i.~ ~ i.i.( ! ! ^ ^ ! U U U H C O 4X4X1X-X>X>X1X1X-X>X>X1X1X1X",
"4X4X-X>X>X1X-X>X>X1X4X4X-X>X>X1XO O g A U ! U H H Q Q H F C O o g A H U U H U ! ^ ^ ! ! ^ i.G.G.P.T.T.T.T.T.T.I.K.F.y.y._ ^ ^ ! U ) G.G.G.y.! ~ i.y.! U U ! ( ! U F F H C O 1X4X1X-X>X1X1X1X-X>X>X1X1X1X",
"4X4X-X>X>X1X-X>X>X1X4X4X-X>X>X1X2X2X-Xg A H H C + g A H l O 1X4X-X+ A H H H U ! ^ ! U W ) i.G.G.G.P.T.I.P.T.R.T.T.I.G.F.i.( ^ ! U ~ F.F.y.W U ! i.y.! U U U ! ! H C l H C O >X1X4X-X>X>X1X1X-X>X>X1X1X1X",
"4X4X-X>X>X1X-X>X>X1X4X4X-X>X>X1X1X4X-X>Xg C H C O 4Xg j g 1X1X4X4X+ A H C F U ! ! W U ! i.F.G.G.P.T.T.I.K.T.R.T.I.K.y._ ) ! ! R A Q i.E D H U W ! ( ! U U U U D l g g j g >X;X4X1X-X>X>X>X4X4X>X>X>X>X1X",
"4X4X-X>X>X1X-X>X>X1X1X4X-X>X>X1X1X4X-X:X>Xg A C O 4X-XO >X1X1X4X4X+ C A g C H W W U ! y.G.G.F.F.P.R.R.I.K.I.I.P.G.u._ / ! ! ! I l n E z l H H H H W W H H H H C + 1X1XO -X>X>X1X1X-X>X>X>X4X4X>X>X>X>X1X",
"4X4X-X>X>X1X-X>X>X1X1X4X-X>X>X1X1X4X-X>X:X>X+ 4X4X4X-X>X1X1X1X4X4X-X+ + 1X+ g H U W y.F.F.G.i._ P.T.T.I.G.G.F._ / _ i._ ^ ! ! H g + j + l H C C H U H l A H l + >X1X1X4X-X>X>X1X1X-X>X>X>X4X4X>X>X>X>X1X",
"4X4X-X>X>X1X-X>X>X>X1X4X-X>X>X>X1X4X-X>X>X>X1X4X4X4X-X>X>X1X1X1X4X-X>X>X>X1Xg H H A Q _ _ _ y.i.I.T.I.P.G.G.F.u.) / _ ~ ! ! ! H g o >X1Xg l + g H U H g C H j O ,X1X1X4X-X>X>X1X1X-X>X>X>X1X-X>X>X>X>X1X",
"4X4X-X>X>X1X-X>X>X>X1X4X-X>X>X>X1X4X-X>X>X>X1X1X4X4X-X>X>X>X1X4X4X-X>X>X>X1Xg A C g F W ! ! ( F.I.I.P.F.F.i.i.F._ ! ( W U ! U F g >X>X1X1XO O j H H A g C F g >X;X1X1X4X-X>X1X1X1X-X>X>X4X4X-X>X>X>X>X1X",
"4X4X-X>X>X1X-X>X>X>X1X4X-X>X>X1X1X4X-X>X>X>X1X1X4X4X-X1X1X1X1X1X4X-X>X1X<X1X4Xk g g F W ! ! ~ i.K.K.G.i.( ! ) i.~ W ! W U U A g -X>X>X1X1X4XO j H A g 1Xg g -X>X>X1X1X4X-X>X1X1X1X-X>X1X1X4X-X>X>X>X1X1X",
"4X4X-X>X>X1X-X>X>X>X1X4X-X>X>X1X1X4X-X>X>X>X1X1X4X4X-X>X>X>X<X1X4X-X>X>X1X[.'.a.L j F U W U W ) i.F.i._ ! U ! ~ D F W U U H C o -X>X1X1X1X4X-Xg C j >X1X1X4X-X>X>X>X1X4X-X>X>X1X1X-X>X1X1X4X-X>X>X>X>X1X",
"1X4X-X>X>X1X-X-X>X>X1X4X-X>X>X>X1X4X-X>X>X>X1X1X4X4X-X>X1X1X>X[.[.-X>X>X[.[.[.[.0.k C H H H H U ) t.) ( ! U H H l g F H H H S M -X>X>X1X1X4X-X>XO >X>X1X1X4X-X>X1X>X1X1X-X>X>X1X4X-X>X1X1X1X-X>X>X>X>X1X",
"1X4X-X>X>X1X4X-X1X>X1X4X-X>X>X1X1X4X-X>X>X>X>X1X4X4X-X>X>X>X:X1X4X].].].].[.[.[.0.* % C H C C H W ! ! ! U C C H l + j F H C 3.h.`.>X>X1X1X[.-X;X>X>X>X1X1X4X-X>X1X1X1X4X-X>X>X1X4X-X1X1X1X1X-X>X>X>X>X1X",
"1X4X-X>X>X1X1X-X1X>X1X4X-X>X>X>X1X4X-X>X>X>X>X1X4X4X-X>X>X1X1X1X[.].].].].h.d.'.q.> @ ; C g g H U U W U C ; ; C & c 3.K S 3.d.[.].].1X1X1X4X-X>X>X>X1X1X1X4X-X1X1X1X1X4X-X>X>X1X1X-X>X>X>X1X-X>X>X>X>X1X",
"1X4X-X>X>X1X4X-X1X1X1X4X4X-X>X1X1X4X-X>X>X>X>X1X4X4X-X>X1X1X].[.[.].].].[.0...s.9.1 , 6 & % k H H H H C & 1 9 $ X } d.8...h.[.[.].].].].[.4X-X>X>X>X>X1X4X4X-X>X>X1X1X4X-X>X1X1X4X-X>X>X>X1X-X>X>X>X>X1X",
"1X4X-X-X>X1X4X1X>X>X1X4X4X-X>X>X>X1X-X>X>X>X>X1X4X[.].].].[.].[.[.].].[.[.9.- ` ' 2 < 3 0 0 = k F H C ; 1 e e 1 X ` 0.a.h.'.[.[.].].].].[.[.].].].>X>X1X4X4X-X>X1X1X1X4X-X>X1X1X-X>X>X>X>X1X-X>X>X>X>X1X",
"1X4X4X-X>X1X1X-X>X>X1X4X4X-X>X>X>X1X-X>X>X>X>X1X4X[.].].[.[.].[.[.].`.g.s.| < < < 2 4 r u r 3 = k Z ; 1 4 u u 4 < 9 { 9.d.'._.g.`.].].].[.[.].].].>X>X1X1X4X-X>X1X>X1X4X-X>X1X4X-X>X>X>X1X1X-X>X>X>X>X1X",
"1X4X4X-X>X1X1X-X>X>X1X4X4X4X-X>X>X1X-X>X>X1X1X1X4X4X].].].].[.[.[.`.g.4.` 0 y u 4 3 u u u u u 3 = & 6 r u s a u 4 , 1 1 | d.a.3.h.].].].[.[.].].>X>X>X1X1X4X-X>X1X1X1X4X-X>X1X4X-X>X>X>X1X1X-X>X>X>X>X1X",
"1X4X4X-X>X>X1X-X>X>X1X4X4X4X-X>X>X1X-X>X1X1X1X1X4X4X-X].].[.[.[.h.8.8.3.v 9 < 4 3 3 a f f f s u 3 1 e u &.:.:.u 4 2 4 r i | { ..h.].].].[.[.].].>X>X>X1X4X4X-X>X1X>X1X4X-X>X1X-X>X>X>X1X1X1X1X>X>X>X1X1X",
"1X4X4X-X>X>X1X-X>X>X1X4X4X4X-X1X1X1X-X>X1X>X>X1X2X4X].].].].].[.g... . .v 7 < < 2 4 s &.&.&.&.s u 4 u &.l.v.c.*.a r y s s 4 6 { a.`.].].[.[.].].>X>X1X1X4X4X-X>X1X1X1X4X-X>X1X-X>X>X>X>X1X1X-X>X>X>X>X1X",
"1X4X4X-X>X>X1X-X>X1X1X1X4X4X-X>X>X1X-X>X1X>X>X1X4X[.].].[.[.].[.g. .- # 1 3 4 3 4 u f ;.;.&.&.&.s u &.l.v.b.v.c.:.s r r a s r * N 0.`.].[.[.].].].>X,X1X4X4X-X1X1X1X1X4X-X>X1X-X>X>X>X>X1X1X-X>X>X>X>X1X",
"1X4X4X-X>X>X1X-X>X1X1X1X4X4X-X>X1X1X-X>X>X1X>X1X4X[.].].[.[.[.h.0.` 1 < 4 3 3 4 u f :.c.z.;.d &.f &.l.v.v.c.c.b.c.l.=.p 4 u 4 X * { 0._.[.[.].].].[.>X1X4X4X-X>X1X1X4X4X-X>X1X-X>X>X>X>X1X1X-X>X>X>X>X1X",
"1X4X4X-X>X>X1X-X>X>X1X1X4X4X-X>X>X1X-X1X1X1X>X1X4X[.].].].'.h.0. .# : 2 4 0 1 3 s :.c.b.c.*.u &.&.;.c.v.v.:.:.c.b.n.b.<.O.r 3 * - ] 7.h.[.[.].].].].[.1X4X4X-X>X1X1X4X4X-X>X1X-X>X>X>X1X1X4X-X>X>X>X>X1X",
"1X4X4X-X>X1X1X-X>X1X1X1X4X4X-X1X1X1X-X>X>X>X>X1X4X[.].].]._.a.3.v X . > , - c 6 $.c.b.c.:.u r &.&.&.;.z.v.:.&.:.c.b.n.Z.M.O.- v ..0._.'.[.[.].].].].1X1X4X4X-X1X1X1X1X4X-X>X1X-X>X>X1X>X1X4X-X>X>X>X>X1X",
"1X4X4X-X>X>X1X-X>X>X>X1X4X4X-X>X>X1X4X-X1X1X>X1X4X4X].].].`.g.a.4.c - - - = ' 1.m.b.n.l.a u d :.:.&.&.l.v.c.:.s $.k.b.A.S.m.%.c L a.[.[.[.[.].].].>X1X1X4X4X-X1X1X1X4X4X-X>X1X-X>X>X1X>X1X4X-X>X>X>X1X1X",
"1X4X4X-X>X1X1X-X>X>X>X1X4X4X-X>X>X1X4X-X1X1X1X1X4X3X-X].].].].[.h.3.J J v ' ,.C.S.b.v.k.$.$.:.v.l.&.&.:.c.b.z.$.$.-.x.c.M.S.m.w ` 8.'.[.[.[.].].>X1X1X4X4X4X-X>X1X1X1X4X-X>X1X-X>X1X1X>X1X4X4X-X>X>X>X1X",
"1X4X4X-X1X1X1X-X>X>X>X1X4X4X-X>X>X1X4X-X>X1X>X1X4X4X-X].].].].[.'.h.a...7 1.C.V.B.v.*.<.C.N.v.v.l.&.s s ;.c.v.c.V.M.$.r #.n.n.k.w 4.`.[.[.[.].].>X1X1X4X4X-X-X>X>X1X4X4X-X>X1X-X>X1X1X1X1X4X4X-X>X>X1X1X",
"1X4X4X-X>X1X1X4X-X>X>X1X4X4X-X>X>X1X4X-X>X1X>X1X1X4X-X].].[.].[.[.[._.0.7 x.A.x.=.*.r 1.D.A.v.l.*.r 4 3 5 ;.c.n.D.C.t @ 8 *.=.-.o.s.].[.[.[.].>X1X1X1X4X4X-X>X>X1X1X4X4X-X>X1X-X>X1X>X>X1X4X4X-X>X>X1X1X",
"1X4X4X-X>X1X1X4X-X>X>X1X4X4X-X>X>X1X4X-X>X>X1X1X1X4X-X].].[.].[.[.[.].d.} -.z.t > , , <.D.A.x.s 3 1 X # 6 r ;.n.D.V.w x v 6 > ' d.].].[.[.[.-X:X>X1X1X4X4X-X>X1X>X1X4X-X>X>X1X-X>X>X>X>X1X4X4X-X>X>X1X1X",
"1X4X4X-X>X>X1X4X-X>X>X1X4X4X-X>X>X1X1X-X>X1X>X>X1X[.].>X>X].[.].[.[.].`.d.>.t ` x x # +.N.B.z.r * c c N  .9 p b.B.x.q v ..v x  .h.].].[.[.[.-X>X>X1X1X1X4X-X1X1X1X1X4X-X>X>X1X-X>X>X>X1X1X4X4X-X>X>X1X1X",
"1X4X4X-X>X>X1X4X-X>X>X1X4X4X-X>X>X1X1X-X1X>X1X>X1X[.-X>X>X1X[.].[.[.].].].0.] J L J * p v.c.*.8 v ..7.a.0. .[ k.v.k.2 X.a.8.7.0.`.].].[.[.[.].>X:X1X1X4X4X-X>X1X1X1X4X-X>X>X1X-X-X>X1X>X1X4X4X-X>X>X1X>X",
"1X4X4X-X>X>X1X4X-X>X>X1X4X4X-X>X>X>X1X-X>X1X1X>X1X4X-X-X>X:X>X1X1X[.].].].g.8.8.8.7.` O.x.+.8 { 3.0.h.[.'.a.X.t k.k.w 0.'.'.'.`.].].>X[.[.[.].].>X1X1X4X4X-X1X1X1X1X4X-X>X>X1X4X-X>X>X1X1X4X4X-X>X1X1X>X",
"1X4X4X-X>X>X1X4X-X>X>X1X4X4X-X>X>X1X1X-X>X>X1X1X1X4X4X-X>X>X<X1X[.[.].].[.`.h.h.h.h.s.f.O.[ X.a.g._.].].[._.d.q.%.@.q.j.[.[.[.].].1X<X1X1X4X].].1X1X1X4X4X-X>X1X1X4X4X-X>X1X1X4X-X>X>X1X1X4X4X-X>X>X1X>X",
"1X4X4X-X>X>X1X4X-X>X>X1X4X4X-X>X>X>X1X-X>X>X1X>X1X4X4X-X>X>X1X[.[.[.].].[.[.[.[.[.[.].d.X.4.g.'.[.].].].[.[.[.'.9.9.`.[.[.[.[.].>X>X1X1X4X3X-X].1X1X1X4X4X-X>X1X1X4X-X-X>X1X1X4X-X>X1X1X1X4X4X-X>X>X>X>X",
"1X4X4X-X>X>X1X4X-X>X>X1X4X4X-X>X>X>X1X-X>X>X1X>X1X4X4X-X>X>X>X].[.[.-X>X>X>X1X1X[.[.].`.`.`.`.[.[.].].].[.[.[.[.`.`.].[.[.4X4X-X>X>X>X1X4X-X-X>X1X1X1X4X-X-X>X>X1X4X-X>X1X1X1X4X-X>X>X1X1X4X4X-X>X>X>X>X",
"1X4X-X-X>X>X1X4X-X>X>X1X4X4X-X>X>X1X1X-X>X>X>X>X1X4X4X-X>X>X>X>X1X4X-X>X>X>X1X4X4X[.].].[.1X1X1X4X-X>X].[.[.4X4X-X>X>X1X1X4X4X-X>X>X>X1X4X-X>X>X>X1X1X4X-X>X>X1X1X4X-X>X1X1X4X4X-X>X>X1X1X4X4X-X>X>X>X1X",
"1X4X-X>X>X>X1X4X-X>X>X1X4X4X-X>X>X>X1X-X>X>X1X>X1X1X4X-X>X>X].>X1X4X-X>X>X>X1X[.[.4X].].1X>X1X1X4X-X>X>X].1X1X4X-X>X1X1X1X[.[.-X>X>X>X1X4X-X>X>X1X1X4X4X-X>X>X1X1X4X-X>X>X1X4X4X-X>X>X>X1X4X4X-X>X>X>X1X"
};
