/* XPM */
static char * tree_33_xpm[] = {
"256 256 9887 3",
"   	c #FFBA59",
".  	c #FFBE5F",
"+  	c #FFC264",
"@  	c #FBBE5F",
"#  	c #F1B24E",
"$  	c #EBAA41",
"%  	c #F4AD41",
"&  	c #FDB141",
"*  	c #FFB241",
"=  	c #FFB242",
"-  	c #FFB54C",
";  	c #FFB958",
">  	c #FFBF60",
",  	c #FEC264",
"'  	c #F5B755",
")  	c #ECAB43",
"!  	c #F0AC41",
"~  	c #FAB041",
"{  	c #FFB244",
"]  	c #FFB54E",
"^  	c #FFBA5A",
"/  	c #FFC061",
"(  	c #FFC365",
"_  	c #F8BB5B",
":  	c #EFAF49",
"<  	c #EDAB41",
"[  	c #F6AE41",
"}  	c #FFB447",
"|  	c #FFB853",
"1  	c #F6B350",
"2  	c #EDAC44",
"3  	c #EEAB41",
"4  	c #F8AF41",
"5  	c #FFB344",
"6  	c #FFB750",
"7  	c #FFBC5C",
"8  	c #FFC162",
"9  	c #F2B34F",
"0  	c #FFB44A",
"a  	c #FFB956",
"b  	c #FFC364",
"c  	c #F6B857",
"d  	c #EDAC45",
"e  	c #EFAB41",
"f  	c #FFBB5A",
"g  	c #F6B756",
"h  	c #F9B041",
"i  	c #FFB54B",
"j  	c #FFBD5D",
"k  	c #FFC163",
"l  	c #FEC263",
"m  	c #F5B654",
"n  	c #ECAB42",
"o  	c #FFB852",
"p  	c #FEBA59",
"q  	c #CB974A",
"r  	c #605730",
"s  	c #1B3D28",
"t  	c #A38346",
"u  	c #EDB65E",
"v  	c #FDC162",
"w  	c #F4B653",
"x  	c #EBAA42",
"y  	c #F1AB41",
"z  	c #FBAE41",
"A  	c #FFB342",
"B  	c #FFB84E",
"C  	c #FFBA58",
"D  	c #FFBE5E",
"E  	c #FDC061",
"F  	c #F3B552",
"G  	c #F2AD41",
"H  	c #FCB141",
"I  	c #FFB856",
"J  	c #F6B958",
"K  	c #EEAA41",
"L  	c #F8AD41",
"M  	c #FFB74B",
"N  	c #FFBA56",
"O  	c #F6B856",
"P  	c #ECAC44",
"Q  	c #EFAC41",
"R  	c #F9AF41",
"S  	c #FFB243",
"T  	c #FFB54D",
"U  	c #FFBF61",
"V  	c #F9BC5C",
"W  	c #EFB04B",
"X  	c #ECAA41",
"Y  	c #F5AC41",
"Z  	c #FEB141",
"`  	c #FFB647",
" . 	c #FFB953",
".. 	c #FFBC5B",
"+. 	c #FFB64E",
"@. 	c #FCBF60",
"#. 	c #F2B450",
"$. 	c #F3AD41",
"%. 	c #FBBF60",
"&. 	c #F2B350",
"*. 	c #F4AE42",
"=. 	c #F8B042",
"-. 	c #FFB345",
";. 	c #FFB751",
">. 	c #F5B756",
",. 	c #FEB347",
"'. 	c #FDB651",
"). 	c #FBB858",
"!. 	c #C49348",
"~. 	c #5D5630",
"{. 	c #1C3D28",
"]. 	c #A48346",
"^. 	c #FBAF42",
"/. 	c #FFB443",
"(. 	c #FFB955",
"_. 	c #F9BB5B",
":. 	c #F0B04A",
"<. 	c #EDAA41",
"[. 	c #F6AD41",
"}. 	c #FEB142",
"|. 	c #FFB648",
"1. 	c #FFB343",
"2. 	c #FFB64F",
"3. 	c #F5B34D",
"4. 	c #F5AF43",
"5. 	c #F7AF41",
"6. 	c #FFB346",
"7. 	c #FFB64C",
"8. 	c #EFAC43",
"9. 	c #F8B249",
"0. 	c #FFB64D",
"a. 	c #FFB74F",
"b. 	c #FFB855",
"c. 	c #FDC365",
"d. 	c #FAC264",
"e. 	c #F2B756",
"f. 	c #FFB449",
"g. 	c #FFB957",
"h. 	c #F0AB41",
"i. 	c #FAAF41",
"j. 	c #FFB341",
"k. 	c #FFB547",
"l. 	c #FFB74D",
"m. 	c #F4AF4C",
"n. 	c #DAA14A",
"o. 	c #BE9147",
"p. 	c #987B3D",
"q. 	c #505A30",
"r. 	c #234829",
"s. 	c #28492A",
"t. 	c #28482A",
"u. 	c #A58746",
"v. 	c #F1AD45",
"w. 	c #FBB24B",
"x. 	c #FFB74E",
"y. 	c #FFB851",
"z. 	c #F6B654",
"A. 	c #F8AE41",
"B. 	c #F9AE41",
"C. 	c #FFB753",
"D. 	c #FABD5D",
"E. 	c #F5B450",
"F. 	c #F5B046",
"G. 	c #F6AE42",
"H. 	c #FAB248",
"I. 	c #FFB54A",
"J. 	c #FEC163",
"K. 	c #EEAD45",
"L. 	c #FFB44B",
"M. 	c #FFB854",
"N. 	c #EFAD46",
"O. 	c #F8B451",
"P. 	c #FEC365",
"Q. 	c #FBC365",
"R. 	c #F6C264",
"S. 	c #F1B856",
"T. 	c #EEAE45",
"U. 	c #F4AE40",
"V. 	c #FFB240",
"W. 	c #FFBC5A",
"X. 	c #FFBF5E",
"Y. 	c #FFC263",
"Z. 	c #F7B855",
"`. 	c #F0AA41",
" + 	c #FAAE41",
".+ 	c #FFB84D",
"++ 	c #FFBA57",
"@+ 	c #ECAD52",
"#+ 	c #AB8640",
"$+ 	c #4F592E",
"%+ 	c #4E6030",
"&+ 	c #446330",
"*+ 	c #3D632F",
"=+ 	c #3C5F2E",
"-+ 	c #3C5E2D",
";+ 	c #AB9049",
">+ 	c #EEB85F",
",+ 	c #F6B754",
"'+ 	c #EBAB42",
")+ 	c #F1AE48",
"!+ 	c #FBB653",
"~+ 	c #FFB545",
"{+ 	c #FFB850",
"]+ 	c #FCB041",
"^+ 	c #F6B450",
"/+ 	c #FDC163",
"(+ 	c #F2AC43",
"_+ 	c #FAAF42",
":+ 	c #FEB342",
"<+ 	c #FEB74E",
"[+ 	c #FDC062",
"}+ 	c #F4B552",
"|+ 	c #FFB448",
"1+ 	c #F9BB5A",
"2+ 	c #F1B04B",
"3+ 	c #F1AE46",
"4+ 	c #F9B147",
"5+ 	c #FFB446",
"6+ 	c #F9BA59",
"7+ 	c #F3B14C",
"8+ 	c #F6B043",
"9+ 	c #FDB346",
"0+ 	c #F8B450",
"a+ 	c #FCC365",
"b+ 	c #E5B154",
"c+ 	c #D59E41",
"d+ 	c #D59B3C",
"e+ 	c #E0A13D",
"f+ 	c #E9A43E",
"g+ 	c #F3AA3F",
"h+ 	c #FDB040",
"i+ 	c #FDB858",
"j+ 	c #F2B155",
"k+ 	c #E8A951",
"l+ 	c #E8AC55",
"m+ 	c #E8B15B",
"n+ 	c #E8B25B",
"o+ 	c #E6AD4F",
"p+ 	c #EAAA42",
"q+ 	c #F2AB41",
"r+ 	c #FBAF41",
"s+ 	c #FEB242",
"t+ 	c #F4B04A",
"u+ 	c #ECAD51",
"v+ 	c #CF9B4C",
"w+ 	c #897339",
"x+ 	c #2A4E2A",
"y+ 	c #375E2D",
"z+ 	c #476E31",
"A+ 	c #4E7333",
"B+ 	c #496F31",
"C+ 	c #486E31",
"D+ 	c #9B8C45",
"E+ 	c #D6AA57",
"F+ 	c #E9B45B",
"G+ 	c #E7AD4D",
"H+ 	c #EAAA41",
"I+ 	c #F3B04A",
"J+ 	c #FBB755",
"K+ 	c #FAAD3D",
"L+ 	c #EFA53A",
"M+ 	c #E7A03A",
"N+ 	c #E8A545",
"O+ 	c #E7AA50",
"P+ 	c #EDAE54",
"Q+ 	c #F7B456",
"R+ 	c #F2AC41",
"S+ 	c #F6B34F",
"T+ 	c #EDAB44",
"U+ 	c #FFB752",
"V+ 	c #FCC061",
"W+ 	c #FBBE5E",
"X+ 	c #F6B552",
"Y+ 	c #F0AD43",
"Z+ 	c #F3AC41",
"`+ 	c #FDBF60",
" @ 	c #F4B451",
".@ 	c #FFB74C",
"+@ 	c #FFBB5B",
"@@ 	c #FDBD5D",
"#@ 	c #FCBE5F",
"$@ 	c #F9BC5B",
"%@ 	c #FCBD5E",
"&@ 	c #F9B755",
"*@ 	c #FAB551",
"=@ 	c #FDB752",
"-@ 	c #FFBD5E",
";@ 	c #F3B451",
">@ 	c #F3B14B",
",@ 	c #F6AF46",
"'@ 	c #FBB449",
")@ 	c #FEB751",
"!@ 	c #ECAC45",
"~@ 	c #F9B34A",
"{@ 	c #FFC060",
"]@ 	c #F9C164",
"^@ 	c #D1A452",
"/@ 	c #9B7C39",
"(@ 	c #907332",
"_@ 	c #967634",
":@ 	c #A07B34",
"<@ 	c #D2973A",
"[@ 	c #F9AD3F",
"}@ 	c #FFB544",
"|@ 	c #FFB64A",
"1@ 	c #F7B557",
"2@ 	c #D09C4C",
"3@ 	c #9F7E3F",
"4@ 	c #9A7D40",
"5@ 	c #9A8044",
"6@ 	c #A48644",
"7@ 	c #C89843",
"8@ 	c #E8A942",
"9@ 	c #FDB041",
"0@ 	c #DA9E40",
"a@ 	c #AB853F",
"b@ 	c #89743A",
"c@ 	c #646332",
"d@ 	c #30542B",
"e@ 	c #456930",
"f@ 	c #537834",
"g@ 	c #567D35",
"h@ 	c #527A34",
"i@ 	c #507934",
"j@ 	c #767F3C",
"k@ 	c #918543",
"l@ 	c #AA8D45",
"m@ 	c #CB9A41",
"n@ 	c #EAA940",
"o@ 	c #F7B34C",
"p@ 	c #FDB856",
"q@ 	c #EDA53A",
"r@ 	c #C28A32",
"s@ 	c #997530",
"t@ 	c #9C7937",
"u@ 	c #987A3C",
"v@ 	c #B78B44",
"w@ 	c #E5A74F",
"x@ 	c #F5B652",
"y@ 	c #EDAB42",
"z@ 	c #FFB548",
"A@ 	c #F2B24D",
"B@ 	c #F5B149",
"C@ 	c #FDBB5A",
"D@ 	c #F4B34F",
"E@ 	c #F1AC41",
"F@ 	c #FBB041",
"G@ 	c #FABB5A",
"H@ 	c #F0B14C",
"I@ 	c #EEAD47",
"J@ 	c #F2B451",
"K@ 	c #EFAA41",
"L@ 	c #F9AD41",
"M@ 	c #EDAD46",
"N@ 	c #EEAA3F",
"O@ 	c #F7AE40",
"P@ 	c #FEB040",
"Q@ 	c #FEB03E",
"R@ 	c #FEB244",
"S@ 	c #FEB64F",
"T@ 	c #FEB958",
"U@ 	c #FEBA5A",
"V@ 	c #FEBE5F",
"W@ 	c #FEC265",
"X@ 	c #FAC063",
"Y@ 	c #BC964E",
"Z@ 	c #475531",
"`@ 	c #244A2C",
" # 	c #2F4C2C",
".# 	c #B08336",
"+# 	c #F4A93E",
"@# 	c #FEB241",
"## 	c #FEB44A",
"$# 	c #FEB856",
"%# 	c #AC8643",
"&# 	c #2A4B2C",
"*# 	c #44532D",
"=# 	c #A78237",
"-# 	c #E1A440",
";# 	c #F5AE41",
"># 	c #FBB03F",
",# 	c #BE8C37",
"'# 	c #4F572C",
")# 	c #30532B",
"!# 	c #3D5F2E",
"~# 	c #4E7232",
"{# 	c #598036",
"]# 	c #5C8538",
"^# 	c #5A8337",
"/# 	c #578237",
"(# 	c #477534",
"_# 	c #38632F",
":# 	c #55642F",
"<# 	c #AD8734",
"[# 	c #E4A63F",
"}# 	c #F6B24C",
"|# 	c #FEB444",
"1# 	c #E19B38",
"2# 	c #90702E",
"3# 	c #776634",
"4# 	c #D29948",
"5# 	c #FEB959",
"6# 	c #FEBF60",
"7# 	c #FCBF61",
"8# 	c #F1B351",
"9# 	c #E9A941",
"0# 	c #EFA940",
"a# 	c #FAAD40",
"b# 	c #FEB344",
"c# 	c #FFB84F",
"d# 	c #F4B14D",
"e# 	c #F7B959",
"f# 	c #F3B350",
"g# 	c #FCBD5D",
"h# 	c #F8B653",
"i# 	c #FCB856",
"j# 	c #F8BB58",
"k# 	c #EFAF47",
"l# 	c #E2A13B",
"m# 	c #D39435",
"n# 	c #C88B31",
"o# 	c #C98C31",
"p# 	c #C98B30",
"q# 	c #C98D35",
"r# 	c #C99140",
"s# 	c #C99548",
"t# 	c #C99549",
"u# 	c #C9984D",
"v# 	c #C99B51",
"w# 	c #C99C52",
"x# 	c #CB9E53",
"y# 	c #C39B51",
"z# 	c #978244",
"A# 	c #446032",
"B# 	c #2A552D",
"C# 	c #2A552E",
"D# 	c #32582E",
"E# 	c #8D7533",
"F# 	c #BE8B38",
"G# 	c #CC9137",
"H# 	c #C98D33",
"I# 	c #C9903B",
"J# 	c #CC9847",
"K# 	c #BD9348",
"L# 	c #8C793C",
"M# 	c #30552E",
"N# 	c #2A522D",
"O# 	c #28502D",
"P# 	c #3C562E",
"Q# 	c #856F32",
"R# 	c #B28537",
"S# 	c #C28C38",
"T# 	c #C98F38",
"U# 	c #C48C37",
"V# 	c #977431",
"W# 	c #48592C",
"X# 	c #34572C",
"Y# 	c #41632E",
"Z# 	c #4B6E31",
"`# 	c #577F36",
" $ 	c #5E8A3A",
".$ 	c #618E3B",
"+$ 	c #608D3B",
"@$ 	c #5F8D3B",
"#$ 	c #558238",
"$$ 	c #447133",
"%$ 	c #596C30",
"&$ 	c #907E33",
"*$ 	c #B88F39",
"=$ 	c #C39340",
"-$ 	c #C79446",
";$ 	c #C99343",
">$ 	c #CC933A",
",$ 	c #B08233",
"'$ 	c #75672E",
")$ 	c #284F2D",
"!$ 	c #2C542E",
"~$ 	c #29532D",
"{$ 	c #646733",
"]$ 	c #A7843F",
"^$ 	c #CA994A",
"/$ 	c #C99B4F",
"($ 	c #C6994E",
"_$ 	c #BF9043",
":$ 	c #B88838",
"<$ 	c #BE8937",
"[$ 	c #C38B36",
"}$ 	c #D0953B",
"|$ 	c #E8A848",
"1$ 	c #FEB752",
"2$ 	c #FEB852",
"3$ 	c #FCB751",
"4$ 	c #FCB750",
"5$ 	c #FDB753",
"6$ 	c #F6B553",
"7$ 	c #FDBC5B",
"8$ 	c #FBBA58",
"9$ 	c #F8B959",
"0$ 	c #F5B24A",
"a$ 	c #F8BA59",
"b$ 	c #F0AE48",
"c$ 	c #F9B552",
"d$ 	c #FCBE5A",
"e$ 	c #F5B349",
"f$ 	c #D89A38",
"g$ 	c #A1732D",
"h$ 	c #5E4F27",
"i$ 	c #5F4F27",
"j$ 	c #5F5028",
"k$ 	c #5F512C",
"l$ 	c #5F532E",
"m$ 	c #5F532F",
"n$ 	c #5F5430",
"o$ 	c #5E5431",
"p$ 	c #5F5631",
"q$ 	c #615B33",
"r$ 	c #616336",
"s$ 	c #556835",
"t$ 	c #3E6732",
"u$ 	c #366631",
"v$ 	c #366632",
"w$ 	c #396631",
"x$ 	c #536531",
"y$ 	c #5F612F",
"z$ 	c #62572C",
"A$ 	c #5E4D26",
"B$ 	c #60542B",
"C$ 	c #656333",
"D$ 	c #636C36",
"E$ 	c #546B34",
"F$ 	c #396531",
"G$ 	c #366331",
"H$ 	c #336030",
"I$ 	c #355C2F",
"J$ 	c #47562D",
"K$ 	c #554E2A",
"L$ 	c #5C502A",
"M$ 	c #5F512A",
"N$ 	c #5D502A",
"O$ 	c #4F552B",
"P$ 	c #415F2E",
"Q$ 	c #456B31",
"R$ 	c #517533",
"S$ 	c #577E35",
"T$ 	c #62903C",
"U$ 	c #63923D",
"V$ 	c #578337",
"W$ 	c #597934",
"X$ 	c #637532",
"Y$ 	c #6A7031",
"Z$ 	c #646430",
"`$ 	c #5F552E",
" % 	c #5E512E",
".% 	c #5F542D",
"+% 	c #625A2D",
"@% 	c #5A5E2E",
"#% 	c #495F2F",
"$% 	c #346031",
"%% 	c #376431",
"&% 	c #366531",
"*% 	c #476832",
"=% 	c #5B6933",
"-% 	c #656533",
";% 	c #615B32",
">% 	c #5F5531",
",% 	c #5D5330",
"'% 	c #5A512D",
")% 	c #584F2A",
"!% 	c #5A4F2A",
"~% 	c #5B4E29",
"{% 	c #7A602D",
"]% 	c #D0953C",
"^% 	c #FDB446",
"/% 	c #FEB647",
"(% 	c #FBB445",
"_% 	c #F8B346",
":% 	c #FBB54C",
"<% 	c #FFBF5F",
"[% 	c #F8B552",
"}% 	c #EFAE48",
"|% 	c #F0AE45",
"1% 	c #F7B043",
"2% 	c #F7B958",
"3% 	c #EEAC44",
"4% 	c #F7B34E",
"5% 	c #FEC162",
"6% 	c #F6B755",
"7% 	c #F3B959",
"8% 	c #E3A846",
"9% 	c #BC8A34",
"0% 	c #7B5F2A",
"a% 	c #1B3A26",
"b% 	c #1B3A27",
"c% 	c #1C3B27",
"d% 	c #1C3A27",
"e% 	c #193826",
"f% 	c #173625",
"g% 	c #163726",
"h% 	c #193B27",
"i% 	c #214429",
"j% 	c #2D5B2F",
"k% 	c #3B6D33",
"l% 	c #417134",
"m% 	c #3F6F34",
"n% 	c #306131",
"o% 	c #244A2B",
"p% 	c #183926",
"q% 	c #173725",
"r% 	c #1C3B26",
"s% 	c #244729",
"t% 	c #2D592D",
"u% 	c #366A33",
"v% 	c #3E7235",
"w% 	c #3E7135",
"x% 	c #3C6D34",
"y% 	c #346231",
"z% 	c #244D2B",
"A% 	c #1A3926",
"B% 	c #1D3C27",
"C% 	c #274C2A",
"D% 	c #416831",
"E% 	c #527935",
"F% 	c #5A8237",
"G% 	c #5F8939",
"H% 	c #63913C",
"I% 	c #65943D",
"J% 	c #64933D",
"K% 	c #628E3B",
"L% 	c #598438",
"M% 	c #4A7634",
"N% 	c #294A29",
"O% 	c #1E3C26",
"P% 	c #183826",
"Q% 	c #183A26",
"R% 	c #1C3F28",
"S% 	c #264F2C",
"T% 	c #316131",
"U% 	c #3E6D34",
"V% 	c #3E6F34",
"W% 	c #407235",
"X% 	c #396B33",
"Y% 	c #2F5B2E",
"Z% 	c #234628",
"`% 	c #1B3B26",
" & 	c #4A4A28",
".& 	c #B18132",
"+& 	c #ECA23A",
"@& 	c #F2AB3C",
"#& 	c #F4AE3E",
"$& 	c #F9B242",
"%& 	c #FCB44A",
"&& 	c #FFC062",
"*& 	c #EDAB43",
"=& 	c #EEAB43",
"-& 	c #F8B047",
";& 	c #FEBD5D",
">& 	c #DDAB55",
",& 	c #AF8A3D",
"'& 	c #88702E",
")& 	c #625C2B",
"!& 	c #2B4B2A",
"~& 	c #2D4D2A",
"{& 	c #2E4E2A",
"]& 	c #2E4F2A",
"^& 	c #2D4E2A",
"/& 	c #2B4A29",
"(& 	c #244327",
"_& 	c #1F4128",
":& 	c #1F4229",
"<& 	c #264B2C",
"[& 	c #345F31",
"}& 	c #407035",
"|& 	c #447536",
"1& 	c #467636",
"2& 	c #467535",
"3& 	c #3C6933",
"4& 	c #2F582E",
"5& 	c #274D2B",
"6& 	c #264A29",
"7& 	c #284829",
"8& 	c #304E2A",
"9& 	c #375A2D",
"0& 	c #3D6832",
"a& 	c #417536",
"b& 	c #437B38",
"c& 	c #427938",
"d& 	c #407436",
"e& 	c #33592E",
"f& 	c #2B4C2A",
"g& 	c #294929",
"h& 	c #2B4B29",
"i& 	c #30512B",
"j& 	c #3B5F2E",
"k& 	c #4B7333",
"l& 	c #578137",
"m& 	c #5E8B3A",
"n& 	c #66953D",
"o& 	c #67953D",
"p& 	c #5E8C3B",
"q& 	c #568138",
"r& 	c #4B7133",
"s& 	c #41612E",
"t& 	c #37542B",
"u& 	c #294E2B",
"v& 	c #29502C",
"w& 	c #325D2F",
"x& 	c #3C6B33",
"y& 	c #427435",
"z& 	c #427636",
"A& 	c #437737",
"B& 	c #3F7134",
"C& 	c #35602F",
"D& 	c #284C2A",
"E& 	c #234528",
"F& 	c #224227",
"G& 	c #264528",
"H& 	c #284B2A",
"I& 	c #47582B",
"J& 	c #86702E",
"K& 	c #A68231",
"L& 	c #CA9435",
"M& 	c #ECA73B",
"N& 	c #FDB443",
"O& 	c #FDB64C",
"P& 	c #EDAD45",
"Q& 	c #F4B553",
"R& 	c #FFB650",
"S& 	c #FDC264",
"T& 	c #C59D51",
"U& 	c #5C6232",
"V& 	c #36572B",
"W& 	c #3D5E2D",
"X& 	c #42652F",
"Y& 	c #436830",
"Z& 	c #446931",
"`& 	c #446A31",
" * 	c #3E602E",
".* 	c #34552B",
"+* 	c #2C4E2B",
"@* 	c #254A2B",
"#* 	c #264D2D",
"$* 	c #407135",
"%* 	c #467737",
"&* 	c #497A37",
"** 	c #487937",
"=* 	c #417135",
"-* 	c #386632",
";* 	c #346130",
">* 	c #38612E",
",* 	c #3D612E",
"'* 	c #45652F",
")* 	c #4A6E31",
"!* 	c #4C7835",
"~* 	c #4A7E38",
"{* 	c #47803A",
"]* 	c #467F3A",
"^* 	c #447938",
"/* 	c #427135",
"(* 	c #3F6731",
"_* 	c #40652F",
":* 	c #4A7233",
"<* 	c #537D36",
"[* 	c #5B8839",
"}* 	c #61903C",
"|* 	c #68963D",
"1* 	c #67963D",
"2* 	c #5B8437",
"3* 	c #567A34",
"4* 	c #507131",
"5* 	c #486C31",
"6* 	c #3E6831",
"7* 	c #396532",
"8* 	c #427436",
"9* 	c #457937",
"0* 	c #467A37",
"a* 	c #355F2F",
"b* 	c #294C2A",
"c* 	c #2B4E2A",
"d* 	c #2F512A",
"e* 	c #37592C",
"f* 	c #3F632F",
"g* 	c #436931",
"h* 	c #41652F",
"i* 	c #987C30",
"j* 	c #E4A139",
"k* 	c #FFB444",
"l* 	c #F7B957",
"m* 	c #EEAB42",
"n* 	c #FEBC5C",
"o* 	c #F6B451",
"p* 	c #FCB64F",
"q* 	c #FAB751",
"r* 	c #FCB64D",
"s* 	c #FEB445",
"t* 	c #EAA644",
"u* 	c #D59D4A",
"v* 	c #D19E50",
"w* 	c #D3A355",
"x* 	c #CEA154",
"y* 	c #A08545",
"z* 	c #515F30",
"A* 	c #365A2D",
"B* 	c #466C31",
"C* 	c #527934",
"D* 	c #557F36",
"E* 	c #578238",
"F* 	c #568238",
"G* 	c #557F37",
"H* 	c #4E7634",
"I* 	c #406631",
"J* 	c #29502D",
"K* 	c #467938",
"L* 	c #497D39",
"M* 	c #4A7F39",
"N* 	c #467A38",
"O* 	c #417537",
"P* 	c #477635",
"Q* 	c #4D7835",
"R* 	c #537B35",
"S* 	c #588036",
"T* 	c #588438",
"U* 	c #52843A",
"V* 	c #4B833A",
"W* 	c #49813A",
"X* 	c #477E3A",
"Y* 	c #477A38",
"Z* 	c #487736",
"`* 	c #4A7635",
" = 	c #527B36",
".= 	c #558037",
"+= 	c #588338",
"@= 	c #5C893A",
"#= 	c #618F3C",
"$= 	c #69973D",
"%= 	c #69963D",
"&= 	c #69963C",
"*= 	c #6B943B",
"== 	c #698F39",
"-= 	c #658B38",
";= 	c #5E8738",
">= 	c #527F38",
",= 	c #477C39",
"'= 	c #487E39",
")= 	c #487B38",
"!= 	c #427134",
"~= 	c #36602F",
"{= 	c #2A4F2B",
"]= 	c #2E522B",
"^= 	c #36592C",
"/= 	c #507834",
"(= 	c #578338",
"_= 	c #4D7735",
":= 	c #426931",
"<= 	c #807430",
"[= 	c #B98934",
"}= 	c #D4993B",
"|= 	c #D29943",
"1= 	c #D29B4A",
"2= 	c #D29F50",
"3= 	c #D1A254",
"4= 	c #D3A455",
"5= 	c #DBA44B",
"6= 	c #E6A843",
"7= 	c #F1AD43",
"8= 	c #FAB149",
"9= 	c #FEBF5F",
"0= 	c #F8B958",
"a= 	c #F4B24C",
"b= 	c #F7B045",
"c= 	c #F9AF42",
"d= 	c #FCB246",
"e= 	c #F8B34E",
"f= 	c #F0AE47",
"g= 	c #FAB550",
"h= 	c #FEB854",
"i= 	c #F9B64E",
"j= 	c #F4B447",
"k= 	c #F9B445",
"l= 	c #FEB443",
"m= 	c #FBAF40",
"n= 	c #CD943B",
"o= 	c #806A35",
"p= 	c #716536",
"q= 	c #746738",
"r= 	c #716638",
"s= 	c #5C5F33",
"t= 	c #40582D",
"u= 	c #3E632E",
"v= 	c #4F7533",
"w= 	c #608F3C",
"x= 	c #5F8D3C",
"y= 	c #5A8539",
"z= 	c #4C7535",
"A= 	c #3D6531",
"B= 	c #31592E",
"C= 	c #2E572E",
"D= 	c #366231",
"E= 	c #417035",
"F= 	c #49803A",
"G= 	c #4B823B",
"H= 	c #4C813A",
"I= 	c #4C803A",
"J= 	c #4E823A",
"K= 	c #53843A",
"L= 	c #58873A",
"M= 	c #5C883A",
"N= 	c #5F8B3A",
"O= 	c #58883B",
"P= 	c #50853B",
"Q= 	c #4C833B",
"R= 	c #4A823B",
"S= 	c #4A813A",
"T= 	c #50823A",
"U= 	c #558439",
"V= 	c #5B883A",
"W= 	c #608E3B",
"X= 	c #6A973D",
"Y= 	c #6B983D",
"Z= 	c #719C3D",
"`= 	c #769F3C",
" - 	c #769D3C",
".- 	c #739B3C",
"+- 	c #6D973C",
"@- 	c #4C823A",
"#- 	c #4A813B",
"$- 	c #497F3A",
"%- 	c #497C38",
"&- 	c #437134",
"*- 	c #386230",
"=- 	c #2E562C",
"-- 	c #335A2D",
";- 	c #3F652F",
">- 	c #4E7533",
",- 	c #5B8639",
"'- 	c #5B8739",
")- 	c #4C7735",
"!- 	c #5C6B31",
"~- 	c #6C682E",
"{- 	c #76672F",
"]- 	c #746532",
"^- 	c #736434",
"/- 	c #736536",
"(- 	c #726738",
"_- 	c #776938",
":- 	c #B48839",
"<- 	c #E2A43E",
"[- 	c #F7B348",
"}- 	c #FFB549",
"|- 	c #FDBD5E",
"1- 	c #F1B049",
"2- 	c #EFAC42",
"3- 	c #F7B24C",
"4- 	c #FEB855",
"5- 	c #EEAC45",
"6- 	c #F8B350",
"7- 	c #FAB552",
"8- 	c #FEB955",
"9- 	c #F9B54B",
"0- 	c #F4B241",
"a- 	c #F2AF3F",
"b- 	c #F4AD40",
"c- 	c #EEA63D",
"d- 	c #AE8235",
"e- 	c #3E502C",
"f- 	c #24482B",
"g- 	c #25492B",
"h- 	c #264A2B",
"i- 	c #294D2B",
"j- 	c #355A2D",
"k- 	c #456A31",
"l- 	c #507A35",
"m- 	c #66943D",
"n- 	c #618E3C",
"o- 	c #568139",
"p- 	c #477034",
"q- 	c #3B6430",
"r- 	c #37602F",
"s- 	c #3A6731",
"t- 	c #427235",
"u- 	c #467B39",
"v- 	c #4D843B",
"w- 	c #51863B",
"x- 	c #54883B",
"y- 	c #578A3C",
"z- 	c #5B8D3C",
"A- 	c #5E8E3C",
"B- 	c #5C8C3B",
"C- 	c #56883B",
"D- 	c #52863B",
"E- 	c #4E853B",
"F- 	c #4F853B",
"G- 	c #58893B",
"H- 	c #5E8D3C",
"I- 	c #63903C",
"J- 	c #64923C",
"K- 	c #6D993D",
"L- 	c #709B3D",
"M- 	c #78A03D",
"N- 	c #7FA53D",
"O- 	c #7CA33D",
"P- 	c #749E3D",
"Q- 	c #66933C",
"R- 	c #56893B",
"S- 	c #50863B",
"T- 	c #4C7E39",
"U- 	c #477535",
"V- 	c #3F6931",
"W- 	c #39612F",
"X- 	c #3F6730",
"Y- 	c #538039",
"Z- 	c #3D6B33",
"`- 	c #2E562D",
" ; 	c #284C2B",
".; 	c #264B2B",
"+; 	c #2C4A2B",
"@; 	c #8F722E",
"#; 	c #CC9739",
"$; 	c #E8A946",
"%; 	c #F1B051",
"&; 	c #F5B356",
"*; 	c #F9B14D",
"=; 	c #FEB143",
"-; 	c #F9BC5D",
";; 	c #F5B24D",
">; 	c #FEB956",
",; 	c #FBB141",
"'; 	c #F8B048",
"); 	c #F0AD44",
"!; 	c #FAB249",
"~; 	c #FCB446",
"{; 	c #FBB342",
"]; 	c #E6A63E",
"^; 	c #CA953A",
"/; 	c #AA8336",
"(; 	c #867332",
"_; 	c #3F5E2F",
":; 	c #2E5B2F",
"<; 	c #345E30",
"[; 	c #366030",
"}; 	c #386331",
"|; 	c #3D6932",
"1; 	c #457234",
"2; 	c #4F7E37",
"3; 	c #59893B",
"4; 	c #527B37",
"5; 	c #487133",
"6; 	c #426C32",
"7; 	c #457738",
"8; 	c #487D3A",
"9; 	c #54893B",
"0; 	c #598C3B",
"a; 	c #5D8F3C",
"b; 	c #60903C",
"c; 	c #61913D",
"d; 	c #62913D",
"e; 	c #63913D",
"f; 	c #598B3C",
"g; 	c #57893B",
"h; 	c #6E9A3D",
"i; 	c #729D3D",
"j; 	c #749E3E",
"k; 	c #77A03E",
"l; 	c #7EA53E",
"m; 	c #85A93E",
"n; 	c #84A93E",
"o; 	c #80A63D",
"p; 	c #779F3D",
"q; 	c #67943C",
"r; 	c #51873B",
"s; 	c #51853B",
"t; 	c #52833A",
"u; 	c #507E38",
"v; 	c #4C7635",
"w; 	c #497032",
"x; 	c #4F7734",
"y; 	c #588237",
"z; 	c #60903D",
"A; 	c #5A8B3C",
"B; 	c #50833B",
"C; 	c #447537",
"D; 	c #3A6732",
"E; 	c #366131",
"F; 	c #315D30",
"G; 	c #365A2F",
"H; 	c #70682F",
"I; 	c #997933",
"J; 	c #AB8239",
"K; 	c #AF843F",
"L; 	c #B28542",
"M; 	c #D5983F",
"N; 	c #F6AB3F",
"O; 	c #FFB546",
"P; 	c #F0B04B",
"Q; 	c #F5B047",
"R; 	c #FEB54C",
"S; 	c #FCBC5C",
"T; 	c #F4B654",
"U; 	c #DC9D3C",
"V; 	c #8A7333",
"W; 	c #35572D",
"X; 	c #38602F",
"Y; 	c #3B6932",
"Z; 	c #3E6E34",
"`; 	c #427336",
" > 	c #437536",
".> 	c #447736",
"+> 	c #467B37",
"@> 	c #4D8239",
"#> 	c #5E8F3C",
"$> 	c #5C8739",
"%> 	c #588137",
"&> 	c #537F37",
"*> 	c #4D8039",
"=> 	c #4B813A",
"-> 	c #4E843B",
";> 	c #588A3B",
">> 	c #5D8E3C",
",> 	c #61913C",
"'> 	c #5F903C",
")> 	c #598B3B",
"!> 	c #53883B",
"~> 	c #729C3D",
"{> 	c #79A13D",
"]> 	c #7DA43E",
"^> 	c #83A83E",
"/> 	c #87AB3E",
"(> 	c #86AA3E",
"_> 	c #82A73D",
":> 	c #578A3B",
"<> 	c #55893B",
"[> 	c #5B893B",
"}> 	c #5A8438",
"|> 	c #598136",
"1> 	c #5B8538",
"2> 	c #628F3C",
"3> 	c #54883C",
"4> 	c #437537",
"5> 	c #417235",
"6> 	c #386431",
"7> 	c #34592F",
"8> 	c #304F2C",
"9> 	c #2B4329",
"0> 	c #263B27",
"a> 	c #253826",
"b> 	c #AC792C",
"c> 	c #F0A63A",
"d> 	c #FFB748",
"e> 	c #FFB954",
"f> 	c #FFB649",
"g> 	c #FFB445",
"h> 	c #FCB448",
"i> 	c #DA9B3A",
"j> 	c #847031",
"k> 	c #2D552D",
"l> 	c #346030",
"m> 	c #457837",
"n> 	c #487D39",
"o> 	c #497E39",
"p> 	c #4C833A",
"q> 	c #588C3C",
"r> 	c #62923D",
"s> 	c #65913B",
"t> 	c #628E3A",
"u> 	c #5E8C3A",
"v> 	c #588B3B",
"w> 	c #53893C",
"x> 	c #52883C",
"y> 	c #53883C",
"z> 	c #56893C",
"A> 	c #5B8C3C",
"B> 	c #5C8E3C",
"C> 	c #588B3C",
"D> 	c #54873C",
"E> 	c #5F903D",
"F> 	c #6A983D",
"G> 	c #6D9A3D",
"H> 	c #769F3D",
"I> 	c #7DA33D",
"J> 	c #81A73D",
"K> 	c #83A93E",
"L> 	c #85AA3E",
"M> 	c #81A63D",
"N> 	c #77A03D",
"O> 	c #5F8F3C",
"P> 	c #638F3B",
"Q> 	c #638E3A",
"R> 	c #64923D",
"S> 	c #5C8C3C",
"T> 	c #4A803A",
"U> 	c #487C39",
"V> 	c #477B38",
"W> 	c #376432",
"X> 	c #2B552E",
"Y> 	c #23472B",
"Z> 	c #1D3E28",
"`> 	c #8C6A2A",
" , 	c #C98F34",
"., 	c #E4A643",
"+, 	c #F1B151",
"@, 	c #F5AD41",
"#, 	c #F2AE44",
"$, 	c #FCB348",
"%, 	c #FEC061",
"&, 	c #FBB957",
"*, 	c #F7B956",
"=, 	c #F6B853",
"-, 	c #FBB64D",
";, 	c #DA9937",
">, 	c #836E2F",
",, 	c #336130",
"', 	c #467837",
"), 	c #4B833B",
"!, 	c #52873B",
"~, 	c #6F9A3D",
"{, 	c #6E993C",
"], 	c #6C983C",
"^, 	c #64933C",
"/, 	c #5F913D",
"(, 	c #5C8F3D",
"_, 	c #5C8E3D",
":, 	c #5D8E3D",
"<, 	c #64943D",
"[, 	c #5E8F3D",
"}, 	c #5C8D3D",
"|, 	c #6C993D",
"1, 	c #7FA53E",
"2, 	c #88AC3E",
"3, 	c #7EA43D",
"4, 	c #759E3D",
"5, 	c #5A8C3C",
"6, 	c #65933D",
"7, 	c #4F843B",
"8, 	c #4A7F3A",
"9, 	c #467B38",
"0, 	c #437636",
"a, 	c #2B522D",
"b, 	c #204229",
"c, 	c #214128",
"d, 	c #284728",
"e, 	c #615E2B",
"f, 	c #7D702F",
"g, 	c #A3883B",
"h, 	c #DCA64E",
"i, 	c #F2AF48",
"j, 	c #FCB651",
"k, 	c #FFBC5D",
"l, 	c #FAAE42",
"m, 	c #F7BA59",
"n, 	c #EEAE48",
"o, 	c #FABA59",
"p, 	c #F5BA59",
"q, 	c #F4BA57",
"r, 	c #FAB850",
"s, 	c #DE9C39",
"t, 	c #927632",
"u, 	c #495D30",
"v, 	c #496833",
"w, 	c #437035",
"x, 	c #4B823A",
"y, 	c #6F9B3D",
"z, 	c #82A73E",
"A, 	c #89AD3E",
"B, 	c #65923C",
"C, 	c #5F8F3D",
"D, 	c #5B8B3C",
"E, 	c #53863B",
"F, 	c #4D833B",
"G, 	c #407335",
"H, 	c #3A6B33",
"I, 	c #325F30",
"J, 	c #284F2C",
"K, 	c #22462A",
"L, 	c #25472A",
"M, 	c #2F502C",
"N, 	c #385A2D",
"O, 	c #325C2D",
"P, 	c #375D2D",
"Q, 	c #676F35",
"R, 	c #C39949",
"S, 	c #F9B657",
"T, 	c #FCB858",
"U, 	c #FFB952",
"V, 	c #F2AF4A",
"W, 	c #FCB754",
"X, 	c #F0AC44",
"Y, 	c #FAB24A",
"Z, 	c #FEBD5E",
"`, 	c #EEAC41",
" ' 	c #F6AF41",
".' 	c #FCB241",
"+' 	c #FCB345",
"@' 	c #FCBA59",
"#' 	c #F9B954",
"$' 	c #F9B750",
"%' 	c #FCB64B",
"&' 	c #EEA841",
"*' 	c #D39C45",
"=' 	c #B58F46",
"-' 	c #8F7D3D",
";' 	c #486833",
">' 	c #386832",
",' 	c #55883B",
"'' 	c #5F8E3C",
")' 	c #67943D",
"!' 	c #82A83E",
"~' 	c #7FA63E",
"{' 	c #7BA43E",
"]' 	c #77A13E",
"^' 	c #68953D",
"/' 	c #759F3D",
"(' 	c #7EA43E",
"_' 	c #6B973D",
":' 	c #61903D",
"<' 	c #62903D",
"[' 	c #608F3D",
"}' 	c #57893C",
"|' 	c #53873B",
"1' 	c #3A6833",
"2' 	c #325E30",
"3' 	c #254C2B",
"4' 	c #23472A",
"5' 	c #2C4F2B",
"6' 	c #3C6130",
"7' 	c #476E33",
"8' 	c #486E33",
"9' 	c #416D32",
"0' 	c #627536",
"a' 	c #99843F",
"b' 	c #B99045",
"c' 	c #D79F4B",
"d' 	c #F4B154",
"e' 	c #FFBD5B",
"f' 	c #F3B34F",
"g' 	c #F2AD46",
"h' 	c #FCB34B",
"i' 	c #FDB857",
"j' 	c #F4B24E",
"k' 	c #ECAB41",
"l' 	c #EDAC40",
"m' 	c #F3B041",
"n' 	c #F7B241",
"o' 	c #F7B340",
"p' 	c #F7B547",
"q' 	c #F7B852",
"r' 	c #FAB853",
"s' 	c #FDB64A",
"t' 	c #FFB543",
"u' 	c #FFB441",
"v' 	c #FEB549",
"w' 	c #F5B456",
"x' 	c #B99046",
"y' 	c #465C30",
"z' 	c #315B2F",
"A' 	c #3B6933",
"B' 	c #447637",
"C' 	c #54873B",
"D' 	c #749D3D",
"E' 	c #7EA53D",
"F' 	c #86AB3E",
"G' 	c #80A63E",
"H' 	c #7DA43D",
"I' 	c #6C983D",
"J' 	c #7BA23D",
"K' 	c #7AA23D",
"L' 	c #78A13E",
"M' 	c #81A73E",
"N' 	c #3D6C34",
"O' 	c #315C30",
"P' 	c #254B2C",
"Q' 	c #25492A",
"R' 	c #31552C",
"S' 	c #446B32",
"T' 	c #4F7937",
"U' 	c #4F7A37",
"V' 	c #517536",
"W' 	c #4F6932",
"X' 	c #44552D",
"Y' 	c #A5813C",
"Z' 	c #EAA84F",
"`' 	c #FFBE5C",
" ) 	c #EFB04A",
".) 	c #FCAF42",
"+) 	c #F0AD46",
"@) 	c #FAB44F",
"#) 	c #FDB958",
"$) 	c #F3B14D",
"%) 	c #EEAE46",
"&) 	c #E4A53D",
"*) 	c #D8A13C",
"=) 	c #D09F3C",
"-) 	c #D19F3C",
";) 	c #D19E3A",
">) 	c #D19F3F",
",) 	c #D1A348",
"') 	c #D1A650",
")) 	c #D7A247",
"!) 	c #DF9D3B",
"~) 	c #E39B35",
"{) 	c #E29C39",
"]) 	c #E29D3A",
"^) 	c #E3A143",
"/) 	c #E4A74D",
"() 	c #DDA650",
"_) 	c #A98A42",
":) 	c #486131",
"<) 	c #375E2F",
"[) 	c #426B33",
"}) 	c #497737",
"|) 	c #4E833B",
"1) 	c #58893C",
"2) 	c #5D8D3C",
"3) 	c #68943D",
"4) 	c #84A83E",
"5) 	c #88AB3E",
"6) 	c #86A93E",
"7) 	c #84A83D",
"8) 	c #739D3D",
"9) 	c #78A03E",
"0) 	c #80A73E",
"a) 	c #55873B",
"b) 	c #497B38",
"c) 	c #3F6D34",
"d) 	c #355F30",
"e) 	c #2E552F",
"f) 	c #2C522E",
"g) 	c #2E542D",
"h) 	c #2F542C",
"i) 	c #3A602F",
"j) 	c #476F33",
"k) 	c #4F7936",
"l) 	c #4F7836",
"m) 	c #507836",
"n) 	c #477033",
"o) 	c #335C2E",
"p) 	c #25482A",
"q) 	c #9A793A",
"r) 	c #E7A74F",
"s) 	c #FABB5B",
"t) 	c #F5B146",
"u) 	c #FCB143",
"v) 	c #FEB345",
"w) 	c #FDBA58",
"x) 	c #F3B24D",
"y) 	c #FCAF41",
"z) 	c #F0AC43",
"A) 	c #FAB046",
"B) 	c #FDBE5E",
"C) 	c #F7B755",
"D) 	c #FABD59",
"E) 	c #F2B147",
"F) 	c #D89C39",
"G) 	c #AD8032",
"H) 	c #836B2F",
"I) 	c #846B2F",
"J) 	c #856B2E",
"K) 	c #856C31",
"L) 	c #846E36",
"M) 	c #857039",
"N) 	c #896D34",
"O) 	c #8F6A2C",
"P) 	c #926929",
"Q) 	c #916A2C",
"R) 	c #916B2E",
"S) 	c #927033",
"T) 	c #977B3A",
"U) 	c #94813E",
"V) 	c #79793A",
"W) 	c #4E6D34",
"X) 	c #456E33",
"Y) 	c #4F7635",
"Z) 	c #537D37",
"`) 	c #548439",
" ! 	c #55883C",
".! 	c #7AA13D",
"+! 	c #88AA3E",
"@! 	c #87AA3E",
"#! 	c #81A63E",
"$! 	c #739E3D",
"%! 	c #7BA23E",
"&! 	c #5C8D3C",
"*! 	c #48813A",
"=! 	c #48803A",
"-! 	c #518139",
";! 	c #4B7735",
">! 	c #456E34",
",! 	c #416933",
"'! 	c #406732",
")! 	c #416832",
"!! 	c #426932",
"~! 	c #456D33",
"{! 	c #4A7334",
"]! 	c #4D7634",
"^! 	c #4C7433",
"/! 	c #416530",
"(! 	c #31542C",
"_! 	c #23462A",
":! 	c #9D7B3D",
"<! 	c #E9A951",
"[! 	c #FFBD5C",
"}! 	c #FAB756",
"|! 	c #F0AF49",
"1! 	c #F1AD42",
"2! 	c #F5AF46",
"3! 	c #FBB54E",
"4! 	c #F9BC5A",
"5! 	c #C89035",
"6! 	c #806029",
"7! 	c #143425",
"8! 	c #193926",
"9! 	c #294828",
"0! 	c #385E2D",
"a! 	c #447034",
"b! 	c #4F7B37",
"c! 	c #577F38",
"d! 	c #5B8237",
"e! 	c #5D8538",
"f! 	c #5D8B3A",
"g! 	c #7CA43E",
"h! 	c #89AA3E",
"i! 	c #7FA63D",
"j! 	c #719B3D",
"k! 	c #4E853A",
"l! 	c #5D8C3C",
"m! 	c #5C8A3A",
"n! 	c #598538",
"o! 	c #537E38",
"p! 	c #537D38",
"q! 	c #527D38",
"r! 	c #527C37",
"s! 	c #486F31",
"t! 	c #41662F",
"u! 	c #36592D",
"v! 	c #294B2B",
"w! 	c #22452A",
"x! 	c #99793D",
"y! 	c #E5A650",
"z! 	c #FDBA59",
"A! 	c #FAB654",
"B! 	c #F1AF49",
"C! 	c #F9B653",
"D! 	c #F1B14D",
"E! 	c #F9B958",
"F! 	c #F5B44E",
"G! 	c #F4AF43",
"H! 	c #FBBA59",
"I! 	c #E3AF55",
"J! 	c #C29540",
"K! 	c #9C7830",
"L! 	c #695A2A",
"M! 	c #1E3E27",
"N! 	c #203F27",
"O! 	c #203D27",
"P! 	c #1D3C26",
"Q! 	c #1C3C27",
"R! 	c #1B3C27",
"S! 	c #1A3C27",
"T! 	c #193C27",
"U! 	c #183B27",
"V! 	c #204228",
"W! 	c #31512B",
"X! 	c #426530",
"Y! 	c #4E7836",
"Z! 	c #57853A",
"`! 	c #5D8A3B",
" ~ 	c #608C3A",
".~ 	c #64913B",
"+~ 	c #87A93E",
"@~ 	c #79A23D",
"#~ 	c #83A83D",
"$~ 	c #66943C",
"%~ 	c #598C3C",
"&~ 	c #64913C",
"*~ 	c #628F3B",
"=~ 	c #5F8C3B",
"-~ 	c #5E8B3B",
";~ 	c #5D8A3A",
">~ 	c #426830",
",~ 	c #375E2E",
"'~ 	c #2D542D",
")~ 	c #786936",
"!~ 	c #AD8642",
"~~ 	c #CE9B4B",
"{~ 	c #E5AC55",
"]~ 	c #FEBC5E",
"^~ 	c #FCBD5C",
"/~ 	c #F5B24C",
"(~ 	c #F6AF42",
"_~ 	c #FAB44B",
":~ 	c #FBBE5D",
"<~ 	c #FDC164",
"[~ 	c #CCA152",
"}~ 	c #706B34",
"|~ 	c #4F5B2C",
"1~ 	c #46572B",
"2~ 	c #32532B",
"3~ 	c #33532B",
"4~ 	c #32522B",
"5~ 	c #304F2A",
"6~ 	c #2C4D29",
"7~ 	c #2A4D2A",
"8~ 	c #264D2B",
"9~ 	c #234C2B",
"0~ 	c #214B2B",
"a~ 	c #274F2C",
"b~ 	c #365B2E",
"c~ 	c #476C31",
"d~ 	c #5A893B",
"e~ 	c #7BA33E",
"f~ 	c #7AA23E",
"g~ 	c #69953D",
"h~ 	c #739C3D",
"i~ 	c #6B973C",
"j~ 	c #618F3B",
"k~ 	c #4C7333",
"l~ 	c #3C622F",
"m~ 	c #30572D",
"n~ 	c #28512C",
"o~ 	c #254F2C",
"p~ 	c #244E2C",
"q~ 	c #3B552E",
"r~ 	c #4D592F",
"s~ 	c #716835",
"t~ 	c #CCA052",
"u~ 	c #FDC063",
"v~ 	c #F8B855",
"w~ 	c #EFAD44",
"x~ 	c #F0AC42",
"y~ 	c #FAB143",
"z~ 	c #FFC265",
"A~ 	c #FBB754",
"B~ 	c #F3B75A",
"C~ 	c #EEB65C",
"D~ 	c #E6B15C",
"E~ 	c #AD8E49",
"F~ 	c #526131",
"G~ 	c #345C2D",
"H~ 	c #3C6730",
"I~ 	c #476D32",
"J~ 	c #486D32",
"K~ 	c #486E32",
"L~ 	c #44662F",
"M~ 	c #3F612E",
"N~ 	c #315F31",
"O~ 	c #305E30",
"P~ 	c #2F5D30",
"Q~ 	c #3E6832",
"R~ 	c #497434",
"S~ 	c #538038",
"T~ 	c #598A3B",
"U~ 	c #79A23E",
"V~ 	c #7AA33E",
"W~ 	c #7CA33E",
"X~ 	c #87AC3E",
"Y~ 	c #6C973D",
"Z~ 	c #78A13D",
"`~ 	c #769E3D",
" { 	c #65933C",
".{ 	c #66933D",
"+{ 	c #719D3D",
"@{ 	c #709C3D",
"#{ 	c #578438",
"${ 	c #355E2F",
"%{ 	c #305C2F",
"&{ 	c #2F5D2F",
"*{ 	c #2C572D",
"={ 	c #29502B",
"-{ 	c #49592F",
";{ 	c #AC8B49",
">{ 	c #EBB55E",
",{ 	c #EAB45E",
"'{ 	c #EAB45D",
"){ 	c #E9AE51",
"!{ 	c #E9AA44",
"~{ 	c #FDB54A",
"{{ 	c #F2AF47",
"]{ 	c #F8AF43",
"^{ 	c #FDB143",
"/{ 	c #FFB64B",
"({ 	c #FDBB59",
"_{ 	c #E9AD54",
":{ 	c #C2954C",
"<{ 	c #997D43",
"[{ 	c #7C703B",
"}{ 	c #4E6431",
"|{ 	c #416D31",
"1{ 	c #517C37",
"2{ 	c #568239",
"3{ 	c #557B34",
"4{ 	c #507432",
"5{ 	c #487234",
"6{ 	c #3C7036",
"7{ 	c #3D6F35",
"8{ 	c #407034",
"9{ 	c #4A7B37",
"0{ 	c #508139",
"a{ 	c #709B3E",
"b{ 	c #739D3C",
"c{ 	c #78A03C",
"d{ 	c #80A53E",
"e{ 	c #6E983D",
"f{ 	c #749D3E",
"g{ 	c #759E3E",
"h{ 	c #769E3E",
"i{ 	c #769F3E",
"j{ 	c #6E993D",
"k{ 	c #5B8D3B",
"l{ 	c #52853A",
"m{ 	c #4C7E38",
"n{ 	c #457436",
"o{ 	c #416E33",
"p{ 	c #3F6C33",
"q{ 	c #3F6D33",
"r{ 	c #3C6A32",
"s{ 	c #315D2E",
"t{ 	c #3F5B30",
"u{ 	c #7A6C3A",
"v{ 	c #9B7E43",
"w{ 	c #A18145",
"x{ 	c #9E8044",
"y{ 	c #A48344",
"z{ 	c #CA9743",
"A{ 	c #E6A742",
"B{ 	c #F8B045",
"C{ 	c #FEB349",
"D{ 	c #F7B754",
"E{ 	c #F4B049",
"F{ 	c #F3AB41",
"G{ 	c #F8B149",
"H{ 	c #FEB650",
"I{ 	c #F4AE41",
"J{ 	c #DFA44F",
"K{ 	c #8B6F39",
"L{ 	c #27492A",
"M{ 	c #3D622F",
"N{ 	c #4E7835",
"O{ 	c #608D3C",
"P{ 	c #618D3A",
"Q{ 	c #5C8437",
"R{ 	c #548138",
"S{ 	c #4A7B38",
"T{ 	c #497B37",
"U{ 	c #497D38",
"V{ 	c #497F39",
"W{ 	c #709C3C",
"X{ 	c #77A03C",
"Y{ 	c #709A3D",
"Z{ 	c #65923D",
"`{ 	c #588A3C",
" ] 	c #4A7E3A",
".] 	c #467836",
"+] 	c #305D30",
"@] 	c #22482A",
"#] 	c #1B3E28",
"$] 	c #324329",
"%] 	c #A87F35",
"&] 	c #E1A53F",
"*] 	c #ECAA42",
"=] 	c #F4AB41",
"-] 	c #FFB951",
";] 	c #FABE5E",
">] 	c #F4B24D",
",] 	c #FEB957",
"'] 	c #F7B450",
")] 	c #E6A951",
"!] 	c #D19A4B",
"~] 	c #AE8341",
"{] 	c #6F5D32",
"]] 	c #264629",
"^] 	c #3A5C2D",
"/] 	c #497133",
"(] 	c #548038",
"_] 	c #5B8A3B",
":] 	c #5C8B3B",
"<] 	c #57883B",
"[] 	c #52843B",
"}] 	c #4D8139",
"|] 	c #487F3A",
"1] 	c #5A8D3C",
"2] 	c #6D9A3C",
"3] 	c #89AC3E",
"4] 	c #8AAD3E",
"5] 	c #88AD3E",
"6] 	c #759D3D",
"7] 	c #6B963D",
"8] 	c #4B813B",
"9] 	c #4B803A",
"0] 	c #27502C",
"a] 	c #23492B",
"b] 	c #344F2C",
"c] 	c #887132",
"d] 	c #B38B38",
"e] 	c #C9983C",
"f] 	c #DAA13F",
"g] 	c #F6AC41",
"h] 	c #FEB041",
"i] 	c #FABD5E",
"j] 	c #FEBA58",
"k] 	c #FDB957",
"l] 	c #FEB54E",
"m] 	c #FAB657",
"n] 	c #C89448",
"o] 	c #715C32",
"p] 	c #554C2C",
"q] 	c #384029",
"r] 	c #183726",
"s] 	c #234128",
"t] 	c #3F6430",
"u] 	c #4B7435",
"v] 	c #558139",
"w] 	c #63923C",
"x] 	c #477F3A",
"y] 	c #719C3C",
"z] 	c #749E3C",
"A] 	c #89AD3D",
"B] 	c #8BAF3D",
"C] 	c #8AAE3E",
"D] 	c #8AAF3D",
"E] 	c #8BB03D",
"F] 	c #779F3E",
"G] 	c #6A963D",
"H] 	c #6D983D",
"I] 	c #63933D",
"J] 	c #477C38",
"K] 	c #417435",
"L] 	c #356230",
"M] 	c #375E30",
"N] 	c #536430",
"O] 	c #606830",
"P] 	c #8F7B35",
"Q] 	c #CA9A3D",
"R] 	c #F1AC42",
"S] 	c #FEB448",
"T] 	c #FBB757",
"U] 	c #E8AB52",
"V] 	c #A77F3F",
"W] 	c #2F3D27",
"X] 	c #153525",
"Y] 	c #163626",
"Z] 	c #204027",
"`] 	c #2C4D2A",
" ^ 	c #4C7435",
".^ 	c #5F8A3A",
"+^ 	c #598A3C",
"@^ 	c #49823A",
"#^ 	c #78A13C",
"$^ 	c #7CA33C",
"%^ 	c #86AA3D",
"&^ 	c #8AAE3D",
"*^ 	c #8DB13D",
"=^ 	c #8FB33C",
"-^ 	c #8FB33B",
";^ 	c #8EB23C",
">^ 	c #8CB03D",
",^ 	c #80A53D",
"'^ 	c #8DB03D",
")^ 	c #8FB13B",
"!^ 	c #8FB23C",
"~^ 	c #8EB13D",
"{^ 	c #8BAF3E",
"]^ 	c #85AA3D",
"^^ 	c #7BA33D",
"/^ 	c #437535",
"(^ 	c #3C6C33",
"_^ 	c #336331",
":^ 	c #686B32",
"<^ 	c #AF8939",
"[^ 	c #DDA13E",
"}^ 	c #EFA841",
"|^ 	c #FDB044",
"1^ 	c #FDB447",
"2^ 	c #FBB64E",
"3^ 	c #FBB751",
"4^ 	c #FDB852",
"5^ 	c #E9A84A",
"6^ 	c #C59445",
"7^ 	c #A17F40",
"8^ 	c #7D6836",
"9^ 	c #2C4428",
"0^ 	c #1B3C26",
"a^ 	c #1E3F27",
"b^ 	c #1F4028",
"c^ 	c #224428",
"d^ 	c #294B2A",
"e^ 	c #2F522B",
"f^ 	c #507533",
"g^ 	c #5B8337",
"h^ 	c #618C3A",
"i^ 	c #84A93D",
"j^ 	c #83A73E",
"k^ 	c #7FA43E",
"l^ 	c #92B53C",
"m^ 	c #94B73B",
"n^ 	c #94B73A",
"o^ 	c #92B63B",
"p^ 	c #90B43C",
"q^ 	c #8CB13D",
"r^ 	c #8AAD3D",
"s^ 	c #8CAF3D",
"t^ 	c #90B03C",
"u^ 	c #93B13A",
"v^ 	c #94B33B",
"w^ 	c #94B63B",
"x^ 	c #93B63C",
"y^ 	c #8CB13C",
"z^ 	c #89AF3C",
"A^ 	c #87AC3D",
"B^ 	c #487C38",
"C^ 	c #477937",
"D^ 	c #477836",
"E^ 	c #467736",
"F^ 	c #457736",
"G^ 	c #336431",
"H^ 	c #556430",
"I^ 	c #7F6D31",
"J^ 	c #A27B35",
"K^ 	c #D19742",
"L^ 	c #F8B04D",
"M^ 	c #FCB54B",
"N^ 	c #F8B956",
"O^ 	c #F8BA58",
"P^ 	c #FCB850",
"Q^ 	c #D99837",
"R^ 	c #81692F",
"S^ 	c #274B2B",
"T^ 	c #294C2B",
"U^ 	c #31532B",
"V^ 	c #3B5D2D",
"W^ 	c #4A6C30",
"X^ 	c #577D35",
"Y^ 	c #568A3B",
"Z^ 	c #63933C",
"`^ 	c #88A93E",
" / 	c #85A83E",
"./ 	c #7AA33D",
"+/ 	c #91B43D",
"@/ 	c #95B83B",
"#/ 	c #96B93A",
"$/ 	c #95B93A",
"%/ 	c #91B43B",
"&/ 	c #8DAF3D",
"*/ 	c #8AAC3E",
"=/ 	c #8EB13C",
"-/ 	c #92B13B",
";/ 	c #95B23A",
">/ 	c #96B43A",
",/ 	c #96B73A",
"'/ 	c #95B83A",
")/ 	c #93B73B",
"!/ 	c #8FB43C",
"~/ 	c #305A2F",
"{/ 	c #253F29",
"]/ 	c #AF8542",
"^/ 	c #F3B255",
"// 	c #FFB347",
"(/ 	c #FDB54B",
"_/ 	c #FCB956",
":/ 	c #F4B757",
"</ 	c #E5A749",
"[/ 	c #D79636",
"}/ 	c #B07E2D",
"|/ 	c #6B632D",
"1/ 	c #325E2F",
"2/ 	c #376330",
"3/ 	c #376230",
"4/ 	c #34602F",
"5/ 	c #335E2F",
"6/ 	c #315B2E",
"7/ 	c #365F2F",
"8/ 	c #3D6530",
"9/ 	c #547F37",
"0/ 	c #5A883A",
"a/ 	c #68943C",
"b/ 	c #69953C",
"c/ 	c #8CAB3E",
"d/ 	c #8EAA3D",
"e/ 	c #8EAB3D",
"f/ 	c #8DAD3D",
"g/ 	c #85AB3D",
"h/ 	c #81A83C",
"i/ 	c #81A93C",
"j/ 	c #86AC3D",
"k/ 	c #8DB23D",
"l/ 	c #93B73C",
"m/ 	c #8DAA3D",
"n/ 	c #8BAA3D",
"o/ 	c #8AAF3E",
"p/ 	c #8BB03E",
"q/ 	c #89AB3E",
"r/ 	c #91B53B",
"s/ 	c #94B53A",
"t/ 	c #96B53A",
"u/ 	c #96B63A",
"v/ 	c #97B83A",
"w/ 	c #97BA3A",
"x/ 	c #447636",
"y/ 	c #416F34",
"z/ 	c #406E34",
"A/ 	c #3F6E34",
"B/ 	c #3D6E34",
"C/ 	c #3B6B33",
"D/ 	c #326231",
"E/ 	c #596330",
"F/ 	c #856C30",
"G/ 	c #A37933",
"H/ 	c #CF9742",
"I/ 	c #F7B14F",
"J/ 	c #F6B957",
"K/ 	c #FBB654",
"L/ 	c #FEB54B",
"M/ 	c #F3B356",
"N/ 	c #C29144",
"O/ 	c #7B602B",
"P/ 	c #655B2A",
"Q/ 	c #4A5E2E",
"R/ 	c #346432",
"S/ 	c #417335",
"T/ 	c #407134",
"U/ 	c #3F7034",
"V/ 	c #3D6F34",
"W/ 	c #427234",
"X/ 	c #497937",
"Y/ 	c #518239",
"Z/ 	c #86AC3E",
"`/ 	c #8EAC3D",
" ( 	c #91AA3C",
".( 	c #92AC3C",
"+( 	c #91AF3C",
"@( 	c #90B13C",
"#( 	c #8DB03C",
"$( 	c #8CB23C",
"%( 	c #90B63C",
"&( 	c #94B83B",
"*( 	c #94B13B",
"=( 	c #91AA3B",
"-( 	c #8AAB3E",
";( 	c #89AE3E",
">( 	c #90B53C",
",( 	c #8EB23D",
"'( 	c #8CAA3D",
")( 	c #90AE3B",
"!( 	c #93B53B",
"~( 	c #96B83A",
"{( 	c #97B93A",
"]( 	c #98BA3A",
"^( 	c #447837",
"/( 	c #366230",
"(( 	c #335D2F",
"_( 	c #325C2F",
":( 	c #315C2F",
"<( 	c #2D572E",
"[( 	c #766C31",
"}( 	c #C38F38",
"|( 	c #EBA53D",
"1( 	c #F3AA41",
"2( 	c #FDB145",
"3( 	c #F1AF4A",
"4( 	c #AB8342",
"5( 	c #223F28",
"6( 	c #20442A",
"7( 	c #2D592F",
"8( 	c #487D38",
"9( 	c #608E3C",
"0( 	c #578B3B",
"a( 	c #8FAC3D",
"b( 	c #92AA3B",
"c( 	c #92AC3B",
"d( 	c #92B03B",
"e( 	c #92B23B",
"f( 	c #91B23B",
"g( 	c #90B23C",
"h( 	c #93B63B",
"i( 	c #95B13A",
"j( 	c #93AA3B",
"k( 	c #8FAA3C",
"l( 	c #8BAC3D",
"m( 	c #8DB13C",
"n( 	c #90B33B",
"o( 	c #92B53B",
"p( 	c #8AAB3D",
"q( 	c #8DAA3C",
"r( 	c #91AF3B",
"s( 	c #95B53A",
"t( 	c #396732",
"u( 	c #2F5A2E",
"v( 	c #2C552D",
"w( 	c #2C542D",
"x( 	c #827032",
"y( 	c #DA9D3C",
"z( 	c #F4B14C",
"A( 	c #FDB755",
"B( 	c #FBBA5A",
"C( 	c #F1B14C",
"D( 	c #233F28",
"E( 	c #2F572E",
"F( 	c #4D823A",
"G( 	c #4E833A",
"H( 	c #4F843A",
"I( 	c #4C843B",
"J( 	c #86A83E",
"K( 	c #84A73E",
"L( 	c #62913C",
"M( 	c #62923C",
"N( 	c #8DAC3D",
"O( 	c #90AA3C",
"P( 	c #91AC3B",
"Q( 	c #91B03B",
"R( 	c #93B23B",
"S( 	c #94B23B",
"T( 	c #95B23B",
"U( 	c #96B33B",
"V( 	c #97B43A",
"W( 	c #97B63A",
"X( 	c #95B73A",
"Y( 	c #94B03B",
"Z( 	c #90AB3C",
"`( 	c #8CAE3D",
" _ 	c #8FB13C",
"._ 	c #92B33B",
"+_ 	c #94B43A",
"@_ 	c #95B43A",
"#_ 	c #91B23C",
"$_ 	c #88A93D",
"%_ 	c #8CAA3C",
"&_ 	c #92AE3B",
"*_ 	c #96B33A",
"=_ 	c #98B63A",
"-_ 	c #97B53A",
";_ 	c #467937",
">_ 	c #3D6C33",
",_ 	c #2F5A2F",
"'_ 	c #2F582D",
")_ 	c #30562D",
"!_ 	c #816F32",
"~_ 	c #D89C3B",
"{_ 	c #F4AE47",
"]_ 	c #FEB44B",
"^_ 	c #FFBB55",
"/_ 	c #F1B24D",
"(_ 	c #AC8341",
"__ 	c #1E4129",
":_ 	c #376130",
"<_ 	c #3D6A33",
"[_ 	c #4F833A",
"}_ 	c #76A03E",
"|_ 	c #87A83E",
"1_ 	c #8AAC3D",
"2_ 	c #8FAC3C",
"3_ 	c #90B03B",
"4_ 	c #94B23A",
"5_ 	c #97B23A",
"6_ 	c #98B23A",
"7_ 	c #93B83B",
"8_ 	c #92AF3B",
"9_ 	c #8EAF3C",
"0_ 	c #96B23A",
"a_ 	c #92B13C",
"b_ 	c #8CAE3E",
"c_ 	c #84A73D",
"d_ 	c #93AE3B",
"e_ 	c #97B13A",
"f_ 	c #95B33A",
"g_ 	c #90B53B",
"h_ 	c #8EB33C",
"i_ 	c #8CB03C",
"j_ 	c #52863A",
"k_ 	c #4D7F38",
"l_ 	c #3A6A33",
"m_ 	c #385C2D",
"n_ 	c #38592D",
"o_ 	c #33562D",
"p_ 	c #F4AC41",
"q_ 	c #F7B148",
"r_ 	c #F3B456",
"s_ 	c #CA974A",
"t_ 	c #95753B",
"u_ 	c #796735",
"v_ 	c #505B2F",
"w_ 	c #2D562C",
"x_ 	c #3F6B33",
"y_ 	c #8DAC3C",
"z_ 	c #8FAF3C",
"A_ 	c #94B83A",
"B_ 	c #92B73B",
"C_ 	c #90AE3C",
"D_ 	c #90B23B",
"E_ 	c #93B33B",
"F_ 	c #81A53D",
"G_ 	c #8BA93D",
"H_ 	c #93AD3B",
"I_ 	c #97B03A",
"J_ 	c #90B43B",
"K_ 	c #5A8C3B",
"L_ 	c #55863A",
"M_ 	c #4D7E39",
"N_ 	c #427537",
"O_ 	c #3B6F35",
"P_ 	c #3B6C33",
"Q_ 	c #3D6A31",
"R_ 	c #3E6731",
"S_ 	c #386130",
"T_ 	c #706931",
"U_ 	c #B98A37",
"V_ 	c #DE9E3C",
"W_ 	c #DE9D3C",
"X_ 	c #DD9D3C",
"Y_ 	c #DD9D3B",
"Z_ 	c #DD9C3B",
"`_ 	c #EBA644",
" : 	c #FAB352",
".: 	c #FCB852",
"+: 	c #F5B858",
"@: 	c #EDAF54",
"#: 	c #E4A851",
"$: 	c #BE9046",
"%: 	c #736934",
"&: 	c #294E2A",
"*: 	c #31572D",
"=: 	c #3B622F",
"-: 	c #497334",
";: 	c #548339",
">: 	c #8DAF3C",
",: 	c #8FB23B",
"': 	c #8CAD3D",
"): 	c #8CAC3D",
"!: 	c #8FB03C",
"~: 	c #88AD3D",
"{: 	c #79A13E",
"]: 	c #7EA33E",
"^: 	c #89A93E",
"/: 	c #92AD3C",
"(: 	c #96B03B",
"_: 	c #97B33A",
":: 	c #97B73A",
"<: 	c #55863B",
"[: 	c #457C39",
"}: 	c #437A38",
"|: 	c #447937",
"1: 	c #437736",
"2: 	c #356431",
"3: 	c #506330",
"4: 	c #756931",
"5: 	c #8A6F32",
"6: 	c #896E31",
"7: 	c #896D31",
"8: 	c #896C31",
"9: 	c #886C30",
"0: 	c #896C30",
"a: 	c #C38F3F",
"b: 	c #F2B051",
"c: 	c #FFBC59",
"d: 	c #F9B858",
"e: 	c #FBB758",
"f: 	c #D49F4C",
"g: 	c #7E6D37",
"h: 	c #31542B",
"i: 	c #3C5F2D",
"j: 	c #4B7233",
"k: 	c #578439",
"l: 	c #60913C",
"m: 	c #8BAE3D",
"n: 	c #93B73A",
"o: 	c #84AA3E",
"p: 	c #7DA33E",
"q: 	c #90AD3D",
"r: 	c #5F8E3D",
"s: 	c #4A833B",
"t: 	c #457D39",
"u: 	c #346331",
"v: 	c #29512D",
"w: 	c #9C783A",
"x: 	c #E7A34E",
"y: 	c #FCBB5B",
"z: 	c #FDBF62",
"A: 	c #FABC5D",
"B: 	c #F4B657",
"C: 	c #DBA34F",
"D: 	c #C19047",
"E: 	c #9E7B3D",
"F: 	c #30552B",
"G: 	c #3E612E",
"H: 	c #476A30",
"I: 	c #5C893B",
"J: 	c #719C3E",
"K: 	c #8EB03C",
"L: 	c #91B33B",
"M: 	c #91B43C",
"N: 	c #90B33C",
"O: 	c #5B8E3C",
"P: 	c #60913D",
"Q: 	c #487F39",
"R: 	c #3E6F35",
"S: 	c #325C30",
"T: 	c #325B2F",
"U: 	c #315A2F",
"V: 	c #2E562E",
"W: 	c #2A502D",
"X: 	c #7C6A35",
"Y: 	c #AA823F",
"Z: 	c #CB9A4D",
"`: 	c #E5B05B",
" < 	c #EEAE47",
".< 	c #F4B356",
"+< 	c #BA8B44",
"@< 	c #4D4A2C",
"#< 	c #424E2C",
"$< 	c #415C2F",
"%< 	c #436A31",
"&< 	c #4F7433",
"*< 	c #567C35",
"=< 	c #5D8839",
"-< 	c #98B33A",
";< 	c #417236",
">< 	c #406F35",
",< 	c #3C6A33",
"'< 	c #3E5A2F",
")< 	c #42512D",
"!< 	c #706537",
"~< 	c #F6B456",
"{< 	c #ECAE53",
"]< 	c #D7A04D",
"^< 	c #99783C",
"/< 	c #2C4329",
"(< 	c #2E4B2A",
"_< 	c #517734",
":< 	c #608B39",
"<< 	c #85AB3E",
"[< 	c #64943C",
"}< 	c #4A8039",
"|< 	c #447737",
"1< 	c #315D2F",
"2< 	c #515731",
"3< 	c #AE8C49",
"4< 	c #E3B05B",
"5< 	c #EFB85F",
"6< 	c #FABF63",
"7< 	c #F8B24C",
"8< 	c #FEB449",
"9< 	c #E2A850",
"0< 	c #B38C43",
"a< 	c #8D773A",
"b< 	c #6E6734",
"c< 	c #38572D",
"d< 	c #3E612F",
"e< 	c #4D7133",
"f< 	c #628D3A",
"g< 	c #4A823A",
"h< 	c #82A83D",
"i< 	c #81A53E",
"j< 	c #82A53E",
"k< 	c #80A43E",
"l< 	c #91B53C",
"m< 	c #4F853A",
"n< 	c #3C6832",
"o< 	c #31552D",
"p< 	c #45582E",
"q< 	c #786D39",
"r< 	c #947D41",
"s< 	c #C39B50",
"t< 	c #F6B855",
"u< 	c #FFBA55",
"v< 	c #FEB850",
"w< 	c #CC9A4A",
"x< 	c #6F6934",
"y< 	c #33542B",
"z< 	c #375C2D",
"A< 	c #4E7534",
"B< 	c #567E36",
"C< 	c #5F8839",
"D< 	c #779E3D",
"E< 	c #8CAF3C",
"F< 	c #7DA53E",
"G< 	c #457A37",
"H< 	c #427033",
"I< 	c #3F6530",
"J< 	c #2D502B",
"K< 	c #294D2A",
"L< 	c #F3B554",
"M< 	c #EBAB43",
"N< 	c #FBBB5A",
"O< 	c #FDB241",
"P< 	c #F7AD42",
"Q< 	c #DEA145",
"R< 	c #C59248",
"S< 	c #9F7D3E",
"T< 	c #606231",
"U< 	c #335A2C",
"V< 	c #6A963C",
"W< 	c #739D3E",
"X< 	c #759F3E",
"Y< 	c #91B13B",
"Z< 	c #8EAC3C",
"`< 	c #89AE3D",
" [ 	c #447234",
".[ 	c #3F6B31",
"+[ 	c #37612F",
"@[ 	c #2B532B",
"#[ 	c #786E3A",
"$[ 	c #AE8B4A",
"%[ 	c #CB9D50",
"&[ 	c #D7A149",
"*[ 	c #E7A842",
"=[ 	c #F7AD41",
"-[ 	c #FFBB59",
";[ 	c #FBB756",
">[ 	c #FDB341",
",[ 	c #EFA63D",
"'[ 	c #B28136",
")[ 	c #574D2D",
"![ 	c #4A4E2C",
"~[ 	c #3F562C",
"{[ 	c #5A8137",
"][ 	c #5C8D3B",
"^[ 	c #93AC3B",
"/[ 	c #95B03A",
"([ 	c #94B13A",
"_[ 	c #88AE3E",
":[ 	c #3D6C32",
"<[ 	c #335D2E",
"[[ 	c #3E512D",
"}[ 	c #4E4E2E",
"|[ 	c #675931",
"1[ 	c #B08539",
"2[ 	c #E3A540",
"3[ 	c #F3B04B",
"4[ 	c #F8BB5A",
"5[ 	c #F1AC44",
"6[ 	c #F9AE42",
"7[ 	c #F1AF48",
"8[ 	c #F4AE43",
"9[ 	c #FDB547",
"0[ 	c #ECA541",
"a[ 	c #A07533",
"b[ 	c #2B4D2A",
"c[ 	c #4F7332",
"d[ 	c #597F36",
"e[ 	c #5E8939",
"f[ 	c #5A8A3B",
"g[ 	c #4C823B",
"h[ 	c #6E9B3D",
"i[ 	c #81A83E",
"j[ 	c #8AAA3E",
"k[ 	c #96AC3A",
"l[ 	c #96B03A",
"m[ 	c #8DB23C",
"n[ 	c #89B03D",
"o[ 	c #5A8A3C",
"p[ 	c #4A7E39",
"q[ 	c #487A37",
"r[ 	c #315C2E",
"s[ 	c #4A572F",
"t[ 	c #635B33",
"u[ 	c #7D6737",
"v[ 	c #B68A3C",
"w[ 	c #E3A640",
"x[ 	c #F6B24E",
"y[ 	c #EEAD46",
"z[ 	c #F5AD44",
"A[ 	c #FCB042",
"B[ 	c #F9B756",
"C[ 	c #F9B24C",
"D[ 	c #FCB145",
"E[ 	c #FFBA54",
"F[ 	c #FBB552",
"G[ 	c #F1AE47",
"H[ 	c #FDB751",
"I[ 	c #ECA94C",
"J[ 	c #A37A3A",
"K[ 	c #395B2D",
"L[ 	c #476B30",
"M[ 	c #547B35",
"N[ 	c #567F36",
"O[ 	c #567F37",
"P[ 	c #557E36",
"Q[ 	c #547D36",
"R[ 	c #558138",
"S[ 	c #56863A",
"T[ 	c #4F823A",
"U[ 	c #5E903C",
"V[ 	c #7AA13E",
"W[ 	c #7CA53E",
"X[ 	c #80A93E",
"Y[ 	c #86AD3D",
"Z[ 	c #8EAE3C",
"`[ 	c #8EAA3C",
" } 	c #95AA3A",
".} 	c #96AF3A",
"+} 	c #719D3E",
"@} 	c #4E8139",
"#} 	c #497836",
"$} 	c #457134",
"%} 	c #446E33",
"&} 	c #446D32",
"*} 	c #436D32",
"=} 	c #426E32",
"-} 	c #3E6B32",
";} 	c #36622F",
">} 	c #29552D",
",} 	c #7C723C",
"'} 	c #B8924D",
")} 	c #D6A454",
"!} 	c #DCA54B",
"~} 	c #FAB34C",
"{} 	c #FFB348",
"]} 	c #FBB451",
"^} 	c #F1AD46",
"/} 	c #ECAD53",
"(} 	c #A37B3E",
"_} 	c #224528",
":} 	c #2F532B",
"<} 	c #3B5E2D",
"[} 	c #41642F",
"}} 	c #457033",
"|} 	c #95AF3A",
"1} 	c #96AA3A",
"2} 	c #96AB3A",
"3} 	c #4E7F38",
"4} 	c #3C5E2E",
"5} 	c #385B2D",
"6} 	c #27522D",
"7} 	c #998244",
"8} 	c #E6B25C",
"9} 	c #ECAC43",
"0} 	c #FBB856",
"a} 	c #F4B14A",
"b} 	c #FDB853",
"c} 	c #ECAC4E",
"d} 	c #A37C3C",
"e} 	c #224629",
"f} 	c #2E532C",
"g} 	c #335A2E",
"h} 	c #335C2F",
"i} 	c #345E2F",
"j} 	c #376532",
"k} 	c #3A6E35",
"l} 	c #3D7537",
"m} 	c #3F7738",
"n} 	c #427939",
"o} 	c #447B39",
"p} 	c #477D39",
"q} 	c #51853A",
"r} 	c #52873C",
"s} 	c #51863C",
"t} 	c #8FB23D",
"u} 	c #91AF3D",
"v} 	c #91AB3D",
"w} 	c #91AC3C",
"x} 	c #92AF3C",
"y} 	c #95AC3A",
"z} 	c #91B53D",
"A} 	c #86AB3D",
"B} 	c #528138",
"C} 	c #497233",
"D} 	c #3E622F",
"E} 	c #34582E",
"F} 	c #2E512C",
"G} 	c #2C4C2A",
"H} 	c #264428",
"I} 	c #48552E",
"J} 	c #84743D",
"K} 	c #A48947",
"L} 	c #CBA154",
"M} 	c #F0B960",
"N} 	c #F9B654",
"O} 	c #FBBC5D",
"P} 	c #F6B045",
"Q} 	c #FEB649",
"R} 	c #EEAA44",
"S} 	c #A77E37",
"T} 	c #20432A",
"U} 	c #264D2C",
"V} 	c #27502D",
"W} 	c #28542D",
"X} 	c #29562E",
"Y} 	c #2B582F",
"Z} 	c #2E5E31",
"`} 	c #316734",
" | 	c #356F37",
".| 	c #397338",
"+| 	c #3E7739",
"@| 	c #427A39",
"#| 	c #467D3A",
"$| 	c #95AB3B",
"%| 	c #95AC3B",
"&| 	c #96B13A",
"*| 	c #92B63C",
"=| 	c #6B983C",
"-| 	c #79A03D",
";| 	c #568338",
">| 	c #3C612F",
",| 	c #2E532E",
"'| 	c #254A2C",
")| 	c #214129",
"!| 	c #53502F",
"~| 	c #B6904C",
"{| 	c #EDB75F",
"]| 	c #F5BC61",
"^| 	c #FCC164",
"/| 	c #F5B24E",
"(| 	c #F4AE44",
"_| 	c #FCB142",
":| 	c #F7B350",
"<| 	c #FBBD5D",
"[| 	c #F2B24E",
"}| 	c #EBA940",
"|| 	c #ECA83E",
"1| 	c #F2AA3C",
"2| 	c #DF9939",
"3| 	c #9A7933",
"4| 	c #264F2E",
"5| 	c #27502E",
"6| 	c #254E2D",
"7| 	c #264F2D",
"8| 	c #28532D",
"9| 	c #2B572E",
"0| 	c #2D5A2F",
"a| 	c #2F5C2F",
"b| 	c #316834",
"c| 	c #346E37",
"d| 	c #387238",
"e| 	c #3D7739",
"f| 	c #447C3A",
"g| 	c #5B8E3D",
"h| 	c #94B03A",
"i| 	c #8FB53C",
"j| 	c #92B43B",
"k| 	c #94AF3A",
"l| 	c #90B33D",
"m| 	c #7DA33C",
"n| 	c #759E3C",
"o| 	c #4B7534",
"p| 	c #2F582F",
"q| 	c #1D4129",
"r| 	c #5A5330",
"s| 	c #F3AE43",
"t| 	c #FAB958",
"u| 	c #F5B34F",
"v| 	c #F5B14C",
"w| 	c #FBB44E",
"x| 	c #FCBA58",
"y| 	c #E8A83F",
"z| 	c #D09637",
"A| 	c #B98531",
"B| 	c #9D7530",
"C| 	c #726630",
"D| 	c #2A5832",
"E| 	c #2B5E32",
"F| 	c #2D6033",
"G| 	c #2C6032",
"H| 	c #295D31",
"I| 	c #2D5E31",
"J| 	c #346131",
"K| 	c #3B6832",
"L| 	c #3D6A32",
"M| 	c #3C6C34",
"N| 	c #396E36",
"O| 	c #377138",
"P| 	c #3B7539",
"Q| 	c #417A3A",
"R| 	c #5B8D3D",
"S| 	c #8CB23D",
"T| 	c #91AE3C",
"U| 	c #94AA3B",
"V| 	c #91AD3B",
"W| 	c #94AA3A",
"X| 	c #96B93B",
"Y| 	c #92B43C",
"Z| 	c #88A93C",
"`| 	c #7FA23C",
" 1 	c #769D3D",
".1 	c #6F993D",
"+1 	c #5A8B3B",
"@1 	c #54843A",
"#1 	c #4B7A37",
"$1 	c #254A2A",
"%1 	c #1C3D27",
"&1 	c #5A5430",
"*1 	c #C6974C",
"=1 	c #FAB34B",
"-1 	c #FEB753",
";1 	c #F7B24A",
">1 	c #E7A73F",
",1 	c #AF8333",
"'1 	c #51522C",
")1 	c #25462C",
"!1 	c #274F2F",
"~1 	c #2B5C33",
"{1 	c #306735",
"]1 	c #326C36",
"^1 	c #336D36",
"/1 	c #376D36",
"(1 	c #3E7036",
"_1 	c #447436",
":1 	c #417838",
"<1 	c #3E7839",
"[1 	c #48803B",
"}1 	c #5D8F3D",
"|1 	c #94AC3A",
"11 	c #8DAB3C",
"21 	c #95AB3A",
"31 	c #84A43D",
"41 	c #799F3D",
"51 	c #6A973C",
"61 	c #5D8E3B",
"71 	c #4C8039",
"81 	c #2F592E",
"91 	c #224529",
"01 	c #5C5930",
"a1 	c #C89345",
"b1 	c #FFC161",
"c1 	c #F3B24E",
"d1 	c #FAB44E",
"e1 	c #FDB652",
"f1 	c #F5B049",
"g1 	c #E8A840",
"h1 	c #C89238",
"i1 	c #A87D34",
"j1 	c #8B6E32",
"k1 	c #666332",
"l1 	c #295A32",
"m1 	c #2E6233",
"n1 	c #326834",
"o1 	c #356B35",
"p1 	c #376E37",
"q1 	c #387038",
"r1 	c #3C7438",
"s1 	c #467C38",
"t1 	c #467E3A",
"u1 	c #49803B",
"v1 	c #8CAB3D",
"w1 	c #8BAB3D",
"x1 	c #94AF3B",
"y1 	c #92B33C",
"z1 	c #8DAB3D",
"A1 	c #83A33D",
"B1 	c #779D3D",
"C1 	c #5E8E3D",
"D1 	c #3A6832",
"E1 	c #2B552D",
"F1 	c #525C2F",
"G1 	c #A67F3B",
"H1 	c #D49B48",
"I1 	c #E6AE56",
"J1 	c #F7BD61",
"K1 	c #FBB44D",
"L1 	c #FDBF61",
"M1 	c #FCB550",
"N1 	c #F3AE47",
"O1 	c #E7A53E",
"P1 	c #E9A53E",
"Q1 	c #D4983B",
"R1 	c #937834",
"S1 	c #27552F",
"T1 	c #2A5930",
"U1 	c #376834",
"V1 	c #3B6E37",
"W1 	c #3E733A",
"X1 	c #41793A",
"Y1 	c #447D39",
"Z1 	c #56883C",
"`1 	c #90AC3B",
" 2 	c #8BAA3E",
".2 	c #8BAB3E",
"+2 	c #81A33E",
"@2 	c #76A03D",
"#2 	c #437436",
"$2 	c #376832",
"%2 	c #426130",
"&2 	c #666532",
"*2 	c #7B6C35",
"=2 	c #B8934A",
"-2 	c #EDB75E",
";2 	c #F7B856",
">2 	c #EFAD47",
",2 	c #F5AF45",
"'2 	c #EEA83E",
")2 	c #A78135",
"!2 	c #26512C",
"~2 	c #305D2F",
"{2 	c #386733",
"]2 	c #3E7037",
"^2 	c #42773A",
"/2 	c #457C3A",
"(2 	c #8BAE3E",
"_2 	c #90B43D",
":2 	c #8AAA3D",
"<2 	c #7EA23E",
"[2 	c #396A33",
"}2 	c #2C5A2F",
"|2 	c #8E7C41",
"12 	c #DCAC59",
"22 	c #F8BD61",
"32 	c #EFB353",
"42 	c #F6B14C",
"52 	c #F7AE41",
"62 	c #FFBA53",
"72 	c #FFBB56",
"82 	c #EDA73E",
"92 	c #A57E34",
"02 	c #274E2B",
"a2 	c #2A522C",
"b2 	c #396833",
"c2 	c #417337",
"d2 	c #467A39",
"e2 	c #68953C",
"f2 	c #87AB3D",
"g2 	c #8FB13D",
"h2 	c #94B63C",
"i2 	c #89AB3D",
"j2 	c #8EB03D",
"k2 	c #91B13C",
"l2 	c #93B13B",
"m2 	c #95B33B",
"n2 	c #8FB03D",
"o2 	c #55893C",
"p2 	c #568A3C",
"q2 	c #49813B",
"r2 	c #396933",
"s2 	c #2C572E",
"t2 	c #716D39",
"u2 	c #A38747",
"v2 	c #C0984D",
"w2 	c #D19F47",
"x2 	c #FFBA4F",
"y2 	c #FFC15F",
"z2 	c #A77F34",
"A2 	c #284D2A",
"B2 	c #2A502B",
"C2 	c #305B2E",
"D2 	c #7CA23D",
"E2 	c #8AAC3C",
"F2 	c #96B73B",
"G2 	c #93B43B",
"H2 	c #4F863B",
"I2 	c #48813B",
"J2 	c #386532",
"K2 	c #385C2F",
"L2 	c #3A542D",
"M2 	c #535A2E",
"N2 	c #AF8839",
"O2 	c #E6A840",
"P2 	c #F7B24D",
"Q2 	c #FFB84C",
"R2 	c #FFBD58",
"S2 	c #F3B14A",
"T2 	c #E3A23E",
"U2 	c #E3A13D",
"V2 	c #CD9339",
"W2 	c #907432",
"X2 	c #2C532C",
"Y2 	c #386631",
"Z2 	c #3F7135",
"`2 	c #5E8E3B",
" 3 	c #66953C",
".3 	c #739F3D",
"+3 	c #8DAE3B",
"@3 	c #84AB3C",
"#3 	c #89AF3B",
"$3 	c #8FB43B",
"%3 	c #89AC3D",
"&3 	c #6D993E",
"*3 	c #477E39",
"=3 	c #457938",
"-3 	c #376430",
";3 	c #2F592D",
">3 	c #405B2D",
",3 	c #8F7734",
"'3 	c #C2903A",
")3 	c #E0A13E",
"!3 	c #F5AC40",
"~3 	c #F8AF45",
"{3 	c #FFBD5A",
"]3 	c #FDBE5C",
"^3 	c #F7B74F",
"/3 	c #C78F37",
"(3 	c #9D7632",
"_3 	c #806A30",
":3 	c #61642F",
"<3 	c #67933C",
"[3 	c #6D983C",
"}3 	c #77A23D",
"|3 	c #80A93D",
"13 	c #8AAD3C",
"23 	c #6F9C3D",
"33 	c #7AA33C",
"43 	c #80A83C",
"53 	c #88AE3C",
"63 	c #6C973C",
"73 	c #54893C",
"83 	c #4D833A",
"93 	c #437B39",
"03 	c #447A38",
"a3 	c #396A32",
"b3 	c #636630",
"c3 	c #7A6831",
"d3 	c #B18436",
"e3 	c #E7A33D",
"f3 	c #FDC160",
"g3 	c #F4B751",
"h3 	c #E0A33E",
"i3 	c #A87C31",
"j3 	c #4B4F2B",
"k3 	c #24492B",
"l3 	c #66923C",
"m3 	c #85AC3D",
"n3 	c #759F3C",
"o3 	c #7BA23C",
"p3 	c #84A93C",
"q3 	c #96AE3A",
"r3 	c #87AD3D",
"s3 	c #50863C",
"t3 	c #719A3D",
"u3 	c #51843A",
"v3 	c #437A39",
"w3 	c #3F7839",
"x3 	c #3F7739",
"y3 	c #427838",
"z3 	c #447836",
"A3 	c #2A542D",
"B3 	c #866B30",
"C3 	c #DC9C3B",
"D3 	c #FABF61",
"E3 	c #F9BF5F",
"F3 	c #FCC162",
"G3 	c #F3BA5E",
"H3 	c #D3A34C",
"I3 	c #AD8636",
"J3 	c #856D30",
"K3 	c #2D562E",
"L3 	c #52883B",
"M3 	c #98B53A",
"N3 	c #95B93B",
"O3 	c #8FB33D",
"P3 	c #87AE3E",
"Q3 	c #88AE3D",
"R3 	c #4D843C",
"S3 	c #7CA43D",
"T3 	c #427A3A",
"U3 	c #3C7639",
"V3 	c #407537",
"W3 	c #F4C264",
"X3 	c #EAB55D",
"Y3 	c #A68A46",
"Z3 	c #4B5B2E",
"`3 	c #425B2E",
" 4 	c #385E30",
".4 	c #447235",
"+4 	c #3E7738",
"@4 	c #437938",
"#4 	c #6C9A3D",
"$4 	c #90AC3C",
"%4 	c #98B83A",
"&4 	c #8CAC3C",
"*4 	c #417B3A",
"=4 	c #3B7538",
"-4 	c #3A7237",
";4 	c #3D7135",
">4 	c #3D6D33",
",4 	c #336231",
"'4 	c #27512D",
")4 	c #FCBC5A",
"!4 	c #F8C162",
"~4 	c #F3C265",
"{4 	c #EDBB61",
"]4 	c #CCA053",
"^4 	c #86783F",
"/4 	c #437336",
"(4 	c #356934",
"_4 	c #376B34",
":4 	c #3D7034",
"<4 	c #457636",
"[4 	c #4B7D38",
"}4 	c #5C8F3C",
"|4 	c #6D9B3D",
"14 	c #91AD3C",
"24 	c #98B93A",
"34 	c #98B73A",
"44 	c #98B43A",
"54 	c #93B23C",
"64 	c #89A83E",
"74 	c #8BAD3D",
"84 	c #90AA3B",
"94 	c #90AD3B",
"04 	c #447D3A",
"a4 	c #3D7638",
"b4 	c #397136",
"c4 	c #386B33",
"d4 	c #376632",
"e4 	c #356130",
"f4 	c #375B2F",
"g4 	c #5A5F2F",
"h4 	c #6E612F",
"i4 	c #A77F35",
"j4 	c #E1A23D",
"k4 	c #EFAF4A",
"l4 	c #FCB247",
"m4 	c #FDC05F",
"n4 	c #F7C164",
"o4 	c #D3A556",
"p4 	c #A68446",
"q4 	c #86703C",
"r4 	c #616335",
"s4 	c #3B6A32",
"t4 	c #2E592E",
"u4 	c #305C2E",
"v4 	c #386531",
"w4 	c #487A38",
"x4 	c #8FAE3C",
"y4 	c #95B13B",
"z4 	c #95B63B",
"A4 	c #84AA3D",
"B4 	c #8AAE3C",
"C4 	c #94AB3B",
"D4 	c #90A93C",
"E4 	c #82A93E",
"F4 	c #7AA43E",
"G4 	c #95AD3A",
"H4 	c #336632",
"I4 	c #2C552E",
"J4 	c #274E2C",
"K4 	c #3D542D",
"L4 	c #927534",
"M4 	c #BF8E3A",
"N4 	c #D69E3D",
"O4 	c #E9AB3F",
"P4 	c #F8B241",
"Q4 	c #FBB958",
"R4 	c #FBC063",
"S4 	c #BE944E",
"T4 	c #47482C",
"U4 	c #1F3B27",
"V4 	c #274A29",
"W4 	c #3E6E33",
"X4 	c #2D542C",
"Y4 	c #2B502B",
"Z4 	c #3B6A34",
"`4 	c #447738",
" 5 	c #61923C",
".5 	c #729C3E",
"+5 	c #91B63B",
"@5 	c #8FAD3D",
"#5 	c #7AA53D",
"$5 	c #8FB03B",
"%5 	c #94AD3A",
"&5 	c #96AD3A",
"*5 	c #4D803A",
"=5 	c #487938",
"-5 	c #346532",
";5 	c #2C5B30",
">5 	c #414D2B",
",5 	c #AC8137",
"'5 	c #E5A440",
")5 	c #EDAF41",
"!5 	c #EFB141",
"~5 	c #F3B241",
"{5 	c #FAB241",
"]5 	c #FAB145",
"^5 	c #DAA753",
"/5 	c #AE833A",
"(5 	c #87692D",
"_5 	c #5E5A2B",
":5 	c #3D6D34",
"<5 	c #417336",
"[5 	c #2F572D",
"}5 	c #274C2B",
"|5 	c #2A562F",
"15 	c #346434",
"25 	c #3F7238",
"35 	c #749D3C",
"45 	c #6F993C",
"55 	c #89AD3C",
"65 	c #89AD3B",
"75 	c #89AC3B",
"85 	c #89AB3B",
"95 	c #87AD3C",
"05 	c #93B23A",
"a5 	c #97AA3A",
"b5 	c #96AC3B",
"c5 	c #87AE3D",
"d5 	c #79A53D",
"e5 	c #83AB3E",
"f5 	c #89AF3D",
"g5 	c #94AC3B",
"h5 	c #729B3D",
"i5 	c #5D8D3B",
"j5 	c #50833A",
"k5 	c #4F8039",
"l5 	c #427335",
"m5 	c #386933",
"n5 	c #2E5D30",
"o5 	c #384F2E",
"p5 	c #886D33",
"q5 	c #B18538",
"r5 	c #CE983B",
"s5 	c #E7A93F",
"t5 	c #F8B755",
"u5 	c #FDBC5D",
"v5 	c #FDB754",
"w5 	c #F3B857",
"x5 	c #E4A744",
"y5 	c #BB8934",
"z5 	c #77642C",
"A5 	c #294F2B",
"B5 	c #28542C",
"C5 	c #345F30",
"D5 	c #335F30",
"E5 	c #325C2E",
"F5 	c #1F432B",
"G5 	c #20472C",
"H5 	c #265330",
"I5 	c #2E6134",
"J5 	c #386C38",
"K5 	c #43783A",
"L5 	c #64903B",
"M5 	c #5D8B3B",
"N5 	c #7DA43C",
"O5 	c #7DA53C",
"P5 	c #7CA43C",
"Q5 	c #98AA3A",
"R5 	c #97AC3B",
"S5 	c #92B03C",
"T5 	c #7BA53D",
"U5 	c #84AB3E",
"V5 	c #729C3C",
"W5 	c #66923B",
"X5 	c #53863A",
"Y5 	c #386B34",
"Z5 	c #2C5E33",
"`5 	c #2D5531",
" 6 	c #45532F",
".6 	c #53542E",
"+6 	c #9D7834",
"@6 	c #E2A13D",
"#6 	c #F1B04C",
"$6 	c #F7B451",
"%6 	c #EFAE45",
"&6 	c #FDBC5C",
"*6 	c #FCB753",
"=6 	c #FBBE59",
"-6 	c #F3B247",
";6 	c #D69A39",
">6 	c #A27B31",
",6 	c #6D622E",
"'6 	c #5A5C2D",
")6 	c #354F2B",
"!6 	c #254929",
"~6 	c #244629",
"{6 	c #1E442B",
"]6 	c #21492D",
"^6 	c #275430",
"/6 	c #2D6034",
"(6 	c #326938",
"_6 	c #3A7139",
":6 	c #43793A",
"<6 	c #487E3A",
"[6 	c #52853B",
"}6 	c #5B8C3B",
"|6 	c #53853B",
"16 	c #709B3C",
"26 	c #97AC3A",
"36 	c #93B03B",
"46 	c #8BB03C",
"56 	c #7CA63D",
"66 	c #74A03D",
"76 	c #7FA73E",
"86 	c #92AA3C",
"96 	c #95AA3B",
"06 	c #6A953C",
"a6 	c #729D3E",
"b6 	c #6F9A3C",
"c6 	c #3D7236",
"d6 	c #346935",
"e6 	c #2A5D33",
"f6 	c #224C2E",
"g6 	c #1F442B",
"h6 	c #7B6530",
"i6 	c #CB9239",
"j6 	c #F0A93F",
"k6 	c #F6AC3F",
"l6 	c #FEB03F",
"m6 	c #F3B450",
"n6 	c #F5B24B",
"o6 	c #F6B653",
"p6 	c #F9B34D",
"q6 	c #FFBC58",
"r6 	c #F7BA57",
"s6 	c #E2A23D",
"t6 	c #D89B3B",
"u6 	c #CC9439",
"v6 	c #9F7732",
"w6 	c #484B29",
"x6 	c #173826",
"y6 	c #193A26",
"z6 	c #1D3F28",
"A6 	c #1E4029",
"B6 	c #1E422A",
"C6 	c #21482C",
"D6 	c #25502E",
"E6 	c #295931",
"F6 	c #2D6134",
"G6 	c #306836",
"H6 	c #356D37",
"I6 	c #397238",
"J6 	c #3A7338",
"K6 	c #397237",
"L6 	c #95B63A",
"M6 	c #82A93D",
"N6 	c #86A83D",
"O6 	c #8DA93D",
"P6 	c #91AA3D",
"Q6 	c #93AE3C",
"R6 	c #69943C",
"S6 	c #67953C",
"T6 	c #508439",
"U6 	c #366E36",
"V6 	c #2F6635",
"W6 	c #2A5931",
"X6 	c #224B2D",
"Y6 	c #5C5C2F",
"Z6 	c #8E7132",
"`6 	c #AF8236",
" 7 	c #D79838",
".7 	c #FAAD3E",
"+7 	c #F6AF47",
"@7 	c #EFAB40",
"#7 	c #C58C37",
"$7 	c #574B28",
"%7 	c #153626",
"&7 	c #193A27",
"*7 	c #1D3F29",
"=7 	c #20462A",
"-7 	c #25512D",
";7 	c #29592F",
">7 	c #2C5F32",
",7 	c #2F6534",
"'7 	c #316A35",
")7 	c #336C36",
"!7 	c #346F37",
"~7 	c #357137",
"{7 	c #346F36",
"]7 	c #3E7638",
"^7 	c #467C39",
"/7 	c #94B63A",
"(7 	c #85A73E",
"_7 	c #8DAE3D",
":7 	c #66923D",
"<7 	c #54883A",
"[7 	c #508339",
"}7 	c #417637",
"|7 	c #387136",
"17 	c #326B35",
"27 	c #28522D",
"37 	c #254C2C",
"47 	c #354D2C",
"57 	c #B78431",
"67 	c #F7AA3C",
"77 	c #FFB74A",
"87 	c #FFB141",
"97 	c #F2B24F",
"07 	c #F7B653",
"a7 	c #FDB548",
"b7 	c #FDB74D",
"c7 	c #FEBF5E",
"d7 	c #F8B041",
"e7 	c #B48134",
"f7 	c #906B2F",
"g7 	c #68542A",
"h7 	c #1A3B27",
"i7 	c #1F452A",
"j7 	c #26522E",
"k7 	c #2C5F31",
"l7 	c #2F6432",
"m7 	c #306633",
"n7 	c #336C35",
"o7 	c #346E36",
"p7 	c #336E36",
"q7 	c #367237",
"r7 	c #5B8B3B",
"s7 	c #54863A",
"t7 	c #4F8239",
"u7 	c #3E7537",
"v7 	c #377137",
"w7 	c #326A35",
"x7 	c #316633",
"y7 	c #2C5E31",
"z7 	c #31502C",
"A7 	c #93702E",
"B7 	c #C58B35",
"C7 	c #DE9E40",
"D7 	c #F1AC4A",
"E7 	c #F8B957",
"F7 	c #F7B857",
"G7 	c #FFB94D",
"H7 	c #FFBF5C",
"I7 	c #FBB951",
"J7 	c #F8B242",
"K7 	c #FCB84E",
"L7 	c #FEC05F",
"M7 	c #F3AF41",
"N7 	c #F5AD3F",
"O7 	c #F0A83E",
"P7 	c #D9993A",
"Q7 	c #977131",
"R7 	c #244D2D",
"S7 	c #2B5C31",
"T7 	c #316934",
"U7 	c #356D35",
"V7 	c #366E35",
"W7 	c #367036",
"X7 	c #377036",
"Y7 	c #367137",
"Z7 	c #347037",
"`7 	c #3A7438",
" 8 	c #3F7938",
".8 	c #8EB33D",
"+8 	c #78A23C",
"@8 	c #8AAF3C",
"#8 	c #83AA3D",
"$8 	c #427837",
"%8 	c #3D7437",
"&8 	c #397337",
"*8 	c #306734",
"=8 	c #2B5C30",
"-8 	c #52502A",
";8 	c #68562A",
">8 	c #9B722F",
",8 	c #DC9A3A",
"'8 	c #F8B553",
")8 	c #FFB94E",
"!8 	c #FFC05D",
"~8 	c #FEC060",
"{8 	c #FBB952",
"]8 	c #F8B342",
"^8 	c #F5B44B",
"/8 	c #F5B85A",
"(8 	c #F4BB60",
"_8 	c #EFB354",
":8 	c #EFAF44",
"<8 	c #F3B143",
"[8 	c #F8AF40",
"}8 	c #F7AD3F",
"|8 	c #E29F3C",
"18 	c #1C3F29",
"28 	c #28532F",
"38 	c #2D6133",
"48 	c #387337",
"58 	c #3C7638",
"68 	c #3C7538",
"78 	c #377237",
"88 	c #3B7438",
"98 	c #49823B",
"08 	c #86AD3C",
"a8 	c #79A43D",
"b8 	c #68973D",
"c8 	c #4D7E38",
"d8 	c #3F7537",
"e8 	c #3C7437",
"f8 	c #306634",
"g8 	c #414929",
"h8 	c #514A29",
"i8 	c #8C692C",
"j8 	c #D79737",
"k8 	c #FEB851",
"l8 	c #FFB950",
"m8 	c #FDB342",
"n8 	c #E9A843",
"o8 	c #C79647",
"p8 	c #B58E4B",
"q8 	c #D8A451",
"r8 	c #F2B657",
"s8 	c #F9BA54",
"t8 	c #FAB74B",
"u8 	c #FAB040",
"v8 	c #E09C39",
"w8 	c #C18936",
"x8 	c #9F7633",
"y8 	c #73602F",
"z8 	c #1F442C",
"A8 	c #21482D",
"B8 	c #2A5730",
"C8 	c #3A7538",
"D8 	c #417C3A",
"E8 	c #467D39",
"F8 	c #3B7638",
"G8 	c #417839",
"H8 	c #457B39",
"I8 	c #53873C",
"J8 	c #5E8D3D",
"K8 	c #8EAD3D",
"L8 	c #83A93D",
"M8 	c #81A83D",
"N8 	c #8DAE3C",
"O8 	c #78A33D",
"P8 	c #6B993C",
"Q8 	c #55873A",
"R8 	c #4C7F38",
"S8 	c #477A37",
"T8 	c #407738",
"U8 	c #3B7537",
"V8 	c #306433",
"W8 	c #24502D",
"X8 	c #2E4E2B",
"Y8 	c #8D6B2C",
"Z8 	c #BA8433",
"`8 	c #D4993E",
" 9 	c #E7A948",
".9 	c #F8B750",
"+9 	c #FBB955",
"@9 	c #FBB146",
"#9 	c #FFB442",
"$9 	c #8C692F",
"%9 	c #43452B",
"&9 	c #BF944D",
"*9 	c #FFC260",
"=9 	c #FFBE52",
"-9 	c #CA8A32",
";9 	c #605129",
">9 	c #26402A",
",9 	c #24462D",
"'9 	c #224C30",
")9 	c #255231",
"!9 	c #295732",
"~9 	c #2F6434",
"{9 	c #3C7738",
"]9 	c #8EAE3D",
"^9 	c #88AD3C",
"/9 	c #749F3E",
"(9 	c #407838",
"_9 	c #377136",
":9 	c #2C5D30",
"<9 	c #26512D",
"[9 	c #21472A",
"}9 	c #324829",
"|9 	c #B3812F",
"19 	c #F5A63B",
"29 	c #FBB549",
"39 	c #F5B854",
"49 	c #F2BA59",
"59 	c #F5AF41",
"69 	c #ECA63E",
"79 	c #DE9F3C",
"89 	c #B98635",
"99 	c #715B2B",
"09 	c #334229",
"a9 	c #9D7F43",
"b9 	c #D4A656",
"c9 	c #DCAA55",
"d9 	c #DCA349",
"e9 	c #D89739",
"f9 	c #A6752F",
"g9 	c #4B4B29",
"h9 	c #1D402A",
"i9 	c #224830",
"j9 	c #285434",
"k9 	c #2B5A35",
"l9 	c #2E6036",
"m9 	c #316536",
"n9 	c #336936",
"o9 	c #407938",
"p9 	c #417939",
"q9 	c #56873A",
"r9 	c #4D813A",
"s9 	c #497E3A",
"t9 	c #3B7236",
"u9 	c #356833",
"v9 	c #27502B",
"w9 	c #214729",
"x9 	c #334929",
"y9 	c #F7AB3D",
"z9 	c #FDB748",
"A9 	c #F8B74F",
"B9 	c #F2B853",
"C9 	c #F8B955",
"D9 	c #FDBE5F",
"E9 	c #FAB450",
"F9 	c #FCB44B",
"G9 	c #F2AF41",
"H9 	c #F9AF40",
"I9 	c #CD963A",
"J9 	c #8C7433",
"K9 	c #716630",
"L9 	c #4B542B",
"M9 	c #656435",
"N9 	c #81743C",
"O9 	c #86743B",
"P9 	c #856E36",
"Q9 	c #816730",
"R9 	c #66592D",
"S9 	c #354E2B",
"T9 	c #234B2D",
"U9 	c #2C5432",
"V9 	c #335E37",
"W9 	c #356538",
"X9 	c #376B39",
"Y9 	c #396F39",
"Z9 	c #3C7238",
"`9 	c #3F7638",
" 0 	c #80A73D",
".0 	c #397438",
"+0 	c #365D2E",
"@0 	c #2D522B",
"#0 	c #374E2A",
"$0 	c #B88735",
"%0 	c #F7AC3F",
"&0 	c #FEB544",
"*0 	c #FAB446",
"=0 	c #F5B448",
"-0 	c #F9B64F",
";0 	c #FAB856",
">0 	c #EDAD47",
",0 	c #F1AF41",
"'0 	c #F9B141",
")0 	c #FAAF40",
"!0 	c #AC8336",
"~0 	c #35562E",
"{0 	c #26532D",
"]0 	c #2A582E",
"^0 	c #27522B",
"/0 	c #24472A",
"(0 	c #1E432B",
"_0 	c #1F452C",
":0 	c #23502D",
"<0 	c #2E5930",
"[0 	c #366135",
"}0 	c #3E6A39",
"|0 	c #42733A",
"10 	c #45783A",
"20 	c #477C3B",
"30 	c #447C39",
"40 	c #7FA43D",
"50 	c #88AC3D",
"60 	c #7EA63D",
"70 	c #387438",
"80 	c #387338",
"90 	c #457836",
"00 	c #3B542B",
"a0 	c #B08435",
"b0 	c #F0A63D",
"c0 	c #F7AF3F",
"d0 	c #F8B240",
"e0 	c #FBB54B",
"f0 	c #F6B34E",
"g0 	c #F4B959",
"h0 	c #F4AF41",
"i0 	c #FBB241",
"j0 	c #E8A53D",
"k0 	c #CE9238",
"l0 	c #AF8034",
"m0 	c #866F31",
"n0 	c #385D2F",
"o0 	c #3B6A33",
"p0 	c #2E552C",
"q0 	c #22482B",
"r0 	c #234C2D",
"s0 	c #2B582E",
"t0 	c #3D6E37",
"u0 	c #46783A",
"v0 	c #4F823B",
"w0 	c #4D823B",
"x0 	c #4C813B",
"y0 	c #477D3A",
"z0 	c #3D7538",
"A0 	c #457A39",
"B0 	c #6E9A3E",
"C0 	c #77A13D",
"D0 	c #87AA3D",
"E0 	c #89A93D",
"F0 	c #8EAD3C",
"G0 	c #92B23C",
"H0 	c #437C39",
"I0 	c #487836",
"J0 	c #457034",
"K0 	c #406831",
"L0 	c #365D2D",
"M0 	c #3E572B",
"N0 	c #876C2F",
"O0 	c #AF7F34",
"P0 	c #CD9137",
"Q0 	c #E8A33A",
"R0 	c #FEB64C",
"S0 	c #F8B856",
"T0 	c #F6B148",
"U0 	c #F5B24F",
"V0 	c #F7C365",
"W0 	c #EEB049",
"X0 	c #F2AD40",
"Y0 	c #DA9A3A",
"Z0 	c #85662E",
"`0 	c #384228",
" a 	c #37512C",
".a 	c #3E6C32",
"+a 	c #345D2E",
"@a 	c #26502C",
"#a 	c #244F2D",
"$a 	c #29552E",
"%a 	c #356331",
"&a 	c #3E7035",
"*a 	c #50843B",
"=a 	c #3A7337",
"-a 	c #3B7437",
";a 	c #407739",
">a 	c #709A3C",
",a 	c #729D3C",
"'a 	c #94B43B",
")a 	c #7BA43C",
"!a 	c #6F9B3E",
"~a 	c #417B39",
"{a 	c #427B39",
"]a 	c #406931",
"^a 	c #39582C",
"/a 	c #3A4C29",
"(a 	c #394127",
"_a 	c #83622A",
":a 	c #D89634",
"<a 	c #F5B14B",
"[a 	c #F8C365",
"}a 	c #E7B357",
"|a 	c #D49E44",
"1a 	c #CF9539",
"2a 	c #D99B3C",
"3a 	c #E39F3C",
"4a 	c #B88435",
"5a 	c #65532A",
"6a 	c #1F462A",
"7a 	c #326030",
"8a 	c #3B6831",
"9a 	c #2F5E30",
"0a 	c #2D5D30",
"aa 	c #326331",
"ba 	c #3B7338",
"ca 	c #3C7539",
"da 	c #6E9A3C",
"ea 	c #93AF3B",
"fa 	c #88AE3B",
"ga 	c #55873C",
"ha 	c #407939",
"ia 	c #427A38",
"ja 	c #426F33",
"ka 	c #365B2D",
"la 	c #234228",
"ma 	c #755A28",
"na 	c #D39233",
"oa 	c #D9A755",
"pa 	c #9F7B3B",
"qa 	c #83652C",
"ra 	c #8D6A2F",
"sa 	c #926C2F",
"ta 	c #785D2C",
"ua 	c #434227",
"va 	c #3B6D34",
"wa 	c #3A6D34",
"xa 	c #50843A",
"ya 	c #3A7238",
"za 	c #3E7539",
"Aa 	c #437839",
"Ba 	c #457A38",
"Ca 	c #427839",
"Da 	c #477C3A",
"Ea 	c #97AB3A",
"Fa 	c #97AF3A",
"Ga 	c #3C7137",
"Ha 	c #3D7035",
"Ia 	c #407236",
"Ja 	c #457737",
"Ka 	c #775B28",
"La 	c #D49333",
"Ma 	c #FFBC5E",
"Na 	c #FEC063",
"Oa 	c #C79B51",
"Pa 	c #615632",
"Qa 	c #22472A",
"Ra 	c #477B37",
"Sa 	c #51843B",
"Ta 	c #377238",
"Ua 	c #3D7439",
"Va 	c #43773A",
"Wa 	c #467A3A",
"Xa 	c #41763A",
"Ya 	c #3A7339",
"Za 	c #89AB3C",
"`a 	c #739E3E",
" b 	c #417A38",
".b 	c #396B34",
"+b 	c #3A6632",
"@b 	c #4B7F39",
"#b 	c #417436",
"$b 	c #23482A",
"%b 	c #D59333",
"&b 	c #FEB54D",
"*b 	c #F6B659",
"=b 	c #DDAB56",
"-b 	c #C39D51",
";b 	c #9C8244",
">b 	c #52562F",
",b 	c #1F3E27",
"'b 	c #224228",
")b 	c #2B4E2B",
"!b 	c #61923D",
"~b 	c #42793A",
"{b 	c #467C3B",
"]b 	c #447B3A",
"^b 	c #407839",
"/b 	c #91B33C",
"(b 	c #94AF3C",
"_b 	c #96B83B",
":b 	c #94B53C",
"<b 	c #90AF3C",
"[b 	c #87A93C",
"}b 	c #447C38",
"|b 	c #3D7336",
"1b 	c #376733",
"2b 	c #3B6731",
"3b 	c #457335",
"4b 	c #78602A",
"5b 	c #D59434",
"6b 	c #EEB055",
"7b 	c #B18F46",
"8b 	c #5A6835",
"9b 	c #536332",
"0b 	c #3E582D",
"ab 	c #31522A",
"bb 	c #34542B",
"cb 	c #395A2D",
"db 	c #406630",
"eb 	c #437234",
"fb 	c #56873B",
"gb 	c #6E973C",
"hb 	c #789F3D",
"ib 	c #8CAF3E",
"jb 	c #356030",
"kb 	c #3E6D33",
"lb 	c #376331",
"mb 	c #20482B",
"nb 	c #7B6A2D",
"ob 	c #D79836",
"pb 	c #F6B04C",
"qb 	c #EFAF53",
"rb 	c #D4A14D",
"sb 	c #927F3C",
"tb 	c #3A612E",
"ub 	c #39642E",
"vb 	c #416A30",
"wb 	c #486F33",
"xb 	c #487636",
"yb 	c #6A943C",
"zb 	c #8BAA3B",
"Ab 	c #467536",
"Bb 	c #2A5A30",
"Cb 	c #737031",
"Db 	c #C18D35",
"Eb 	c #EBA53E",
"Fb 	c #F3AD4A",
"Gb 	c #FDB655",
"Hb 	c #FEB651",
"Ib 	c #DDA44B",
"Jb 	c #B28D43",
"Kb 	c #93803D",
"Lb 	c #767837",
"Mb 	c #4B7232",
"Nb 	c #517A35",
"Ob 	c #568137",
"Pb 	c #568037",
"Qb 	c #537E37",
"Rb 	c #4E7C37",
"Sb 	c #719B3E",
"Tb 	c #81A63C",
"Ub 	c #8CAD3B",
"Vb 	c #447A3A",
"Wb 	c #366934",
"Xb 	c #2F6232",
"Yb 	c #305B2F",
"Zb 	c #366C34",
"`b 	c #5D7033",
" c 	c #877631",
".c 	c #A37D34",
"+c 	c #CF9A46",
"@c 	c #F6B254",
"#c 	c #EFAE47",
"$c 	c #C49748",
"%c 	c #5E6732",
"&c 	c #3F622E",
"*c 	c #4E7433",
"=c 	c #608B3A",
"-c 	c #85AB3C",
";c 	c #497F3B",
">c 	c #4B8039",
",c 	c #427637",
"'c 	c #397137",
")c 	c #316935",
"!c 	c #2E5D32",
"~c 	c #2B512C",
"{c 	c #366431",
"]c 	c #AB8642",
"^c 	c #F1AF54",
"/c 	c #F8B551",
"(c 	c #E0A950",
"_c 	c #CA9D4B",
":c 	c #A08640",
"<c 	c #566933",
"[c 	c #60923C",
"}c 	c #6B963C",
"|c 	c #54853A",
"1c 	c #41783A",
"2c 	c #3B7339",
"3c 	c #3E7639",
"4c 	c #437937",
"5c 	c #306835",
"6c 	c #2C5B31",
"7c 	c #1E4027",
"8c 	c #1D3E27",
"9c 	c #345F2F",
"0c 	c #3D6B32",
"ac 	c #406F34",
"bc 	c #AC8540",
"cc 	c #F1AE53",
"dc 	c #F7B44F",
"ec 	c #EAAF53",
"fc 	c #B09144",
"gc 	c #707737",
"hc 	c #647336",
"ic 	c #4F7135",
"jc 	c #4E813A",
"kc 	c #467E39",
"lc 	c #7DA53D",
"mc 	c #3D7539",
"nc 	c #367138",
"oc 	c #447B38",
"pc 	c #254C2D",
"qc 	c #1D4029",
"rc 	c #163625",
"sc 	c #173626",
"tc 	c #2D542A",
"uc 	c #3C6732",
"vc 	c #29532E",
"wc 	c #A8813E",
"xc 	c #F0AD52",
"yc 	c #FFBF5D",
"zc 	c #F4AF44",
"Ac 	c #FBB042",
"Bc 	c #F3B34E",
"Cc 	c #EDAD4C",
"Dc 	c #F2B154",
"Ec 	c #D3A14D",
"Fc 	c #8D803C",
"Gc 	c #436B31",
"Hc 	c #517D37",
"Ic 	c #5A873B",
"Jc 	c #57873A",
"Kc 	c #5B8A3A",
"Lc 	c #2B5A31",
"Mc 	c #1E3726",
"Nc 	c #4B4A2D",
"Oc 	c #635832",
"Pc 	c #5F5B32",
"Qc 	c #4C582E",
"Rc 	c #34592E",
"Sc 	c #2E5A2F",
"Tc 	c #405D2F",
"Uc 	c #585F2E",
"Vc 	c #6A6030",
"Wc 	c #BC8C41",
"Xc 	c #F3AE52",
"Yc 	c #F6B44F",
"Zc 	c #F3AF44",
"`c 	c #F2B04E",
" d 	c #D59C47",
".d 	c #B48943",
"+d 	c #967C3D",
"@d 	c #717336",
"#d 	c #447132",
"$d 	c #5C8839",
"%d 	c #578B3C",
"&d 	c #457D3A",
"*d 	c #407639",
"=d 	c #42783A",
"-d 	c #6F983B",
";d 	c #5E8A39",
">d 	c #4C7D37",
",d 	c #407638",
"'d 	c #397339",
")d 	c #204429",
"!d 	c #38452A",
"~d 	c #977A41",
"{d 	c #C89B51",
"]d 	c #B58F4B",
"^d 	c #264429",
"/d 	c #27482A",
"(d 	c #615C2C",
"_d 	c #A77C31",
":d 	c #CE943A",
"<d 	c #E3A447",
"[d 	c #F9B454",
"}d 	c #FFBE5D",
"|d 	c #FFC05F",
"1d 	c #FAB355",
"2d 	c #BC8B41",
"3d 	c #424D2C",
"4d 	c #2A4C2B",
"5d 	c #3D612F",
"6d 	c #5B8638",
"7d 	c #608D3A",
"8d 	c #457E3A",
"9d 	c #45793A",
"0d 	c #50823B",
"ad 	c #6F973B",
"bd 	c #648C38",
"cd 	c #497938",
"dd 	c #42763A",
"ed 	c #3E753A",
"fd 	c #2F5E31",
"gd 	c #1E4128",
"hd 	c #47532F",
"id 	c #BE964E",
"jd 	c #E2AE5B",
"kd 	c #917740",
"ld 	c #765D2A",
"md 	c #D39334",
"nd 	c #FEBB5B",
"od 	c #FBBC5C",
"pd 	c #F3B04F",
"qd 	c #D29A46",
"rd 	c #A98240",
"sd 	c #8B743A",
"td 	c #696C34",
"ud 	c #426B30",
"vd 	c #598237",
"wd 	c #75A03E",
"xd 	c #44793A",
"yd 	c #44783A",
"zd 	c #497D3B",
"Ad 	c #56873C",
"Bd 	c #709C3E",
"Cd 	c #6D963C",
"Dd 	c #6B923A",
"Ed 	c #668C39",
"Fd 	c #5C873A",
"Gd 	c #53823B",
"Hd 	c #497C3A",
"Id 	c #447A39",
"Jd 	c #3D7738",
"Kd 	c #326533",
"Ld 	c #305F30",
"Md 	c #2C592F",
"Nd 	c #254F2D",
"Od 	c #405832",
"Pd 	c #9F8346",
"Qd 	c #D0A355",
"Rd 	c #C79B50",
"Sd 	c #A8833F",
"Td 	c #937131",
"Ud 	c #9C7532",
"Vd 	c #9B7432",
"Wd 	c #B98533",
"Xd 	c #E6A039",
"Yd 	c #EFAE49",
"Zd 	c #EAAB4C",
"`d 	c #8A773A",
" e 	c #385A2C",
".e 	c #43652F",
"+e 	c #577E36",
"@e 	c #4A7D38",
"#e 	c #497C39",
"$e 	c #4C803B",
"%e 	c #51853C",
"&e 	c #6F983C",
"*e 	c #618D3B",
"=e 	c #437838",
"-e 	c #326934",
";e 	c #306533",
">e 	c #2A5D32",
",e 	c #325933",
"'e 	c #5C6037",
")e 	c #74683A",
"!e 	c #94793C",
"~e 	c #BA8D3D",
"{e 	c #D89D3D",
"]e 	c #E3A23D",
"^e 	c #E9A43D",
"/e 	c #EFA73E",
"(e 	c #F8AD3F",
"_e 	c #F8B44E",
":e 	c #E5AA50",
"<e 	c #987D3C",
"[e 	c #36582C",
"}e 	c #507634",
"|e 	c #497A38",
"1e 	c #4D7F39",
"2e 	c #306635",
"3e 	c #285932",
"4e 	c #746430",
"5e 	c #C6943B",
"6e 	c #F2AE42",
"7e 	c #F7AF42",
"8e 	c #FBB34A",
"9e 	c #E3A64A",
"0e 	c #957B39",
"ae 	c #2D542B",
"be 	c #33592D",
"ce 	c #4D7534",
"de 	c #4A7D39",
"ee 	c #457839",
"fe 	c #467839",
"ge 	c #4D813B",
"he 	c #65953D",
"ie 	c #6F9B3C",
"je 	c #53853C",
"ke 	c #447A3B",
"le 	c #457B3B",
"me 	c #62903B",
"ne 	c #387237",
"oe 	c #377337",
"pe 	c #367337",
"qe 	c #357038",
"re 	c #316835",
"se 	c #244F2E",
"te 	c #766631",
"ue 	c #C4933C",
"ve 	c #FFB754",
"we 	c #E4A33E",
"xe 	c #967935",
"ye 	c #2C542C",
"ze 	c #32582D",
"Ae 	c #3F642F",
"Be 	c #4A7434",
"Ce 	c #528238",
"De 	c #4F833C",
"Ee 	c #67933D",
"Fe 	c #4E803B",
"Ge 	c #467B3A",
"He 	c #357138",
"Ie 	c #24502E",
"Je 	c #FEB140",
"Ke 	c #EFA73C",
"Le 	c #E29E37",
"Me 	c #C18A33",
"Ne 	c #806E30",
"Oe 	c #436E33",
"Pe 	c #4A7936",
"Qe 	c #51833A",
"Re 	c #477A3A",
"Se 	c #58883C",
"Te 	c #6D9A3E",
"Ue 	c #749F3D",
"Ve 	c #3C7439",
"We 	c #457E39",
"Xe 	c #357037",
"Ye 	c #25512E",
"Ze 	c #FBB040",
"`e 	c #D29638",
" f 	c #96742E",
".f 	c #77672C",
"+f 	c #58622E",
"@f 	c #3E7538",
"#f 	c #4C7F3A",
"$f 	c #5E8F3B",
"%f 	c #336E37",
"&f 	c #21462B",
"*f 	c #786832",
"=f 	c #C6953C",
"-f 	c #F1AD41",
";f 	c #FFB646",
">f 	c #F8B654",
",f 	c #EEAA40",
"'f 	c #F6AE40",
")f 	c #F5AC3F",
"!f 	c #B48736",
"~f 	c #43552C",
"{f 	c #2B512B",
"]f 	c #32602F",
"^f 	c #417A39",
"/f 	c #367238",
"(f 	c #2D6032",
"_f 	c #28552F",
":f 	c #244B2C",
"<f 	c #746A32",
"[f 	c #BD903B",
"}f 	c #E9A840",
"|f 	c #F3AA40",
"1f 	c #FAAB3F",
"2f 	c #DBA03C",
"3f 	c #CB9539",
"4f 	c #B78A37",
"5f 	c #8F7934",
"6f 	c #476531",
"7f 	c #437D39",
"8f 	c #3B7439",
"9f 	c #4C8139",
"0f 	c #2E6433",
"af 	c #2E6332",
"bf 	c #2E6132",
"cf 	c #2E6032",
"df 	c #2E5F31",
"ef 	c #28572F",
"ff 	c #5D6833",
"gf 	c #937C36",
"hf 	c #B38938",
"if 	c #BA8736",
"jf 	c #BA8535",
"kf 	c #CE933A",
"lf 	c #EBA744",
"mf 	c #F9B550",
"nf 	c #EEAC43",
"of 	c #C69338",
"pf 	c #847130",
"qf 	c #4A5C2E",
"rf 	c #496731",
"sf 	c #436F35",
"tf 	c #4E843A",
"uf 	c #41773A",
"vf 	c #3F753A",
"wf 	c #2B5D31",
"xf 	c #29582F",
"yf 	c #28542E",
"zf 	c #27512E",
"Af 	c #2B532D",
"Bf 	c #2D582E",
"Cf 	c #2D5E30",
"Df 	c #2D6132",
"Ef 	c #366333",
"Ff 	c #406231",
"Gf 	c #465C2E",
"Hf 	c #454E2B",
"If 	c #424428",
"Jf 	c #86642B",
"Kf 	c #D89636",
"Lf 	c #C09037",
"Mf 	c #71692E",
"Nf 	c #467838",
"Of 	c #477B39",
"Pf 	c #5B8C3D",
"Qf 	c #457B3A",
"Rf 	c #336D35",
"Sf 	c #2F6332",
"Tf 	c #28572E",
"Uf 	c #234D2C",
"Vf 	c #20472A",
"Wf 	c #21432A",
"Xf 	c #26492B",
"Yf 	c #2D5D31",
"Zf 	c #2E6333",
"`f 	c #2B6133",
" g 	c #285830",
".g 	c #224C2C",
"+g 	c #1C3F27",
"@g 	c #D39232",
"#g 	c #C19037",
"$g 	c #72692F",
"%g 	c #427437",
"&g 	c #447839",
"*g 	c #4C853B",
"=g 	c #4F853C",
"-g 	c #7BA13D",
";g 	c #40783A",
">g 	c #397437",
",g 	c #376F35",
"'g 	c #316331",
")g 	c #1A3C28",
"!g 	c #1A3A27",
"~g 	c #204129",
"{g 	c #264C2C",
"]g 	c #2A5830",
"^g 	c #2C5F33",
"/g 	c #1D4128",
"(g 	c #765A28",
"_g 	c #D49232",
":g 	c #C39237",
"<g 	c #7A6C2F",
"[g 	c #39602F",
"}g 	c #3C6E36",
"|g 	c #3F7239",
"1g 	c #437A3A",
"2g 	c #4F863A",
"3g 	c #5C8E3B",
"4g 	c #4D843A",
"5g 	c #4F833B",
"6g 	c #3C7136",
"7g 	c #2B522C",
"8g 	c #204329",
"9g 	c #1B3B27",
"0g 	c #203926",
"ag 	c #243826",
"bg 	c #283B27",
"cg 	c #2D472B",
"dg 	c #31532F",
"eg 	c #305A32",
"fg 	c #2B5B33",
"gg 	c #2D5B33",
"hg 	c #305A31",
"ig 	c #30552D",
"jg 	c #2C4929",
"kg 	c #273C27",
"lg 	c #7C5E29",
"mg 	c #D69434",
"ng 	c #F5B44F",
"og 	c #D89E3B",
"pg 	c #C39038",
"qg 	c #AB8436",
"rg 	c #40602F",
"sg 	c #315F30",
"tg 	c #366634",
"ug 	c #3A6D37",
"vg 	c #3F7538",
"wg 	c #50813B",
"xg 	c #52833C",
"yg 	c #54863C",
"zg 	c #51843C",
"Ag 	c #487D3B",
"Bg 	c #4B7E3B",
"Cg 	c #54863B",
"Dg 	c #4B7F3B",
"Eg 	c #467C3A",
"Fg 	c #407437",
"Gg 	c #2F552D",
"Hg 	c #204328",
"Ig 	c #424C2C",
"Jg 	c #8A6D38",
"Kg 	c #AF8441",
"Lg 	c #B38743",
"Mg 	c #B58944",
"Ng 	c #AC8743",
"Og 	c #84743C",
"Pg 	c #375632",
"Qg 	c #556032",
"Rg 	c #8A7636",
"Sg 	c #A88337",
"Tg 	c #AF8135",
"Ug 	c #AE7E33",
"Vg 	c #C68E38",
"Wg 	c #E9A542",
"Xg 	c #EDAA40",
"Yg 	c #F3AC40",
"Zg 	c #EFA93F",
"`g 	c #B58736",
" h 	c #44562C",
".h 	c #366633",
"+h 	c #45793B",
"@h 	c #467A3B",
"#h 	c #457A3B",
"$h 	c #44793B",
"%h 	c #457A3A",
"&h 	c #57883C",
"*h 	c #264A2A",
"=h 	c #5A5C30",
"-h 	c #EFB054",
";h 	c #B48B45",
">h 	c #3F5131",
",h 	c #6F6431",
"'h 	c #B88C3B",
")h 	c #E3A440",
"!h 	c #EDA63F",
"~h 	c #F4A73D",
"{h 	c #F7AE44",
"]h 	c #FCB54F",
"^h 	c #FCB957",
"/h 	c #EBA83F",
"(h 	c #EDA83F",
"_h 	c #E6A33D",
":h 	c #AE8335",
"<h 	c #41542C",
"[h 	c #396832",
"}h 	c #407336",
"|h 	c #3C7339",
"1h 	c #3C7239",
"2h 	c #3D7339",
"3h 	c #3F7639",
"4h 	c #40763A",
"5h 	c #5D6532",
"6h 	c #BA9146",
"7h 	c #EBAE53",
"8h 	c #AD8442",
"9h 	c #3A462C",
"0h 	c #77642F",
"ah 	c #C7943C",
"bh 	c #F1AE44",
"ch 	c #F9B043",
"dh 	c #F3B44F",
"eh 	c #D79B3B",
"fh 	c #B98936",
"gh 	c #9C7834",
"hh 	c #7A6931",
"ih 	c #375A2F",
"jh 	c #2E5B30",
"kh 	c #4A7C38",
"lh 	c #437B3A",
"mh 	c #367037",
"nh 	c #366F37",
"oh 	c #3F7939",
"ph 	c #4D7B38",
"qh 	c #3E6C33",
"rh 	c #556A33",
"sh 	c #877B3B",
"th 	c #A68841",
"uh 	c #A78340",
"vh 	c #A57E3F",
"wh 	c #9D773C",
"xh 	c #776033",
"yh 	c #283A27",
"zh 	c #75612E",
"Ah 	c #C4923B",
"Bh 	c #F0AD41",
"Ch 	c #F9B553",
"Dh 	c #F9B44E",
"Eh 	c #FDB347",
"Fh 	c #FAB956",
"Gh 	c #F5BA58",
"Hh 	c #F1B550",
"Ih 	c #EDAC43",
"Jh 	c #C48F36",
"Kh 	c #75642E",
"Lh 	c #27512F",
"Mh 	c #356B34",
"Nh 	c #4B7C37",
"Oh 	c #377338",
"Ph 	c #427B3A",
"Qh 	c #487C3B",
"Rh 	c #4D7636",
"Sh 	c #466B32",
"Th 	c #2A4929",
"Uh 	c #745F2D",
"Vh 	c #C3913A",
"Wh 	c #F4AF46",
"Xh 	c #FDB44A",
"Yh 	c #DCA64C",
"Zh 	c #C2913C",
"`h 	c #9C7932",
" i 	c #5F5C2D",
".i 	c #254D2D",
"+i 	c #2B5930",
"@i 	c #3C7537",
"#i 	c #4F803B",
"$i 	c #598639",
"%i 	c #4E7735",
"&i 	c #3E622E",
"*i 	c #214027",
"=i 	c #1A3A26",
"-i 	c #61592C",
";i 	c #9D7B34",
">i 	c #C5943B",
",i 	c #E3A646",
"'i 	c #FEB84F",
")i 	c #EFAD45",
"!i 	c #FCB756",
"~i 	c #FCB347",
"{i 	c #F5B557",
"]i 	c #C29447",
"^i 	c #6C6331",
"/i 	c #54592D",
"(i 	c #3B552D",
"_i 	c #2F6132",
":i 	c #366F36",
"<i 	c #40753A",
"[i 	c #4A7D3B",
"}i 	c #55863C",
"|i 	c #5F8E3B",
"1i 	c #4B7E39",
"2i 	c #53843B",
"3i 	c #486F32",
"4i 	c #2F4F2A",
"5i 	c #47572C",
"6i 	c #5C602D",
"7i 	c #746A31",
"8i 	c #C89B4B",
"9i 	c #F9BC5E",
"0i 	c #FEBF5C",
"ai 	c #FBB84F",
"bi 	c #FEBF5D",
"ci 	c #F8B34F",
"di 	c #EFAC44",
"ei 	c #F1AD44",
"fi 	c #F9B042",
"gi 	c #E7AA52",
"hi 	c #A48141",
"ii 	c #2E4F2E",
"ji 	c #264E2D",
"ki 	c #29562F",
"li 	c #2F6031",
"mi 	c #326734",
"ni 	c #4B7D3B",
"oi 	c #56863C",
"pi 	c #4B7132",
"qi 	c #466B31",
"ri 	c #446930",
"si 	c #3A642F",
"ti 	c #325A2C",
"ui 	c #3F582D",
"vi 	c #A88C49",
"wi 	c #E9B45E",
"xi 	c #F4B95C",
"yi 	c #F4B44F",
"zi 	c #F8B344",
"Ai 	c #FBBA55",
"Bi 	c #F8B24E",
"Ci 	c #E6AA52",
"Di 	c #A17E40",
"Ei 	c #7B6C39",
"Fi 	c #2E5731",
"Gi 	c #2A5B31",
"Hi 	c #2F6433",
"Ii 	c #346C35",
"Ji 	c #4E8039",
"Ki 	c #427739",
"Li 	c #5C8939",
"Mi 	c #558038",
"Ni 	c #4F7A36",
"Oi 	c #426A31",
"Pi 	c #415E2E",
"Qi 	c #80723C",
"Ri 	c #A38647",
"Si 	c #C5974B",
"Ti 	c #E5A84C",
"Ui 	c #FDBD5B",
"Vi 	c #FBBF5F",
"Wi 	c #D29D4C",
"Xi 	c #746436",
"Yi 	c #24452C",
"Zi 	c #264D2F",
"`i 	c #2A5A33",
" j 	c #416630",
".j 	c #33532D",
"+j 	c #29482B",
"@j 	c #7D6734",
"#j 	c #D79C49",
"$j 	c #FCBA5A",
"%j 	c #FABC5C",
"&j 	c #E2A44B",
"*j 	c #B58943",
"=j 	c #8F743C",
"-j 	c #6E6837",
";j 	c #2F5C33",
">j 	c #356C34",
",j 	c #3B7035",
"'j 	c #477837",
")j 	c #4B7E38",
"!j 	c #497E3B",
"~j 	c #497D3A",
"{j 	c #3B5F2F",
"]j 	c #6C6732",
"^j 	c #B28940",
"/j 	c #DAA24E",
"(j 	c #EAB057",
"_j 	c #FBBC5F",
":j 	c #F2AE48",
"<j 	c #FDB54C",
"[j 	c #F7AF4B",
"}j 	c #EEAD51",
"|j 	c #A08241",
"1j 	c #325B31",
"2j 	c #2D5F31",
"3j 	c #2F6131",
"4j 	c #2E6131",
"5j 	c #2C6031",
"6j 	c #346632",
"7j 	c #3C6E34",
"8j 	c #50853A",
"9j 	c #79A23C",
"0j 	c #4C843A",
"aj 	c #54873A",
"bj 	c #417738",
"cj 	c #4A7C3B",
"dj 	c #51863A",
"ej 	c #527E38",
"fj 	c #4E7535",
"gj 	c #496F33",
"hj 	c #406B30",
"ij 	c #586B31",
"jj 	c #716F34",
"kj 	c #847338",
"lj 	c #C49547",
"mj 	c #F4B256",
"nj 	c #B68D45",
"oj 	c #31542D",
"pj 	c #2A562E",
"qj 	c #2A572E",
"rj 	c #6A953D",
"sj 	c #7AA23C",
"tj 	c #739E3C",
"uj 	c #4A833A",
"vj 	c #497C3B",
"wj 	c #588C3B",
"xj 	c #508039",
"yj 	c #517C38",
"zj 	c #507A36",
"Aj 	c #507835",
"Bj 	c #456E31",
"Cj 	c #385D2D",
"Dj 	c #35542B",
"Ej 	c #AA843D",
"Fj 	c #F1AE52",
"Gj 	c #F8BA5A",
"Hj 	c #B28843",
"Ij 	c #2C4829",
"Jj 	c #234A2C",
"Kj 	c #2A532D",
"Lj 	c #2F5B2F",
"Mj 	c #376631",
"Nj 	c #48823A",
"Oj 	c #447838",
"Pj 	c #437638",
"Qj 	c #417639",
"Rj 	c #62933C",
"Sj 	c #518039",
"Tj 	c #507C37",
"Uj 	c #4A7033",
"Vj 	c #3D602E",
"Wj 	c #AE8A44",
"Xj 	c #F1B359",
"Yj 	c #B28642",
"Zj 	c #283D27",
"`j 	c #193927",
" k 	c #1C3F2A",
".k 	c #1F452B",
"+k 	c #487B37",
"@k 	c #437639",
"#k 	c #417938",
"$k 	c #487034",
"%k 	c #3A5D2E",
"&k 	c #AB8D48",
"*k 	c #F1B95F",
"=k 	c #F9B34E",
"-k 	c #263927",
";k 	c #1B3E29",
">k 	c #20482C",
",k 	c #386732",
"'k 	c #4F8139",
")k 	c #507F39",
"!k 	c #4E7D39",
"~k 	c #4B7C3A",
"{k 	c #4C7D3A",
"]k 	c #4F813A",
"^k 	c #3D7639",
"/k 	c #4D7C37",
"(k 	c #467635",
"_k 	c #627436",
":k 	c #7D7638",
"<k 	c #937A3C",
"[k 	c #C99D4E",
"}k 	c #F5B95E",
"|k 	c #EFAB42",
"1k 	c #F9B046",
"2k 	c #1C4229",
"3k 	c #25502D",
"4k 	c #59883B",
"5k 	c #59873B",
"6k 	c #5C8B3C",
"7k 	c #4D7F3B",
"8k 	c #3B7237",
"9k 	c #3E7236",
"0k 	c #406A32",
"ak 	c #39622E",
"bk 	c #767638",
"ck 	c #BA9246",
"dk 	c #E2A750",
"ek 	c #FCB95A",
"fk 	c #173926",
"gk 	c #2B592F",
"hk 	c #366933",
"ik 	c #53853A",
"jk 	c #3E7838",
"kk 	c #386F36",
"lk 	c #7F7137",
"mk 	c #D7A04C",
"nk 	c #254C2A",
"ok 	c #315F2F",
"pk 	c #377037",
"qk 	c #397138",
"rk 	c #40773A",
"sk 	c #65943C",
"tk 	c #386F37",
"uk 	c #336634",
"vk 	c #79632F",
"wk 	c #D59741",
"xk 	c #EFAC45",
"yk 	c #3F7336",
"zk 	c #387137",
"Ak 	c #437C3A",
"Bk 	c #3B7038",
"Ck 	c #336534",
"Dk 	c #1E4228",
"Ek 	c #153625",
"Fk 	c #775828",
"Gk 	c #D49034",
"Hk 	c #FFBD56",
"Ik 	c #FFC262",
"Jk 	c #437D3A",
"Kk 	c #427C3A",
"Lk 	c #407B39",
"Mk 	c #4A803B",
"Nk 	c #4B803B",
"Ok 	c #4E813B",
"Pk 	c #407338",
"Qk 	c #1D4329",
"Rk 	c #77592A",
"Sk 	c #D49137",
"Tk 	c #FEBE58",
"Uk 	c #FDC363",
"Vk 	c #F8B34C",
"Wk 	c #3C6F35",
"Xk 	c #356F36",
"Yk 	c #397538",
"Zk 	c #4C7F39",
"`k 	c #477B3B",
" l 	c #4F823C",
".l 	c #467D3B",
"+l 	c #457838",
"@l 	c #234A2B",
"#l 	c #796230",
"$l 	c #D69842",
"%l 	c #FCC05E",
"&l 	c #F8C364",
"*l 	c #2F592F",
"=l 	c #386A34",
"-l 	c #5A8D3B",
";l 	c #618F3D",
">l 	c #4C7C37",
",l 	c #538239",
"'l 	c #447B3B",
")l 	c #47813A",
"!l 	c #386432",
"~l 	c #21462A",
"{l 	c #796C36",
"]l 	c #D39A49",
"^l 	c #F9BF61",
"/l 	c #F3C365",
"(l 	c #F4C365",
"_l 	c #FAC061",
":l 	c #F1B34F",
"<l 	c #356733",
"[l 	c #407637",
"}l 	c #68963C",
"|l 	c #6E983C",
"1l 	c #739B3D",
"2l 	c #3F7637",
"3l 	c #477D3B",
"4l 	c #2D5C30",
"5l 	c #676B35",
"6l 	c #CB9A4A",
"7l 	c #DEAD58",
"8l 	c #F0BF63",
"9l 	c #273B27",
"0l 	c #21482A",
"al 	c #306232",
"bl 	c #3A7136",
"cl 	c #477F39",
"dl 	c #6D973D",
"el 	c #3A7638",
"fl 	c #457B38",
"gl 	c #59893C",
"hl 	c #558A3B",
"il 	c #437637",
"jl 	c #466732",
"kl 	c #576331",
"ll 	c #BA954D",
"ml 	c #F1BB61",
"nl 	c #27542E",
"ol 	c #2D5F33",
"pl 	c #356E37",
"ql 	c #3B7337",
"rl 	c #51873C",
"sl 	c #417538",
"tl 	c #346430",
"ul 	c #2A532C",
"vl 	c #A98A48",
"wl 	c #F1B960",
"xl 	c #FABA5A",
"yl 	c #FBB34C",
"zl 	c #20452A",
"Al 	c #2C5C34",
"Bl 	c #336B38",
"Cl 	c #3F7A3A",
"Dl 	c #5A8E3C",
"El 	c #3F7236",
"Fl 	c #376531",
"Gl 	c #AB8B49",
"Hl 	c #264D2E",
"Il 	c #2B5835",
"Jl 	c #316839",
"Kl 	c #3C773A",
"Ll 	c #51873A",
"Ml 	c #3A7437",
"Nl 	c #477E3B",
"Ol 	c #3C7236",
"Pl 	c #23492D",
"Ql 	c #2D6339",
"Rl 	c #3A743A",
"Sl 	c #55853A",
"Tl 	c #4B7F3A",
"Ul 	c #4D853B",
"Vl 	c #73993A",
"Wl 	c #688B34",
"Xl 	c #5C7E30",
"Yl 	c #597D30",
"Zl 	c #567B30",
"`l 	c #5A8233",
" m 	c #638E39",
".m 	c #5A6630",
"+m 	c #887130",
"@m 	c #A67E36",
"#m 	c #D19E4C",
"$m 	c #F6B85C",
"%m 	c #AF8442",
"&m 	c #21462D",
"*m 	c #244F34",
"=m 	c #2A5C3A",
"-m 	c #386F3A",
";m 	c #487F3B",
">m 	c #568539",
",m 	c #4E7E38",
"'m 	c #487B39",
")m 	c #417739",
"!m 	c #53893B",
"~m 	c #6A8F37",
"{m 	c #4C6825",
"]m 	c #2D4014",
"^m 	c #2C4015",
"/m 	c #293D14",
"(m 	c #405D22",
"_m 	c #5D8535",
":m 	c #326E37",
"<m 	c #2F6735",
"[m 	c #73662E",
"}m 	c #C58E34",
"|m 	c #FDB959",
"1m 	c #FDB855",
"2m 	c #BD8D44",
"3m 	c #594F2B",
"4m 	c #424628",
"5m 	c #2D4429",
"6m 	c #1E442D",
"7m 	c #224B33",
"8m 	c #275539",
"9m 	c #36683A",
"0m 	c #46793A",
"am 	c #4E7F39",
"bm 	c #417638",
"cm 	c #407539",
"dm 	c #487E3B",
"em 	c #6C953A",
"fm 	c #597C30",
"gm 	c #344A19",
"hm 	c #000000",
"im 	c #2B3F15",
"jm 	c #53772E",
"km 	c #66923A",
"lm 	c #2B5C32",
"mm 	c #26512F",
"nm 	c #244B2D",
"om 	c #75632E",
"pm 	c #CC9035",
"qm 	c #F4AE46",
"rm 	c #FDB34B",
"sm 	c #FAB757",
"tm 	c #DEA34A",
"um 	c #BB8A39",
"vm 	c #93712F",
"wm 	c #58552B",
"xm 	c #1D412C",
"ym 	c #214831",
"zm 	c #245036",
"Am 	c #315F38",
"Bm 	c #3F6E39",
"Cm 	c #4A7A3A",
"Dm 	c #437939",
"Em 	c #397239",
"Fm 	c #3A7239",
"Gm 	c #457939",
"Hm 	c #54853C",
"Im 	c #477F3B",
"Jm 	c #5B8233",
"Km 	c #4C6D29",
"Lm 	c #3C5720",
"Mm 	c #233510",
"Nm 	c #1E2E0D",
"Om 	c #3A541E",
"Pm 	c #496A28",
"Qm 	c #557D32",
"Rm 	c #2B5D32",
"Sm 	c #265230",
"Tm 	c #585D30",
"Um 	c #B58536",
"Vm 	c #D79E48",
"Wm 	c #F7B556",
"Xm 	c #BD8C35",
"Ym 	c #6D5F2D",
"Zm 	c #1F452D",
"`m 	c #214C31",
" n 	c #2B5434",
".n 	c #355E37",
"+n 	c #41733A",
"@n 	c #3A713A",
"#n 	c #346D3A",
"$n 	c #366F3A",
"%n 	c #4E813C",
"&n 	c #6C953B",
"*n 	c #51702A",
"=n 	c #131E06",
"-n 	c #040801",
";n 	c #010300",
">n 	c #010200",
",n 	c #040701",
"'n 	c #081103",
")n 	c #436427",
"!n 	c #5F8C3A",
"~n 	c #2B5F33",
"{n 	c #2B5531",
"]n 	c #2B4B2D",
"^n 	c #31482B",
"/n 	c #B18843",
"(n 	c #F9B54F",
"_n 	c #EFAD43",
":n 	c #D49A3A",
"<n 	c #AF8235",
"[n 	c #8F6F32",
"}n 	c #6F5F2F",
"|n 	c #2C492C",
"1n 	c #22482F",
"2n 	c #2B5334",
"3n 	c #325E37",
"4n 	c #356639",
"5n 	c #36693A",
"6n 	c #35693A",
"7n 	c #32673A",
"8n 	c #30673A",
"9n 	c #336B3A",
"0n 	c #4A7F3B",
"an 	c #729A3B",
"bn 	c #537129",
"cn 	c #0F1804",
"dn 	c #020501",
"en 	c #406025",
"fn 	c #5D8939",
"gn 	c #336D37",
"hn 	c #306936",
"in 	c #2E6334",
"jn 	c #285831",
"kn 	c #224A2C",
"ln 	c #8F723A",
"mn 	c #E3A650",
"nn 	c #F1B055",
"on 	c #F6B14B",
"pn 	c #E6A43E",
"qn 	c #A57A33",
"rn 	c #38462A",
"sn 	c #1E422B",
"tn 	c #244C31",
"un 	c #295636",
"vn 	c #2C5C39",
"wn 	c #2D5E3A",
"xn 	c #2D5F3A",
"yn 	c #2D603A",
"zn 	c #2D613A",
"An 	c #31673A",
"Bn 	c #397139",
"Cn 	c #779E3B",
"Dn 	c #577329",
"En 	c #101904",
"Fn 	c #5C8738",
"Gn 	c #356F39",
"Hn 	c #336C39",
"In 	c #316938",
"Jn 	c #244F2B",
"Kn 	c #214529",
"Ln 	c #58532E",
"Mn 	c #755F33",
"Nn 	c #9F783D",
"On 	c #DAA04E",
"Pn 	c #F6B04B",
"Qn 	c #F3AE41",
"Rn 	c #BE8936",
"Sn 	c #3E4629",
"Tn 	c #1D412A",
"Un 	c #214B30",
"Vn 	c #265436",
"Wn 	c #295939",
"Xn 	c #2A5B3A",
"Yn 	c #2B5B3A",
"Zn 	c #2A5A3A",
"`n 	c #2A5A39",
" o 	c #2E6238",
".o 	c #376E38",
"+o 	c #427C39",
"@o 	c #3F763A",
"#o 	c #789E3B",
"$o 	c #577429",
"%o 	c #111904",
"&o 	c #3F5F25",
"*o 	c #5B8637",
"=o 	c #5E8D3B",
"-o 	c #4E823B",
";o 	c #336E39",
">o 	c #336D3A",
",o 	c #2F6535",
"'o 	c #25512C",
")o 	c #1E4329",
"!o 	c #62532F",
"~o 	c #CA9549",
"{o 	c #F6B14D",
"]o 	c #FAAE40",
"^o 	c #BB8736",
"/o 	c #224B30",
"(o 	c #275436",
"_o 	c #2A5939",
":o 	c #2B5C3A",
"<o 	c #285436",
"[o 	c #275134",
"}o 	c #2C5A34",
"|o 	c #356935",
"1o 	c #447E3A",
"2o 	c #4C7F3B",
"3o 	c #4C7E3B",
"4o 	c #759C3B",
"5o 	c #557329",
"6o 	c #43783B",
"7o 	c #3B733B",
"8o 	c #316B3A",
"9o 	c #316A3B",
"0o 	c #31683B",
"ao 	c #30653A",
"bo 	c #2A5A34",
"co 	c #244F2F",
"do 	c #1E432A",
"eo 	c #163525",
"fo 	c #655630",
"go 	c #CC9749",
"ho 	c #FFBB57",
"io 	c #F9AE40",
"jo 	c #B88536",
"ko 	c #3C4629",
"lo 	c #1C402A",
"mo 	c #204830",
"no 	c #275536",
"oo 	c #2A5938",
"po 	c #275132",
"qo 	c #254B2D",
"ro 	c #29522E",
"so 	c #3F7035",
"to 	c #62933D",
"uo 	c #407A39",
"vo 	c #506E28",
"wo 	c #0E1704",
"xo 	c #405F25",
"yo 	c #3E723A",
"zo 	c #386D3B",
"Ao 	c #34693B",
"Bo 	c #31663C",
"Co 	c #2F653C",
"Do 	c #2F643C",
"Eo 	c #2F633C",
"Fo 	c #2E623B",
"Go 	c #2C5E3A",
"Ho 	c #295837",
"Io 	c #244E31",
"Jo 	c #1A3B28",
"Ko 	c #173726",
"Lo 	c #655730",
"Mo 	c #D09439",
"No 	c #947031",
"Oo 	c #75622F",
"Po 	c #525A31",
"Qo 	c #245033",
"Ro 	c #295737",
"So 	c #2A5B39",
"To 	c #254E31",
"Uo 	c #21472B",
"Vo 	c #264A2C",
"Wo 	c #30572E",
"Xo 	c #3B6632",
"Yo 	c #4C7D38",
"Zo 	c #467B3B",
"`o 	c #6A933B",
" p 	c #56792F",
".p 	c #37511E",
"+p 	c #324B1B",
"@p 	c #334D1C",
"#p 	c #314A1A",
"$p 	c #243711",
"%p 	c #070E02",
"&p 	c #3E5E25",
"*p 	c #598638",
"=p 	c #366A3A",
"-p 	c #2F633B",
";p 	c #2B5E3B",
">p 	c #2A5B3B",
",p 	c #2B5C3B",
"'p 	c #2C5F3B",
")p 	c #2D603C",
"!p 	c #2D5F3B",
"~p 	c #2C5D3B",
"{p 	c #295738",
"]p 	c #244E32",
"^p 	c #CC974A",
"/p 	c #E19F3C",
"(p 	c #C08B37",
"_p 	c #7C6932",
":p 	c #234B2F",
"<p 	c #244F32",
"[p 	c #275535",
"}p 	c #255134",
"|p 	c #21482E",
"1p 	c #22462B",
"2p 	c #294E2C",
"3p 	c #325A2E",
"4p 	c #3B7238",
"5p 	c #447939",
"6p 	c #3F7838",
"7p 	c #64903C",
"8p 	c #608A38",
"9p 	c #5A8234",
"0p 	c #598133",
"ap 	c #577E32",
"bp 	c #405D23",
"cp 	c #111D06",
"dp 	c #395B24",
"ep 	c #538338",
"fp 	c #427B3B",
"gp 	c #3B703B",
"hp 	c #32663B",
"ip 	c #27583A",
"jp 	c #265438",
"kp 	c #265236",
"lp 	c #285537",
"mp 	c #2C5E3B",
"np 	c #295838",
"op 	c #64552F",
"pp 	c #CA9649",
"qp 	c #E5A23D",
"rp 	c #9A7834",
"sp 	c #344E2D",
"tp 	c #2F4F2F",
"up 	c #254C30",
"vp 	c #264C30",
"wp 	c #2D4C2F",
"xp 	c #32482D",
"yp 	c #344C2D",
"zp 	c #3A562E",
"Ap 	c #3D5D2F",
"Bp 	c #3C5E2F",
"Cp 	c #326432",
"Dp 	c #346D36",
"Ep 	c #4D722D",
"Fp 	c #1B2C0D",
"Gp 	c #081003",
"Hp 	c #0A1203",
"Ip 	c #0C1604",
"Jp 	c #3A5F26",
"Kp 	c #4F8138",
"Lp 	c #46803A",
"Mp 	c #3A703B",
"Np 	c #31653B",
"Op 	c #265639",
"Pp 	c #244F35",
"Qp 	c #224C31",
"Rp 	c #255033",
"Sp 	c #285737",
"Tp 	c #2A3C27",
"Up 	c #6D5B31",
"Vp 	c #CE994A",
"Wp 	c #ECA942",
"Xp 	c #D09A44",
"Yp 	c #B08844",
"Zp 	c #8B713A",
"`p 	c #3C482C",
" q 	c #565532",
".q 	c #967B42",
"+q 	c #B6914C",
"@q 	c #B6904B",
"#q 	c #B99148",
"$q 	c #AA8641",
"%q 	c #7D6D35",
"&q 	c #2D6031",
"*q 	c #356F38",
"=q 	c #507C34",
"-q 	c #466A2B",
";q 	c #486727",
">q 	c #4D6B28",
",q 	c #4F6E29",
"'q 	c #537B31",
")q 	c #548539",
"!q 	c #3B713A",
"~q 	c #326839",
"{q 	c #2B5F38",
"]q 	c #265636",
"^q 	c #224B31",
"/q 	c #1F462D",
"(q 	c #224A2F",
"_q 	c #265234",
":q 	c #295938",
"<q 	c #234C31",
"[q 	c #20442B",
"}q 	c #7A6333",
"|q 	c #A47A3A",
"1q 	c #C69044",
"2q 	c #E5A750",
"3q 	c #F6B247",
"4q 	c #F6B351",
"5q 	c #B68943",
"6q 	c #4B492B",
"7q 	c #6E5F35",
"8q 	c #F7BD62",
"9q 	c #F7BB5F",
"0q 	c #F7B85A",
"aq 	c #E8A54F",
"bq 	c #A47D3C",
"cq 	c #234629",
"dq 	c #234B2B",
"eq 	c #295A30",
"fq 	c #326A34",
"gq 	c #3E7637",
"hq 	c #3E7437",
"iq 	c #346C3A",
"jq 	c #376F3A",
"kq 	c #3E743A",
"lq 	c #477B3A",
"mq 	c #3E7439",
"nq 	c #487C3A",
"oq 	c #5C8A3B",
"pq 	c #65903B",
"qq 	c #6E973B",
"rq 	c #346D38",
"sq 	c #2D6336",
"tq 	c #285733",
"uq 	c #214A2E",
"vq 	c #1E442C",
"wq 	c #255133",
"xq 	c #275435",
"yq 	c #285637",
"zq 	c #244F33",
"Aq 	c #20472E",
"Bq 	c #9F7B3D",
"Cq 	c #E6A24E",
"Dq 	c #F8B555",
"Eq 	c #FCB657",
"Fq 	c #F9B241",
"Gq 	c #FBB547",
"Hq 	c #FEB953",
"Iq 	c #D49E4E",
"Jq 	c #8A6F3B",
"Kq 	c #9E7F44",
"Lq 	c #DEAD5A",
"Mq 	c #FCC262",
"Nq 	c #FDBE5B",
"Oq 	c #EDAC4E",
"Pq 	c #AB7F3B",
"Qq 	c #21442A",
"Rq 	c #285731",
"Sq 	c #316636",
"Tq 	c #457F3A",
"Uq 	c #508239",
"Vq 	c #417737",
"Wq 	c #346E39",
"Xq 	c #336C3A",
"Yq 	c #2D5C32",
"Zq 	c #20482E",
"`q 	c #224C32",
" r 	c #405935",
".r 	c #636339",
"+r 	c #7A6B3B",
"@r 	c #C3964D",
"#r 	c #F5B75A",
"$r 	c #FFB84B",
"%r 	c #FFBE59",
"&r 	c #F2AE45",
"*r 	c #FEB95A",
"=r 	c #EDB159",
"-r 	c #D8A656",
";r 	c #DBAA59",
">r 	c #EBB960",
",r 	c #F5C05E",
"'r 	c #E0A143",
")r 	c #A17635",
"!r 	c #21482F",
"~r 	c #285635",
"{r 	c #2E6338",
"]r 	c #346C39",
"^r 	c #3A733A",
"/r 	c #407A3A",
"(r 	c #468039",
"_r 	c #457D38",
":r 	c #38703A",
"<r 	c #43773B",
"[r 	c #40733A",
"}r 	c #52853C",
"|r 	c #568B3C",
"1r 	c #5D8C3B",
"2r 	c #346332",
"3r 	c #65653A",
"4r 	c #AE8D4B",
"5r 	c #D6A657",
"6r 	c #E8B25C",
"7r 	c #FABE62",
"8r 	c #FCB755",
"9r 	c #F9B44F",
"0r 	c #FDB348",
"ar 	c #F9C365",
"br 	c #F2C365",
"cr 	c #EFBF5B",
"dr 	c #F0B44A",
"er 	c #D99A39",
"fr 	c #9B702F",
"gr 	c #20432B",
"hr 	c #275438",
"ir 	c #2C5F3A",
"jr 	c #2F653A",
"kr 	c #326A3A",
"lr 	c #38723A",
"mr 	c #3D763A",
"nr 	c #538539",
"or 	c #4D7E37",
"pr 	c #366D3B",
"qr 	c #396D3B",
"rr 	c #396E3B",
"sr 	c #376F39",
"tr 	c #4F813B",
"ur 	c #487936",
"vr 	c #1F4129",
"wr 	c #1C3E28",
"xr 	c #1C3E29",
"yr 	c #796C3C",
"zr 	c #D5A657",
"Ar 	c #F4BF5B",
"Br 	c #F2B44A",
"Cr 	c #D89A3A",
"Dr 	c #99702F",
"Er 	c #204730",
"Fr 	c #265136",
"Gr 	c #2F643A",
"Hr 	c #33693A",
"Ir 	c #356C3B",
"Jr 	c #366D3A",
"Kr 	c #356C38",
"Lr 	c #336B36",
"Mr 	c #316B36",
"Nr 	c #306B37",
"Or 	c #316B37",
"Pr 	c #316C38",
"Qr 	c #346F38",
"Rr 	c #498039",
"Sr 	c #3F783A",
"Tr 	c #427639",
"Ur 	c #518439",
"Vr 	c #347038",
"Wr 	c #32693B",
"Xr 	c #32673B",
"Yr 	c #33683B",
"Zr 	c #346A3B",
"`r 	c #356D3A",
" s 	c #4B7E3A",
".s 	c #427737",
"+s 	c #396A35",
"@s 	c #2F5B32",
"#s 	c #264C2E",
"$s 	c #786334",
"%s 	c #FFBD59",
"&s 	c #F8B34D",
"*s 	c #FABF5C",
"=s 	c #F4B44B",
"-s 	c #D69A3A",
";s 	c #926D2F",
">s 	c #1E432D",
",s 	c #214A31",
"'s 	c #285435",
")s 	c #30653C",
"!s 	c #30653B",
"~s 	c #2F6338",
"{s 	c #2D6235",
"]s 	c #2E6437",
"^s 	c #316A39",
"/s 	c #356E3A",
"(s 	c #346E3A",
"_s 	c #32693A",
":s 	c #31663B",
"<s 	c #30643C",
"[s 	c #32683B",
"}s 	c #357039",
"|s 	c #346F39",
"1s 	c #386F39",
"2s 	c #3F743A",
"3s 	c #3D7637",
"4s 	c #386B39",
"5s 	c #306037",
"6s 	c #275334",
"7s 	c #224A30",
"8s 	c #1C4029",
"9s 	c #775B2B",
"0s 	c #D59339",
"as 	c #FFBF58",
"bs 	c #FBBE5B",
"cs 	c #F3B34A",
"ds 	c #DA9D3B",
"es 	c #AA7D33",
"fs 	c #685B2E",
"gs 	c #55552D",
"hs 	c #364D2D",
"is 	c #1F482F",
"js 	c #255135",
"ks 	c #295839",
"ls 	c #2C5F3C",
"ms 	c #2B5B37",
"ns 	c #295631",
"os 	c #295731",
"ps 	c #2B5C35",
"qs 	c #306639",
"rs 	c #39703A",
"ss 	c #497E38",
"ts 	c #3D733A",
"us 	c #356C3A",
"vs 	c #3C713A",
"ws 	c #356E39",
"xs 	c #326B3A",
"ys 	c #31673B",
"zs 	c #30643B",
"As 	c #2E623C",
"Bs 	c #2E613C",
"Cs 	c #326A3B",
"Ds 	c #366C3A",
"Es 	c #3D723A",
"Fs 	c #3D743A",
"Gs 	c #3D753A",
"Hs 	c #3B743B",
"Is 	c #39703B",
"Js 	c #356A3B",
"Ks 	c #2F623B",
"Ls 	c #D49033",
"Ms 	c #F0B049",
"Ns 	c #E4A43D",
"Os 	c #D79A3B",
"Ps 	c #A77B33",
"Qs 	c #5F542B",
"Rs 	c #1A3B29",
"Ss 	c #20472F",
"Ts 	c #285739",
"Us 	c #264E2E",
"Vs 	c #295634",
"Ws 	c #2F633A",
"Xs 	c #376E3B",
"Ys 	c #477938",
"Zs 	c #3D713A",
"`s 	c #34693A",
" t 	c #3A7039",
".t 	c #3B723A",
"+t 	c #346C3B",
"@t 	c #2F663B",
"#t 	c #2E633A",
"$t 	c #30663A",
"%t 	c #2E613B",
"&t 	c #2E603B",
"*t 	c #336D39",
"=t 	c #31693B",
"-t 	c #3B7139",
";t 	c #40793A",
">t 	c #377139",
",t 	c #36703A",
"'t 	c #377039",
")t 	c #356D3B",
"!t 	c #336A3C",
"~t 	c #21492E",
"{t 	c #775B2C",
"]t 	c #D4943D",
"^t 	c #FFBE5B",
"/t 	c #EDAA3F",
"(t 	c #D39539",
"_t 	c #765D2C",
":t 	c #265335",
"<t 	c #285738",
"[t 	c #254F32",
"}t 	c #275434",
"|t 	c #2E613A",
"1t 	c #3C733B",
"2t 	c #467939",
"3t 	c #3D6F39",
"4t 	c #387039",
"5t 	c #3C733A",
"6t 	c #37703A",
"7t 	c #2B5D3A",
"8t 	c #2D613C",
"9t 	c #30663C",
"0t 	c #30663B",
"at 	c #31683A",
"bt 	c #387139",
"ct 	c #346E38",
"dt 	c #775E30",
"et 	c #D49947",
"ft 	c #E6A13C",
"gt 	c #BB8635",
"ht 	c #936E30",
"it 	c #725F2E",
"jt 	c #284A2D",
"kt 	c #214A30",
"lt 	c #22492F",
"mt 	c #1F432A",
"nt 	c #21452A",
"ot 	c #285334",
"pt 	c #37703B",
"qt 	c #3B743A",
"rt 	c #396E39",
"st 	c #32683A",
"tt 	c #356D39",
"ut 	c #3C723A",
"vt 	c #2B5D3B",
"wt 	c #295638",
"xt 	c #285336",
"yt 	c #275236",
"zt 	c #265336",
"At 	c #275437",
"Bt 	c #30673B",
"Ct 	c #366F38",
"Dt 	c #367338",
"Et 	c #5F913C",
"Ft 	c #528339",
"Gt 	c #387138",
"Ht 	c #336B39",
"It 	c #367039",
"Jt 	c #39713A",
"Kt 	c #2E633C",
"Lt 	c #2D603B",
"Mt 	c #776134",
"Nt 	c #D49F4F",
"Ot 	c #F8AD40",
"Pt 	c #DF9D3A",
"Qt 	c #A07833",
"Rt 	c #2D472C",
"St 	c #285234",
"Tt 	c #2B5B39",
"Ut 	c #2F643B",
"Vt 	c #387239",
"Wt 	c #366C3B",
"Xt 	c #254B30",
"Yt 	c #23492E",
"Zt 	c #214930",
"`t 	c #234D32",
" u 	c #255235",
".u 	c #2C5D3A",
"+u 	c #346D39",
"@u 	c #357237",
"#u 	c #5B893A",
"$u 	c #57883A",
"%u 	c #377038",
"&u 	c #326A39",
"*u 	c #386E3B",
"=u 	c #776437",
"-u 	c #D4A355",
";u 	c #C28D3A",
">u 	c #5E5831",
",u 	c #47512F",
"'u 	c #31492C",
")u 	c #244A2D",
"!u 	c #275033",
"~u 	c #2C603A",
"{u 	c #336E3A",
"]u 	c #347039",
"^u 	c #336F39",
"/u 	c #35693B",
"(u 	c #285638",
"_u 	c #21452B",
":u 	c #234D31",
"<u 	c #31693A",
"[u 	c #3A7539",
"}u 	c #3C703B",
"|u 	c #326D39",
"1u 	c #D4A455",
"2u 	c #E1A245",
"3u 	c #C99649",
"4u 	c #A57F40",
"5u 	c #685A31",
"6u 	c #21472C",
"7u 	c #244D31",
"8u 	c #326939",
"9u 	c #417439",
"0u 	c #457639",
"au 	c #437539",
"bu 	c #417339",
"cu 	c #3B6D3A",
"du 	c #34663A",
"eu 	c #2B5E3A",
"fu 	c #1D3E29",
"gu 	c #183A27",
"hu 	c #2D5F3C",
"iu 	c #488039",
"ju 	c #376D3A",
"ku 	c #376D3B",
"lu 	c #3C713B",
"mu 	c #776235",
"nu 	c #D4A051",
"ou 	c #D9A04D",
"pu 	c #836736",
"qu 	c #1D412B",
"ru 	c #20482F",
"su 	c #245034",
"tu 	c #32623A",
"uu 	c #396639",
"vu 	c #3D6938",
"wu 	c #3C6838",
"xu 	c #326139",
"yu 	c #153526",
"zu 	c #193B28",
"Au 	c #1D422C",
"Bu 	c #214B31",
"Cu 	c #255335",
"Du 	c #366E3A",
"Eu 	c #285838",
"Fu 	c #285839",
"Gu 	c #775F31",
"Hu 	c #D49A49",
"Iu 	c #E7AC54",
"Ju 	c #B18D48",
"Ku 	c #81743F",
"Lu 	c #85763F",
"Mu 	c #857640",
"Nu 	c #86753D",
"Ou 	c #887338",
"Pu 	c #856D32",
"Qu 	c #685C2F",
"Ru 	c #365030",
"Su 	c #234E34",
"Tu 	c #2F653B",
"Uu 	c #255136",
"Vu 	c #244F36",
"Wu 	c #285035",
"Xu 	c #2D5434",
"Yu 	c #315734",
"Zu 	c #325A35",
"`u 	c #345F38",
" v 	c #2F5E39",
".v 	c #254F33",
"+v 	c #5E5830",
"@v 	c #856936",
"#v 	c #94733B",
"$v 	c #91743E",
"%v 	c #91753F",
"&v 	c #8E713B",
"*v 	c #876B34",
"=v 	c #79622D",
"-v 	c #5A552D",
";v 	c #2A4C2F",
">v 	c #224E33",
",v 	c #3F743B",
"'v 	c #30693B",
")v 	c #775C2D",
"!v 	c #D49540",
"~v 	c #F3B75B",
"{v 	c #DEB25C",
"]v 	c #CFAE5A",
"^v 	c #D1AE5B",
"/v 	c #D1AF5B",
"(v 	c #D1AC56",
"_v 	c #D2A34A",
":v 	c #CA943A",
"<v 	c #9B7231",
"[v 	c #464E2D",
"}v 	c #20462F",
"|v 	c #2E623A",
"1v 	c #1F462F",
"2v 	c #1E422E",
"3v 	c #1E412D",
"4v 	c #20432D",
"5v 	c #23462E",
"6v 	c #264C31",
"7v 	c #2B5535",
"8v 	c #2D5B38",
"9v 	c #2A5937",
"0v 	c #285131",
"av 	c #8C6B35",
"bv 	c #CF9447",
"cv 	c #E4A953",
"dv 	c #E2AC58",
"ev 	c #E3AE5B",
"fv 	c #DFAA53",
"gv 	c #D59D44",
"hv 	c #BE8933",
"iv 	c #8B682C",
"jv 	c #31452A",
"kv 	c #234E32",
"lv 	c #275637",
"mv 	c #2E633B",
"nv 	c #255034",
"ov 	c #254D2F",
"pv 	c #264E30",
"qv 	c #295535",
"rv 	c #285636",
"sv 	c #1B3D29",
"tv 	c #755A29",
"uv 	c #D39237",
"vv 	c #F9C264",
"wv 	c #F6C261",
"xv 	c #F3BB52",
"yv 	c #ECA93F",
"zv 	c #BC8434",
"Av 	c #64572D",
"Bv 	c #394B2D",
"Cv 	c #304F30",
"Dv 	c #265334",
"Ev 	c #21492F",
"Fv 	c #28412A",
"Gv 	c #384A2D",
"Hv 	c #3F4F30",
"Iv 	c #355032",
"Jv 	c #295735",
"Kv 	c #244D2E",
"Lv 	c #28472A",
"Mv 	c #3C4229",
"Nv 	c #AD803D",
"Ov 	c #EFAD51",
"Pv 	c #FEC260",
"Qv 	c #FABC52",
"Rv 	c #E7A741",
"Sv 	c #A97C33",
"Tv 	c #374429",
"Uv 	c #356C39",
"Vv 	c #31653C",
"Wv 	c #386C3B",
"Xv 	c #376B3A",
"Yv 	c #30683B",
"Zv 	c #2D6039",
"`v 	c #245035",
" w 	c #224A2D",
".w 	c #23492C",
"+w 	c #275333",
"@w 	c #265435",
"#w 	c #234B30",
"$w 	c #30462B",
"%w 	c #384028",
"&w 	c #D79534",
"*w 	c #FEBC5D",
"=w 	c #F8C05F",
"-w 	c #F2B650",
";w 	c #E9A83F",
">w 	c #D7983A",
",w 	c #C58D38",
"'w 	c #A97E35",
")w 	c #786531",
"!w 	c #234C32",
"~w 	c #275538",
"{w 	c #675C34",
"]w 	c #A48446",
"^w 	c #B9934E",
"/w 	c #8D7741",
"(w 	c #3C5133",
"_w 	c #224930",
":w 	c #275133",
"<w 	c #295433",
"[w 	c #265031",
"}w 	c #20442C",
"|w 	c #515530",
"1w 	c #96753C",
"2w 	c #BA8B45",
"3w 	c #D89E4B",
"4w 	c #F6B154",
"5w 	c #FFC363",
"6w 	c #FFC25E",
"7w 	c #F2B654",
"8w 	c #B48A42",
"9w 	c #3B462A",
"0w 	c #30673C",
"aw 	c #306739",
"bw 	c #30613A",
"cw 	c #38693A",
"dw 	c #41743A",
"ew 	c #396F38",
"fw 	c #346938",
"gw 	c #316439",
"hw 	c #2E603A",
"iw 	c #316837",
"jw 	c #2F6235",
"kw 	c #2B5A34",
"lw 	c #20462D",
"mw 	c #21462C",
"nw 	c #254D30",
"ow 	c #285333",
"pw 	c #2C4C2E",
"qw 	c #856930",
"rw 	c #CC9136",
"sw 	c #E5A33A",
"tw 	c #F9B342",
"uw 	c #FCB74F",
"vw 	c #FEBC5B",
"ww 	c #FBBB5B",
"xw 	c #F7B651",
"yw 	c #F0AA40",
"zw 	c #F8AE40",
"Aw 	c #9A7533",
"Bw 	c #876F3C",
"Cw 	c #D9A857",
"Dw 	c #F6BD62",
"Ew 	c #B7914D",
"Fw 	c #485131",
"Gw 	c #20462C",
"Hw 	c #23482C",
"Iw 	c #665D34",
"Jw 	c #C69449",
"Kw 	c #F9BF62",
"Lw 	c #BA924C",
"Mw 	c #3D482C",
"Nw 	c #275537",
"Ow 	c #366F39",
"Pw 	c #336D38",
"Qw 	c #2F6636",
"Rw 	c #295A36",
"Sw 	c #2E5B37",
"Tw 	c #396539",
"Uw 	c #437239",
"Vw 	c #386934",
"Ww 	c #306234",
"Xw 	c #2D5F34",
"Yw 	c #2C5E36",
"Zw 	c #2B5C39",
"`w 	c #2C5F34",
" x 	c #28512E",
".x 	c #22492D",
"+x 	c #1F412A",
"@x 	c #2F472C",
"#x 	c #AC7F35",
"$x 	c #F3B040",
"%x 	c #F3B242",
"&x 	c #F8B952",
"*x 	c #FEC161",
"=x 	c #F0AA3F",
"-x 	c #C18C38",
";x 	c #836831",
">x 	c #695D2F",
",x 	c #3C4F2E",
"'x 	c #8E733E",
")x 	c #E1AD5A",
"!x 	c #D3A453",
"~x 	c #8D7338",
"{x 	c #665B2C",
"]x 	c #474B29",
"^x 	c #203F28",
"/x 	c #5B5328",
"(x 	c #77602A",
"_x 	c #A37B39",
":x 	c #DEA34D",
"<x 	c #BC944E",
"[x 	c #3E482C",
"}x 	c #336B3B",
"|x 	c #336C37",
"1x 	c #326C35",
"2x 	c #285632",
"3x 	c #265032",
"4x 	c #2D5633",
"5x 	c #386135",
"6x 	c #416E37",
"7x 	c #437334",
"8x 	c #3A6630",
"9x 	c #2A5630",
"0x 	c #285530",
"ax 	c #295834",
"bx 	c #316939",
"cx 	c #2B5D38",
"dx 	c #295832",
"ex 	c #26502E",
"fx 	c #354A2C",
"gx 	c #665D33",
"hx 	c #816B38",
"ix 	c #846D39",
"jx 	c #856D39",
"kx 	c #7E6A38",
"lx 	c #294329",
"mx 	c #3F4A2A",
"nx 	c #625B2E",
"ox 	c #826A32",
"px 	c #CB923A",
"qx 	c #F5B241",
"rx 	c #F9B851",
"sx 	c #F0AE41",
"tx 	c #F4AF40",
"ux 	c #E8A53E",
"vx 	c #DA9B3B",
"wx 	c #AD8035",
"xx 	c #5B562E",
"yx 	c #8B713D",
"zx 	c #DFAC59",
"Ax 	c #EAB357",
"Bx 	c #D29C42",
"Cx 	c #AB7E32",
"Dx 	c #6F5829",
"Ex 	c #1F3A26",
"Fx 	c #926A28",
"Gx 	c #CB8B2F",
"Hx 	c #E3A241",
"Ix 	c #F2AF50",
"Jx 	c #F9BF63",
"Kx 	c #BA924D",
"Lx 	c #29593A",
"Mx 	c #326B37",
"Nx 	c #306833",
"Ox 	c #2C5E30",
"Px 	c #27522E",
"Qx 	c #254C2E",
"Rx 	c #2B522F",
"Sx 	c #325A31",
"Tx 	c #3B6733",
"Ux 	c #3C6931",
"Vx 	c #32592D",
"Wx 	c #2A512C",
"Xx 	c #285433",
"Yx 	c #2A5A38",
"Zx 	c #2A5A37",
"`x 	c #265232",
" y 	c #20482D",
".y 	c #4B4E2D",
"+y 	c #A68040",
"@y 	c #D8A04E",
"#y 	c #DCA34F",
"$y 	c #D39D4C",
"%y 	c #9C793D",
"&y 	c #344129",
"*y 	c #60552B",
"=y 	c #A27D35",
"-y 	c #CD973C",
";y 	c #E7A43E",
">y 	c #FDB64E",
",y 	c #EEAE41",
"'y 	c #F4B141",
")y 	c #D2963A",
"!y 	c #29472C",
"~y 	c #294F31",
"{y 	c #255234",
"]y 	c #2A5435",
"^y 	c #2F5535",
"/y 	c #2F5032",
"(y 	c #2B462D",
"_y 	c #273C28",
":y 	c #F4B248",
"<y 	c #D19537",
"[y 	c #8C672B",
"}y 	c #2D3C27",
"|y 	c #B37F2E",
"1y 	c #F4A93C",
"2y 	c #FFB84A",
"3y 	c #BE954E",
"4y 	c #454B2D",
"5y 	c #25422A",
"6y 	c #24492D",
"7y 	c #2A4C30",
"8y 	c #2B462C",
"9y 	c #27472D",
"0y 	c #244A2F",
"ay 	c #234E33",
"by 	c #254E2C",
"cy 	c #24492C",
"dy 	c #3A6932",
"ey 	c #30633B",
"fy 	c #24462B",
"gy 	c #264028",
"hy 	c #60562F",
"iy 	c #BF8F46",
"jy 	c #45462B",
"ky 	c #7B6430",
"ly 	c #C7943B",
"my 	c #F1AE41",
"ny 	c #F8B141",
"oy 	c #C48E38",
"py 	c #A37B34",
"qy 	c #7B6631",
"ry 	c #23472E",
"sy 	c #6D673B",
"ty 	c #A08548",
"uy 	c #B5924E",
"vy 	c #B28E4B",
"wy 	c #AF8A49",
"xy 	c #CC9E53",
"yy 	c #EEB75F",
"zy 	c #F9BB58",
"Ay 	c #F0AF47",
"By 	c #DD9E3B",
"Cy 	c #C38A35",
"Dy 	c #B38134",
"Ey 	c #D79B3F",
"Fy 	c #FCC163",
"Gy 	c #DAA752",
"Hy 	c #AF853A",
"Iy 	c #896A2E",
"Jy 	c #59552C",
"Ky 	c #1E432C",
"Ly 	c #565A34",
"My 	c #95773E",
"Ny 	c #B28844",
"Oy 	c #8E723B",
"Py 	c #495230",
"Qy 	c #295836",
"Ry 	c #2D5E39",
"Sy 	c #316739",
"Ty 	c #2C5F36",
"Uy 	c #275332",
"Vy 	c #2D562D",
"Wy 	c #284E2B",
"Xy 	c #2A5736",
"Yy 	c #285535",
"Zy 	c #295635",
"`y 	c #265133",
" z 	c #725C29",
".z 	c #9F722A",
"+z 	c #C18A37",
"@z 	c #E2A44C",
"#z 	c #FCB758",
"$z 	c #DDA552",
"%z 	c #B78F4B",
"&z 	c #BF9247",
"*z 	c #D9A144",
"=z 	c #F5B040",
"-z 	c #F6AD40",
";z 	c #A17832",
">z 	c #224029",
",z 	c #8E7640",
"'z 	c #F5BC62",
")z 	c #F4BB61",
"!z 	c #F8BE62",
"~z 	c #EBA73F",
"{z 	c #EFA63F",
"]z 	c #F5A93F",
"^z 	c #F9B24A",
"/z 	c #F3B957",
"(z 	c #E5A744",
"_z 	c #BA8734",
":z 	c #725B2B",
"<z 	c #6D5F34",
"[z 	c #C7954A",
"}z 	c #BE8F47",
"|z 	c #386C3A",
"1z 	c #2B5D39",
"2z 	c #21472F",
"3z 	c #1E4229",
"4z 	c #295534",
"5z 	c #2D613B",
"6z 	c #275031",
"7z 	c #254D2E",
"8z 	c #264F31",
"9z 	c #2A5836",
"0z 	c #275030",
"az 	c #22492C",
"bz 	c #9B702B",
"cz 	c #E19633",
"dz 	c #FBB551",
"ez 	c #FAB95C",
"fz 	c #F5BB61",
"gz 	c #F0B65A",
"hz 	c #ECAE4B",
"iz 	c #F6AC40",
"jz 	c #C48D3A",
"kz 	c #746133",
"lz 	c #B58E4A",
"mz 	c #EEB65F",
"nz 	c #F0AB40",
"oz 	c #FFB542",
"pz 	c #FBBD58",
"qz 	c #F3B146",
"rz 	c #D49838",
"sz 	c #A07630",
"tz 	c #705C2D",
"uz 	c #725D2D",
"vz 	c #6F5B2C",
"wz 	c #9E7838",
"xz 	c #E0A34B",
"yz 	c #D9A04B",
"zz 	c #94743A",
"Az 	c #665A32",
"Bz 	c #4D502E",
"Cz 	c #31653A",
"Dz 	c #386A3A",
"Ez 	c #3F723A",
"Fz 	c #3E773A",
"Gz 	c #397439",
"Hz 	c #255036",
"Iz 	c #183927",
"Jz 	c #434928",
"Kz 	c #756430",
"Lz 	c #736333",
"Mz 	c #746134",
"Nz 	c #655A31",
"Oz 	c #47502E",
"Pz 	c #285332",
"Qz 	c #255032",
"Rz 	c #234C30",
"Sz 	c #285536",
"Tz 	c #244C2F",
"Uz 	c #22472B",
"Vz 	c #2A5735",
"Wz 	c #1B3D27",
"Xz 	c #A37932",
"Yz 	c #EAA941",
"Zz 	c #FEB94E",
"`z 	c #FCBF5F",
" A 	c #F2B34E",
".A 	c #E6A344",
"+A 	c #D29A4A",
"@A 	c #E2AA57",
"#A 	c #E2A23C",
"$A 	c #D8993A",
"%A 	c #D19539",
"&A 	c #D29539",
"*A 	c #D09438",
"=A 	c #DC9C3D",
"-A 	c #F1AB45",
";A 	c #EEAB4B",
">A 	c #DCA14C",
",A 	c #C19147",
"'A 	c #8C713A",
")A 	c #2B5E39",
"!A 	c #2D5E38",
"~A 	c #356338",
"{A 	c #3D6C39",
"]A 	c #417539",
"^A 	c #37713A",
"/A 	c #173927",
"(A 	c #755B28",
"_A 	c #B78231",
":A 	c #D4983C",
"<A 	c #D49D4C",
"[A 	c #B98C45",
"}A 	c #7A6837",
"|A 	c #20452B",
"1A 	c #275232",
"2A 	c #264C2D",
"3A 	c #9A7A3A",
"4A 	c #E0AB4D",
"5A 	c #FCBA57",
"6A 	c #FBB347",
"7A 	c #F0AC40",
"8A 	c #F1B155",
"9A 	c #AC8442",
"0A 	c #21442B",
"aA 	c #275335",
"bA 	c #305836",
"cA 	c #396338",
"dA 	c #3D6E38",
"eA 	c #3E763A",
"fA 	c #214830",
"gA 	c #E39C36",
"hA 	c #E6A952",
"iA 	c #98783D",
"jA 	c #254A2D",
"kA 	c #967C3E",
"lA 	c #DAAD53",
"mA 	c #295B39",
"nA 	c #265235",
"oA 	c #294E33",
"pA 	c #315937",
"qA 	c #356539",
"rA 	c #376C3A",
"sA 	c #38713A",
"tA 	c #34683B",
"uA 	c #1E452E",
"vA 	c #3A4B2B",
"wA 	c #7F632E",
"xA 	c #A17631",
"yA 	c #C98D34",
"zA 	c #F0B055",
"AA 	c #CB984A",
"BA 	c #A37F40",
"CA 	c #826B38",
"DA 	c #3E4A2C",
"EA 	c #20452D",
"FA 	c #4A4F2B",
"GA 	c #86672F",
"HA 	c #A77932",
"IA 	c #C69540",
"JA 	c #E4AE4C",
"KA 	c #F7B953",
"LA 	c #FBB956",
"MA 	c #A88241",
"NA 	c #234A32",
"OA 	c #295537",
"PA 	c #2E5F39",
"QA 	c #33693B",
"RA 	c #3D7839",
"SA 	c #346B3A",
"TA 	c #31683C",
"UA 	c #224C33",
"VA 	c #4B502C",
"WA 	c #B18135",
"XA 	c #F4AB3E",
"YA 	c #FBAF3F",
"ZA 	c #ECAE54",
"`A 	c #4F4B2C",
" B 	c #1E4028",
".B 	c #224D32",
"+B 	c #234F33",
"@B 	c #61592D",
"#B 	c #BC8836",
"$B 	c #EFA73D",
"%B 	c #EFB044",
"&B 	c #F4B548",
"*B 	c #F3B256",
"=B 	c #BA8E47",
"-B 	c #625D35",
";B 	c #515A35",
">B 	c #375534",
",B 	c #20472D",
"'B 	c #204831",
")B 	c #265437",
"!B 	c #39723A",
"~B 	c #336A3A",
"{B 	c #265537",
"]B 	c #3B5533",
"^B 	c #4C532F",
"/B 	c #786430",
"(B 	c #CF953A",
"_B 	c #D29C4C",
":B 	c #7F6838",
"<B 	c #534F2F",
"[B 	c #3D442A",
"}B 	c #1A3927",
"|B 	c #3B5333",
"1B 	c #555732",
"2B 	c #5F5A32",
"3B 	c #4A5331",
"4B 	c #2A4D30",
"5B 	c #405733",
"6B 	c #4F542F",
"7B 	c #896D32",
"8B 	c #D99A3B",
"9B 	c #F5B343",
"0B 	c #FAB64F",
"aB 	c #F9B34B",
"bB 	c #FEB750",
"cB 	c #FAB750",
"dB 	c #FCB854",
"eB 	c #FEBB58",
"fB 	c #F9B658",
"gB 	c #E2AA55",
"hB 	c #A68748",
"iB 	c #626038",
"jB 	c #23462D",
"kB 	c #21472E",
"lB 	c #214931",
"mB 	c #3C7839",
"nB 	c #386F3B",
"oB 	c #336A3B",
"pB 	c #6E6534",
"qB 	c #A07D37",
"rB 	c #C6923A",
"sB 	c #E5A33D",
"tB 	c #E9AD56",
"uB 	c #D4A254",
"vB 	c #B48E4B",
"wB 	c #7F6A3A",
"xB 	c #20462E",
"yB 	c #6F6437",
"zB 	c #B08743",
"AB 	c #C79549",
"BB 	c #97783E",
"CB 	c #254C31",
"DB 	c #786934",
"EB 	c #A78137",
"FB 	c #CC953B",
"GB 	c #EAA53E",
"HB 	c #FAB344",
"IB 	c #FDB750",
"JB 	c #D5A556",
"KB 	c #7A6A3A",
"LB 	c #23442B",
"MB 	c #8A7134",
"NB 	c #CD983E",
"OB 	c #EBB45E",
"PB 	c #A08044",
"QB 	c #245134",
"RB 	c #8A703B",
"SB 	c #DEA450",
"TB 	c #BD8F47",
"UB 	c #4B512F",
"VB 	c #957735",
"WB 	c #D59D3E",
"XB 	c #EDB557",
"YB 	c #E2AE54",
"ZB 	c #DBAC55",
"`B 	c #DDB059",
" C 	c #DDB35C",
".C 	c #B99A50",
"+C 	c #716D3C",
"@C 	c #2B4A2D",
"#C 	c #2A492D",
"$C 	c #25472C",
"%C 	c #366B3B",
"&C 	c #3A6E3B",
"*C 	c #3F7439",
"=C 	c #356A3A",
"-C 	c #1B3F2A",
";C 	c #8B6F32",
">C 	c #D19B3D",
",C 	c #F3BA60",
"'C 	c #C7994B",
")C 	c #8E6D30",
"!C 	c #6D5A2B",
"~C 	c #3D4929",
"{C 	c #36512F",
"]C 	c #76632F",
"^C 	c #947231",
"/C 	c #C18F42",
"(C 	c #D9A14E",
"_C 	c #987A3F",
":C 	c #9A7D42",
"<C 	c #9D8044",
"[C 	c #C09343",
"}C 	c #E1A542",
"|C 	c #F9B145",
"1C 	c #FAB957",
"2C 	c #FEB954",
"3C 	c #DFAE54",
"4C 	c #AB9B4D",
"5C 	c #93934A",
"6C 	c #95954C",
"7C 	c #96964D",
"8C 	c #858948",
"9C 	c #62743E",
"0C 	c #3F5E35",
"aC 	c #3C5833",
"bC 	c #355230",
"cC 	c #294A2D",
"dC 	c #356B3A",
"eC 	c #477D38",
"fC 	c #3A723A",
"gC 	c #376C38",
"hC 	c #2F6236",
"iC 	c #2C5E37",
"jC 	c #183B28",
"kC 	c #8A6D31",
"lC 	c #CF993D",
"mC 	c #E9B051",
"nC 	c #D1993C",
"oC 	c #A07631",
"pC 	c #51512B",
"qC 	c #22472E",
"rC 	c #454F2C",
"sC 	c #AA7C30",
"tC 	c #E39C3A",
"uC 	c #F0AC49",
"vC 	c #F9B555",
"wC 	c #EAAA52",
"xC 	c #E7AA53",
"yC 	c #E8AF59",
"zC 	c #E8B35D",
"AC 	c #E6AD52",
"BC 	c #E9AA45",
"CC 	c #F9B955",
"DC 	c #F7B858",
"EC 	c #F9B85B",
"FC 	c #F9BD61",
"GC 	c #F8BF62",
"HC 	c #F0B454",
"IC 	c #F9B758",
"JC 	c #CAA551",
"KC 	c #818E48",
"LC 	c #648746",
"MC 	c #638645",
"NC 	c #618344",
"OC 	c #5B8244",
"PC 	c #5A7D41",
"QC 	c #55743E",
"RC 	c #4D6A3A",
"SC 	c #456036",
"TC 	c #365330",
"UC 	c #28482B",
"VC 	c #22452B",
"WC 	c #244B30",
"XC 	c #2F623C",
"YC 	c #31663A",
"ZC 	c #346B39",
"`C 	c #397539",
" D 	c #2F673B",
".D 	c #306236",
"+D 	c #2A5A32",
"@D 	c #2C5D39",
"#D 	c #CF9A3D",
"$D 	c #FEC262",
"%D 	c #FABB54",
"&D 	c #C18B36",
"*D 	c #76612F",
"=D 	c #474F2D",
"-D 	c #3A4F2E",
";D 	c #364E2E",
">D 	c #45512D",
",D 	c #6A5C2D",
"'D 	c #CB8F33",
")D 	c #FCB13F",
"!D 	c #F9BB59",
"~D 	c #FFB651",
"{D 	c #FDB74E",
"]D 	c #F5B34E",
"^D 	c #DEAA4F",
"/D 	c #C5A34F",
"(D 	c #C1A452",
"_D 	c #C2A655",
":D 	c #C6A855",
"<D 	c #D5A84C",
"[D 	c #E7A942",
"}D 	c #F6AF44",
"|D 	c #DBA84C",
"1D 	c #C1A251",
"2D 	c #A4984D",
"3D 	c #768C48",
"4D 	c #608143",
"5D 	c #5A7940",
"6D 	c #506B3A",
"7D 	c #405933",
"8D 	c #2E4A2C",
"9D 	c #24452B",
"0D 	c #285939",
"aD 	c #367239",
"bD 	c #2D633B",
"cD 	c #2B5834",
"dD 	c #234B2E",
"eD 	c #1E3D27",
"fD 	c #8C7032",
"gD 	c #D09A3D",
"hD 	c #FDC161",
"iD 	c #F5B752",
"jD 	c #D99B3B",
"kD 	c #CA9139",
"lD 	c #B28336",
"mD 	c #846730",
"nD 	c #1F3E29",
"oD 	c #75602E",
"pD 	c #A97E34",
"qD 	c #CB9238",
"rD 	c #E4A03A",
"sD 	c #F6AD42",
"tD 	c #C09B45",
"uD 	c #718A46",
"vD 	c #6D8A47",
"wD 	c #768C47",
"xD 	c #B69A44",
"yD 	c #E6A841",
"zD 	c #B59A45",
"AD 	c #6D8A48",
"BD 	c #6A8947",
"CD 	c #668846",
"DD 	c #658846",
"ED 	c #5F8043",
"FD 	c #54703C",
"GD 	c #435B34",
"HD 	c #304A2D",
"ID 	c #25442B",
"JD 	c #24472D",
"KD 	c #255435",
"LD 	c #295A39",
"MD 	c #28502E",
"ND 	c #907833",
"OD 	c #D39C3E",
"PD 	c #F4B551",
"QD 	c #A77A32",
"RD 	c #946E30",
"SD 	c #E3A03C",
"TD 	c #F7B654",
"UD 	c #FEB74D",
"VD 	c #D0A146",
"WD 	c #A4974B",
"XD 	c #9F984E",
"YD 	c #A19A4F",
"ZD 	c #A39A4E",
"`D 	c #B69C49",
" E 	c #CBA042",
".E 	c #DAA441",
"+E 	c #E2A841",
"@E 	c #E4A841",
"#E 	c #E6A941",
"$E 	c #D1A241",
"%E 	c #9C9342",
"&E 	c #658843",
"*E 	c #658844",
"=E 	c #55713C",
"-E 	c #455A34",
";E 	c #36472C",
">E 	c #2B402A",
",E 	c #26422A",
"'E 	c #285938",
")E 	c #295B3A",
"!E 	c #3A7138",
"~E 	c #457637",
"{E 	c #427638",
"]E 	c #3D7438",
"^E 	c #326B3B",
"/E 	c #2C613A",
"(E 	c #275739",
"_E 	c #244D33",
":E 	c #275336",
"<E 	c #2B5836",
"[E 	c #325B35",
"}E 	c #395F33",
"|E 	c #406232",
"1E 	c #857C38",
"2E 	c #B8943F",
"3E 	c #DBA541",
"4E 	c #F4B85B",
"5E 	c #E7B75E",
"6E 	c #E4B359",
"7E 	c #F3AD3F",
"8E 	c #C99038",
"9E 	c #8E6A2F",
"0E 	c #BF8836",
"aE 	c #EFA83E",
"bE 	c #EDAA42",
"cE 	c #F6AE45",
"dE 	c #F5B042",
"eE 	c #EDAD49",
"fE 	c #E5AE53",
"gE 	c #E3B25A",
"hE 	c #E5B65E",
"iE 	c #E0B45D",
"jE 	c #C1A551",
"kE 	c #9C9442",
"lE 	c #9B9241",
"mE 	c #A09441",
"nE 	c #A19441",
"oE 	c #A29541",
"pE 	c #979241",
"qE 	c #7E8C41",
"rE 	c #658842",
"sE 	c #658845",
"tE 	c #658746",
"uE 	c #54713C",
"vE 	c #485933",
"wE 	c #3C432A",
"xE 	c #333927",
"yE 	c #293C27",
"zE 	c #243F29",
"AE 	c #23452C",
"BE 	c #285A38",
"CE 	c #2C5E39",
"DE 	c #275837",
"EE 	c #255535",
"FE 	c #245335",
"GE 	c #245135",
"HE 	c #295533",
"IE 	c #1F442A",
"JE 	c #1D402B",
"KE 	c #21452D",
"LE 	c #335A35",
"ME 	c #416336",
"NE 	c #4B6C39",
"OE 	c #51733B",
"PE 	c #707E3D",
"QE 	c #888940",
"RE 	c #A99641",
"SE 	c #DCA641",
"TE 	c #DCAD56",
"UE 	c #AD9E51",
"VE 	c #AE9C4C",
"WE 	c #D2A346",
"XE 	c #F0AF41",
"YE 	c #E9A73E",
"ZE 	c #E09E3B",
"`E 	c #EAA53D",
" F 	c #FCB242",
".F 	c #F9B343",
"+F 	c #FDB64D",
"@F 	c #FFBB58",
"#F 	c #F7BF63",
"$F 	c #C2A755",
"%F 	c #6F8B43",
"&F 	c #658841",
"*F 	c #5F8143",
"=F 	c #4B5832",
"-F 	c #423E28",
";F 	c #393123",
">F 	c #2C3424",
",F 	c #243C28",
"'F 	c #23432B",
")F 	c #275737",
"!F 	c #295A38",
"~F 	c #244D32",
"{F 	c #224429",
"]F 	c #254B2E",
"^F 	c #275234",
"/F 	c #2D5232",
"(F 	c #3F5E34",
"_F 	c #4E6B38",
":F 	c #58773E",
"<F 	c #5E7F42",
"[F 	c #5D8142",
"}F 	c #5E8241",
"|F 	c #778941",
"1F 	c #C69F41",
"2F 	c #D0A753",
"3F 	c #848F4A",
"4F 	c #8A8F45",
"5F 	c #C69D42",
"6F 	c #EFAF41",
"7F 	c #F0B241",
"8F 	c #F6B241",
"9F 	c #F9B957",
"0F 	c #FEB64E",
"aF 	c #F1B65B",
"bF 	c #DAB05A",
"cF 	c #C1A756",
"dF 	c #A19A4D",
"eF 	c #6B8942",
"fF 	c #648743",
"gF 	c #638644",
"hF 	c #638545",
"iF 	c #638544",
"jF 	c #648645",
"kF 	c #608043",
"lF 	c #57703C",
"mF 	c #4E5731",
"nF 	c #463A26",
"oF 	c #3D2A20",
"pF 	c #322D21",
"qF 	c #2A3122",
"rF 	c #273524",
"sF 	c #273B28",
"tF 	c #27452E",
"uF 	c #285837",
"vF 	c #224F32",
"wF 	c #1F482E",
"xF 	c #1F472D",
"yF 	c #2B613A",
"zF 	c #275838",
"AF 	c #264E34",
"BF 	c #26472F",
"CF 	c #27442D",
"DF 	c #27432C",
"EF 	c #274C31",
"FF 	c #275636",
"GF 	c #265132",
"HF 	c #26472C",
"IF 	c #244129",
"JF 	c #233E29",
"KF 	c #264029",
"LF 	c #2A472B",
"MF 	c #2C4C2C",
"NF 	c #2D512F",
"OF 	c #2D5533",
"PF 	c #2E5332",
"QF 	c #3D5A33",
"RF 	c #4B6636",
"SF 	c #57733B",
"TF 	c #5F7E41",
"UF 	c #628545",
"VF 	c #628542",
"WF 	c #728A41",
"XF 	c #A59641",
"YF 	c #C59E41",
"ZF 	c #DDA745",
"`F 	c #E7B258",
" G 	c #CAAA58",
".G 	c #C8A752",
"+G 	c #DCA849",
"@G 	c #F6B141",
"#G 	c #F8B049",
"$G 	c #F6B149",
"%G 	c #E4AF56",
"&G 	c #A69A4F",
"*G 	c #748C48",
"=G 	c #6E8A44",
"-G 	c #668841",
";G 	c #628541",
">G 	c #5F8142",
",G 	c #5E7E42",
"'G 	c #5E7D41",
")G 	c #5D7C40",
"!G 	c #608042",
"~G 	c #628445",
"{G 	c #607F42",
"]G 	c #5A703B",
"^G 	c #525630",
"/G 	c #483824",
"(G 	c #3F281F",
"_G 	c #372A1F",
":G 	c #322C20",
"<G 	c #303022",
"[G 	c #2F3626",
"}G 	c #2E402B",
"|G 	c #2A4A30",
"1G 	c #224E32",
"2G 	c #1F492E",
"3G 	c #2C613B",
"4G 	c #275938",
"5G 	c #28462E",
"6G 	c #2D402C",
"7G 	c #2F3F2B",
"8G 	c #2E3F2B",
"9G 	c #2E3E2A",
"0G 	c #2B462E",
"aG 	c #264E32",
"bG 	c #26472E",
"cG 	c #2A3E29",
"dG 	c #2D3D29",
"eG 	c #313F29",
"fG 	c #37472B",
"gG 	c #3D532F",
"hG 	c #3F5C32",
"iG 	c #3D5D34",
"jG 	c #385B34",
"kG 	c #305935",
"lG 	c #2B5736",
"mG 	c #325935",
"nG 	c #405F34",
"oG 	c #4C6736",
"pG 	c #55703B",
"qG 	c #5D7B40",
"rG 	c #638444",
"sG 	c #648842",
"tG 	c #678841",
"uG 	c #6F8A41",
"vG 	c #758B41",
"wG 	c #B09B48",
"xG 	c #EAB153",
"yG 	c #F6BC5F",
"zG 	c #EFB24F",
"AG 	c #F1B24F",
"BG 	c #F8B758",
"CG 	c #EFB356",
"DG 	c #EAB155",
"EG 	c #EBB255",
"FG 	c #EBB256",
"GG 	c #CBA551",
"HG 	c #8D914A",
"IG 	c #618341",
"JG 	c #5B7C40",
"KG 	c #56763F",
"LG 	c #55733D",
"MG 	c #54733D",
"NG 	c #5A793F",
"OG 	c #628344",
"PG 	c #5F7C41",
"QG 	c #5A6F3A",
"RG 	c #493924",
"SG 	c #41281F",
"TG 	c #3C2820",
"UG 	c #3A2920",
"VG 	c #392C21",
"WG 	c #383324",
"XG 	c #363B29",
"YG 	c #2F432C",
"ZG 	c #27462D",
"`G 	c #1E412A",
" H 	c #2C3D29",
".H 	c #333828",
"+H 	c #353728",
"@H 	c #353928",
"#H 	c #353A29",
"$H 	c #24442C",
"%H 	c #293C29",
"&H 	c #313325",
"*H 	c #373626",
"=H 	c #3E4028",
"-H 	c #454E2D",
";H 	c #4C6034",
">H 	c #4F6C39",
",H 	c #4C6B39",
"'H 	c #436337",
")H 	c #395C35",
"!H 	c #325835",
"~H 	c #2B5635",
"{H 	c #315936",
"]H 	c #3F6237",
"^H 	c #4F6C38",
"/H 	c #57743B",
"(H 	c #658741",
"_H 	c #969447",
":H 	c #D1A851",
"<H 	c #ECB255",
"[H 	c #EBB156",
"}H 	c #F4BA5D",
"|H 	c #F9B959",
"1H 	c #E7B054",
"2H 	c #BFA14D",
"3H 	c #A8994A",
"4H 	c #AB9A4C",
"5H 	c #AC9B4D",
"6H 	c #99954B",
"7H 	c #798C48",
"8H 	c #608242",
"9H 	c #58773F",
"0H 	c #506E3C",
"aH 	c #4B6939",
"bH 	c #4A6839",
"cH 	c #52703C",
"dH 	c #5B7A40",
"eH 	c #607D41",
"fH 	c #5D773E",
"gH 	c #586C39",
"hH 	c #50562F",
"iH 	c #473B26",
"jH 	c #422920",
"kH 	c #412821",
"lH 	c #412721",
"mH 	c #402A22",
"nH 	c #3F3024",
"oH 	c #3D3827",
"pH 	c #363C29",
"qH 	c #2C3E29",
"rH 	c #213E28",
"sH 	c #203E28",
"tH 	c #224129",
"uH 	c #24482E",
"vH 	c #285335",
"wH 	c #25472F",
"xH 	c #283F2A",
"yH 	c #323526",
"zH 	c #3A2F24",
"AH 	c #3C3025",
"BH 	c #3C3427",
"CH 	c #3C3728",
"DH 	c #353929",
"EH 	c #2C3C29",
"FH 	c #273A27",
"GH 	c #2E3224",
"HH 	c #382821",
"IH 	c #3E3022",
"JH 	c #464028",
"KH 	c #4D552F",
"LH 	c #556938",
"MH 	c #59753D",
"NH 	c #55743D",
"OH 	c #4D6C3A",
"PH 	c #436237",
"QH 	c #3B5C35",
"RH 	c #355834",
"SH 	c #3B5D35",
"TH 	c #4A6A39",
"UH 	c #58773D",
"VH 	c #7E8D44",
"WH 	c #9D9648",
"XH 	c #AD9B4A",
"YH 	c #AB9A4A",
"ZH 	c #AA9A4B",
"`H 	c #AE9C4E",
" I 	c #D8AF59",
".I 	c #F9C063",
"+I 	c #FCC060",
"@I 	c #F4B450",
"#I 	c #EEAC42",
"$I 	c #F8B146",
"%I 	c #F4B756",
"&I 	c #EAAC44",
"*I 	c #EDA941",
"=I 	c #FEB74C",
"-I 	c #D6A951",
";I 	c #8C9145",
">I 	c #618143",
",I 	c #57743E",
"'I 	c #4D6738",
")I 	c #445E35",
"!I 	c #415A33",
"~I 	c #4B6437",
"{I 	c #566E3B",
"]I 	c #5B733C",
"^I 	c #586F3B",
"/I 	c #546737",
"(I 	c #4C542F",
"_I 	c #463C27",
":I 	c #432A22",
"<I 	c #442822",
"[I 	c #452622",
"}I 	c #452823",
"|I 	c #452E24",
"1I 	c #443426",
"2I 	c #3D3727",
"3I 	c #323928",
"4I 	c #2A3A28",
"5I 	c #253B27",
"6I 	c #263C28",
"7I 	c #274029",
"8I 	c #29492E",
"9I 	c #2B5435",
"0I 	c #245032",
"aI 	c #24462E",
"bI 	c #2F3927",
"cI 	c #3A3125",
"dI 	c #422C23",
"eI 	c #452D24",
"fI 	c #453126",
"gI 	c #453528",
"hI 	c #3D3528",
"iI 	c #323627",
"jI 	c #2C3425",
"kI 	c #3B251E",
"lI 	c #412C20",
"mI 	c #484027",
"nI 	c #505730",
"oI 	c #586D39",
"pI 	c #5B783F",
"qI 	c #59773F",
"rI 	c #53723D",
"sI 	c #4B693A",
"tI 	c #466136",
"uI 	c #435C34",
"vI 	c #486336",
"wI 	c #5D7E42",
"xI 	c #688947",
"yI 	c #BBA456",
"zI 	c #F5BE63",
"AI 	c #F0B350",
"BI 	c #F4B14B",
"CI 	c #F4BE62",
"DI 	c #DFB45E",
"EI 	c #CEAC58",
"FI 	c #C9A64E",
"GI 	c #C29E43",
"HI 	c #C49D41",
"II 	c #CB9F41",
"JI 	c #D0A548",
"KI 	c #D0A74E",
"LI 	c #D0A751",
"MI 	c #D1A751",
"NI 	c #D1A752",
"OI 	c #B29C4C",
"PI 	c #58723D",
"QI 	c #4D6135",
"RI 	c #42522F",
"SI 	c #3E4B2C",
"TI 	c #44542F",
"UI 	c #4C5D32",
"VI 	c #506234",
"WI 	c #516033",
"XI 	c #4F5C32",
"YI 	c #483927",
"ZI 	c #472924",
"`I 	c #472723",
" J 	c #472523",
".J 	c #482B25",
"+J 	c #482F27",
"@J 	c #423328",
"#J 	c #3B3428",
"$J 	c #363429",
"%J 	c #353428",
"&J 	c #353528",
"*J 	c #2F3E28",
"=J 	c #2C452B",
"-J 	c #2A4E30",
";J 	c #254930",
">J 	c #283F2B",
",J 	c #2D3627",
"'J 	c #353125",
")J 	c #422D25",
"!J 	c #4A2D26",
"~J 	c #4D2E27",
"{J 	c #4D3029",
"]J 	c #4D322A",
"^J 	c #463228",
"/J 	c #3A3126",
"(J 	c #322E23",
"_J 	c #352920",
":J 	c #3F2D20",
"<J 	c #443F26",
"[J 	c #4C552E",
"}J 	c #546A38",
"|J 	c #59753E",
"1J 	c #506F3C",
"2J 	c #4F6C3A",
"3J 	c #516C39",
"4J 	c #678847",
"5J 	c #9F9A50",
"6J 	c #C7AA58",
"7J 	c #D0AB56",
"8J 	c #C6A34B",
"9J 	c #C19D41",
"0J 	c #C79F41",
"aJ 	c #CEA141",
"bJ 	c #D0A241",
"cJ 	c #F6B551",
"dJ 	c #F4B046",
"eJ 	c #E8B860",
"fJ 	c #B1A055",
"gJ 	c #808F49",
"hJ 	c #7F8E45",
"iJ 	c #7D8C41",
"jJ 	c #808D41",
"kJ 	c #828D41",
"lJ 	c #828E42",
"mJ 	c #828E44",
"nJ 	c #828E45",
"oJ 	c #828E48",
"pJ 	c #828E49",
"qJ 	c #788C46",
"rJ 	c #6A8942",
"sJ 	c #628143",
"tJ 	c #59713C",
"uJ 	c #4D5C33",
"vJ 	c #41492B",
"wJ 	c #3C4027",
"xJ 	c #3E4529",
"yJ 	c #434B2B",
"zJ 	c #474F2C",
"AJ 	c #4B4E2C",
"BJ 	c #4C4D2C",
"CJ 	c #4C4329",
"DJ 	c #4B3527",
"EJ 	c #4B2825",
"FJ 	c #4A2624",
"GJ 	c #482523",
"HJ 	c #492624",
"IJ 	c #4A2926",
"JJ 	c #4B2D28",
"KJ 	c #493029",
"LJ 	c #47312A",
"MJ 	c #46312A",
"NJ 	c #46322A",
"OJ 	c #413429",
"PJ 	c #383828",
"QJ 	c #2A432B",
"RJ 	c #28492E",
"SJ 	c #285032",
"TJ 	c #234F32",
"UJ 	c #2B432D",
"VJ 	c #313928",
"WJ 	c #373025",
"XJ 	c #402C23",
"YJ 	c #4B2E27",
"ZJ 	c #512F2B",
"`J 	c #53302C",
" K 	c #53312C",
".K 	c #53312D",
"+K 	c #4D302A",
"@K 	c #442E26",
"#K 	c #3C2B22",
"$K 	c #3B271F",
"%K 	c #3D2B1F",
"&K 	c #413B25",
"*K 	c #4F6336",
"=K 	c #546F3B",
"-K 	c #55723D",
";K 	c #54723D",
">K 	c #54743D",
",K 	c #58783F",
"'K 	c #5D7D41",
")K 	c #738B48",
"!K 	c #7F8F4B",
"~K 	c #828F49",
"{K 	c #7F8D45",
"]K 	c #7F8D41",
"^K 	c #818D41",
"/K 	c #BA9B41",
"(K 	c #FAB042",
"_K 	c #FEB348",
":K 	c #E3B65E",
"<K 	c #9E9950",
"[K 	c #648843",
"}K 	c #648745",
"|K 	c #617F42",
"1K 	c #596E39",
"2K 	c #4D5730",
"3K 	c #424028",
"4K 	c #3D3525",
"5K 	c #3D3626",
"6K 	c #403A26",
"7K 	c #443B27",
"8K 	c #483B27",
"9K 	c #4A3B27",
"0K 	c #4B3727",
"aK 	c #4C3026",
"bK 	c #4C2925",
"cK 	c #4B2725",
"dK 	c #4A2525",
"eK 	c #4C2726",
"fK 	c #4E2A28",
"gK 	c #502D2A",
"hK 	c #51302C",
"iK 	c #52312D",
"jK 	c #52312C",
"kK 	c #51312C",
"lK 	c #4B312A",
"mK 	c #403328",
"nK 	c #353627",
"oK 	c #2E3A27",
"pK 	c #294029",
"qK 	c #285033",
"rK 	c #24472E",
"sK 	c #29402B",
"tK 	c #313A29",
"uK 	c #393326",
"vK 	c #402D23",
"wK 	c #482C24",
"xK 	c #512F29",
"yK 	c #56312E",
"zK 	c #573230",
"AK 	c #57312F",
"BK 	c #4C2E27",
"CK 	c #452A22",
"DK 	c #40271F",
"EK 	c #3D251E",
"FK 	c #3E2920",
"GK 	c #403624",
"HK 	c #44472B",
"IK 	c #495A33",
"JK 	c #516F3C",
"KK 	c #56763E",
"LK 	c #628444",
"MK 	c #658744",
"NK 	c #F6B452",
"OK 	c #F9B045",
"PK 	c #F3B452",
"QK 	c #E4B65F",
"RK 	c #A09A51",
"SK 	c #648741",
"TK 	c #5F8244",
"UK 	c #618244",
"VK 	c #5E793E",
"WK 	c #566736",
"XK 	c #4D502D",
"YK 	c #453827",
"ZK 	c #412A24",
"`K 	c #422A24",
" L 	c #442B25",
".L 	c #462C25",
"+L 	c #482C25",
"@L 	c #492C25",
"#L 	c #4A2B25",
"$L 	c #4B2A25",
"%L 	c #4C2A25",
"&L 	c #4C2926",
"*L 	c #4D2827",
"=L 	c #502A28",
"-L 	c #532D2A",
";L 	c #56302B",
">L 	c #58322E",
",L 	c #593330",
"'L 	c #56312C",
")L 	c #512F2A",
"!L 	c #482E28",
"~L 	c #3E2F27",
"{L 	c #353527",
"]L 	c #2E3C28",
"^L 	c #29432B",
"/L 	c #284F32",
"(L 	c #295435",
"_L 	c #284B31",
":L 	c #2A402B",
"<L 	c #2F3727",
"[L 	c #383125",
"}L 	c #472C23",
"|L 	c #4E2C27",
"1L 	c #552F2C",
"2L 	c #593230",
"3L 	c #5A3331",
"4L 	c #5A3231",
"5L 	c #57312E",
"6L 	c #4B2B24",
"7L 	c #462721",
"8L 	c #422520",
"9L 	c #412822",
"0L 	c #423225",
"aL 	c #44402A",
"bL 	c #454F2F",
"cL 	c #465D34",
"dL 	c #496437",
"eL 	c #4E6939",
"fL 	c #57743D",
"gL 	c #5A7A3F",
"hL 	c #608244",
"iL 	c #618343",
"jL 	c #638642",
"kL 	c #AB9741",
"lL 	c #EBAB41",
"mL 	c #628441",
"nL 	c #5D7F41",
"oL 	c #587940",
"pL 	c #587640",
"qL 	c #5A763F",
"rL 	c #5B743D",
"sL 	c #535C33",
"tL 	c #4E462C",
"uL 	c #4A3026",
"vL 	c #492524",
"wL 	c #4B2824",
"xL 	c #4E2B28",
"yL 	c #512C2A",
"zL 	c #542E2C",
"AL 	c #57302C",
"BL 	c #59322D",
"CL 	c #5B3330",
"DL 	c #5C3432",
"EL 	c #562F2B",
"FL 	c #512D2A",
"GL 	c #492C28",
"HL 	c #3F3027",
"IL 	c #373827",
"JL 	c #294129",
"KL 	c #28462C",
"LL 	c #284C30",
"ML 	c #284E32",
"NL 	c #294C31",
"OL 	c #2D452E",
"PL 	c #323B29",
"QL 	c #373125",
"RL 	c #472C24",
"SL 	c #4D2C27",
"TL 	c #522D2B",
"UL 	c #593030",
"VL 	c #5B3332",
"WL 	c #55302D",
"XL 	c #502B29",
"YL 	c #4C2725",
"ZL 	c #472724",
"`L 	c #452F26",
" M 	c #443829",
".M 	c #43412B",
"+M 	c #424E2E",
"@M 	c #455831",
"#M 	c #4D5F34",
"$M 	c #576F3A",
"%M 	c #5A773E",
"&M 	c #5E7E41",
"*M 	c #597A41",
"=M 	c #577740",
"-M 	c #608241",
";M 	c #648641",
">M 	c #F4B24B",
",M 	c #F7B044",
"'M 	c #EEBB61",
")M 	c #CDAC59",
"!M 	c #AC9E51",
"~M 	c #94964A",
"{M 	c #6C8A42",
"]M 	c #638541",
"^M 	c #5F8141",
"/M 	c #5A783F",
"(M 	c #546F3C",
"_M 	c #516839",
":M 	c #516336",
"<M 	c #515F34",
"[M 	c #515732",
"}M 	c #4F492F",
"|M 	c #4F392C",
"1M 	c #4F2C29",
"2M 	c #512A29",
"3M 	c #522A29",
"4M 	c #522B2A",
"5M 	c #512B29",
"6M 	c #4F2A28",
"7M 	c #4C2826",
"8M 	c #4D2B27",
"9M 	c #512E2B",
"0M 	c #56302E",
"aM 	c #58312F",
"bM 	c #59322F",
"cM 	c #5A332F",
"dM 	c #5C3430",
"eM 	c #5A332E",
"fM 	c #59302D",
"gM 	c #572E2D",
"hM 	c #492E29",
"iM 	c #3E3127",
"jM 	c #343627",
"kM 	c #2D3B27",
"lM 	c #29442C",
"mM 	c #29452D",
"nM 	c #2A442C",
"oM 	c #303E2A",
"pM 	c #393727",
"qM 	c #433125",
"rM 	c #4C2E25",
"sM 	c #512E27",
"tM 	c #532E2A",
"uM 	c #562F2E",
"vM 	c #5C3231",
"wM 	c #5E3533",
"xM 	c #5F3633",
"yM 	c #5E3633",
"zM 	c #5E3532",
"AM 	c #5D3432",
"BM 	c #572E2E",
"CM 	c #532B2B",
"DM 	c #4F2828",
"EM 	c #4A2726",
"FM 	c #462925",
"GM 	c #433226",
"HM 	c #423B28",
"IM 	c #44442A",
"JM 	c #494B2C",
"KM 	c #4E532E",
"LM 	c #515E32",
"MM 	c #556937",
"NM 	c #5B753D",
"OM 	c #597940",
"PM 	c #52723D",
"QM 	c #4D6D3B",
"RM 	c #53733D",
"SM 	c #5C7C40",
"TM 	c #628341",
"UM 	c #708A41",
"VM 	c #AF9841",
"WM 	c #FBC164",
"XM 	c #B9A453",
"YM 	c #738B43",
"ZM 	c #648742",
"`M 	c #5A7A40",
" N 	c #55723E",
".N 	c #4C5E33",
"+N 	c #49532E",
"@N 	c #484C2B",
"#N 	c #49422B",
"$N 	c #4B382C",
"%N 	c #4F322C",
"&N 	c #532F2D",
"*N 	c #58302F",
"=N 	c #5A3130",
"-N 	c #593130",
";N 	c #562F2D",
">N 	c #4E2B29",
",N 	c #4D2B28",
"'N 	c #4E2C29",
")N 	c #542F2D",
"!N 	c #593231",
"~N 	c #5B3331",
"{N 	c #5B3431",
"]N 	c #5B3230",
"^N 	c #5A3230",
"/N 	c #532E2C",
"(N 	c #482D28",
"_N 	c #3D3127",
":N 	c #353727",
"<N 	c #2F3C28",
"[N 	c #2B3E2A",
"}N 	c #2D3C29",
"|N 	c #363927",
"1N 	c #423426",
"2N 	c #4D3227",
"3N 	c #553129",
"4N 	c #58312C",
"5N 	c #59312E",
"6N 	c #613734",
"7N 	c #623834",
"8N 	c #613733",
"9N 	c #5D3532",
"0N 	c #572F2F",
"aN 	c #522C2B",
"bN 	c #442723",
"cN 	c #432A23",
"dN 	c #422E24",
"eN 	c #433224",
"fN 	c #443425",
"gN 	c #463826",
"hN 	c #49452A",
"iN 	c #4F562F",
"jN 	c #566837",
"kN 	c #5C773E",
"lN 	c #4C6B3A",
"mN 	c #476636",
"nN 	c #57783F",
"oN 	c #638641",
"pN 	c #C29D41",
"qN 	c #D3AE57",
"rN 	c #8B9144",
"sN 	c #738A41",
"tN 	c #6B8841",
"uN 	c #638543",
"vN 	c #5F8040",
"wN 	c #5A7B40",
"xN 	c #54743F",
"yN 	c #506E3D",
"zN 	c #4D6638",
"AN 	c #475B31",
"BN 	c #424E2B",
"CN 	c #414329",
"DN 	c #433729",
"EN 	c #48322A",
"FN 	c #4D302B",
"GN 	c #52302D",
"HN 	c #55302F",
"IN 	c #4F2D2A",
"JN 	c #4D2C29",
"KN 	c #4E2D2A",
"LN 	c #55302E",
"MN 	c #5D3533",
"NN 	c #5A302E",
"ON 	c #512C2B",
"PN 	c #472F29",
"QN 	c #3E3328",
"RN 	c #373627",
"SN 	c #333627",
"TN 	c #3E3426",
"UN 	c #4A3327",
"VN 	c #543329",
"WN 	c #5E3634",
"XN 	c #633935",
"YN 	c #653B36",
"ZN 	c #663C36",
"`N 	c #653B35",
" O 	c #633934",
".O 	c #603733",
"+O 	c #583130",
"@O 	c #4C2A27",
"#O 	c #442923",
"$O 	c #442B23",
"%O 	c #452C23",
"&O 	c #442C23",
"*O 	c #473226",
"=O 	c #4E442C",
"-O 	c #545A33",
";O 	c #586C3A",
">O 	c #58753D",
",O 	c #56733C",
"'O 	c #476537",
")O 	c #446135",
"!O 	c #55753F",
"~O 	c #5E8041",
"{O 	c #838D41",
"]O 	c #D3A341",
"^O 	c #E7B556",
"/O 	c #CAA244",
"(O 	c #AA9441",
"_O 	c #868B41",
":O 	c #608243",
"<O 	c #5C7D40",
"[O 	c #597A3F",
"}O 	c #57773E",
"|O 	c #54743E",
"1O 	c #506F3E",
"2O 	c #4D6C3C",
"3O 	c #496637",
"4O 	c #445D32",
"5O 	c #3F532E",
"6O 	c #3D482B",
"7O 	c #403D2A",
"8O 	c #443529",
"9O 	c #4C2C29",
"0O 	c #4F2B2A",
"aO 	c #542D2C",
"bO 	c #58322F",
"cO 	c #502D2B",
"dO 	c #4E2C2A",
"eO 	c #54302D",
"fO 	c #5C3531",
"gO 	c #613834",
"hO 	c #633936",
"iO 	c #623835",
"jO 	c #603633",
"kO 	c #5D3331",
"lO 	c #582F2E",
"mO 	c #4F2E2C",
"nO 	c #462E29",
"oO 	c #3F2F27",
"pO 	c #392F25",
"qO 	c #362F24",
"rO 	c #473127",
"sO 	c #51322A",
"tO 	c #56322C",
"uO 	c #5F3635",
"vO 	c #643A37",
"wO 	c #6A3F38",
"xO 	c #6D4139",
"yO 	c #6E4138",
"zO 	c #6D4138",
"AO 	c #6D4038",
"BO 	c #683D36",
"CO 	c #603734",
"DO 	c #57302F",
"EO 	c #532D2B",
"FO 	c #4D2A27",
"GO 	c #492824",
"HO 	c #472823",
"IO 	c #482924",
"JO 	c #4A2C26",
"KO 	c #4C2D26",
"LO 	c #4D2F27",
"MO 	c #50332A",
"NO 	c #533E2E",
"OO 	c #565032",
"PO 	c #565F34",
"QO 	c #536736",
"RO 	c #4D6536",
"SO 	c #456035",
"TO 	c #435E34",
"UO 	c #435F34",
"VO 	c #4A693A",
"WO 	c #5F8041",
"XO 	c #FABD56",
"YO 	c #F1AF44",
"ZO 	c #D09D41",
"`O 	c #998D41",
" P 	c #4E6C3B",
".P 	c #4D6B3A",
"+P 	c #4D6B3B",
"@P 	c #476536",
"#P 	c #425F33",
"$P 	c #3E5630",
"%P 	c #3C4A2D",
"&P 	c #3E402B",
"*P 	c #423829",
"=P 	c #453027",
"-P 	c #472825",
";P 	c #4E2827",
">P 	c #522C2A",
",P 	c #522E2C",
"'P 	c #643A35",
")P 	c #683D37",
"!P 	c #693E38",
"~P 	c #683E38",
"{P 	c #623934",
"]P 	c #56302F",
"^P 	c #4A2C27",
"/P 	c #442C24",
"(P 	c #412C23",
"_P 	c #462D25",
":P 	c #4E2F2A",
"<P 	c #55312E",
"[P 	c #583230",
"}P 	c #6C4139",
"|P 	c #75463A",
"1P 	c #79493B",
"2P 	c #7B493B",
"3P 	c #724339",
"4P 	c #552F2E",
"5P 	c #4F2B28",
"6P 	c #502C2A",
"7P 	c #542E2B",
"8P 	c #562F2C",
"9P 	c #58322D",
"0P 	c #5A362E",
"aP 	c #5B3C30",
"bP 	c #5B4630",
"cP 	c #574F30",
"dP 	c #505430",
"eP 	c #485430",
"fP 	c #435330",
"gP 	c #425330",
"hP 	c #425631",
"iP 	c #425C34",
"jP 	c #4A683A",
"kP 	c #F6B046",
"lP 	c #EDB856",
"mP 	c #D8A744",
"nP 	c #B89741",
"oP 	c #8C8C41",
"pP 	c #57773F",
"qP 	c #4D6C3B",
"rP 	c #476538",
"sP 	c #476337",
"tP 	c #486437",
"uP 	c #466335",
"vP 	c #425E33",
"wP 	c #3C4B2D",
"xP 	c #3E422A",
"yP 	c #453326",
"zP 	c #4B2625",
"AP 	c #4D2927",
"BP 	c #4C2B27",
"CP 	c #4D2C28",
"DP 	c #5F3632",
"EP 	c #663B36",
"FP 	c #6B4039",
"GP 	c #6B3F38",
"HP 	c #673D36",
"IP 	c #5F3733",
"JP 	c #5B3231",
"KP 	c #572F2E",
"LP 	c #522D2A",
"MP 	c #4C2C27",
"NP 	c #492C24",
"OP 	c #522F2B",
"PP 	c #5A3332",
"QP 	c #5D3534",
"RP 	c #633A36",
"SP 	c #75463B",
"TP 	c #804C3B",
"UP 	c #864F3C",
"VP 	c #87503C",
"WP 	c #844F3B",
"XP 	c #794839",
"YP 	c #693D35",
"ZP 	c #542F2C",
"`P 	c #512D29",
" Q 	c #4F2C27",
".Q 	c #542E2D",
"+Q 	c #5C3331",
"@Q 	c #603632",
"#Q 	c #603832",
"$Q 	c #613B32",
"%Q 	c #5F3F31",
"&Q 	c #59402F",
"*Q 	c #50402D",
"=Q 	c #47412B",
"-Q 	c #43422A",
";Q 	c #42462B",
">Q 	c #424D2E",
",Q 	c #425833",
"'Q 	c #496639",
")Q 	c #5E7F41",
"!Q 	c #FAC062",
"~Q 	c #F5C365",
"{Q 	c #D9B057",
"]Q 	c #A09644",
"^Q 	c #848C41",
"/Q 	c #738941",
"(Q 	c #5E7F43",
"_Q 	c #446036",
":Q 	c #435D34",
"<Q 	c #455C34",
"[Q 	c #445C33",
"}Q 	c #425A32",
"|Q 	c #3E5430",
"1Q 	c #3E452A",
"2Q 	c #423E27",
"3Q 	c #453525",
"4Q 	c #482A24",
"5Q 	c #4A2524",
"6Q 	c #4A2625",
"7Q 	c #4A2825",
"8Q 	c #4D2B26",
"9Q 	c #4E2C28",
"0Q 	c #512D2B",
"aQ 	c #613833",
"bQ 	c #673C36",
"cQ 	c #6B4038",
"dQ 	c #673D37",
"eQ 	c #5F3533",
"fQ 	c #4F2C28",
"gQ 	c #502D29",
"hQ 	c #5E3635",
"iQ 	c #633A37",
"jQ 	c #74463B",
"kQ 	c #7E4B3C",
"lQ 	c #89513C",
"mQ 	c #8E543D",
"nQ 	c #8F543D",
"oQ 	c #8D533C",
"pQ 	c #8A523C",
"qQ 	c #814C39",
"rQ 	c #734335",
"sQ 	c #663A32",
"tQ 	c #5E3531",
"uQ 	c #5A3330",
"vQ 	c #57312D",
"wQ 	c #552F2B",
"xQ 	c #552F2A",
"yQ 	c #643B34",
"zQ 	c #613A33",
"AQ 	c #5A352F",
"BQ 	c #50312B",
"CQ 	c #483228",
"DQ 	c #433527",
"EQ 	c #425431",
"FQ 	c #476237",
"GQ 	c #51703C",
"HQ 	c #5B7B40",
"IQ 	c #D2A341",
"JQ 	c #F2AE46",
"KQ 	c #F9C163",
"LQ 	c #C1A755",
"MQ 	c #748C44",
"NQ 	c #54733F",
"OQ 	c #435D35",
"PQ 	c #415732",
"QQ 	c #42512F",
"RQ 	c #41512F",
"SQ 	c #3E4E2E",
"TQ 	c #3C492C",
"UQ 	c #3F4429",
"VQ 	c #433E27",
"WQ 	c #473526",
"XQ 	c #492A25",
"YQ 	c #4A2724",
"ZQ 	c #4E2B26",
"`Q 	c #502C29",
" R 	c #683E37",
".R 	c #5B3432",
"+R 	c #532D2C",
"@R 	c #75473B",
"#R 	c #7E4C3C",
"$R 	c #88503C",
"%R 	c #8F553D",
"&R 	c #93573D",
"*R 	c #91563D",
"=R 	c #8D543C",
"-R 	c #875039",
";R 	c #7E4A36",
">R 	c #734334",
",R 	c #6A3D35",
"'R 	c #623734",
")R 	c #5C3230",
"!R 	c #4C2E29",
"~R 	c #483127",
"{R 	c #453627",
"]R 	c #433F29",
"^R 	c #414E2E",
"/R 	c #445A34",
"(R 	c #4B6739",
"_R 	c #5D7E40",
":R 	c #CAA041",
"<R 	c #F8AE42",
"[R 	c #FAC365",
"}R 	c #ECBD62",
"|R 	c #D7B15C",
"1R 	c #BFA655",
"2R 	c #6E8A42",
"3R 	c #4A6639",
"4R 	c #445B34",
"5R 	c #40512F",
"6R 	c #3F4A2C",
"7R 	c #3E4429",
"8R 	c #3E4129",
"9R 	c #3F4028",
"0R 	c #3F4029",
"aR 	c #3E4029",
"bR 	c #3E3D28",
"cR 	c #423A28",
"dR 	c #473627",
"eR 	c #4A3128",
"fR 	c #4E2928",
"gR 	c #4C2927",
"hR 	c #4B2926",
"iR 	c #57302E",
"jR 	c #643A36",
"kR 	c #6E4239",
"lR 	c #6F433A",
"mR 	c #6E423A",
"nR 	c #6D4239",
"oR 	c #6C4039",
"pR 	c #583030",
"qR 	c #5C3433",
"rR 	c #7F4C3C",
"sR 	c #88513C",
"tR 	c #94583D",
"uR 	c #95593E",
"vR 	c #94573D",
"wR 	c #91553D",
"xR 	c #8D533B",
"yR 	c #874F39",
"zR 	c #7F4B38",
"AR 	c #774638",
"BR 	c #6E4139",
"CR 	c #673C37",
"DR 	c #5E3530",
"ER 	c #58312E",
"FR 	c #5D3531",
"GR 	c #633834",
"HR 	c #58332E",
"IR 	c #53322B",
"JR 	c #4C3428",
"KR 	c #443927",
"LR 	c #3F4229",
"MR 	c #3F4D2E",
"NR 	c #4B6839",
"OR 	c #5C7C3F",
"PR 	c #748B41",
"QR 	c #A59541",
"RR 	c #C29E41",
"SR 	c #DCA541",
"TR 	c #F9BA58",
"UR 	c #E5B75F",
"VR 	c #A89D53",
"WR 	c #6F8A47",
"XR 	c #6B8944",
"YR 	c #445933",
"ZR 	c #404D2D",
"`R 	c #3D4329",
" S 	c #3C3B26",
".S 	c #3C3423",
"+S 	c #3D3022",
"@S 	c #3D2F22",
"#S 	c #3F2F23",
"$S 	c #462D26",
"%S 	c #4A2D28",
"&S 	c #4E2D29",
"*S 	c #4C2B28",
"=S 	c #613835",
"-S 	c #71433A",
";S 	c #72443A",
">S 	c #70443A",
",S 	c #623936",
"'S 	c #92563D",
")S 	c #965A3E",
"!S 	c #95583E",
"~S 	c #90543C",
"{S 	c #8C533C",
"]S 	c #89513B",
"^S 	c #834E3B",
"/S 	c #70433A",
"(S 	c #5B332F",
"_S 	c #633A35",
":S 	c #5C332F",
"<S 	c #52322A",
"[S 	c #453426",
"}S 	c #3B3725",
"|S 	c #3C3D27",
"1S 	c #3E4B2D",
"2S 	c #496338",
"3S 	c #536F3B",
"4S 	c #5C7B3F",
"5S 	c #6B8941",
"6S 	c #B49741",
"7S 	c #FFB643",
"8S 	c #FAB94F",
"9S 	c #F3BA58",
"0S 	c #F6BA59",
"aS 	c #E3B65F",
"bS 	c #9F9950",
"cS 	c #5C7D42",
"dS 	c #54723E",
"eS 	c #4A6438",
"fS 	c #445631",
"gS 	c #40482B",
"hS 	c #3E3D27",
"iS 	c #3E3425",
"jS 	c #3E2C22",
"kS 	c #3F2822",
"lS 	c #452A23",
"mS 	c #4B2C27",
"nS 	c #4C2C28",
"oS 	c #4F2C2A",
"pS 	c #603735",
"qS 	c #653B38",
"rS 	c #6A3F39",
"sS 	c #78473A",
"tS 	c #7A483A",
"uS 	c #77473A",
"vS 	c #73443A",
"wS 	c #653A36",
"xS 	c #76473B",
"yS 	c #804D3C",
"zS 	c #8E533D",
"AS 	c #90563D",
"BS 	c #8B533C",
"CS 	c #79483B",
"DS 	c #70423A",
"ES 	c #623832",
"FS 	c #5E352E",
"GS 	c #5C342D",
"HS 	c #5C332C",
"IS 	c #5A322C",
"JS 	c #59322E",
"KS 	c #5E3632",
"LS 	c #613634",
"MS 	c #532F2A",
"NS 	c #3B2D21",
"OS 	c #3B3022",
"PS 	c #3C3C27",
"QS 	c #415231",
"RS 	c #495F36",
"SS 	c #5C7A3F",
"TS 	c #608140",
"US 	c #638441",
"VS 	c #658743",
"WS 	c #9A9141",
"XS 	c #D1A042",
"YS 	c #E9AB44",
"ZS 	c #EDB24C",
"`S 	c #F4B953",
" T 	c #F9BA55",
".T 	c #FDBA57",
"+T 	c #F8B24D",
"@T 	c #A19A51",
"#T 	c #526F3C",
"$T 	c #496035",
"%T 	c #44502E",
"&T 	c #424229",
"*T 	c #413726",
"=T 	c #412F24",
"-T 	c #422923",
";T 	c #442623",
">T 	c #482724",
",T 	c #4F2D29",
"'T 	c #5B3333",
")T 	c #653B37",
"!T 	c #71443A",
"~T 	c #824D3B",
"{T 	c #844E3B",
"]T 	c #834D3A",
"^T 	c #7F4A3A",
"/T 	c #79473A",
"(T 	c #6A4038",
"_T 	c #663C37",
":T 	c #673D38",
"<T 	c #804C3C",
"[T 	c #89523D",
"}T 	c #90553D",
"|T 	c #92573D",
"1T 	c #94593E",
"2T 	c #824D3C",
"3T 	c #7C493B",
"4T 	c #76453A",
"5T 	c #714237",
"6T 	c #6C3E32",
"7T 	c #693A2E",
"8T 	c #65382C",
"9T 	c #5F352C",
"0T 	c #552F2D",
"aT 	c #5F3634",
"bT 	c #5E3432",
"cT 	c #59312F",
"dT 	c #442922",
"eT 	c #3C271F",
"fT 	c #3B281F",
"gT 	c #3B3123",
"hT 	c #3C3B27",
"iT 	c #3E452C",
"jT 	c #435331",
"kT 	c #4B6236",
"lT 	c #536E3B",
"mT 	c #5A783E",
"nT 	c #618242",
"oT 	c #7E8C42",
"pT 	c #979144",
"qT 	c #B09945",
"rT 	c #DAA747",
"sT 	c #F9B548",
"tT 	c #FDB84C",
"uT 	c #F8AF46",
"vT 	c #5C7D41",
"wT 	c #4F6839",
"xT 	c #475831",
"yT 	c #43472A",
"zT 	c #433925",
"AT 	c #432F23",
"BT 	c #452723",
"CT 	c #482524",
"DT 	c #4D2726",
"ET 	c #502A29",
"FT 	c #663B37",
"GT 	c #854F3C",
"HT 	c #8C533B",
"IT 	c #8A513A",
"JT 	c #854E3A",
"KT 	c #7D4A3A",
"LT 	c #73453A",
"MT 	c #6C4038",
"NT 	c #683E36",
"OT 	c #7C4A3B",
"PT 	c #8B523C",
"QT 	c #93583D",
"RT 	c #8E543C",
"ST 	c #824C3B",
"TT 	c #7F4937",
"UT 	c #7A4432",
"VT 	c #723F2E",
"WT 	c #67392C",
"XT 	c #5A322B",
"YT 	c #532E2B",
"ZT 	c #4D2A28",
"`T 	c #432622",
" U 	c #3C251E",
".U 	c #3B2E22",
"+U 	c #3D4028",
"@U 	c #455932",
"#U 	c #536F3C",
"$U 	c #597840",
"%U 	c #758A46",
"&U 	c #C59C43",
"*U 	c #FAAD41",
"=U 	c #F4AF47",
"-U 	c #FDB44C",
";U 	c #58763F",
">U 	c #53703C",
",U 	c #4F6939",
"'U 	c #4A5E34",
")U 	c #444B2C",
"!U 	c #413A26",
"~U 	c #412E22",
"{U 	c #422621",
"]U 	c #432321",
"^U 	c #462422",
"/U 	c #4E2927",
"(U 	c #512B2A",
"_U 	c #4C2D29",
":U 	c #4A2C28",
"<U 	c #492C26",
"[U 	c #522D2C",
"}U 	c #7A493B",
"|U 	c #91573D",
"1U 	c #8D543B",
"2U 	c #874F3A",
"3U 	c #7E4B39",
"4U 	c #744438",
"5U 	c #693E36",
"6U 	c #77483A",
"7U 	c #8C523C",
"8U 	c #844E3C",
"9U 	c #854F3B",
"0U 	c #95593D",
"aU 	c #8F543C",
"bU 	c #884F38",
"cU 	c #7D4832",
"dU 	c #6E402D",
"eU 	c #603A2B",
"fU 	c #58342B",
"gU 	c #4B2B28",
"hU 	c #3C291F",
"iU 	c #3B2C20",
"jU 	c #3C3825",
"kU 	c #455530",
"lU 	c #4E6B3A",
"mU 	c #55763F",
"nU 	c #5B7C41",
"oU 	c #6F8944",
"pU 	c #A59342",
"qU 	c #C69C42",
"rU 	c #DDA647",
"sU 	c #F3B251",
"tU 	c #5D7E41",
"uU 	c #59793F",
"vU 	c #55703C",
"wU 	c #486036",
"xU 	c #445330",
"yU 	c #404028",
"zU 	c #3E3123",
"AU 	c #3E2720",
"BU 	c #40211F",
"CU 	c #441F1F",
"DU 	c #472320",
"EU 	c #4F302B",
"FU 	c #4B2F2A",
"GU 	c #472D27",
"HU 	c #462C24",
"IU 	c #502C2B",
"JU 	c #6A3E38",
"KU 	c #94593D",
"LU 	c #8F553C",
"MU 	c #88503A",
"NU 	c #804B38",
"OU 	c #744435",
"PU 	c #673B34",
"QU 	c #5F3734",
"RU 	c #8A513C",
"SU 	c #7D4A3B",
"TU 	c #7E4B3B",
"UU 	c #7F4C3B",
"VU 	c #975A3E",
"WU 	c #985B3E",
"XU 	c #90573C",
"YU 	c #855338",
"ZU 	c #764D32",
"`U 	c #69472D",
" V 	c #61402C",
".V 	c #5D392C",
"+V 	c #5B342D",
"@V 	c #552E2D",
"#V 	c #4A2B28",
"$V 	c #402D24",
"%V 	c #3B3023",
"&V 	c #3B3323",
"*V 	c #3B3624",
"=V 	c #3C3A26",
"-V 	c #3F4027",
";V 	c #43492B",
">V 	c #46512E",
",V 	c #475C34",
"'V 	c #52733D",
")V 	c #718942",
"!V 	c #788B43",
"~V 	c #AB9749",
"{V 	c #E6AC51",
"]V 	c #648643",
"^V 	c #628345",
"/V 	c #608144",
"(V 	c #53723C",
"_V 	c #4E6A39",
":V 	c #435933",
"<V 	c #3F4C2D",
"[V 	c #3D3725",
"}V 	c #3D2B21",
"|V 	c #3D241E",
"1V 	c #3F201D",
"2V 	c #431F1D",
"3V 	c #46241F",
"4V 	c #492822",
"5V 	c #4D2A26",
"6V 	c #4F2F2A",
"7V 	c #4C332A",
"8V 	c #47342A",
"9V 	c #423427",
"0V 	c #403224",
"aV 	c #413025",
"bV 	c #4D2D29",
"cV 	c #56322E",
"dV 	c #643A34",
"eV 	c #704238",
"fV 	c #834E3C",
"gV 	c #8E553C",
"hV 	c #955A3E",
"iV 	c #864F3A",
"jV 	c #7B4837",
"kV 	c #6F4033",
"lV 	c #633831",
"mV 	c #653C36",
"nV 	c #78483A",
"oV 	c #90553C",
"pV 	c #77473B",
"qV 	c #76473A",
"rV 	c #995B3E",
"sV 	c #965C3E",
"tV 	c #905D3C",
"uV 	c #875C38",
"vV 	c #7C5633",
"wV 	c #724F30",
"xV 	c #6A452E",
"yV 	c #623B2E",
"zV 	c #59332C",
"AV 	c #452F27",
"BV 	c #3B3B27",
"CV 	c #3C3F28",
"DV 	c #3F462A",
"EV 	c #424B2C",
"FV 	c #48522F",
"GV 	c #4B5A32",
"HV 	c #4C6336",
"IV 	c #4F6D3B",
"JV 	c #688941",
"KV 	c #7F8E46",
"LV 	c #8D924A",
"MV 	c #B89D4E",
"NV 	c #E9AE54",
"OV 	c #F8AF44",
"PV 	c #F4B045",
"QV 	c #FDB549",
"RV 	c #5D7D43",
"SV 	c #587740",
"TV 	c #52713C",
"UV 	c #486536",
"VV 	c #3E5530",
"WV 	c #3D472C",
"XV 	c #3C3324",
"YV 	c #3C281F",
"ZV 	c #3D221D",
"`V 	c #3E1F1C",
" W 	c #411F1C",
".W 	c #43231D",
"+W 	c #462820",
"@W 	c #492923",
"#W 	c #492E26",
"$W 	c #453527",
"%W 	c #413B28",
"&W 	c #3B3E28",
"*W 	c #3D3927",
"=W 	c #413226",
"-W 	c #492F28",
";W 	c #54342C",
">W 	c #663D33",
",W 	c #764538",
"'W 	c #814C3B",
")W 	c #7F4B3A",
"!W 	c #714236",
"~W 	c #653932",
"{W 	c #5A322E",
"]W 	c #5C342F",
"^W 	c #72453A",
"/W 	c #79483A",
"(W 	c #854E3B",
"_W 	c #8B513B",
":W 	c #8F543B",
"<W 	c #91563C",
"[W 	c #814D3B",
"}W 	c #8D543D",
"|W 	c #975B3E",
"1W 	c #985A3E",
"2W 	c #9A5F3E",
"3W 	c #9B653E",
"4W 	c #99683D",
"5W 	c #91643A",
"6W 	c #875D38",
"7W 	c #7B5334",
"8W 	c #6D4530",
"9W 	c #5D382C",
"0W 	c #4D3529",
"aW 	c #433327",
"bW 	c #3F3527",
"cW 	c #3D3C28",
"dW 	c #3C452B",
"eW 	c #3E502F",
"fW 	c #415531",
"gW 	c #465A33",
"hW 	c #4D6035",
"iW 	c #526939",
"jW 	c #708A42",
"kW 	c #AD9B4B",
"lW 	c #D5A953",
"mW 	c #E7AF55",
"nW 	c #F6B557",
"oW 	c #A29A51",
"pW 	c #668845",
"qW 	c #638542",
"rW 	c #5C7C42",
"sW 	c #57763F",
"tW 	c #50703C",
"uW 	c #466435",
"vW 	c #405D32",
"wW 	c #3D5330",
"xW 	c #3C462B",
"yW 	c #3C221C",
"zW 	c #3D201B",
"AW 	c #3E1F1B",
"BW 	c #3F241C",
"CW 	c #41271E",
"DW 	c #432820",
"EW 	c #442721",
"FW 	c #3D3625",
"GW 	c #3B3F27",
"HW 	c #3A4329",
"IW 	c #3A452A",
"JW 	c #3C4029",
"KW 	c #403827",
"LW 	c #483426",
"MW 	c #55392B",
"NW 	c #6A4132",
"OW 	c #7B4937",
"PW 	c #874F3B",
"QW 	c #94583E",
"RW 	c #864F3B",
"SW 	c #5B342E",
"TW 	c #653B34",
"UW 	c #74453A",
"VW 	c #7C493A",
"WW 	c #854D3A",
"XW 	c #8C523B",
"YW 	c #91553C",
"ZW 	c #8C533D",
"`W 	c #6F4339",
" X 	c #7F4B3B",
".X 	c #9C603F",
"+X 	c #A06840",
"@X 	c #A26D41",
"#X 	c #9F6C41",
"$X 	c #98693F",
"%X 	c #8B603B",
"&X 	c #795134",
"*X 	c #63422C",
"=X 	c #4D3E28",
"-X 	c #3F3C26",
";X 	c #3C3C26",
">X 	c #3C4129",
",X 	c #3D5130",
"'X 	c #435F35",
")X 	c #486538",
"!X 	c #516C3B",
"~X 	c #58753F",
"{X 	c #5D7D42",
"]X 	c #788C43",
"^X 	c #CBA54F",
"/X 	c #FCB958",
"(X 	c #F6B14A",
"_X 	c #F7B756",
":X 	c #F6AE43",
"<X 	c #F9AE43",
"[X 	c #FCB248",
"}X 	c #EFBC61",
"|X 	c #D1AD5A",
"1X 	c #B2A153",
"2X 	c #98974B",
"3X 	c #6D8A42",
"4X 	c #608142",
"5X 	c #51713D",
"6X 	c #4C6C3A",
"7X 	c #486737",
"8X 	c #446034",
"9X 	c #415831",
"0X 	c #3F4B2D",
"aX 	c #3B2F21",
"bX 	c #3C261D",
"cX 	c #3D261D",
"dX 	c #3D291E",
"eX 	c #3E2B20",
"fX 	c #3F2C21",
"gX 	c #3F2B22",
"hX 	c #3F2B23",
"iX 	c #3D2F24",
"jX 	c #393625",
"kX 	c #383C27",
"lX 	c #394129",
"mX 	c #3D452A",
"nX 	c #4B3F28",
"oX 	c #56402A",
"pX 	c #63482E",
"qX 	c #724E34",
"rX 	c #825238",
"sX 	c #8D553C",
"tX 	c #7B483A",
"uX 	c #714338",
"vX 	c #5F3735",
"wX 	c #5F3731",
"xX 	c #6F4239",
"yX 	c #704339",
"zX 	c #834D3B",
"AX 	c #8D533D",
"BX 	c #854E3C",
"CX 	c #714239",
"DX 	c #7D4A38",
"EX 	c #844F39",
"FX 	c #8B533A",
"GX 	c #91553B",
"HX 	c #94573C",
"IX 	c #9C6140",
"JX 	c #A06842",
"KX 	c #A26E43",
"LX 	c #A36F43",
"MX 	c #A16F43",
"NX 	c #976940",
"OX 	c #865D38",
"PX 	c #6F4F2F",
"QX 	c #5C482B",
"RX 	c #4B4328",
"SX 	c #3F4128",
"TX 	c #3B4429",
"UX 	c #3B4A2C",
"VX 	c #3E5632",
"WX 	c #425F35",
"XX 	c #486638",
"YX 	c #878D41",
"ZX 	c #A79341",
"`X 	c #C29D43",
" Y 	c #E2AC4F",
".Y 	c #F6AF43",
"+Y 	c #EFBB61",
"@Y 	c #BCA553",
"#Y 	c #738C43",
"$Y 	c #587840",
"%Y 	c #4F6E3B",
"&Y 	c #4D6A39",
"*Y 	c #4A6336",
"=Y 	c #475832",
"-Y 	c #404A2C",
";Y 	c #3B3F28",
">Y 	c #3B3825",
",Y 	c #3B3523",
"'Y 	c #3C3523",
")Y 	c #3C3524",
"!Y 	c #3D3524",
"~Y 	c #3C3525",
"{Y 	c #3A3625",
"]Y 	c #373726",
"^Y 	c #373927",
"/Y 	c #3B3D28",
"(Y 	c #454429",
"_Y 	c #53482B",
":Y 	c #644D2E",
"<Y 	c #725432",
"[Y 	c #7A5A35",
"}Y 	c #825D38",
"|Y 	c #8B5D3B",
"1Y 	c #925B3D",
"2Y 	c #834D3C",
"3Y 	c #663B35",
"4Y 	c #603833",
"5Y 	c #683E35",
"6Y 	c #714438",
"7Y 	c #78483B",
"8Y 	c #6B3F35",
"9Y 	c #704334",
"0Y 	c #774835",
"aY 	c #7F4C36",
"bY 	c #885037",
"cY 	c #8F543A",
"dY 	c #96593D",
"eY 	c #9C6141",
"fY 	c #A16943",
"gY 	c #A36E44",
"hY 	c #A47145",
"iY 	c #A47245",
"jY 	c #A07043",
"kY 	c #95683E",
"lY 	c #825D37",
"mY 	c #715431",
"nY 	c #614D2E",
"oY 	c #50482C",
"pY 	c #3E462A",
"qY 	c #3A472B",
"rY 	c #3B4B2C",
"sY 	c #3D5431",
"tY 	c #405E35",
"uY 	c #466638",
"vY 	c #A09241",
"wY 	c #DCA141",
"xY 	c #F5AE43",
"yY 	c #F9B54E",
"zY 	c #FCC264",
"AY 	c #D3AF57",
"BY 	c #909244",
"CY 	c #788A41",
"DY 	c #6E8941",
"EY 	c #597A40",
"FY 	c #56753E",
"GY 	c #54703B",
"HY 	c #4F6637",
"IY 	c #3B4D2D",
"JY 	c #3B452A",
"KY 	c #3B4129",
"LY 	c #3C4028",
"MY 	c #3C4128",
"NY 	c #393D27",
"OY 	c #373A27",
"PY 	c #393927",
"QY 	c #413D28",
"RY 	c #4F4429",
"SY 	c #67512F",
"TY 	c #7D5C35",
"UY 	c #8B653A",
"VY 	c #90683C",
"WY 	c #94693E",
"XY 	c #96653E",
"YY 	c #975E3E",
"ZY 	c #6F4137",
"`Y 	c #663D36",
" Z 	c #714439",
".Z 	c #7B4A3B",
"+Z 	c #714339",
"@Z 	c #6B4133",
"#Z 	c #6F4433",
"$Z 	c #774833",
"%Z 	c #804C35",
"&Z 	c #8A5238",
"*Z 	c #9A6040",
"=Z 	c #9F6743",
"-Z 	c #A16C44",
";Z 	c #A26F44",
">Z 	c #A37145",
",Z 	c #A37245",
"'Z 	c #9F7043",
")Z 	c #866039",
"!Z 	c #775935",
"~Z 	c #635130",
"{Z 	c #4B482B",
"]Z 	c #3C4329",
"^Z 	c #3C502E",
"/Z 	c #405B33",
"(Z 	c #456437",
"_Z 	c #5B7D42",
":Z 	c #698941",
"<Z 	c #798B41",
"[Z 	c #848E41",
"}Z 	c #BD9C42",
"|Z 	c #FFB846",
"1Z 	c #FFBA50",
"2Z 	c #F7C264",
"3Z 	c #E3B656",
"4Z 	c #CCA344",
"5Z 	c #AF9441",
"6Z 	c #898B41",
"7Z 	c #618441",
"8Z 	c #618243",
"9Z 	c #55723C",
"0Z 	c #4A6536",
"aZ 	c #405831",
"bZ 	c #3C4C2D",
"cZ 	c #3C4B2C",
"dZ 	c #3C482B",
"eZ 	c #3B4329",
"fZ 	c #3C3E28",
"gZ 	c #4B4029",
"hZ 	c #5C472B",
"iZ 	c #785933",
"jZ 	c #8E683B",
"kZ 	c #9B7040",
"lZ 	c #9E7042",
"mZ 	c #9E6A42",
"nZ 	c #9A6140",
"oZ 	c #96593E",
"pZ 	c #8D533A",
"qZ 	c #714235",
"rZ 	c #673C34",
"sZ 	c #633A33",
"tZ 	c #633932",
"uZ 	c #623932",
"vZ 	c #653C35",
"wZ 	c #8B523D",
"xZ 	c #844D3A",
"yZ 	c #764537",
"zZ 	c #6B3F34",
"AZ 	c #673D33",
"BZ 	c #693F33",
"CZ 	c #6C4133",
"DZ 	c #6E4433",
"EZ 	c #734732",
"FZ 	c #7B4C33",
"GZ 	c #865237",
"HZ 	c #8E563B",
"IZ 	c #945C3E",
"JZ 	c #986140",
"KZ 	c #9B6441",
"LZ 	c #9C6742",
"MZ 	c #9E6C42",
"NZ 	c #A17143",
"OZ 	c #A27244",
"PZ 	c #976B40",
"QZ 	c #88643B",
"RZ 	c #745934",
"SZ 	c #5A492C",
"TZ 	c #463E27",
"UZ 	c #3E4A2B",
"VZ 	c #41532F",
"WZ 	c #455D34",
"XZ 	c #587B41",
"YZ 	c #608445",
"ZZ 	c #778B41",
"`Z 	c #AE9641",
" ` 	c #E4AB46",
".` 	c #F7B44D",
"+` 	c #F6C364",
"@` 	c #F2BD56",
"#` 	c #D29D41",
"$` 	c #9C8D41",
"%` 	c #50703A",
"&` 	c #415C33",
"*` 	c #3E5631",
"=` 	c #3D5531",
"-` 	c #3C502F",
";` 	c #4E4429",
">` 	c #5B472B",
",` 	c #6E4F2F",
"'` 	c #865F37",
")` 	c #966E3E",
"!` 	c #9F7242",
"~` 	c #A16D43",
"{` 	c #9B6240",
"]` 	c #90543B",
"^` 	c #8A5138",
"/` 	c #804B35",
"(` 	c #734534",
"_` 	c #6D4233",
":` 	c #6F4336",
"<` 	c #764739",
"[` 	c #814D3C",
"}` 	c #884F3A",
"|` 	c #7A4736",
"1` 	c #6C4233",
"2` 	c #6E4333",
"3` 	c #724632",
"4` 	c #784B32",
"5` 	c #805135",
"6` 	c #865438",
"7` 	c #89543A",
"8` 	c #8B543C",
"9` 	c #905A3D",
"0` 	c #92633E",
"a` 	c #986C40",
"b` 	c #A07143",
"c` 	c #815C36",
"d` 	c #694A2C",
"e` 	c #553B26",
"f` 	c #4A3D26",
"g` 	c #444128",
"h` 	c #465430",
"i` 	c #557840",
"j` 	c #5E8244",
"k` 	c #818C41",
"l` 	c #D09F41",
"m` 	c #F8AF47",
"n` 	c #F9C364",
"o` 	c #F6BE56",
"p` 	c #F1B044",
"q` 	c #D49E41",
"r` 	c #57793F",
"s` 	c #4F713B",
"t` 	c #426036",
"u` 	c #3E5A33",
"v` 	c #3E5330",
"w` 	c #3F462B",
"x` 	c #46462A",
"y` 	c #564B2B",
"z` 	c #68532F",
"A` 	c #795A33",
"B` 	c #92683B",
"C` 	c #9A6F3F",
"D` 	c #9F7142",
"E` 	c #A17144",
"F` 	c #A06B43",
"G` 	c #885039",
"H` 	c #844E37",
"I` 	c #7F4D35",
"J` 	c #7D5136",
"K` 	c #7E5538",
"L` 	c #7F5638",
"M` 	c #7F5338",
"N` 	c #7E5038",
"O` 	c #7F4E39",
"P` 	c #74463A",
"Q` 	c #87513C",
"R` 	c #8F563D",
"S` 	c #8E533B",
"T` 	c #844D39",
"U` 	c #7B4936",
"V` 	c #774936",
"W` 	c #7A4C37",
"X` 	c #7B4F38",
"Y` 	c #7C5038",
"Z` 	c #7E5137",
"`` 	c #7F5236",
"  .	c #7F5136",
". .	c #7E4F37",
"+ .	c #7B4A37",
"@ .	c #7A4537",
"# .	c #7B4337",
"$ .	c #7F4A37",
"% .	c #855537",
"& .	c #90603B",
"* .	c #9C6A40",
"= .	c #A06C43",
"- .	c #99673F",
"; .	c #8D5D3A",
"> .	c #7D4F32",
", .	c #6C422C",
"' .	c #5C3E29",
") .	c #4F3D27",
"! .	c #494228",
"~ .	c #494E2E",
"{ .	c #4B6336",
"] .	c #54753E",
"^ .	c #5E8142",
"/ .	c #648644",
"( .	c #828C41",
"_ .	c #D1A041",
": .	c #FDC364",
"< .	c #F9BE56",
"[ .	c #9A8D41",
"} .	c #5D7F42",
"| .	c #587A3F",
"1 .	c #54753D",
"2 .	c #456638",
"3 .	c #415E35",
"4 .	c #405130",
"5 .	c #41442A",
"6 .	c #4D4329",
"7 .	c #65502F",
"8 .	c #7D5E36",
"9 .	c #8F683B",
"0 .	c #976E3E",
"a .	c #9B6F40",
"b .	c #9D6E41",
"c .	c #9F6A43",
"d .	c #9E6542",
"e .	c #995E40",
"f .	c #874E39",
"g .	c #7D4936",
"h .	c #7D4B35",
"i .	c #7F5235",
"j .	c #885E39",
"k .	c #91673D",
"l .	c #93693F",
"m .	c #91643E",
"n .	c #8F5D3E",
"o .	c #8D573D",
"p .	c #8A523D",
"q .	c #814C3C",
"r .	c #693F38",
"s .	c #6A3E37",
"t .	c #744539",
"u .	c #7C4B3B",
"v .	c #86513C",
"w .	c #8E553D",
"x .	c #85513A",
"y .	c #8B5A3C",
"z .	c #8F613F",
"A .	c #90623E",
"B .	c #8E603D",
"C .	c #8A5D3A",
"D .	c #815438",
"E .	c #764935",
"F .	c #6D4033",
"G .	c #673931",
"H .	c #663631",
"I .	c #6C3C31",
"J .	c #754631",
"K .	c #855335",
"L .	c #955E3C",
"M .	c #9E6441",
"N .	c #9D6340",
"O .	c #9A603F",
"P .	c #965C3D",
"Q .	c #8C5439",
"R .	c #7C4933",
"S .	c #69412C",
"T .	c #583C27",
"U .	c #4C6035",
"V .	c #54743C",
"W .	c #5D8040",
"X .	c #648642",
"Y .	c #808C41",
"Z .	c #CF9F41",
"` .	c #FFB749",
" ..	c #F1B04A",
"...	c #FBBE56",
"+..	c #F2B044",
"@..	c #D19D41",
"#..	c #4C6D3B",
"$..	c #456337",
"%..	c #434129",
"&..	c #453B26",
"*..	c #544129",
"=..	c #715232",
"-..	c #8A623A",
";..	c #9A6E40",
">..	c #9E7142",
",..	c #9B6D41",
"'..	c #9A6841",
")..	c #9A6540",
"!..	c #995C40",
"~..	c #7E4737",
"{..	c #714033",
"]..	c #704233",
"^..	c #754A34",
"/..	c #7F5736",
"(..	c #91683B",
"_..	c #9E7340",
":..	c #A17442",
"<..	c #9E6F42",
"[..	c #9A6742",
"}..	c #965D40",
"|..	c #93583E",
"1..	c #7B493A",
"2..	c #90543D",
"3..	c #92593D",
"4..	c #99653F",
"5..	c #9F6F41",
"6..	c #9F7041",
"7..	c #9B6D40",
"8..	c #93663E",
"9..	c #835839",
"0..	c #6F4533",
"a..	c #5E382E",
"b..	c #54322B",
"c..	c #51302A",
"d..	c #57342B",
"e..	c #633C2B",
"f..	c #784830",
"g..	c #8B5238",
"h..	c #96573D",
"i..	c #97573D",
"j..	c #98593E",
"k..	c #97583D",
"l..	c #834D36",
"m..	c #6F432E",
"n..	c #5D3D28",
"o..	c #533D27",
"p..	c #504B2C",
"q..	c #55743B",
"r..	c #5E813F",
"s..	c #658745",
"t..	c #768B41",
"u..	c #939141",
"v..	c #D6A342",
"w..	c #FEB243",
"x..	c #5A7A41",
"y..	c #53733E",
"z..	c #4C693A",
"A..	c #44452A",
"B..	c #443B26",
"C..	c #59422B",
"D..	c #775034",
"E..	c #8F603C",
"F..	c #9D6C42",
"G..	c #9E6E42",
"H..	c #986740",
"I..	c #94603E",
"J..	c #925A3D",
"K..	c #90533C",
"L..	c #8D523C",
"M..	c #864E39",
"N..	c #764335",
"O..	c #663931",
"P..	c #653C31",
"Q..	c #6F4A32",
"R..	c #7E5B36",
"S..	c #956C3B",
"T..	c #A47640",
"U..	c #A87842",
"V..	c #A47343",
"W..	c #9A6141",
"X..	c #7C4939",
"Y..	c #704137",
"Z..	c #683C35",
"`..	c #623733",
" +.	c #5F3432",
".+.	c #5B3132",
"++.	c #633635",
"@+.	c #6F4037",
"#+.	c #7C4A3A",
"$+.	c #86503C",
"%+.	c #995E3E",
"&+.	c #A16C40",
"*+.	c #A77741",
"=+.	c #A57741",
"-+.	c #A17441",
";+.	c #976C3F",
">+.	c #835A38",
",+.	c #68432F",
"'+.	c #533528",
")+.	c #442F25",
"!+.	c #3E2D23",
"~+.	c #443125",
"{+.	c #4F3A27",
"]+.	c #67422D",
"^+.	c #7D4935",
"/+.	c #8B4C39",
"(+.	c #8E4F3A",
"_+.	c #91523B",
":+.	c #90523B",
"<+.	c #8A5038",
"[+.	c #7F4C34",
"}+.	c #6E4630",
"|+.	c #5E432B",
"1+.	c #54472B",
"2+.	c #535330",
"3+.	c #526538",
"4+.	c #58773C",
"5+.	c #60833F",
"6+.	c #658742",
"7+.	c #979141",
"8+.	c #BC9B41",
"9+.	c #D6A543",
"0+.	c #EBAE49",
"a+.	c #5E7E43",
"b+.	c #54713D",
"c+.	c #46492C",
"d+.	c #5B402B",
"e+.	c #7A4D34",
"f+.	c #915C3D",
"g+.	c #9E6942",
"h+.	c #A26E44",
"i+.	c #9C6941",
"j+.	c #915E3D",
"k+.	c #875339",
"l+.	c #834D37",
"m+.	c #7D4736",
"n+.	c #754435",
"o+.	c #683C31",
"p+.	c #5C342E",
"q+.	c #5D372E",
"r+.	c #6A4831",
"s+.	c #7E5D36",
"t+.	c #976F3B",
"u+.	c #A77940",
"v+.	c #A97942",
"w+.	c #A77544",
"x+.	c #A26D44",
"y+.	c #9C6242",
"z+.	c #7B4838",
"A+.	c #724234",
"B+.	c #653A30",
"C+.	c #5D342E",
"D+.	c #58312D",
"E+.	c #85503B",
"F+.	c #96583D",
"G+.	c #A56F40",
"H+.	c #AA7A41",
"I+.	c #A87941",
"J+.	c #A37641",
"K+.	c #986E40",
"L+.	c #825B38",
"M+.	c #64422C",
"N+.	c #4C3325",
"O+.	c #3A2E21",
"P+.	c #342C20",
"Q+.	c #463825",
"R+.	c #593E2B",
"S+.	c #6C4231",
"T+.	c #784435",
"U+.	c #7C4636",
"V+.	c #7F4836",
"W+.	c #7E4936",
"X+.	c #7C4934",
"Y+.	c #784A33",
"Z+.	c #6C4C32",
"`+.	c #5F4F31",
" @.	c #565632",
".@.	c #586036",
"+@.	c #59703C",
"@@.	c #5E7E3E",
"#@.	c #638640",
"$@.	c #B19641",
"%@.	c #648744",
"&@.	c #628342",
"*@.	c #58763E",
"=@.	c #506538",
"-@.	c #484E2E",
";@.	c #453D27",
">@.	c #5C412B",
",@.	c #794A33",
"'@.	c #9B6141",
")@.	c #A06643",
"!@.	c #965F3F",
"~@.	c #855237",
"{@.	c #754431",
"]@.	c #6C3D2E",
"^@.	c #66392C",
"/@.	c #63382C",
"(@.	c #63372D",
"_@.	c #60352D",
":@.	c #58312B",
"<@.	c #55332A",
"[@.	c #67462F",
"}@.	c #7F5C36",
"|@.	c #996F3C",
"1@.	c #A87940",
"2@.	c #AA7942",
"3@.	c #9D6341",
"4@.	c #945A3E",
"5@.	c #8B533B",
"6@.	c #7A483B",
"7@.	c #734338",
"8@.	c #6C3E33",
"9@.	c #64382E",
"0@.	c #59322B",
"a@.	c #512F28",
"b@.	c #4A2A26",
"c@.	c #482925",
"d@.	c #462A24",
"e@.	c #452B25",
"f@.	c #492E27",
"g@.	c #563230",
"h@.	c #704138",
"i@.	c #85503C",
"j@.	c #95573D",
"k@.	c #9D613F",
"l@.	c #A67040",
"m@.	c #A97941",
"n@.	c #A47641",
"o@.	c #986D40",
"p@.	c #805937",
"q@.	c #60412A",
"r@.	c #483524",
"s@.	c #393222",
"t@.	c #343122",
"u@.	c #373624",
"v@.	c #3F3B26",
"w@.	c #4B3E2A",
"x@.	c #583D2D",
"y@.	c #603C2E",
"z@.	c #643A2D",
"A@.	c #65392D",
"B@.	c #673B2D",
"C@.	c #68402D",
"D@.	c #69472F",
"E@.	c #635233",
"F@.	c #5C5E36",
"G@.	c #5A6939",
"H@.	c #5D723B",
"I@.	c #607C3F",
"J@.	c #628440",
"K@.	c #648840",
"L@.	c #6F8945",
"M@.	c #878E43",
"N@.	c #9B9341",
"O@.	c #FEB543",
"P@.	c #FCBF57",
"Q@.	c #F4B144",
"R@.	c #D39E41",
"S@.	c #988D41",
"T@.	c #618340",
"U@.	c #5B7A3F",
"V@.	c #536A3A",
"W@.	c #4B5631",
"X@.	c #494629",
"Y@.	c #5B452C",
"Z@.	c #734931",
"`@.	c #864F37",
" #.	c #955A3F",
".#.	c #8A543A",
"+#.	c #764832",
"@#.	c #623A29",
"##.	c #563125",
"$#.	c #4D2C22",
"%#.	c #4D2A23",
"&#.	c #4E2A25",
"*#.	c #4D2925",
"=#.	c #482723",
"-#.	c #4F2E26",
";#.	c #65422D",
">#.	c #815A36",
",#.	c #9B6E3D",
"'#.	c #AA7A42",
")#.	c #9C6441",
"!#.	c #915A3C",
"~#.	c #845039",
"{#.	c #774739",
"]#.	c #643935",
"^#.	c #4E2D27",
"/#.	c #482D25",
"(#.	c #442A22",
"_#.	c #402720",
":#.	c #3F261F",
"<#.	c #3E2A21",
"[#.	c #3F2E22",
"}#.	c #423024",
"|#.	c #4E312B",
"1#.	c #653734",
"2#.	c #704038",
"3#.	c #93563D",
"4#.	c #9E623F",
"5#.	c #A77140",
"6#.	c #A47541",
"7#.	c #7E5636",
"8#.	c #5E4029",
"9#.	c #393925",
"0#.	c #353C26",
"a#.	c #364028",
"b#.	c #3B442A",
"c#.	c #42432B",
"d#.	c #483D2A",
"e#.	c #4C3528",
"f#.	c #4D2F25",
"g#.	c #4D2C23",
"h#.	c #4F2E24",
"i#.	c #533726",
"j#.	c #57442A",
"k#.	c #585733",
"l#.	c #59693A",
"m#.	c #617F3F",
"n#.	c #648541",
"o#.	c #7D8C45",
"p#.	c #B09743",
"q#.	c #D3A241",
"r#.	c #E4A941",
"s#.	c #F2B041",
"t#.	c #FCB342",
"u#.	c #F2B048",
"v#.	c #FBC163",
"w#.	c #F5BB55",
"x#.	c #ECAD44",
"y#.	c #CD9D41",
"z#.	c #9E8F41",
"A#.	c #698944",
"B#.	c #5F7F40",
"C#.	c #58713C",
"D#.	c #516135",
"E#.	c #5A4F2F",
"F#.	c #6C4B31",
"G#.	c #7A4A33",
"H#.	c #814B36",
"I#.	c #844C38",
"J#.	c #794935",
"K#.	c #67422E",
"L#.	c #513826",
"M#.	c #452E21",
"N#.	c #3F291F",
"O#.	c #422622",
"P#.	c #623E2C",
"Q#.	c #805536",
"R#.	c #9A6B3D",
"S#.	c #A87840",
"T#.	c #A67443",
"U#.	c #8F5A3C",
"V#.	c #7F4E38",
"W#.	c #6F4136",
"X#.	c #573130",
"Y#.	c #4E2D2B",
"Z#.	c #482C27",
"`#.	c #452C25",
" $.	c #422D23",
".$.	c #3E2B21",
"+$.	c #3B261E",
"@$.	c #3C2C21",
"#$.	c #3E3122",
"$$.	c #403424",
"%$.	c #443626",
"&$.	c #493428",
"*$.	c #643834",
"=$.	c #824B3B",
"-$.	c #91543D",
";$.	c #A67140",
">$.	c #AA7941",
",$.	c #A87841",
"'$.	c #A27141",
")$.	c #946640",
"!$.	c #7B5135",
"~$.	c #5D3E28",
"{$.	c #473A26",
"]$.	c #36442A",
"^$.	c #384A2C",
"/$.	c #3B4D2E",
"($.	c #3E4A2D",
"_$.	c #41402A",
":$.	c #412D21",
"<$.	c #3F2A1F",
"[$.	c #423422",
"}$.	c #484328",
"|$.	c #4F5B33",
"1$.	c #5E7E40",
"2$.	c #858D45",
"3$.	c #C59D43",
"4$.	c #FDB042",
"5$.	c #F2B659",
"6$.	c #D9AE59",
"7$.	c #C5A856",
"8$.	c #C4A64D",
"9$.	c #BB9D43",
"0$.	c #B99841",
"a$.	c #BE9A41",
"b$.	c #C59F41",
"c$.	c #B99B41",
"d$.	c #939143",
"e$.	c #5D7B3F",
"f$.	c #56703B",
"g$.	c #536437",
"h$.	c #5B5C35",
"i$.	c #685233",
"j$.	c #704931",
"k$.	c #724330",
"l$.	c #70422F",
"m$.	c #57412B",
"n$.	c #463C28",
"o$.	c #3A3022",
"p$.	c #392F22",
"q$.	c #3A2F23",
"r$.	c #3B2E24",
"s$.	c #3C2B23",
"t$.	c #3D2721",
"u$.	c #482C23",
"v$.	c #5E3A2A",
"w$.	c #7A4E33",
"x$.	c #92643B",
"y$.	c #9F7040",
"z$.	c #A37342",
"A$.	c #A37043",
"B$.	c #90593C",
"C$.	c #804C38",
"D$.	c #6F3D34",
"E$.	c #603531",
"F$.	c #452E28",
"G$.	c #3F2F25",
"H$.	c #3E3125",
"I$.	c #3D3325",
"J$.	c #3B3223",
"K$.	c #3B3122",
"L$.	c #3D3624",
"M$.	c #3F3A26",
"N$.	c #413E28",
"O$.	c #443A29",
"P$.	c #473429",
"Q$.	c #4F332B",
"R$.	c #5C362F",
"S$.	c #6D3C33",
"T$.	c #814738",
"U$.	c #91543C",
"V$.	c #A36B40",
"W$.	c #A67241",
"X$.	c #A37041",
"Y$.	c #9B6940",
"Z$.	c #8D5D3C",
"`$.	c #764B32",
" %.	c #5C3C27",
".%.	c #483A26",
"+%.	c #38482C",
"@%.	c #3A4F2F",
"#%.	c #3F502F",
"$%.	c #3F462C",
"%%.	c #3E3A28",
"&%.	c #3C3424",
"*%.	c #3A3122",
"=%.	c #3E3A25",
"-%.	c #45472B",
";%.	c #4D5E35",
">%.	c #56713E",
",%.	c #838D45",
"'%.	c #C29C43",
")%.	c #FFBE60",
"!%.	c #E6B056",
"~%.	c #AA9A4F",
"{%.	c #728B48",
"]%.	c #738B44",
"^%.	c #718A41",
"/%.	c #989241",
"(%.	c #D8A441",
"_%.	c #AD9741",
":%.	c #5C7D3F",
"<%.	c #5E693A",
"[%.	c #645C35",
"}%.	c #674D2F",
"|%.	c #65412B",
"1%.	c #613C29",
"2%.	c #583F29",
"3%.	c #4C4229",
"4%.	c #394028",
"5%.	c #363E27",
"6%.	c #363E28",
"7%.	c #363F28",
"8%.	c #363D27",
"9%.	c #383625",
"0%.	c #3B2C21",
"a%.	c #452D22",
"b%.	c #583727",
"c%.	c #71462F",
"d%.	c #895939",
"e%.	c #966540",
"f%.	c #9B6842",
"g%.	c #9D6641",
"h%.	c #9D6542",
"i%.	c #90573D",
"j%.	c #814938",
"k%.	c #6E3933",
"l%.	c #5C332E",
"m%.	c #4B3129",
"n%.	c #3F3125",
"o%.	c #3B3424",
"p%.	c #3A3B27",
"q%.	c #3A4129",
"r%.	c #3A4128",
"s%.	c #3D492C",
"t%.	c #404D2E",
"u%.	c #42502F",
"v%.	c #43502F",
"w%.	c #43462C",
"x%.	c #483428",
"y%.	c #55362A",
"z%.	c #69392D",
"A%.	c #804634",
"B%.	c #91543B",
"C%.	c #995E3F",
"D%.	c #9D6440",
"E%.	c #9E6641",
"F%.	c #9C6440",
"G%.	c #935E3E",
"H%.	c #845338",
"I%.	c #70432F",
"J%.	c #5B3827",
"K%.	c #4A3826",
"L%.	c #3B4C2D",
"M%.	c #405A33",
"N%.	c #415832",
"O%.	c #3C472C",
"P%.	c #384129",
"Q%.	c #373F28",
"R%.	c #4C6338",
"S%.	c #56743F",
"T%.	c #C39D43",
"U%.	c #E3AE55",
"V%.	c #9F964C",
"W%.	c #668844",
"X%.	c #7A8B42",
"Y%.	c #8A8F41",
"Z%.	c #B39941",
"`%.	c #F5AE42",
" &.	c #CCA245",
".&.	c #9A9547",
"+&.	c #889047",
"@&.	c #5F753D",
"#&.	c #5E6637",
"$&.	c #5B5430",
"%&.	c #58452B",
"&&.	c #533D29",
"*&.	c #4C4129",
"=&.	c #444629",
"-&.	c #3E492A",
";&.	c #39492B",
">&.	c #37492C",
",&.	c #37462A",
"'&.	c #383C26",
")&.	c #432E22",
"!&.	c #553526",
"~&.	c #6E402E",
"{&.	c #855138",
"]&.	c #925B3F",
"^&.	c #975F41",
"/&.	c #995F40",
"(&.	c #975C3F",
"_&.	c #8E533C",
":&.	c #7F4637",
"<&.	c #6A3931",
"[&.	c #56332B",
"}&.	c #463327",
"|&.	c #3A3A25",
"1&.	c #3C4E2E",
"2&.	c #415833",
"3&.	c #445D34",
"4&.	c #445C34",
"5&.	c #445030",
"6&.	c #43402A",
"7&.	c #453729",
"8&.	c #513829",
"9&.	c #643A2C",
"0&.	c #7B4533",
"a&.	c #8D523A",
"b&.	c #965B3F",
"c&.	c #995E41",
"d&.	c #975D3F",
"e&.	c #8E573B",
"f&.	c #7F4C35",
"g&.	c #6B3D2C",
"h&.	c #583226",
"i&.	c #4A3426",
"j&.	c #42412A",
"k&.	c #40502F",
"l&.	c #446136",
"m&.	c #445F35",
"n&.	c #415933",
"o&.	c #3D512F",
"p&.	c #3A4D2D",
"q&.	c #384B2D",
"r&.	c #3D502F",
"s&.	c #4F693A",
"t&.	c #59783F",
"u&.	c #7C8C45",
"v&.	c #AF9843",
"w&.	c #D5A341",
"x&.	c #FEB54A",
"y&.	c #999242",
"z&.	c #DEA641",
"A&.	c #FBB144",
"B&.	c #EDAF4C",
"C&.	c #E0AD53",
"D&.	c #BBA04F",
"E&.	c #818E49",
"F&.	c #648841",
"G&.	c #607E3E",
"H&.	c #586F3A",
"I&.	c #525D34",
"J&.	c #4D4C2E",
"K&.	c #49442A",
"L&.	c #43462B",
"M&.	c #3F4B2C",
"N&.	c #3D4F2D",
"O&.	c #3B512F",
"P&.	c #3A5230",
"Q&.	c #3A512F",
"R&.	c #394D2D",
"S&.	c #3A3423",
"T&.	c #413023",
"U&.	c #543427",
"V&.	c #6D3C2D",
"W&.	c #844B37",
"X&.	c #955940",
"Y&.	c #95593F",
"Z&.	c #874D3A",
"`&.	c #774334",
" *.	c #623B2D",
".*.	c #503628",
"+*.	c #433726",
"@*.	c #3D3C27",
"#*.	c #3F5631",
"$*.	c #476136",
"%*.	c #496538",
"&*.	c #4A6739",
"**.	c #4A6738",
"=*.	c #4A6437",
"-*.	c #475A33",
";*.	c #444D2E",
">*.	c #45422B",
",*.	c #4F3F2B",
"'*.	c #5F3F2C",
")*.	c #734631",
"!*.	c #854F37",
"~*.	c #90563C",
"{*.	c #965A3F",
"]*.	c #673A2B",
"^*.	c #532D26",
"/*.	c #4A3226",
"(*.	c #47442B",
"_*.	c #465731",
":*.	c #4A6338",
"<*.	c #5D7D40",
"[*.	c #6F8A45",
"}*.	c #888E43",
"|*.	c #9E9341",
"1*.	c #CFA141",
"2*.	c #FBB54A",
"3*.	c #F4AD45",
"4*.	c #FDB248",
"5*.	c #E5AF56",
"6*.	c #A4984E",
"7*.	c #6E8A46",
"8*.	c #B29943",
"9*.	c #E2A741",
"0*.	c #DAAB53",
"a*.	c #91924B",
"b*.	c #688844",
"c*.	c #698942",
"d*.	c #698943",
"e*.	c #698946",
"f*.	c #678846",
"g*.	c #608340",
"h*.	c #57763E",
"i*.	c #4E6538",
"j*.	c #495431",
"k*.	c #404F2E",
"l*.	c #3D5732",
"m*.	c #3F5B33",
"n*.	c #3E5933",
"o*.	c #3D5430",
"p*.	c #3A3825",
"q*.	c #403425",
"r*.	c #533628",
"s*.	c #6B3A2D",
"t*.	c #834836",
"u*.	c #8F533B",
"v*.	c #8A523B",
"w*.	c #7A4636",
"x*.	c #6A4030",
"y*.	c #573D2A",
"z*.	c #4A3C27",
"A*.	c #3D462B",
"B*.	c #3C4F2F",
"C*.	c #456136",
"D*.	c #4C6939",
"E*.	c #54733E",
"F*.	c #445230",
"G*.	c #4C4A2E",
"H*.	c #59472D",
"I*.	c #67472E",
"J*.	c #774931",
"K*.	c #844D36",
"L*.	c #8E523B",
"M*.	c #895139",
"N*.	c #643A2B",
"O*.	c #502B25",
"P*.	c #4A3326",
"Q*.	c #4B4A2C",
"R*.	c #4C5F34",
"S*.	c #506D3A",
"T*.	c #4C6A3A",
"U*.	c #618140",
"V*.	c #688841",
"W*.	c #678844",
"X*.	c #B29941",
"Y*.	c #FAB54A",
"Z*.	c #F8B14B",
"`*.	c #F0B55A",
" =.	c #D2AC58",
".=.	c #BEA554",
"+=.	c #D2A74C",
"@=.	c #E6A942",
"#=.	c #E7AD4C",
"$=.	c #CCA046",
"%=.	c #BB9A44",
"&=.	c #BE9E48",
"*=.	c #BEA04C",
"==.	c #BEA14E",
"-=.	c #BFA14F",
";=.	c #B89F4F",
">=.	c #608441",
",=.	c #4F6A3C",
"'=.	c #4A5D36",
")=.	c #475731",
"!=.	c #435932",
"~=.	c #415B34",
"{=.	c #436136",
"]=.	c #423826",
"^=.	c #533929",
"/=.	c #693C2D",
"(=.	c #804834",
"_=.	c #8C533A",
":=.	c #8E543B",
"<=.	c #874E38",
"[=.	c #7D4834",
"}=.	c #724432",
"|=.	c #65402F",
"1=.	c #573C2B",
"2=.	c #4B3C28",
"3=.	c #454129",
"4=.	c #3E502E",
"5=.	c #3F5732",
"6=.	c #415D34",
"7=.	c #466337",
"8=.	c #4F6E3C",
"9=.	c #54753F",
"0=.	c #5C7B41",
"a=.	c #4B6A39",
"b=.	c #465E34",
"c=.	c #485531",
"d=.	c #504E2E",
"e=.	c #59452C",
"f=.	c #64412C",
"g=.	c #734430",
"h=.	c #834A36",
"i=.	c #8C4F39",
"j=.	c #8B5039",
"k=.	c #874E37",
"l=.	c #7D4933",
"m=.	c #683D2C",
"n=.	c #532F26",
"o=.	c #4D3827",
"p=.	c #4E4F2E",
"q=.	c #597B41",
"r=.	c #608040",
"s=.	c #868D41",
"t=.	c #BB9941",
"u=.	c #9A9144",
"v=.	c #6C8946",
"w=.	c #BF9D41",
"x=.	c #D7A441",
"y=.	c #E9AA41",
"z=.	c #F8AE43",
"A=.	c #FDBC5E",
"B=.	c #F9BE62",
"C=.	c #F5BE62",
"D=.	c #EEB353",
"E=.	c #FBB343",
"F=.	c #F5B143",
"G=.	c #F6AD44",
"H=.	c #F6B14E",
"I=.	c #F6B657",
"J=.	c #F1B457",
"K=.	c #BFA150",
"L=.	c #6F8A48",
"M=.	c #52703E",
"N=.	c #4C683B",
"O=.	c #4A6538",
"P=.	c #496638",
"Q=.	c #486639",
"R=.	c #496739",
"S=.	c #43532F",
"T=.	c #404428",
"U=.	c #453E27",
"V=.	c #533E29",
"W=.	c #7C4A33",
"X=.	c #885339",
"Y=.	c #895339",
"Z=.	c #804C34",
"`=.	c #603E2B",
" -.	c #533C29",
".-.	c #4A3B28",
"+-.	c #454029",
"@-.	c #424B2D",
"#-.	c #41542F",
"$-.	c #425B32",
"%-.	c #446134",
"&-.	c #526E3C",
"*-.	c #56753F",
"=-.	c #5B7E42",
"--.	c #53743E",
";-.	c #4D6939",
">-.	c #4A6035",
",-.	c #4B5731",
"'-.	c #50472C",
")-.	c #583D29",
"!-.	c #673E2B",
"~-.	c #794631",
"{-.	c #844C36",
"]-.	c #854D36",
"^-.	c #7E4A34",
"/-.	c #6D422E",
"(-.	c #583626",
"_-.	c #513F28",
":-.	c #515631",
"<-.	c #516D3B",
"[-.	c #597C41",
"}-.	c #608344",
"|-.	c #618342",
"1-.	c #DCA441",
"2-.	c #BC9B43",
"3-.	c #718A45",
"4-.	c #969141",
"5-.	c #D6A241",
"6-.	c #F4B04B",
"7-.	c #F1B14B",
"8-.	c #FCB343",
"9-.	c #FDB544",
"0-.	c #FEB748",
"a-.	c #FEB952",
"b-.	c #FAB858",
"c-.	c #F4B557",
"d-.	c #E9B155",
"e-.	c #BA9F4F",
"f-.	c #6E8A48",
"g-.	c #52723E",
"h-.	c #4F703C",
"i-.	c #4B5F34",
"j-.	c #4B4C2D",
"k-.	c #56492D",
"l-.	c #65462D",
"m-.	c #764931",
"n-.	c #804F35",
"o-.	c #66422C",
"p-.	c #563E29",
"q-.	c #4C3C28",
"r-.	c #474029",
"s-.	c #444B2D",
"t-.	c #435732",
"u-.	c #445F34",
"v-.	c #466536",
"w-.	c #496938",
"x-.	c #4E6D3B",
"y-.	c #55713D",
"z-.	c #5A7B41",
"A-.	c #4F6A38",
"B-.	c #4D6235",
"C-.	c #4E532F",
"D-.	c #54452B",
"E-.	c #60412B",
"F-.	c #70472F",
"G-.	c #7A4C33",
"H-.	c #7C4C33",
"I-.	c #7E4C34",
"J-.	c #7B4B33",
"K-.	c #6D462E",
"L-.	c #5A4229",
"M-.	c #544E2D",
"N-.	c #546235",
"O-.	c #5D8143",
"P-.	c #648646",
"Q-.	c #7D8D43",
"R-.	c #8B9145",
"S-.	c #BB9E46",
"T-.	c #ECAE45",
"U-.	c #FBB546",
"V-.	c #D5A648",
"W-.	c #98944A",
"X-.	c #8C9149",
"Y-.	c #8D9048",
"Z-.	c #8F934D",
"`-.	c #87914B",
" ;.	c #768C46",
".;.	c #CFA044",
"+;.	c #FEB245",
"@;.	c #FAB84E",
"#;.	c #FBB953",
"$;.	c #FDB956",
"%;.	c #ECB256",
"&;.	c #AA9A4D",
"*;.	c #91934A",
"=;.	c #698947",
"-;.	c #5D7F40",
";;.	c #55783F",
">;.	c #56773F",
",;.	c #536D3B",
"';.	c #516437",
");.	c #535E35",
"!;.	c #5A5832",
"~;.	c #63502F",
"{;.	c #6D492F",
"];.	c #734830",
"^;.	c #724830",
"/;.	c #6C452F",
"(;.	c #5F432D",
"_;.	c #54422B",
":;.	c #4C462B",
"<;.	c #494F2D",
"[;.	c #485B32",
"};.	c #50713D",
"|;.	c #5A7941",
"1;.	c #5F7F41",
"2;.	c #536E3A",
"3;.	c #536436",
"4;.	c #565A32",
"5;.	c #5D522F",
"6;.	c #674E2F",
"7;.	c #6D4D31",
"8;.	c #704D31",
"9;.	c #734C31",
"0;.	c #724C31",
"a;.	c #576134",
"b;.	c #596F3A",
"c;.	c #5C7B40",
"d;.	c #608444",
"e;.	c #738B42",
"f;.	c #AE9B4A",
"g;.	c #D4A951",
"h;.	c #E4AF52",
"i;.	c #F2B551",
"j;.	c #E9B252",
"k;.	c #DBAB53",
"l;.	c #D7A952",
"m;.	c #D8A850",
"n;.	c #D8A74F",
"o;.	c #D8AB55",
"p;.	c #C8AA57",
"q;.	c #9A984C",
"r;.	c #828E43",
"s;.	c #D0A44B",
"t;.	c #F4AE45",
"u;.	c #FDB349",
"v;.	c #DFAD54",
"w;.	c #5B763E",
"x;.	c #5C713C",
"y;.	c #5E6A39",
"z;.	c #605E34",
"A;.	c #634E2F",
"B;.	c #64432C",
"C;.	c #60442C",
"D;.	c #5A462D",
"E;.	c #524B2E",
"F;.	c #4C5530",
"G;.	c #4B6134",
"H;.	c #4F6B39",
"I;.	c #587841",
"J;.	c #5B7B42",
"K;.	c #628442",
"L;.	c #5C7C41",
"M;.	c #5B793F",
"N;.	c #5A763D",
"O;.	c #59713B",
"P;.	c #5A6737",
"Q;.	c #5F5A33",
"R;.	c #635030",
"S;.	c #644E2F",
"T;.	c #654D2F",
"U;.	c #644F2F",
"V;.	c #5F5832",
"W;.	c #5A6938",
"X;.	c #5A743C",
"Y;.	c #618042",
"Z;.	c #648545",
"`;.	c #7B8D43",
" >.	c #CCA64F",
".>.	c #EFBB60",
"+>.	c #B2A150",
"@>.	c #D0A750",
"#>.	c #F5B958",
"$>.	c #E6B156",
"%>.	c #D8AA54",
"&>.	c #B99F4F",
"*>.	c #879049",
"=>.	c #628443",
"->.	c #628240",
";>.	c #617E3E",
">>.	c #5F763D",
",>.	c #5D6A3A",
"'>.	c #595833",
")>.	c #564A2E",
"!>.	c #55462D",
"~>.	c #55492D",
"{>.	c #524D2F",
"]>.	c #4E5533",
"^>.	c #4C6137",
"/>.	c #5E8043",
"(>.	c #5F8144",
"_>.	c #5B6538",
":>.	c #5A5532",
"<>.	c #5A5230",
"[>.	c #5A5130",
"}>.	c #5A5531",
"|>.	c #5C6636",
"1>.	c #5D783D",
"2>.	c #648544",
"3>.	c #878E41",
"4>.	c #C19E42",
"5>.	c #E2AB4A",
"6>.	c #F3BE60",
"7>.	c #D0AB50",
"8>.	c #908D41",
"9>.	c #718941",
"0>.	c #F6B758",
"a>.	c #CAA552",
"b>.	c #8D914B",
"c>.	c #7E8E49",
"d>.	c #6E8A47",
"e>.	c #628645",
"f>.	c #648540",
"g>.	c #607F3F",
"h>.	c #5A733D",
"i>.	c #536237",
"j>.	c #4D5531",
"k>.	c #4C522F",
"l>.	c #4D5631",
"m>.	c #4D5B33",
"n>.	c #4E6237",
"o>.	c #516D3C",
"p>.	c #567740",
"q>.	c #5D7F43",
"r>.	c #5F7E42",
"s>.	c #596F3B",
"t>.	c #546034",
"u>.	c #545D33",
"v>.	c #556134",
"w>.	c #5B7139",
"x>.	c #60803F",
"y>.	c #638643",
"z>.	c #DDA641",
"A>.	c #F5C161",
"B>.	c #E9B651",
"C>.	c #B29341",
"D>.	c #7A8941",
"E>.	c #808E44",
"F>.	c #CFA750",
"G>.	c #F6B555",
"H>.	c #BB9F4D",
"I>.	c #688944",
"J>.	c #6A8945",
"K>.	c #758B42",
"L>.	c #828D42",
"M>.	c #828D44",
"N>.	c #828D45",
"O>.	c #838F45",
"P>.	c #838F46",
"Q>.	c #839148",
"R>.	c #84914A",
"S>.	c #849149",
"T>.	c #819048",
"U>.	c #758C47",
"V>.	c #5B7B3F",
"W>.	c #4F6736",
"X>.	c #4E6434",
"Y>.	c #4E6536",
"Z>.	c #4E6838",
"`>.	c #516E3B",
" ,.	c #5B773E",
".,.	c #546B39",
"+,.	c #536938",
"@,.	c #556C39",
"#,.	c #5C793C",
"$,.	c #638440",
"%,.	c #6B8947",
"&,.	c #798D49",
"*,.	c #82904A",
"=,.	c #82904B",
"-,.	c #818F4A",
";,.	c #7C8C41",
">,.	c #BC9C41",
",,.	c #F6C163",
"',.	c #F3BF5D",
"),.	c #F1B84E",
"!,.	c #CC9A41",
"~,.	c #978F41",
"{,.	c #989444",
"],.	c #D8AA50",
"^,.	c #F2AC42",
"/,.	c #FAB043",
"(,.	c #BD9E47",
"_,.	c #7E8C45",
":,.	c #A89642",
"<,.	c #C49E41",
"[,.	c #CCA041",
"},.	c #D0A242",
"|,.	c #D0A243",
"1,.	c #D1A243",
"2,.	c #D1A346",
"3,.	c #D1A64D",
"4,.	c #D1A952",
"5,.	c #D3A850",
"6,.	c #C9A34E",
"7,.	c #A2974A",
"8,.	c #688946",
"9,.	c #5F8140",
"0,.	c #5B7C3E",
"a,.	c #5A793C",
"b,.	c #58773B",
"c,.	c #56753B",
"d,.	c #57783D",
"e,.	c #5B7C3F",
"f,.	c #58743E",
"g,.	c #59763E",
"h,.	c #5E7E3F",
"i,.	c #638540",
"j,.	c #B3A153",
"k,.	c #D1AE5A",
"l,.	c #CEAB56",
"m,.	c #C7A34C",
"n,.	c #C09D41",
"o,.	c #D9A441",
"p,.	c #F9BD5D",
"q,.	c #F1B756",
"r,.	c #EDB44F",
"s,.	c #EDB148",
"t,.	c #E0A341",
"u,.	c #D3A041",
"v,.	c #D7A644",
"w,.	c #EDB150",
"x,.	c #8C8F44",
"y,.	c #C79E42",
"z,.	c #BEA04F",
"A,.	c #6A8946",
"B,.	c #618440",
"C,.	c #618543",
"D,.	c #638741",
"E,.	c #90944C",
"F,.	c #D8B15B",
"G,.	c #F1B451",
"H,.	c #AE9841",
"I,.	c #AA9744",
"J,.	c #AB9949",
"K,.	c #AB9B4E",
"L,.	c #AB9D50",
"M,.	c #AA9E52",
"N,.	c #BCA14E",
"O,.	c #D9A646",
"P,.	c #FABD5F",
"Q,.	c #D9AF59",
"R,.	c #B1A052",
"S,.	c #99974E",
"T,.	c #7B8E4A",
"U,.	c #758B45",
"V,.	c #989649",
"W,.	c #AE9F4C",
"X,.	c #AE9E4B",
"Y,.	c #AD9C4A",
"Z,.	c #AD9C4B",
"`,.	c #AC9C4C",
" '.	c #AC9C4F",
".'.	c #AA9D51",
"+'.	c #A6994A",
"@'.	c #A19442",
"#'.	c #A49541",
"$'.	c #AA9741",
"%'.	c #8F9041",
"&'.	c #95964D",
"*'.	c #AB9E51",
"='.	c #AC9F52",
"-'.	c #AB9F50",
";'.	c #A79B49",
">'.	c #A39841",
",'.	c #A69941",
"''.	c #AB9B41",
")'.	c #AD9B41",
"!'.	c #AD9941",
"~'.	c #AC9641",
"{'.	c #AC9744",
"]'.	c #AB994A",
"^'.	c #AB9A4D",
"/'.	c #A8994C",
"('.	c #E8B75E",
"_'.	c #F5B552",
":'.	c #EAAA45",
"<'.	c #EBAD4E",
"['.	c #EBB257",
"}'.	c #EBB65D",
"|'.	c #EAB960",
"1'.	c #E9B559",
"2'.	c #E9AE4B",
"3'.	c #EDBA60",
"4'.	c #CEAC59",
"5'.	c #92954D",
"6'.	c #848F48",
"7'.	c #C4A451",
"8'.	c #ECB456",
"9'.	c #ECB356",
"0'.	c #EBB355",
"a'.	c #EBB055",
"b'.	c #EBB359",
"c'.	c #EBB75E",
"d'.	c #E9B85E",
"e'.	c #DEAD51",
"f'.	c #D6A442",
"g'.	c #E5A941",
"h'.	c #E7AA41",
"i'.	c #B69A41",
"j'.	c #81904A",
"k'.	c #C1A757",
"l'.	c #EBBA60",
"m'.	c #E8B75D",
"n'.	c #DEAE50",
"o'.	c #D7A641",
"p'.	c #DCA741",
"q'.	c #E6AB41",
"r'.	c #EBAC41",
"s'.	c #EBA841",
"t'.	c #EBAA46",
"u'.	c #EBAF50",
"v'.	c #EAB055",
"w'.	c #EFB559",
"x'.	c #F8BE60",
"y'.	c #FCBE5E",
"z'.	c #FDBD5F",
"A'.	c #A69C53",
"B'.	c #6E8A43",
"C'.	c #738B46",
"D'.	c #9C964D",
"E'.	c #DEAC53",
"F'.	c #D2A241",
"G'.	c #728A42",
"H'.	c #738B47",
"I'.	c #98964D",
"J'.	c #DCB25B",
"K'.	c #FBBE60",
"L'.	c #F9C064",
"M'.	c #F6BD60",
"N'.	c #EFB250",
"O'.	c #C99F41",
"P'.	c #E7A841",
"Q'.	c #FFBB5C",
"R'.	c #EDB55A",
"S'.	c #D1AC58",
"T'.	c #C0A756",
"U'.	c #C3A756",
"V'.	c #C5A857",
"W'.	c #C9AA58",
"X'.	c #A29B4D",
"Y'.	c #9C9648",
"Z'.	c #BEA150",
"`'.	c #EDB04F",
" ).	c #E8AA41",
".).	c #8F9042",
"+).	c #9A9549",
"@).	c #BDA04E",
"#).	c #D6AA54",
"$).	c #ECB55A",
"%).	c #F6B658",
"&).	c #DBAE57",
"*).	c #C2A756",
"=).	c #C8A753",
"-).	c #D9A84A",
";).	c #DAA541",
">).	c #949141",
",).	c #858D41",
"').	c #DDAC54",
")).	c #98954B",
"!).	c #A79C51",
"~).	c #E4B65E",
"{).	c #F8C063",
"]).	c #C3A855",
"^).	c #BA9F4C",
"/).	c #F3B557",
"().	c #E7A941",
"_).	c #A89641",
":).	c #B79E4C",
"<).	c #F1B456",
"[).	c #EEB356",
"}).	c #B49D4E",
"|).	c #848E47",
"1).	c #C09D44",
"2).	c #8C8F41",
"3).	c #CD9E41",
"4).	c #D9AB53",
"5).	c #90924A",
"6).	c #A49B50",
"7).	c #E7B75F",
"8).	c #C9AA56",
"9).	c #748C43",
"0).	c #BCA04C",
"a).	c #F5B657",
"b).	c #AD9B4D",
"c).	c #7B8B45",
"d).	c #BB9A43",
"      .  +  @  #  $  %  &  *  *  *  *  *  =  -  ;  >  +  ,  '  )  !  ~  *  *  *  {  ]  ^  /  (  (  (  (  _  :  <  [  *  *  *  *  *  *  }  |     1  2  3  4  *  *  *  5  6                    7  8  (  (  (  @  9  $  %  &  *  *  *  *  *  *  *  *  *  *  =  0  a  .  +  b  c  d  e  4  *  *  *  5  6           f  >  (  (  (  ,  g  )  !  h  *  *  *  *  *  *  i  a           j  k  l  m  n  !  ~  *  *  *  }  o  p  q  r  s  s  s  t  u  v  w  x  y  z  A  B  C                          D  +  E  F  $  G  H  *  *  *  *  *  =  0  I  .  +  (  J  d  K  L  *  M  N                 f  >  (  (  (  ,  O  P  Q  R  *  *  *  S  T     U  +  (  (  (  V  W  X  Y  Z  `   .          .. /  (  (  (  E  F  $  G  H  *  *  *  *  *  =  +. C           .  +  @. #. $  $. H  *  *  *  *  *  *  *  *  *  ",
"      .  +  %. &. n  *. H  *  *  *  *  *  =  -  ;  >  +  ,  '  )  !  ~  *  *  *  {  ]  ^  /  (  (  (  (  _  :  <  [  *  *  *  *  *  *  }  |     1  2  3  4  *  *  *  5  6                    7  8  (  (  (  @  9  $  %  &  *  *  *  *  =  =  *  *  *  *  =  0  a  .  +  b  c  d  Q  =. A  =  =  -. ;.          f  >  (  (  (  ,  >. )  !  h  *  *  *  *  *  =  -  a           j  k  l  m  n  !  ~  *  *  =  ,. '. ). !. ~. s  {. {. ]. u  v  w  x  y  ^. /. B  C                          D  +  E  F  $  G  H  *  *  *  *  *  =  0  a  D  k  +  c  d  K  L  *  M  (.                f  >  (  (  (  ,  O  P  Q  R  *  *  =  5  ]     >  +  (  (  +  _. :. <. [. }. |.  .          .. /  (  (  (  E  F  $  G  H  *  *  *  *  =  1. 2. C           .  +  @. #. $  $. H  *  *  *  *  *  *  *  *  *  ",
"      .  +  v  _  m  3. 4. 5. H  *  *  *  =  -  ;  >  +  ,  '  )  !  ~  *  *  *  {  ]  ^  /  (  (  (  (  _  :  <  [  *  *  *  *  *  *  }  |     1  2  3  4  *  *  *  5  6                    7  8  (  (  (  @  9  $  %  &  *  *  *  6. -  7. }  *  *  *  =  0  a  .  +  b  c  d  8. 9. +. +. 0. a. b.          f  >  (  (  c. d. e. )  !  h  *  *  *  1. f. +. o  g.          j  k  l  m  n  h. i. j. k. l. m. n. o. p. q. r. s. t. u. u  v  w  x  v. w. x. x. +. 6  y. o  (. C           D  +  E  F  $  G  H  *  *  *  *  *  =  -  g. 7  .  .  z. 2  3  A. *  k. 7. ;. b.          f  >  (  (  (  ,  O  P  e  B. *  k. 7. 2. C.    .  +  ,  D. c  E. F. G. H. -  y. N           f  j  >  8  +  E  F  $  G  H  *  *  *  -. I. 2. |  C           .  +  @. #. $  $. H  *  *  *  *  *  *  *  *  *  ",
"      .  +  (  ,  J. O  K. e  4  *  *  *  =  L. ;  >  +  ,  '  )  !  ~  *  *  *  {  ]  ^  /  (  (  (  (  _  :  <  [  *  *  *  *  *  *  }  |     1  2  3  4  *  *  *  5  6                    7  8  (  (  (  %. 9  $  $. &  *  *  *  I. M. a  i  *  *  *  =  0  a  .  +  b  c  d  N. O. C  C  C  C              f  >  (  P. Q. R. S. T. U. H  *  *  V. 6. 6  C  C           W. X. Y. l  Z. n  `.  + A  .+ ++ @+ #+ $+ %+ &+ *+ =+ -+ ;+ >+ J. ,+ '+ )+ !+ g. +. -. 5  ~+ `  {+ C           D  +  E  F  $  G  ]+ *  *  *  *  *  =  0. g. ^  f  ^  ^+ 2  3  4  *  =  =  6. ;.          f  >  (  (  (  +  c  P  e  B. *  M  (. C  C     D  Y. /+ '  d  (+ _+ :+ <+ g. C                    f  .  +  [+ }+ $  G  H  *  *  *  |+ |  C  C              .  +  @. #. $  $. H  *  *  *  *  *  *  *  *  *  ",
"      .  +  (  (  (  1+ 2+ 3+ 4+ }  }  5+ |+ 2. ;  .  +  ,  '  )  !  ~  *  *  *  {  ]  ^  /  (  (  (  (  _  :  <  [  *  *  *  *  *  *  }  |     1  2  3  4  *  *  *  5  6                    7  8  (  v  @. 6+ 7+ Q  8+ 9+ 5+ 1. *  i  a  ;  6  }  -. =  =  0  a  .  +  b  c  d  N. 0+ ++ ++ g. ++ C           f  >  (  P. a+ R. b+ c+ d+ e+ f+ g+ h+ 5+ 6  g. C     i+ j+ k+ l+ m+ n+ o+ p+ q+ r+ s+ t+ u+ v+ w+ x+ y+ z+ A+ B+ C+ D+ E+ F+ G+ H+ I+ J+ C  2. 1. K+ L+ M+ N+ O+ P+ Q+    .  +  E  F  $  R+ ]+ j. 5  5+ }  5+ |+ ;. C        ;  S+ T+ 3  4  *  1. -. f. U+          f  >  (  ,  V+ W+ X+ Y+ Z+  + *  l. ++          j  /  `+  @ $  y  r+ A  .@ M. a  C              +@ 7  @@ #@ $@ #  $  G  H  *  *  *  f. M.                   .  +  @. #. $  $. H  *  *  *  *  *  *  *  *  *  ",
"      .  +  (  (  (  %@ &@ *@ =@ U+ o  U+ |  b. C  -@ k  ,  '  )  !  ~  *  *  *  {  ]  ^  /  (  (  (  (  _  :  <  [  *  *  *  *  *  *  }  |     1  2  3  4  *  *  *  5  6                    7  8  b  $@ ;@ >@ ,@ h  '@ )@ 6  |+ *  i  a  C  (. |  0. -. =  0  a  .  +  b  c  !@ 8. ~@ x. x. x. {+ (.          .. {@ (  (  P. ]@ ^@ /@ (@ _@ :@ <@ [@ }@ |@ B   . C  1@ 2@ 3@ 4@ 5@ 6@ 7@ 8@ [  &  9@ 0@ a@ b@ c@ d@ e@ f@ g@ h@ i@ j@ k@ l@ m@ n@ o@ p@ C  y. }@ q@ r@ s@ t@ u@ v@ w@ W. /  +  v  x@ y@ %  H  /. M  U+ o  U+ |  a           C  S+ 2  3  A. *  z@ a. M. a           f  >  (  @. >. A@ B@ =. ~  9@ *  7. g.          f  j  C@ D@ $  E@ F@ j. 5+ f. +. (.          +@ .  /  G@ }+ H@ I@ $  G  H  *  *  *  f. M.                   .  +  @. J@ $  $. H  *  *  *  *  *  *  *  *  *  ",
"      .  +  (  (  (  >  +@ C                       j  k  ,  '  )  !  ~  *  *  *  {  ]  ^  /  (  (  (  (  _  :  <  [  *  *  *  *  *  *  }  |     1  2  3  4  *  *  *  5  6                    7  8  ,  g  P  K@ L@ j. .@ ++ a  i  *  i  a           |  }  =  0  a  .  +  b  c  M@ N@ O@ P@ P@ Q@ R@ S@ p  p  T@ U@ V@ W@ P. P. X@ Y@ Z@ `@ `@  # .# +# @# P@ P@ ## $# j+ %# &# `@ `@ *# =# -# ;# H  ># ,# '# x+ )# !# ~# {# ]# ^# /# (# _# :# <# [# }# p@ T@ )@ |# 1# 2# `@ `@ `@ 3# 4# 5# 6# ,  7# 8# 9# 0# a# b# c#                            1  2  K  L  *  M  N                 f  >  (  D. H@ X  ;# Z  *  *  *  -  g.             f  p@ d# $  E@ F@ *  *  *  }  |           .. /  (  e# I@ $  $  $  G  H  *  *  *  f. M.                   D  +  @. f# $  $. H  *  *  *  *  *  *  *  *  *  ",
"      .  +  (  (  (  g# h# O. i#                   j  k  ,  '  )  !  ~  *  *  *  {  ]  ^  /  (  (  (  (  _  :  <  [  *  *  *  *  *  *  }  |     1  2  3  4  *  *  *  5  6                    7  8  ,  O  P  e  B. *  z@ +. 6  +. -  ;. g. C  M. ;. i  -. =  0  a  .  +  (  j# k# l# m# n# o# p# q# r# s# t# s# t# u# v# w# x# y# z# A# B# C# D# E# F# G# H# p# I# J# K# L# M# N# O# P# Q# R# S# T# U# V# W# X# Y# Z# `#  $ .$ +$ @$ #$ $$ %$ &$ *$ =$ -$ s# ;$ >$ ,$ '$ )$ !$ ~$ {$ ]$ ^$ /$ w# ($ _$ :$ <$ [$ }$ |$ 1$ 2$ 3$ 4$ 5$ ;  .. D  -@ 6$ 2  3  A. *  k. 0. U+ (.          f  >  (  D. H@ X  ;# @# *  *  *  -  g.          +@ D  7$ D@ $  E@ F@ *  *  *  |+ |           .. /  (  e# I@ X  !  $. 4  &  *  *  *  f. M.                   8$ 9$ ,+ 0$ %  4  &  *  *  *  *  *  *  *  *  *  ",
"      .  +  (  (  (  a$ :  b$ c$                   j  k  ,  '  )  !  ~  *  *  *  {  ]  ^  /  (  (  (  (  _  :  <  [  *  *  *  *  *  *  }  |     1  2  3  4  *  *  *  5  6                    7  8  ,  O  P  Q  R  *  A  5  }  6  g. ;     g. +. 5  1. =  =  0  a  .  +  (  d$ e$ f$ g$ h$ i$ i$ j$ k$ l$ m$ m$ m$ n$ o$ p$ q$ r$ s$ t$ u$ v$ w$ x$ y$ z$ j$ A$ B$ C$ D$ E$ F$ G$ H$ I$ J$ K$ L$ M$ N$ O$ P$ Q$ R$ S$  $ T$ U$ U$ U$ +$ V$ W$ X$ Y$ Z$ `$  % .% +% @% #% $% %% &% *% =% -% ;% >% ,% '% )% !% ~% {% ]% ^% /% (% _% :% a  -@ k  Y. O  d  3  4  *  A  1. }  ;.          f  <% (  D. H@ X  ;# @# *  *  *  -  g.          j  8  E  }+ x  E@ F@ *  *  *  |+ |           .. /  (  e# I@ <  [  &  Z  *  *  *  *  f. M.                   [% }% |% 1% &  @# *  *  *  *  *  *  *  *  *  *  ",
"      .  +  (  (  (  2% M@ 3% 4% a  ++             j  k  ,  '  )  !  ~  *  *  *  {  ]  ^  /  (  (  (  (  _  :  <  [  *  *  *  *  *  *  }  |     1  2  3  4  *  *  *  5  +. a  g. C           7  /  5% 6% P  e  R  *  1. 5  f. o     C  g. M. 0. -. 5  =  =  0  a  .  +  (  7% 8% 9% 0% a% b% c% d% d% d% d% a% a% e% f% g% h% i% j% k% l% l% m% n% o% {. p% q% r% s% t% u% v% w% x% y% z% c% A% A% B% C% D% E% F% G% H% I% I% I% I% J% K% L% M% _# N% O% P% Q% R% S% T% U% V% W% X% Y% Z% `% q% f% e% a% b% A%  & .& +& @& #& $& %& a  .  +  (  J  d  3  4  *  1. 5  }  2. a  g. ;  +@ >  (  D. H@ X  ;# @# *  *  *  -  g.          -@ Y. v  w  x  E@ F@ *  *  *  5+ 6  a  g. ;  7  && (  e# I@ 3  4  *  *  *  *  *  *  }  ;. a  ;              S+ *& 3  4  *  *  *  *  *  *  *  *  *  *  *  *  ",
"      .  +  (  (  (  2% M@ =& -& i  y. ++          j  k  ,  '  )  !  ~  *  *  *  {  ]  ^  /  (  (  (  (  _  :  <  [  *  *  *  *  *  *  }  |     1  2  3  4  *  *  *  =  }  i  6  g.          f  j  ;& X+ )  e  B. *  z@ a. |  a     M. +. i  +. ;. -  -. =  L. g. .  +  ,  >& ,& '& )& !& ~& {& {& {& {& {& ]& ^& /& (& _& :& <& [& }& |& 1& 2& 3& 4& 5& 6& 7& 8& 9& 0& a& b& c& d& 3& e& f& g& h& i& j& k& l& m& T$ I% n& o& o& o& n& U$ p& q& r& s& t& {& u& v& w& x& y& z& A& B& C& D& E& F& G& h& {& ]& H& I& J& K& L& M& N& O& g. .  +  (  2% P& 3  A. *  k. x. ;. +. i  +. M. +@ /  (  D. H@ X  ;# @# *  *  *  -  g.          -@ Y. v  Q& x  E@ F@ *  *  *  5  |+ -  R& a  j  k  (  e# I@ 3  5. *  *  *  *  *  *  5  |+ 0. o  C           1  2  3  4  *  *  *  *  *  *  *  *  *  *  *  *  ",
"      .  +  (  (  (  2% M@ K  L  *  M  N           j  k  ,  '  )  !  ~  *  *  *  {  ]  ^  /  (  (  (  (  _  :  <  [  *  *  *  *  *  *  }  |     1  2  3  4  *  *  *  *  *  *  I. b.                T@ S+ )  e  B. *  .@ ++          ;. -. 5  6     |  }  =  0  a  .  +  S& T& U& V& W& X& Y& Z& `& `& `& `& `& Y&  * .* +* @* #* $% $* %* &* ** =* -* ;* >* ,* '* )* !* ~* {* ]* ^* /* (* ,* ,* _* Q$ :* <* [* }* J% o& |* |* |* |* 1* I% U$ +$ 2* 3* 4* 5* 6* 7* x& 8* 9* 9* 0* $* a* b* c* d* e* f* g* `& `& g* h* ,* i* j* k* 0. g. .  +  (  l* P& K  L  *  M  N  g. -  *  6. U+ 7  8  (  D. H@ X  ;# @# *  *  *  -  g.          -@ Y. v  w  x  E@ F@ *  *  *  *  *  *  f. b. -@ Y. (  e# I@ 3  5. *  *  *  *  *  *  *  *  =  +. C           1  2  3  4  *  *  *  *  *  *  *  *  *  *  *  *  ",
"      .  +  (  (  (  2% M@ m* -& i  {+ ++          j  k  ,  '  )  Y+ H. i  i  I. T  U+    >  +  (  (  (  _  :  <  [  *  *  *  *  *  *  }  |     1  2  3  4  *  *  *  *  *  *  I. b.          f  j  n* o* )  e  B. *  z@ a. U+ ;. ;. 2. -  i  p* q* r* s* 9@ t* u* v* w* x* y* z* A* B* C* D* E* E* F* q& q& F* G* H* I* e& J* J* $% }& K* L* M* N* O* 8* P* Q* R* S* T* U* V* W* X* Y* Z* `* Q*  = .= += @= #= J% n& |* $= $= $= $= %= o& o& &= *= == -= ;= >= ** K* ,= '= ,= )= != ~= {= ]= ^= Y& /= E* (= (= .= _= := <= [= }= |= 1= 2= 3= 4= 5= 6= 7= 8= i  x. 6  ;. +. i  +. M. +@ /  (  D. H@ X  ;# @# *  *  *  -  g.          7  >  9= 0= ;@ a= b= c= d= I. i  i  i  2. a  j  k  (  e# I@ <  $. 4  F@ Z  *  *  *  *  *  =  +. C           1  2  3  4  *  *  *  *  *  *  *  *  *  *  *  *  ",
"      .  +  (  (  (  2% M@ 3% e= a  ++ C           j  k  ,  '  )  f= g= a  a  a  a  g.    .  +  (  (  (  _  :  <  [  *  *  *  *  *  *  }  o     1  2  3  4  *  *  *  *  *  *  f. b.          7  /  5% 6% P  e  R  *  1. -. 6. -. -. -  |  h= i= j= k= l= m= n= o= p= q= r= s= t= u= v= L% m& #= }* #= w= w= }* x= y= z= A= B= C= D= E= N* F= G= H= I= J= K= L= M= N= m& O= P= Q= R= S= H= T= U= V= N= W= T$ J% n& 1* $= X= X= X= X= X= %= Y= Z= `=  - .- +- @$ U* @- G= #- $- %- &- *- =- -- ;- >- ,- T$ T$ T$ #= '- )- !- ~- {- ]- ^- /- (- _- :- <- [- =@ a  y. }- |+ 2. a  a  g. +@ >  (  D. H@ X  ;# @# *  *  *  -  g.          f  +@ .. |- @. 0= 1- 2- 3- 4- a  a  a  g. ;  7  && (  2% M@ $  <  3  ;# H  *  *  *  *  *  =  +. C           1  2  3  4  *  *  *  *  *  *  *  *  *  *  *  *  ",
"      .  +  (  (  (  2% M@ 5- 6- g. C              j  k  ,  '  )  f= 7- g. g. g. g. ;     D  +  (  (  (  _  :  <  [  *  *  *  *  =  1. }- M.    1  2  3  4  *  *  *  *  =  1. -  (.          7  /  l  g  P  Q  R  *  *  *  *  S  5  i  M. 8- 9- 0- a- b- c- d- e- f- g- h- i- j- k- l- V= }* J% I% I% m- I% m- I% n- o- p- q- r- s- t- u- #- v- w- x- y- z- A- #= T$ #= B- C- D- E- v- F- w- G- H- I- J- I% n& 1* %= Y= K- K- K- K- K- K- L- M- N- N- O- P- Q- R- S- E- v- @- T- U- V- W- X- k& /# .$ J% J% J% U$ H- Y- Z- `-  ; .; h- h- g- +; @; #; $; %; &; *; =; 5  ;.          f  <% (  D. H@ X  ;# @# *  *  *  -  g.             f  .. /  (  -; W  n  ;; >; g. g. g. C  C  .. >  +  a$ :. P  )  $  G  ,; *  *  *  *  *  =  +. C           1  2  3  4  *  *  *  *  *  *  *  *  *  *  *  *  ",
"      .  +  (  (  (  2% M@ =& '; 0. o  ++          j  k  ,  '  )  ); !; 0. 0. -  +. C.    >  +  (  (  (  _  :  <  [  *  *  *  =  f. +. o  a     1  2  3  4  *  *  *  S  I. 2. |  g.          f  -@ ;& X+ )  Q  R  *  *  *  1. I. a. 2. +. i  ~; {; ]; ^; /; (; _; :; <; [; }; |; 1; 2; 3; w= U$ I% n& o& o& o& m- I- V= 4; 5; 6; =* 7; 8; G= F- 9; 0; a; b; c; d; e; d; b; A- f; x- S- P= w- g; A- J% I% o& |* $= X= h; i; P- P- j; j; j; k; l; m; n; o; p; q; g; r; r; S- s; t; u; v; w; x; y; N= H% J% J% U$ z; A; B; C; D; a* [; E; E; F; G; H; I; J; K; L; M; N; O; o           f  >  (  D. H@ X  ;# @# *  *  *  -  g.          7  D  /  k  (  V  P; n  Q; R; 0. -  0. |  ;  +@ j  D  S; a$ T; P; $  G  H  *  *  *  *  *  =  +. C           1  2  3  4  *  *  *  *  *  *  *  *  *  *  *  *  ",
"      .  +  (  (  (  2% M@ K  L  *  M  (. ^        j  8  ,  '  )  !  ~  *  *  *  5  ]  ^  /  (  (  (  (  _  :  <  [  *  *  *  =  +. C           1  2  3  4  *  *  *  5  6                       ^  T@ S+ )  Q  R  *  *  *  -. 6     ;. 6. *  *  j. U; V; W; X; Y; Z; E= `;  > .> +> @> R- #> U$ m- 1* |* |* |* 1* Q- .$ $> %> &> *> => Q= -> D- ;> >> ,> U$ J% J% J% J% J% J% '> )> !> D- w- R- #> I% n& |* %= X= Y= ~> {> O- ]> ]> ]> ]> l; ^> /> (> _> M- q; :> x- 9; <> :> A; [> }> |> 1> N= 2> U$ J% U$ w= A; 3> v- ,= 4> t- t- `; 5> U% 6> 7> 8> 9> 0> a> b> c> d> e>          f  >  (  D. H@ X  ;# @# *  *  *  -  g.          -@ Y. (  (  (  V  P; X  ;# @# *  *  =  0. g. ^        D  Y. V+ ;@ $  G  ]+ *  *  *  *  *  =  +. C           1  2  3  4  *  *  *  *  *  *  *  *  *  *  *  *  ",
"      .  +  (  (  (  2% M@ K  L  *  f> e> +@ 7  j  >  Y. ,  '  )  !  i. *  g> |+ i  ;.    >  +  (  (  (  _  :  <  [  *  *  *  =  +. C           1  2  3  4  *  *  *  1. -  o  b. C           f  7  n* o* )  Q  R  *  *  *  -. ;.    h= r* h> ^% A  i> j> k> l> Z;  > m> Y* n> o> F= p> r; q> #> r> I% 1* |* %= $= $= q; s> t> u> v> w> x> y> z> A> '> U$ I% n& n& n& n& m- m- r> B> C> z> D> f; E> I% m- 1* $= F> G> H> I> J> ^> n; n; K> n; L> /> L> M> N> q; )> :> 0; z- O> d; H% P> Q> P> I- U$ R> U$ b; S> C- w- v- T> n> U> V> m>  > m% W> X> Y> Z> P% A% `>  , ., +,          f  >  (  D. H@ X  ;# @# *  *  *  -  g.          7  >  8  +  (  V  P; X  @, Z  1. }  I. ;. C           D  +  [+ F  $  #, $, }- -. *  1. }  I. U+ C           1  2  3  4  *  *  *  *  *  *  *  *  *  *  *  *  ",
"      .  +  (  (  (  2% M@ K  L  *  z@ |  7  >  8  Y. b  ,  '  )  h.  + *  |@ |  b. g.    .  +  (  (  (  _. :  <  [  *  *  *  =  +. C           1  2  3  4  *  *  *  =  -. }  +. a           .. >  %, z. P  Q  R  *  *  *  -. ;.    &, *, =, -, /. ;, >, k> ,, $* ', )= o> T> G= ), Q= E- !, :> B> ,> m- 1* %= Y= h; ~, {, ], &= ^, /, (, _, :, z; d; J% n& |* |* |* 1* 1* o& <, c; [, :, }, [, d; J% I% o& $= |, ~> {> 1, n; /> 2, 2, /> (> (> L> ^> 3, 4, Q- A> 5, #> d; 6, o& o& o& o& m- 6, U$ d; w= S> g; D- 7, Q= G= G= G= 8, 9, 0, V% G$ a, f- b, c, d, e, f, g, h,          f  <% (  D. H@ X  ;# @# *  *  *  7. g.          f  .. j  /  (  V  P; X  @, Z  O; c# b. g.             D  +  E  F  $  i, j, |  I. *  }  6  (. g.             1  2  3  4  *  *  *  *  *  *  *  *  *  *  *  *  ",
"      .  +  (  (  (  2% M@ K  L  *  k. o  k, k  (  (  (  ,  '  )  h. l, /. c# C           -@ k  +  ,  ,  m, n, <  [  *  *  *  =  +. C           1  2  3  4  *  *  *  *  *  *  f. b.          7  8  ,  O  P  Q  R  *  *  *  -. ;.    o, p, q, r, /. s, t, u, v, w, 0, Y* o> x, Q= Q= Q= Q= v- w- :> >> U$ o& X= y, 4, M- M- N> 4, ~> h; F> |* o& m- I% I% o& |* |* |* |* |* |* |* o& o& o& o& n& I% J% I% o& F> L- M- 3, z, (> 2, A, A, 2, /> m; z, 1, {> L- B, H- A- d; I% o& |* |* |* |* o& I% U$ C, D, C- E, P= F, Q= Q= Q= Q= T> 0* G, H, I, J, K, L, M, N, O, P, Q, R, S, T, T@ f  >  (  D. H@ X  ;# @# *  *  *  i  a  C              f  >  (  V  P; X  Y  Z  `  U, C  C              -@ Y. E  ;@ $  V, W, g. +. 1. I. b.                   1  2  3  4  *  *  *  *  *  *  *  *  *  *  *  *  ",
"      .  +  (  (  (  2% M@ K  L  *  k. |  k, k  (  (  (  ,  '  )  X, Y, a.  . C           7  .  Z, 6+ '  #  d  <  [  *  *  *  =  +. C           1  2  3  4  *  *  *  *  *  *  I. b.          7  8  ,  O  P  `,  ' .' .' .' +' 3$ @' &, #' $' %' A  &' *' =' -' ;' >' 5> Y* T> Q= Q= Q= Q= F, s; ,' f; '' )' ~, M- 1, !' ^> ^> z, ~' {' ]' P- Z= |, |* o& o& |* |* |* |* |* $= K- L- ~> ~> ~> h; ^' J% I% o& K- /' (' ^> L> /> 2, 2, 2, 2, (> ^> (' M- Z= _' 6, :' <' J% n& 1* |* |* o& m- I% U$ [' S> }' |' P= -> Q= Q= Q= Q= Q= o> `; 1' 2' X> 3' 4' 5' 6' 7' 8' 9' 0' a' b' c' d' e' /  (  D. H@ X  ;# @# *  *  *  }  -  6  b.          f  >  (  V  P; X  @, Z  k* I. 2. |  C           7  .  7$ f' $  g' h' x. x. +. U+ g.                   1  2  3  4  *  *  *  *  *  *  *  *  *  *  *  *  ",
"      .  +  (  (  (  2% M@ K  L  *  k. |  k, k  (  (  (  ,  '  )  f= 7- C                    f  i' j' )  '+ $  k' [  *  *  *  =  +. g. ^     ;  S+ T+ 3  4  *  *  *  *  *  *  I. b.          7  8  ,  g  d  l' m' n' n' o' p' q' m, r' s' }@ t' u' v' W, w' x' y' z' A' B' $- G= Q= Q= Q= F, P= C' g; S> q; D' E' n; /> /> /> F' L> !' G' H' {> ~> I' %= |* |* |* |* |* %= X= Z= N> J' K' J' P- X= J% I% n& h; L' M' L> /> /> /> /> /> 2, F' M> M- L- X= |* o& n& n& o& o& o& |* 1* n& J% d; O> D, g; |' P= v- Q= Q= Q= Q= Q= G= V> N' O' )$ P' Q' Q' R' S' T' T' U' V' W' X' Y' Z' `' k  (  D. H@ X  ;# @# *  *  *  *  =  5+ ;.          f  >  (  V   ) X  ;# @# j. =  S  +. ;              f  p@ 7+ $  q+ .) k* c# C  C                       1  2  3  4  *  *  *  *  *  *  *  *  *  *  *  *  ",
"      .  +  (  (  (  2% M@ K  L  *  k. |  k, k  (  (  (  ,  '  )  +) @) M. a              f  7  #) $) $  <  e  G  4  *  1. 6. f. ;. ;  f  7  7  X+ 2  3  4  *  *  *  *  *  *  I. b.          7  8  +  l* %) &) *) =) -) ;) >) ,) ') )) !) ~) {) ]) ^) /) () _) :) <) [) }) *> |) -> -> -> 7, D- C' 1) 2) 3) D' E' 4) (> /> /> /> 5) 6) m; 7) M> K' 8) h; X= |* |* |* %= Y= h; /' O- o; o; _> J' h; I% m- o& h; 9) 0) n; (> F' (> (> L> n; M' J' Z= Y= |* |* Y= G> h; h; h; h; |, X= |* J% C, A; a) P= F, G= R= R= ), F, v- -> F, b) c) d) e) f) g) h) i) j) k) l) m) n) o) p) q) r) `' >  k  s) P; X  ;# @# *  *  *  *  *  -. ;.          f  >  (  W+ Q& :. t) ~  u) v) |+ 6  C           f  7  w) x) $  q+ y) 1. .@ |  a  C                    1  2  3  4  *  *  *  *  *  *  *  *  *  -. }  |+ ",
"      .  +  (  (  (  2% M@ K  L  *  k. |  k, k  (  (  (  ,  '  )  z) A) }- y. C           j  /  B) f# $  !  5. F@ &  *  5+ 2. M. a  C  7  >  /  C) d  3  4  *  *  *  *  *  *  I. b.          7  8  b  D) E) F) G) H) I) J) K) L) M) N) O) P) Q) R) S) T) U) V) W) X) Y) Z) `) C'  ! C' a) ,' C- 1) A> z; ^' Z= .! 1, !' L> /> /> 5) +! +! @! L> J> J' 8) K- $= $= $= Y= y, H> J' 1, z, n; (> #! H> _' %= %= K- $! %! G' ^> n; n; K> z, E' {> i; K- X= $= X= y, 4, N> ]' L' N> 8) ~, X= J% &! z> P= x, *! =! {* *! V* S- |' 3> C' -! ;! >! ,! '! )! !! ~! {! ]! ^! w; /! (! _! :! <! e' [! j  }! |! X  ;# @# *  *  *  *  *  -. ;.          f  >  (  /+ @  _. E. 1! 2! 3! M. a              j  /  B) f# $  R+ ]+ A  g> |+ +. (.                   1  2  3  4  *  *  *  *  *  *  *  *  =  i  o  |  ",
"      .  +  (  (  (  2% M@ K  L  *  k. |  k, k  (  (  (  J. m  )  h.  + A  .+ ++          D  +  E  F  $  G  H  *  *  *  f. M.          7  /  ,  c  P& e  4  *  *  *  *  *  *  I. b.          7  8  b  4! k# 5! 6! 7! 7! 7! 7! 7! 7! 7! 7! 7! 7! 7! 8! 9! 0! a! b! c! d! e! f! 2) 2) 2) 2) 2) 2) H- [' J% |* K- 8) L' g! !' L> /> +! h! h! 5) /> L> i! N> y, Y= Y= Y= K- P- O- o; z, n; (> /> n; 3, 4, y, |, Y= K- j! {> 1, M' M' M' l; M- ~> K- Y= Y= Y= K- 4, O- E' 1, 1, ]> M- ~> Y= U$ A> x- 7, W* {* {* {* *! k! <> A; 2) l! m! n! q& o! p! q! q! r! k) ^! s! t! u! v! w! x! y! z! T@ ^  A! B! n  ;# &  *  *  *  *  *  6. ;.          f  >  (  (  (  ,  '  )  f= C!                   D  +  E  F  $  G  ]+ *  *  *  f. M.                   1  2  3  4  *  *  *  *  *  *  *  *  1. 2. C     ",
"      .  +  (  (  (  2% M@ K  L  *  k. |  k, k  (  V+ _. '  D! '+ h.  + A  .+ ++          D  +  E  F  $  G  H  *  *  *  f. M.          w) E! O  F! G! [  F@ *  *  *  *  *  *  I. b.    z! H! S; 5% ,  I! J! K! L! M! N! N! N! O! P! Q! R! S! T! U! V! W! X! Y! Z! `!  ~ t> .~ ^, 6, 6, 6, R> R> R> 6, o& |* $= K- Z= k; ]> ^> (> @! +~ @! @! (> n; G' @~ 8) ~, ~, h; Z= M- N- ^> m; (> /> /> (> n; o; {> L- |* J- B, ~, {> (' l; 1, O- H> j! h; K- K- h; 8) O- #~ n; !' G' ]> N> ~, $~ #> C> x- s; v- p> p> @- v- !, %~ O> T$ H% &~ .~ *~ +$ =~ -~ ;~ ,- G* ^! >~ ,~ '~ .; Y> )~ !~ ~~ {~ ]~ ^~ l* Q& /~ (~ A. ]+ *  5+ i  6  b.          f  >  (  (  (  ,  '  )  |% _~ c# a. a. 6  M.    <% +  E  F  $  R+ ]+ A  z@ 7. ;. a                    1  2  3  4  *  *  *  *  *  *  *  *  1. 2. C     ",
"      .  +  (  (  (  2% M@ K  L  *  k. |  k, k  (  D. #  P  )  $  h. B. A  .+ ++          D  +  E  F  $  G  ]+ *  *  *  |+ M.          J+ 7+ 2  G! ]+ @# @# *  *  *  *  *  *  I. b.    H! a$ :~ l  <~ [~ }~ |~ 1~ 2~ 2~ 3~ 4~ 5~ 6~ 7~ i- 8~ 9~ 0~ a~ b~ c~ Z) d~ O> d; J% n& |* |* |* |* |* |* |* |* |* |* |* %= |, ~> {> l; M' ^> ^> ^> ^> ^> !' G' e~ H> ~> ~> j! D' f~ z, m; (> /> /> /> /> /> (> G' 4, g~ '' 2) q; h~ .! O- H' {> D' j! L- L- j! 4, J' _> F' F' n; M' ]> p; i~ O> :> R- 9; x- ,' }' }' g; }' 5, z; 6, o& |* %= $= |* m- U$ T$ j~ N= y; k~ l~ m~ n~ o~ p~ q~ r~ s~ t~ u~ +  l  v  v~ w~ y   + j. M  (. C  C           f  >  (  (  (  ,  m  )  x~ y~ /. 1. 1. 6. 2. ^  U  z~ E  F  $  q+ y) /. B  g. C                       1  2  3  4  *  *  *  *  *  *  *  *  1. 2. C     ",
"      .  +  (  (  (  2% M@ K  L  *  k. |  k, k  (  V   ) $  <  3  Z+ r+ A  l. ++          D  +  E  F  $  R+ ]+ j. 5  6. -  (.          A~ B! $  %  &  *  *  *  *  *  *  *  *  I. b.    @' o, B~ C~ D~ E~ F~ G~ H~ I~ J~ K~ c~ L~ M~ i) l> N~ O~ P~ H$ Q~ R~ S~ T~ C, r> I% o& |* |* |* |* |* |* |* |* |* |* |* |* X= h; 8) k; U~ V~ e~ e~ e~ W~ W~ e~ L' P- j! j! j! 4, W~ 4) F' X~ 2, /> /> /> /> /> ^> {> Y~ #= 2) R> K- P- M- K' Z~ H> P- `~ H> M- O- _> (> /> F' ^> ]> 9) j!  { )> |' x- <> 5, }* 6, .{ .{ )' g~ I' y, +{ +{ @{ ~, |, |* J% d; w= f! #{ )- 6* ${ z' %{ &{ *{ ={ -{ ;{ D~ >{ ,{ '{ ){ !{ K  [. H  ~{ |  a  C           f  >  (  (  (  ,  e# P; {{ ]{ y) ^{ -. f. R&    U  +  E  F  $  q+ y) /. l. (. g. C                    1  2  3  4  *  *  *  *  *  *  *  *  1. 2. C     ",
"      .  +  (  (  (  2% M@ K  L  *  k. |  k, k  (  V  P; X  G  5. ~  &  A  0. ++          D  +  E  F  $  R+ y) A  /{ ;. M. g.          A~ B! $  %  &  *  *  *  *  *  *  *  *  I. b.    p  ({ _{ :{ <{ [{ }{ |{ 1{ 2{ += L% %> 3{ 4{ 5{ W% 6{ 7{ Z; 8{ |& 9{ 0{ a) &! c; 6, m- n& o& 1* |* |* |* |* |* |* |* |* |* $= I' h; y, a{ Z= +{ +{ +{ i; 8) 8) ~> y, K- h; L- 4, (' L> X~ 2, A, 2, /> /> /> /> n; O- j! .{ :' 6, X= ~, b{ c{ K' K' %! W~ ]> d{ ^> (> /> /> L> ~' H> e{ .{ A- C- D- C' 5, J% h; f{ g{ h{ i{ k; U~ e~ e~ f~ N> 8) j{ %= U$ O> k{ G- l{ m{ n{ o{ p{ q{ q{ r{ s{ t{ u{ v{ w{ x{ y{ z{ A{ e  h. $. B{ C{ l. e>          f  >  (  (  (  (  @. V  D{ E{ F{ G{ H{ |  b.    .  +  E  F  $  R+ ]+ A  5+ I. 2. a                    1  2  3  4  *  *  *  *  *  *  *  *  1. 2. C     ",
"      .  +  (  (  (  2% M@ K  L  *  k. |  k, k  (  V  P; X  [  @# *  *  =  0. g.          D  +  E  F  $  q+ y) /. c#                   J+ B! $  I{ &  *  *  *  *  *  *  *  *  I. b.          J{ K{ R! L{ M{ N{ L= l! O{ .$ P{ G% Q{ R{ *> o> S{ T{ T{ U{ V{ => P= f; z; J% J% J% I% o& |* |* |* |* |* |* |* |* |* X= Y= Y= Y= Y= Y= Y= Y= Y= Y= Y= Y= Y= Y= Y= |, ~, H> d{ /> 2, A, A, 2, /> /> /> /> m; N- H> K- |* $= X= |, W{ X{ H' 0) z, !' ^> m; F' /> /> /> L> ]> Y{ Z{ H- `{ C' D- }' r> y, U~ l; 0) M' z, M' M' M' G' l; f~ D' j{ %= U$ B> :> !, E- Q=  ] b) &* T{ T{ .] Z; +] @] #] s  s  $] %] &] *] H+ $  =] 9@ ~+ -]          f  >  (  (  (  (  (  (  ;] D! x  >] ,]          D  +  E  F  $  G  ]+ *  *  *  f. M.                   1  2  3  4  *  *  *  *  *  *  *  *  1. 2. C     ",
"      .  +  (  (  (  2% M@ K  L  *  k. |  k, k  (  V  P; X  ;# @# *  *  =  0. g.          D  +  E  F  $  R+ y) A  |@ 6  |  g.          p@ '] >@ 4+ s+ *  *  *  *  *  =  }  i  ;. g. T, )] !] ~] {] P% ]] ^] /] (] _] @$ .$ *~ *~ .$ :] <] [] T= }] M* o> |] W* F, 3> 1] O> b; :' d; R> 6, m- o& o& o& n& n& n& o& |* Y= |, K- 2] h; y, y, h; I' X= $= $= Y= ~, ~> D' .! ^> 3] 4] A, A, 2, /> /> /> /> L> o; {> 8) y, y, ~, L- 8) Z~ E' ^> L> L> L> F' /> 2, 5] 5] F' ~' 6] 7] e; H- A; f; w= Y= N> ~' n; (> F' F' L> ^> M' G' ]> {> 8) K- |* U$ &! R- w- E- Q= 8] 9] 9] 9] 9] o> A& H, :; 0] 8~ a] b] c] d] e] f] X  g] h] ~+ -]          ^  j  >  8  +  (  (  (  i] D! x  >] ,]          D  +  E  F  $  R+ ]+ A  k. i  6  a                    1  2  3  4  *  *  *  =  }  -  |+ 1. 1. 2. C     ",
"      .  +  (  (  (  2% M@ K  L  *  k. |  k, k  (  V  P; X  ;# @# *  *  =  0. ;           D  +  E  F  $  G  ]+ j. 1. 5  -  (.          j] k] p@ l] 1. *  *  *  *  *  1. +. a  g.    m] n] o] p] q] r] s] 3~ t] u] v] ;~ +$ T$ w] R> :' 2) G- a) s; x, =! x] =! G= F- x- v> S> H- A- '' w= d; J% I% I% 6, J% J% I% n& X= G> y] z] `= N> N> P- ~, X= |* $= y, M- O- 1, 4) A] B] B] C] 2, /> /> /> /> /> L> M' ]> {> M- M- M- M- {> W~ M' L> /> /> F' /> 2, A, D] E] D] F' d{ F] Y{ _' G] %= H] P- H' ^> F' 2, A, A, /> n; M' N- O- H> ~, X= o& I] &! ,' P= v- Q= Q= Q= Q= Q= Q= => J] K] H, &% L] I, M] N] O] P] Q] R]  + h] g> -]             f  f  D  k  (  (  (  i] D! x  >] ,]          D  +  E  F  $  q+ y) /. x. a  g. C                 ;  S+ T+ 3  4  *  *  *  5  +. a  6  6. 1. 2. C     ",
"      .  +  (  (  (  2% M@ K  L  *  k. |  k, k  (  V  P; X  ;# @# *  *  *  i  b. g. ;     .  +  E  F  $  G  ]+ *  *  *  }  ;. g. C     j] k] p@ l] 1. *  *  *  =  b# S] ;. C  T] &; U] V] W] X] Y] A% Z] `] u! I*  ^ %> .^ *~ R> J% R> :' 2) +^ x- -> @^ *! R= Q= F- !, <> )> A; A; +^ +^ 2) c; I] J% J% J% J% 6, o& |, i; #^ $^ E' N- 3, .! 8) K- $= Y= P- N- %^ &^ *^ =^ -^ ;^ >^ A, 2, /> /> /> /> (> K> M' ,^ N- N- N- o; G' 0) K> F' /> /> /> 5) 2, C] '^ )^ !^ ~^ {^ ]^ i! O- J' K' K' H' _> L> /> 2, A, A, /> ^> 1, ^^ N> Z= Y= |* m- U$ A> |' -> F, Q= Q= Q= Q= Q= Q= G= o> 9* /^ 5> 8{ m% (^ _^ w& :^ <^ [^ }^ |^ |. {+ a  g. C     f  f  D  k  (  (  (  i] D! x  >] ,]          D  +  E  F  $  q+ y) /. x. a  g. C              +@ f  o* 2  3  4  *  *  *  5  +. a  6  6. 1. 2. C     ",
"      .  +  (  (  (  2% M@ K  L  *  k. |  k, k  (  V  P; X  ;# @# *  *  *  5+ I. +. C.    >  +  E  F  $  G  H  *  *  *  5  f. 0. |  C  p@ '] >@ 4+ s+ *  *  *  1^ 2^ 3^ 4^ {+ 5^ 6^ 7^ 8^ 9^ 0^ a^ b^ c^ d^ e^ A* /! f^ g^ h^ &~ J% J% J% c; 2) `{ C' S- F- P= w- |' R- ;> ;> :> <> C' C' y- >> r> I% n& n& n& o& Y= ~> K' o; #~ i^ m; j^ k^ 9) i; h; L- {> m; '^ l^ m^ m^ n^ o^ p^ q^ r^ 5) @! /> /> /> F' L> m; m; m; m; m; m; L> (> /> /> /> +! 3] 4] s^ t^ u^ v^ w^ x^ p^ y^ z^ A^ L> n; m; (> /> /> /> 2, X~ L> o; .! D' ~, I' |* m- J% z; 1) P= F, Q= Q= Q= Q= Q= Q= Q= G= T> B^ C^ D^ E^ F^  > V% G^ H^ I^ J^ K^ L^ {+ x. -  2. b. +@ .  >  8  +  (  (  (  i] D! x  >] ,]          D  +  E  F  $  R+ ]+ A  k. i  6  a           +@ .  >  z. d  3  4  *  *  *  =  }  -  |+ 1. 1. 2. C     ",
"      .  +  (  (  (  2% M@ K  L  *  k. |  k, k  (  V  P; X  ;# @# *  *  *  *  *  5  ]  ^  /  (  E  F  $  G  H  *  *  *  *  *  =  +. C  J+ B! $  I{ &  *  *  *  M^ N^ O^ P^ /. Q^ R^ S^ T^ D& D& D& D& b* D& c* U^ V^ W^ X^ G% H% J% J% J% U$ O> S> A> A> A> A> A> A> S> A> f; Y^ x- D- D- x- z- Z^ %= Y= Y= F> I' Z= K' J> L> /> 5) h! `^  / G' ./ X{ c{ N- A, +/ @/ #/ #/ #/ $/ m^ %/ &/ h! +! @! /> 2, A, A, A, A, 2, /> /> /> /> /> /> /> +! h! */ B] =/ -/ ;/ >/ ,/ #/ '/ )/ !/ >^ A, 2, /> /> /> /> /> /> /> i^ H' 4, |, 1* n& I% U$ [' A> E, F, Q= Q= Q= Q= Q= Q= Q= Q= G= T> L* b) &* &* C^ 9* a& x& ~/ 4' {/ ]/ ^/ a  i  *  // C. k, k  (  (  (  (  (  (  i] D! x  >] ,]          D  +  E  F  $  G  ]+ *  *  *  f. M.          7  && (  c  d  3  4  *  *  *  *  *  *  *  *  1. 2. C     ",
"      .  +  (  (  (  2% M@ K  L  *  k. |  k, k  (  V  P; X  ;# @# *  *  *  *  *  {  ]  ^  /  (  E  F  $  G  H  *  *  *  5  |+ -  U+ C  A~ B! $  %  &  *  *  *  (/ _/ :/ </ [/ }/ |/ C# 1/ 2/ 3/ 4/ 5/ s{ Y% 6/ 7/ 8/ /] 9/ 0/ A- '> b; :' d; <' H% Q- a/ b/ a/ a/ a/ q; Q- w] #> )> x- D- <> >> o& y, $! P- $! P- M- 3, ^> F' 3] c/ d/ e/ f/ r^ g/ h/ i/ j/ k/ l/ #/ #/ #/ #/ #/ #/ w^ t^ m/ n/ 5) X~ 5] o/ >^ k/ k/ p/ A, 2, /> /> /> X~ 2, q/ n/ f/ !^ r/ s/ t/ u/ v/ w/ #/ m^ p^ >^ A, 2, /> /> /> /> /> /> /> i^ H' 4, |, o& R> z; >> A; C- P= Q= Q= Q= Q= Q= Q= Q= Q= Q= S= ,= x/ != y/ z/ A/ B/ C/ D/ E/ F/ G/ H/ I/ {+ |+ *  |+ |  7  >  /  8  +  (  (  (  i] D! x  >] ,]          7  /  @@ f# $  G  H  *  *  *  f. M.          7  && (  J/ d  3  4  *  *  *  *  *  *  *  *  1. 2. C     ",
"      .  +  (  (  (  2% M@ K  L  *  k. |  k, k  (  V  P; X  ;# @# *  *  *  *  *  {  ]  ^  /  (  E  F  $  G  H  *  *  *  }  ;. a  g.    K/ B! $  I{ &  *  *  *  L/ >; M/ N/ O/ P/ Q/ R/ m% S/ S/ T/ U/ V% B/ V/ U/ W/ X/ Y/ C- :> v> 5, &! '' Z{ Y~ j! D' 4, 4, 4, 4, P- D' ~> ], w] )> |' :> b; |, i{ e~ g! g! ]> l; #! K> Z/ 4] `/  ( .( +( @( #( z^ z^ $( %( &( #/ #/ #/ #/ #/ #/ '/ *( =( m/ -( 2, ;( E] ;^ >( >( ,( C] 2, /> /> X~ 2, 3] -( '( )( !( '/ '/ ~( v/ {( ]( {( m^ !/ E] A, 2, /> /> /> /> /> /> /> i^ 3, /' G> n& d; A- A; C- D- -> Q= Q= Q= Q= Q= Q= Q= Q= Q= T> ^( (^ /( (( _( _( :( z' <( [( }( |( 1( 2( g> 1. *  I. b. f  +@ .. D  k  (  (  (  i] D! x  >] T@          f  7  #) $) $  G  H  *  *  *  f. M.          7  && (  J/ d  3  4  *  *  *  *  *  *  *  *  1. 2. C     ",
"      .  +  (  (  (  2% M@ K  L  *  k. |  k, k  (  V  P; X  ;# @# *  *  *  *  *  {  ]  ^  /  (  E  F  $  G  ]+ *  =  1. I. |  C     +@ J+ 3( $  %  &  *  A  1. 0. a  j+ 4( 5( 6( 7( Z-  > 9* 9, J] B^ 8( 8( 8( J] J] M* 7, w- |' <> :> A; 9( g~ 8) K' E' o; o; o; o; ,^ N- 3, {> j{ ,> 0( z- J% h; L' l; 0) !' ^> n; n; L> X~ 4] a( b( c( d( e( f( g( g( %/ h( '/ #/ #/ #/ #/ #/ #/ ~( i( j( k( l( ;( D] m( n( o( h( =^ {^ 2, /> /> /> 2, 3] p( q( r( s( {( ~( ~( #/ {( ]( #/ )/ =^ E] A, 2, /> /> /> /> /> /> F' #~ I> /' G> n& :' 2) +^ C' w- -> Q= Q= Q= Q= Q= Q= Q= Q= F, T>  > t( u( v( w( w( w( w( w( x( y( =  j. *  *  *  *  I. b. ^  f  f  j  k  (  (  (  i] D! $  z( $# C  C           A( 7+ $  G  H  *  *  *  f. M.          7  && (  J/ d  3  4  *  *  *  *  *  *  *  *  1. 2. C     ",
"      .  +  (  (  (  2% M@ K  L  *  k. |  k, k  (  V  P; X  ;# @# *  *  *  *  *  {  ]  ^  /  (  E  F  $  R+ ]+ A  }- 2. 2. 0. +. ++ <% B( C( $  %  9@ /. |@ 2. |  ;  ^/ ]/ D( w! E( D; 8{ x/ B^ 9] F( G( H( G( => F= R= I( E- r; :> 5, A- 6, ~, L' G' L> /> F' F' F' 6) J( K( 1, H> _' L( M( o& h; /' ^^ G' n; F' /> 2, 2, 5] 4] N( O( P( Q( e( R( S( T( U( V( W( ~( #/ #/ #/ #/ $/ X( Y( b( Z( `( E] q^  _ ._ +_ @_ #_ {^ X~ L> m; n; L> (> $_ %_ &_ *_ =_ -_ t/ u/ ~( #/ &( r/ ;^ B] A, 2, /> /> /> /> /> (> ^> N- {> 8) K- n& :' 2) +^ C- !, -> Q= Q= Q= Q= F, |) 7, F- F- F( ;_ >_ l> ,_ '_ m~ )_ g) w( !_ ~_ *  *  *  *  *  *  f. M. +@ D  >  /  +  (  (  (  i] D! $  {_ ]_ {+ (.          p@ 7+ $  G  H  *  *  *  f. M.          7  && (  J/ d  3  4  *  *  *  *  *  *  *  *  1. 2. C     ",
"      .  +  (  (  (  2% M@ K  L  *  k. |  k, k  (  V  P; X  ;# @# *  *  *  *  *  {  ]  ^  /  (  E  F  $  q+ y) /. c# C  |  |+ 1. ^_ Y. W+ /_ $  =] 9@ ~+ -]          ^/ (_ D( __ ={ :_ <_ `; L* [_ D- !> x- !, F- ), Q= Q= v- D- D, #= )' h; }_ g! n; 2, A, A, A, A, q/ h! |_ j^ g! /' Y{ I' Y= |, L- H> 3, n; 2, 2, A, A, A, A, 1_ q( 2_ 3_ e( 4_ ;/ 5_ 6_ 6_ -_ ~( #/ #/ #/ $/ 7_ o( 8_ b( P( 9_ m( ;^ f( R( ;/ 0_ a_ b_ F' K> z, G' ~' G' c_ %_ d_ e_ 6_ 5_ 0_ f_ s/ o^ g_ h_ i_ &^ A, 2, /> /> /> /> (> !' ]> {> D' ~, Y= o& :' 2) A; :> x- F- Q= Q= Q= Q= F, P= D- x- x- j_ k_ |& l_ y% a* m_ n_ o_ '~ x( y( *  *  *  *  *  j. |+ C. 7  8  (  (  (  (  (  (  i] D! $  p_ h] k. U,          p@ 7+ $  G  H  *  *  *  f. M.          7  && (  J/ d  3  4  *  *  *  *  *  *  *  *  1. 2. C     ",
"      .  +  (  (  (  2% M@ K  L  *  k. |  k, k  (  V  P; X  ;# @# *  *  *  *  *  {  ]  ^  /  (  E  F  $  R+ y) 1. M  |  +. 6. 1. ^_ +  V+ >. C( q_ }. 5+ o     p  p  r_ s_ t_ u_ v_ w_ :_ x_ X/ t; z> v> 0; 0( !, -> F, Q= v- 3> [' g~ Z= L' l; !' F' 2, 2, 2, 2, 2, 2, +! +! m; !' l; f~ 8) K- X= X= j{ M- M' /> A, A, A, 5] 2, q/ n/ y_ z_ e( 4_ ;/ 5_ 6_ 6_ -_ ~( #/ #/ #/ A_ B_ n( C_ k( 2_ z_ D_ f( R( ;/ *_ >/ E_ &/ /> ^> ~' W~ U~ %! F_ G_ H_ I_ 6_ V( >/ @_ !( J_ h_ >^ &^ A, 2, /> /> /> /> (> ^> (' k; 8) ~, |, X= o& U$ O> 2) 5, :> !, -> F, F, F, -> w- ,' )> z- K_ L_ M_ N_ O_ P_ Q_ R_ S_ C= T_ U_ V_ W_ X_ X_ Y_ Z_ `_  : j  k  (  (  (  (  (  (  i] D! $  p_ h] k* l. |  a  C  p@ 7+ $  G  H  *  *  *  f. M.          7  && (  J/ d  3  4  *  *  *  *  *  *  *  *  1. 2. C     ",
"      .  +  (  (  (  2% M@ K  L  *  k. |  k, k  (  V  P; X  ;# @# *  *  *  *  *  {  ]  ^  /  (  E  F  $  R+ ]+ A  g> }  6. S  1. ^_ +  ,  @. D. .: 5  g> y.    z! H! +: @: #: $: %: &: *: =: -: ;: A; &! a; z- R- P= F, Q= v- z> U$ ~, L' ~' n; (> /> 2, /> /> /> /> /> /> /> /> (> K> ~' k; y, %= o& m- ~, J' i^ /> 2, 2, 2, 5) 5) h! l( >: ,: f( R( ;/ 5_ 5_ -_ ~( #/ #/ #/ A_ r/ =/ ': n/ ): !: e( S( ;/ *_ u/ ,/ w^ =/ ~: K> l; {: H> p; ]: ^: /: (: _: W( :: X( r/ ;^ >^ C] A, 2, /> /> /> /> (> n; G' .! 8) ~, I' X= $= 1* I% U$ z; A- A; <> !, P= F- 7, P= !, :> >> d; b; S> <: I= [: }: |: 1: w% 2: 3: 4: 5: 6: 7: 8: 9: 0: a: b: X. Y. (  (  (  (  (  (  W+ /_ $  %  Z  A  g> |+ 6  g. p@ 7+ $  G  H  *  *  *  f. M.          7  && (  J  d  3  4  *  *  *  *  *  *  *  *  1. 2. C     ",
"      .  +  (  (  (  2% M@ K  L  *  k. |  k, k  (  V  P; X  ;# @# *  *  *  *  *  {  ]  ^  /  (  E  F  $  G  ]+ *  *  *  *  *  1. ^_ +  (  (  (  c: 5+ 5+ U+    @' 6+ m, d: e: f: g: x+ h: i: j: k: A- '> l: #> )> E, F- F, -> z> I] a{ U~ G' m; /> /> /> /> /> /> /> /> /> /> /> /> m; 0) L' y, |* I% J% %= 8) H' #~ (> /> /> /> /> +! q/ m: m( =/ D_ e( ;/ ;/ s( '/ $/ #/ #/ n: -^ B] -( h! l( !: R( ;/ 0_ *_ ,/ #/ A_ J_ D] o: l; {: H> H> p: +~ q: Y( f_ X( $/ n: J_ i_ C] A, 2, /> /> /> /> /> (> ^> 1, .! D' ~, |, F> $= |* n& J% d; r: S> )> :> <> C' |' |' x- v> '> J% U$ :' A>  ! F- I( s: *! t: S/ u: v: `@ f- 4' 4' _! _! w: x: y: z: (  (  (  (  b  ,  A: H@ $  I{ Z  *  *  *  i  a  p@ 7+ $  G  H  *  *  *  f. M.          7  /  +  c  d  3  4  *  *  *  *  *  *  *  *  1. 2. C     ",
"      .  +  (  (  (  2% M@ K  L  *  k. |  k, k  (  V  P; X  ;# @# *  *  *  *  *  {  ]  ^  /  (  E  F  $  G  H  *  *  *  *  *  1. ^_ +  (  (  (  [! y. 2. (.    z! z! B: C: D: E: c@ F: G: H: R* I: d; r> U$ c; 2) G- C' w- !, y- b; |* J: {: ~' n; /> /> /> /> /> /> 5) 5) 5) /> L> z, H' /' G> |* I% J% o& j{ /' H' #~ (> /> /> /> +! 3] C] E] >^ >^ K: @( f( L: o( r/ M: N: ;^ >^ r^ q/ h! 1_ K: R( 0_ 5_ _: :: #/ '/ r/ m( A^ M' W~ {: f~ 1, @! f/ t^ f( N: N: !^ >^ &^ A, 2, /> /> /> /> /> /> (> L> ^> l; {> 4, j! K- F> o& U$ :' O> H- S> 5, K_ 0; f; `{ C> f; O: P: J% J% U$ z; S> }' E, F- @- Q: ^* R: G$ S: T: T: U: V: W: X: Y: Z: `: P. (  (  +  i] J/ #.  < $  I{ Z  *  *  *  -  a  p@ 7+ $  G  H  *  *  *  f. M.          f  D  .  z. 2  3  4  *  *  *  *  *  *  *  *  1. 2. C     ",
"      .  +  (  (  (  2% M@ K  L  *  k. |  k, k  (  V  P; X  ;# @# *  *  *  *  *  {  ]  ^  /  (  E  F  $  G  H  *  *  *  *  *  1. ^_ +  (  (  (  >  f  ;              .< +< @< #< $< %< &< *< =< T$ J% J% J% U$ w= D, :> <> <> Y^ v> z- U$ I' 4, H' 7) /> /> /> /> 5) q/ h! +! m; z, H' p; y, F> o& I% J% I% $= ~, 4, O- #~ F' /> /> /> 2, A, C] C] A, C] >^ =/ m( ;^ m( >^ C] A, A, A, q/ h! 1_ K: R( 0_ 6_ -< :: #/ '/ )/ p^ >^ X~ !' G' ~' !' F' m: #( m( >^ C] 4] A, A, 2, /> /> /> /> /> /> /> /> /> (> ^> 1, J' 4, L- Y= n& [' 2) S> S> S> &! >> '> ,> c; d; d; r> U$ J% J% J% U$ :' S> }' C' P= @- o> m> ;< >< >< >< A/ ,< D= '< )< !< x* W@ (  (  ,  O  d  )  x  $  I{ Z  *  *  *  -  a  p@ 7+ $  G  ]+ *  *  *  |+ M.             f     1  2  3  4  *  *  *  *  *  *  *  *  S  +. C     ",
"      .  +  (  (  (  2% M@ K  L  *  k. |  k, k  (  V  P; X  ;# @# *  *  *  *  *  {  ]  ^  /  (  E  F  $  G  H  *  *  *  *  *  1. ^_ +  ,  V+ W+ C@ a  (. ++    ~< {< ]< ^< /< (< f* _< ^# :< &~ m- m- I% J% U$ [' S> ;> R- x- w- F- w- y- b; _' 4, N- m; F' (> (> (> +~ `^ J( j^ l; Z~ Z= Y= 1* I% J% J% J% m- X= ~, N> N- n; F' (> (> F' /> 2, 2, 2, C] >^ m( m( m( i_ B] A, A, A, A, q/ h! 1_ K: R( 0_ 5_ _: :: #/ $/ A_ h( M: *^ 5] << n; m; /> r^ i_ m( B] ;( ;( A, A, 2, /> /> F' F' F' F' F' F' F' L> ^> G' O- H> L- Y= n& z; 2) S> 2) 2) O> ,> [< o& %= %= |* o& m- 6, I% m- m- J% :' &! `{ C' s; G( }< ,= 9, V> U> V> |< Z; 1< S^ 2< 3< 4< 5< 6< ,  '  )  X  3  !  5. @# *  *  *  -  a  p@ 7+ $  R+ ]+ j. 5  }  0. (.          ^  .. +@ o* 2  3  4  *  *  *  *  *  *  1. -. f. ;.       ",
"      .  +  (  (  (  2% M@ K  L  *  k. |  k, k  (  V  P; X  ;# @# *  *  *  *  *  {  ]  ^  /  (  E  F  $  G  H  *  *  *  *  *  1. ^_ +  V+ O  /_ 7< 8< .@ e>    9< 0< a< b< c< d< e< {# f< Q- ^' |* 1* o& I% U$ [' S> ;> ,' w- V* W* g< P= `{ M( h; {> o; h< J> #! #! i< j< k< ]> @~ P- G> |* I% J% J% J% J% J% m- Y= 8) J' o; h< !' ^> K> n; L> /> 2, C] >^ m( m( m( m( >^ B] D] ;( 3] q/ h! l( !: R( ;/ 0_ _: ,/ #/ #/ #/ '/ m^ l< q^ ;( 5) @! +! r^ i_ m( >^ E] D] C] A, 2, /> (> n; ^> ^> ^> ^> ^> ^> !' M' ~' O- 4, j{ |* I% d; z; C, [' L( 6, |* Y= h; ~, ~, h; I' %= n& n& o& 1* o& J% z; S> 1) <> !> m< x, S= S= 8] S= n> 0, n< o< p< q< r< s< 5< ,  t< )  3  ;# ~  H  *  *  *  *  -  a  p@ 7+ $  R+ y) A  /{ o  b. ;           +@ <% /  6% d  3  4  *  *  *  *  *  *  }  2. M. a        ",
"      .  +  (  (  (  2% M@ K  L  *  k. |  k, k  (  V  P; X  ;# @# *  *  *  *  *  {  ]  ^  /  (  E  F  $  G  H  *  *  *  *  *  1. u< Y. W+ /_ $  =] 9@ g> v< 5# w< x< y< z< Q$ A< B< C< Q- |* |* |* |* o& I% r> C, A> 1) C' -> W* {* W* |) ,' >> $= D' .! J' M- D< `~ `~ `~ `~ D' ~> ~, F> n& J% J% J% J% J% J% J% %= L- H> .! J' O- ]> l; G' ^> (> 2, {^ '^ m( m( m( m( m( ;^ q^ o/ 3] q/ h! l( !: R( ;/ 0_ *_ ,/ #/ #/ #/ #/ '/ o^ h_ o/ 3] q/ h! l( E< m( m( =/ #( B] A, 2, 5) m; G' ]> ]> ]> ]> ]> ]> ]> F< ]> K' 8) _' 6, I] J% J% I% o& F> h; ~> 4, H> H> `~ D' j! I' |* |* |* |* o& I% d; r: S> )> :> !, E- Q= Q= Q= Q= T> G< H< I< e* J< K< r< 4< /+ L< M< !  ~  *  *  *  *  *  *  -  g. p@ 7+ $  q+ y) /. c#                   7  && (  J  d  3  4  *  *  *  *  *  *  I. (.             ",
"      .  +  (  (  (  2% M@ K  L  *  k. |  k, k  (  V  P; X  ;# @# *  *  *  *  *  {  ]  ^  /  (  E  F  $  G  H  *  *  *  *  *  A  U, <% N< C( $  p_ O< P< Q< R< S< T< U< 5* R* }> m& I- n& o& o& o& o& n& R> z; 2) f; ,' P= Q= W* *! g< -> ,' >> I% Y= ~, j{ V< Q- B,  {  { $~ $~ $~ o& |* m- I% I% m- I% I% I% m- |* K- L- Z= ~> 8) W< X< f~ 0) /> m: K: @( Y< L: %/ r/ o( o^ J_ >^ A, q/ h! l( !: R( ;/ 0_ *_ ,/ #/ #/ #/ #/ '/ o^ h_ o/ 3] -( '( Z< t^ f( -/ e( Y< >: `< 5] F' z, W~ 9) X< j; j; j; X< i{ k; }_ 8) H] 6, :' [' d; |* y, X< U~ W~ 1, G' #! M> N- J' /' ~, X= %= |* |* n& J% U$ e; :' O> A> g; D- 7, -> Q= Q= S= 8( E^  [ .[ +[ @[ #[ $[ %[ &[ *[ $. F@ *  *  *  1. f. 0. U+ ;  p@ 7+ $  q+ y) /. c#                   7  && (  J/ d  3  4  *  *  *  =  |+ -  ;. g.             ",
"      .  +  (  (  (  2% M@ K  =[ *  k. |  k, k  (  V  P; X  ;# @# *  *  *  *  *  {  ]  ^  /  (  E  F  $  G  H  *  *  *  *  *  =  +. -[ ;[ 3( $  %  >[ ,[ '[ )[ ![ ~[ u= &< {[  ~ w] I% I% m- m- m- I% J% [' A> G- C' P= v- Q= G= R= G= -> ,' >> J% I% m- I% '> 0; v> v> )> 0; )> ][ ,> m- n& o& |* %= $= $= %= $= $= F> Y= I' I' |, |, h; g{ ~' A]  _ e( 4_ ;/ @_ X( '/ '/ $/ n: =^ B] q/ h! l( K: R( ;/ 0_ *_ ,/ #/ #/ #/ #/ '/ o^ h_ o/ 3] '( O( ^[ /[ ;/ ;/ ;/ ([ Y< E] _[ L> d{ .! 4, y, K- |, G> h; h; h; h; I' n& :' 2) 2) L( j{ K' M' m; m; (> (> (> (> n; G' {: @{ F> $= %= 1* m- 6, J% J% J% d; 2) `{ C' s; F- v- Q= G= V{ B^ 0* /^ :[ <[ [[ }[ |[ 1[ 2[  ' &  *  *  *  -. 6  g. C     p@ 3[ $  q+ r+ /. {+                   7  && (  J/ d  3  4  *  *  *  5  +. g. C                 ",
"      .  +  (  (  (  4[ P; 5[ 6[ *  k. |  k, k  (  V  P; X  ;# @# *  *  *  *  *  {  ]  ^  /  (  E  F  $  G  H  *  *  *  1. 5+ }- o  C  !+ 7[ $  8[ 9[ 0[ a[ 7! 8! b[ Y# c[ d[ e[ +$ #= 9( +$ 9( b; z; A- f[ a) s; G( g[ Q= v- F- F- w- |' `{ O> J% J% J% r> >> R- x- x- |' !, w- x- 5, P: I] o& Y= K- h; h; y, y, h; h; ~, ~, ~, y, h[ @{ ]' i[ B] e( ;/ 5_ 5_ -_ ~( #/ #/ #/ A_ r/ m( l( j[ ): t^ R( ;/ 0_ *_ ,/ #/ #/ #/ '/ m^ r/ h_ E] m: 2_ j( k[ l[ *_ *_ *_ *_ ._ m[ n[ << G' J' p; Z= K- Y= %= |* |* |* |* o& I% d; O> w= b/ H> M' /> 2, 2, /> /> /> /> F' n; l; i{ ~, |, X= o& U$ c; d; r> r> :' 2) o[ C- D- H( I= p[ b) q[ C^ ', /^ >_ r[ s[ t[ u[ v[ w[  ' &  *  *  *  5+ U+          i' x[ y[ z[ A[ 1. l. (. g. C           7  && (  J/ d  3  4  *  *  *  5  6                       ",
"      .  +  (  (  (  #@ B[ C[ D[ *  }  C. k, k  (  V  P; X  ;# @# *  *  *  *  *  {  ]  ^  /  (  E  F  $  G  H  *  *  *  }- E[ e' e' f  F[ G[ $  E{ H[ I[ J[ 7! a% N% K[ L[ f^ M[ N[ O[ P[ Q[ R[ S[ g; a) U* T[ I= T> S= -> !, <> y- 5, &! A- c; J% J% J% J% O> f; <> C' D- F- v- F- !> %~ U[ n& K- 8) P- /' i{ }_ k; 9) V[ W~ W~ W~ e~ W[ X[ Y[ K: 4_ 5_ 5_ 6_ -_ ~( #/ #/ #/ A_ o^ =^ Z[ `[ 2_ d( ;/ 0_ 0_ *_ ,/ #/ #/ '/ )/ r/ =^ h_ h_ g( d_  } k[ .} *_ t/ ,/ X( h( !/ y^ ~: ]^ z, (' K' 4, ~, |* I% I% I% I% m- o& o& ^' Y~ D' (' n; 2, A, 2, /> /> /> /> /> (> ^> ]> }_ +} |, I% #> z- z- z- B> 2) S> D, ;> |' @} #} $} %} &} *} =} -} ;} >} ,} '} )} !} 8@ G  F@ *  *  *  6. U+          T@ J+ [% ~} R@ A  5+ I. 6  a           7  && (  J/ d  3  4  *  *  *  5  6                       ",
"      .  +  (  (  (  k  k, C. {} *  // C. k, k  (  V  P; X  ;# @# *  *  *  *  *  {  ]  ^  /  (  E  F  $  G  H  *  *  *  l. X. (  8  7  ]} ^} $  d# k] /} (} 7! p% _} :} <} [} Y& Z& `& `& Z& }} C^ o> o> o> o> o> o> H= !, v> B> '> r> J% J% J% J% J% J% J% d; 2) +^ a) w- -> Q= F, P= <> O: m- L- {> O- H' l; 1, G' ^> (> 2, A, 3] h! */ B] =/ e( ;/ 5_ 6_ 6_ -_ ~( #/ #/ #/ $/ 7_ o( 8_ b( ^[ /[ 0_ 0_ 0_ *_ ,/ #/ '/ )/ g_ ;^ m( h_ g_ !( |} 1} 2} .} *_ ,/ #/ #/ A_ o^ J_ ;^ >^ {^ A, (> o; p; _' J% J% J% J% n& F> h; ~> p; I> z, (> 2, A, 2, /> /> /> /> /> /> /> n; ~' L' y, J% 5, <> <> <> <> ;> A> S> f; ,' 3} n) _* 4} ^] ^] ^] 5} m~ 6} 7} 8} ,  '  9} h. ~  *  *  *  6. U+                   U+ 5+ *  *  *  f. M.          7  && (  J/ d  3  4  *  *  *  5  6                       ",
"      .  +  +  8  {@ .  7  M. f. *  // C. k, k  (  V  P; X  ;# @# *  *  *  *  *  -. 2.    y: _. >. H@ $  G  H  *  *  *  l. X. (  Y. >  0} B! $  a} b} c} d} e% R! e} u& f} o< D# g} h} i} a* j} k} l} m} n} o} p} M* q} )> '> M( I% n& o& o& n& m- m- m- m- 6, e; '' f;  ! r} s} s} 3> C> a; |* P- 3, #~ 4) n; n; F' A] >^ ,( t} u} v} w} x} R( 4_ 0_ *_ V( -_ W( ~( #/ #/ #/ #/ $/ n^ /[  } y} l[ 0_ 0_ 0_ *_ ,/ #/ m^ J_ ;^ m( m( h_ g_ !( |} 1} 2} .} *_ ,/ #/ #/ #/ A_ m^ h( o^ l^ z} ~^ A} O- L- |* I% I% m- %= ~, ~> H> J' #! m; /> 2, 2, 2, /> /> /> /> /> 2, 2, /> n; l; 8) n& &! :> x- |' |' g; A; A> A> v> B} C} D} E} F} G} H} I} J} K} L} M} ,  6% )  !  ~  *  *  *  5  i  ;. M. C  T@ A~ O. ~} R@ *  *  *  6. 0. U+ M. ;  j  8  (  J/ d  3  4  *  *  *  1. I. ;. ;. ;. U+ (.       ",
"      .  +  Y. D  +@ +@ +@ (. i  *  // U+ k, k  (  V  P; X  ;# @# *  *  *  *  *  6. ;.    N} 2+ M@ P  $  G  ,; *  *  *  l. X. (  (  +  O} D! $  P} Q} R} S} T} T} Y> @* <& <& U} V} W} X} Y} Z} `}  | .| +| @| #| x, z> C, J% n& |* |* |* |* |* 1* 1* 1* 1* o& o& J% c; [, :, _, >> >> O> U$ I' M- _> F' /> F' /> A] i_ =^ l< o( Y( $| %| /[ 0_ 0_ 0_ *_ u/ ~( ~( #/ #/ #/ #/ #/ #/ ~( &| 1} k[ l[ 0_ 0_ 0_ *_ ,/ #/ o^ ;^ m( m( m( h_ r/ !( /[ 1} 2} .} *_ ,/ #/ #/ #/ #/ #/ #/ #/ #/ @/ *| B] M' Z~ y] =| $= $= I' j! 4, -| 3, n; F' /> /> /> /> /> /> /> /> 2, A, A, 2, /> !' {> I' }* A; ,' D- D- C' g; )> A> A> ;| j: >| ,| '| )| d% !| ~| {| ]| ^| ,  '  )  !  ~  *  *  *  =  5  -. +. g. i' /| 5- (| _| *  *  *  =  5  6. T  a  D  Y. (  J/ d  3  4  *  *  *  *  1. -. -. -. }  6        ",
"      .  +  k  D  f  j] i' 5$ R; 5  0  C. 7  8  (  V  P; X  ;# @# *  *  *  *  *  6. U+    :| 2  $  k' <  I{ H  *  *  *  l. X. (  (  +  <| [| }| || 1| 2| 3| 4| 4| 5| 4| 6| 6| 7| 8| 9| 0| a| n% b| c| d| e| f| #- s} g| U$ o& |* |* |* |* |* |* |* |* |* |* |* |* |* |* %= X= Y= Y= X= X= I' D' O- n; /> /> /> /> A] i_ h_ >( o( h| 2} k[ l[ 0_ 0_ 0_ *_ u/ ~( #/ #/ #/ #/ #/ #/ #/ ~( &| 1} k[ l[ 0_ 0_ 0_ *_ ,/ #/ h( =^ ;^ ;^ ;^ h_ i| j| k| 1} 2} .} *_ ,/ #/ #/ #/ #/ #/ #/ #/ #/ #/ @/ l| A] #~ m| n| ~, |, K- j! 8) p; ^^ _> (> /> /> /> /> /> /> /> /> 2, A, A, 2, /> L> N- 4, 7] I- D, ,' D- D- !, <> f; D, k: o| A= p| U} q| e% r| v# ,  (  (  ,  '  )  !  ~  *  *  *  =  1. 5  0. g. i' ;; 2  s| _| *  *  *  *  *  *  f. I  .  +  (  J/ d  3  4  *  *  *  *  *  *  =  1. 6. 6        ",
"      .  +  +  8  >  t| u| v| w| 6  U+ a  .. /  (  V  P; X  ;# @# *  *  *  *  *  6. U+    '] 3% k' G  5. ~  Z  *  *  *  l. X. (  Y. >  x| /~ y| z| A| B| C| D| E| F| G| E| H| I| J| F$ K| L| M| N| O| P| Q| #- 3> R| c; I% o& |* |* |* |* |* |* |* |* |* |* |* |* X= j{ i; /' ]' L' k; i{ {: p: #! m; /> /> /> /> A, B] >^ S| ~^ T| U| k[ l[ 0_ 0_ 0_ 0_ >/ t/ ,/ ~( #/ #/ #/ #/ #/ ~( &| 1} k[ l[ 0_ 0_ 0_ *_ ,/ #/ A_ h( o( r/ J_ h_ k/ K: V| W| 2} .} *_ ,/ #/ #/ #/ #/ #/ #/ #/ #/ #/ X| @/ Y| 9_ Z| `|  1 ~, I' K- h; ~, i; K' _> (> /> /> /> /> /> /> /> 2, 2, 2, 2, /> (> ^> (' `~ .1 J- +1 |' S- F- r; <> G- @1 #1 y/ j} ,_ $1 %1 &1 *1 6# (  (  ,  '  )  !  ~  *  *  *  5  i  6  M. C  T@ A! '] =1 R@ *  *  *  *  *  =  0  I  .  +  (  J/ d  3  4  *  *  *  *  *  *  5+ 0. ;. b.       ",
"      .  +  (  (  (  2% M@ 5- O.          +@ >  (  V  P; X  ;# @# *  *  *  *  *  6. U+    '] 3% 3  5. *  *  *  *  *  *  l. X. (  8  7  -1 ;1 >1 ,1 '1 )1 !1 ~1 {1 ]1 ^1 ]1 ]1 /1 (1 _1 D^ X/ ;_ :1 <1 Q| [1 y> }1 J% n& |* |* |* |* |* |* |* |* |* |* |* |* |* |* X= ~, H> J' ]> 1, ~' 0) ^> (> /> /> /> /> /> /> 2, A, A, A, 4] N( =( |1 l[ 0_ 0_ 0_ 0_ 0_ 0_ t/ ~( #/ #/ #/ #/ #/ ~( &| 1} k[ l[ 0_ 0_ 0_ *_ ,/ #/ #/ #/ #/ A_ o^ h_ o/ */ 11 b( 21 .} *_ ,/ #/ #/ #/ #/ #/ #/ #/ #/ #/ #/ #/ ~( E_ q( 31 41 ~, ^' I% 6, J% m- h; .! _> (> /> /> /> /> /> /> /> /> /> /> /> /> m; z, (' p; 51 61 !> F- Q= -> s; D- s; 71 9, a& C/ 81 91 01 a1 T@ b1 +  ,  '  )  !  ~  *  *  *  6. ;.                   U+ 6. *  *  *  *  *  =  0  I  .  +  (  J/ d  3  4  *  *  *  *  *  *  I. b.             ",
"      .  +  (  (  (  V  c1 t+ d1 U+ M. g. .. /  (  V  P; X  ;# @# *  *  *  *  *  6. U+    '] 3% 3  5. *  *  *  *  *  *  l. X. (  8  .. e1 f1 g1 h1 i1 j1 k1 l1 m1 n1 o1 p1 q1 r1 :1 s1 o> M* V{ X* t1 u1 7, y- z; n& %= X= Y= |, |, |, |, |, |, |, I' Y= %= 1* o& $= j{ 8) N> f~ l; M' o: A, E] >^ &^ 2, /> /> /> X~ 2, 2, 2, 3] v1 k( c( h| 0_ 0_ 0_ 0_ 0_ 0_ t/ ~( #/ #/ #/ #/ #/ ~( &| 1} k[ l[ 0_ 0_ 0_ *_ ,/ #/ #/ #/ #/ '/ o^ h_ o/ 3] w1 `[ P( x1 *_ u/ ,/ ,/ ,/ ,/ ~( #/ #/ #/ #/ #/ #/ '/ y1 z1 A1 B1 X= c; B> B> C1 z; )' L- @~ G' K> K> K> K> K> ^> ^> !' !' !' !' M' G' l; e~ 4, i~ #> !> v- R= R= F, 7, -> g[ T> p} x/ D1 E1 F1 G1 H1 I1 J1 ,  '  )  !  ~  *  *  *  6. U+          T@ J+ c$ K1 b# *  *  *  *  *  =  0  I  .  +  (  J/ d  3  4  *  *  *  *  *  *  I. b.             ",
"      .  +  (  (  (  L1 @' M1 C{ 5+ i  M. 7  8  (  V  P; X  ;# @# *  *  *  *  *  6. U+    '] 3% 3  5. *  *  *  *  *  *  l. X. (  8  7  F[ N1 n@ O1 P1 Q1 R1 S1 T1 T% U1 V1 W1 X1 Y1 x] F= G= g[ Q= |) s; Z1 A> d; 1* I' ~, ~> 4, /' /' /' /' /' H> 4, Z= |, |* m- o& %= Y= h; 4, O- z, X~ *^ !/ p^ m[ B] A] 2, 2, /> /> /> 5) q/ n/ `[ `1 d( 4_ 0_ 0_ 0_ 0_ 0_ t/ ~( #/ #/ #/ #/ #/ ~( &| 1} k[ l[ 0_ 0_ 0_ *_ ,/ #/ #/ #/ #/ '/ o^ h_ o/ 3] -(  2 N( Q( f_ *_ >/ >/ *_ >/ u/ #/ #/ #/ #/ #/ '/ h( g( .2 +2 h~ m- z- Y^ :> A; H- d; o& ~, P- N> N> N> N> N> N> N> N> N> N> @2 H> /' P- i; ~, |* #> !> V* =! *! G= F, F, Q= G= T> B^ #2 $2 %2 &2 *2 =2 -2 ,  ;2 9} !  ~  *  *  *  6. U+          k] S+ >2 ,2 _| *  *  *  *  *  =  0  I  .  +  (  J/ d  3  4  *  *  *  *  *  *  I. b.             ",
"      .  +  (  (  (  8  n* 1$ {} S  |+ C. 7  k  (  V  P; X  ;# @# *  *  *  *  *  6. U+    '] 3% 3  5. *  A  1. 5  1. =  x. X. (  8  7  ]} ^} $   ' @# '2 )2 !2 ~$ ~2 {2 ]2 ^2 /2 {* W* R= Q= F- D- ,' ;> 2) :' J% $= L- 4, .! H' N- N- N- N- N- N- H' {> ~> |* U$ d; c; c; I% L- J' 4) (2 _2 )/ )/ r/ =^ >^ C] A, 2, /> @! +! h! :2 '( y_ z_ f( S( 0_ 0_ 0_ 0_ t/ ~( #/ #/ #/ #/ #/ ~( &| 1} k[ l[ 0_ 0_ 0_ *_ ,/ #/ #/ #/ #/ '/ o^ h_ o/ 3] q/ +! 1_ K: e( 4_ 0_ 0_ 0_ 0_ t/ ~( #/ #/ #/ '/ )/ p^ *^ +! <2 Y{ I] 5, <> Y^ f; 2) C, c; J% I% I% I% I% I% I% I% m- o& ^' %= %= %= ^' n& I% <, ,> z- !> p> =! *! G= Q= Q= Q= Q= => V{ J] x/ [2 }2 6} |2 12 22 32 M< E@ ~  *  *  *  6. U+          p@ 3[ $  R+ F@ *  *  *  *  *  =  0  I  .  +  (  J/ d  3  4  *  *  *  *  *  *  I. b.             ",
"      .  +  (  (  (  <| X+ 42 K1 2. ;. I  7  /  (  V  P; X  ;# @# *  *  *  *  *  6. U+    '] 3% 3  52 *  f> 62 72 6  L.  . {@ (  8  7  ]} ^} $  I{ &  82 92 02 a2 :( b2 c2 d2 |] #- ), v- F- !, R- D, A- U$ m- %= |, P- K' 1, ^> m; m; m; m; m; m; #~ N- H> e2 >> 5, %~ %~ b; K- J' f2 g2 h2 X| {( '/ n: J_ *^ &^ 2, /> (> 6) |_ +~ $_ i2 `( j2 k2 l2 m2 t/ u/ ,/ #/ #/ #/ #/ #/ #/ ~( &| 1} k[ l[ 0_ 0_ 0_ *_ ,/ #/ #/ #/ #/ '/ o^ ;^ o/ 2, 5) +! 3] s^ n2 -/ ;/ ;/ ;/ ;/ s( X( '/ '/ '/ m^ r/ ;^ D] n; V[ ~, I% #> 5, 5, >> [' [' r: A> y- 3> 3> 3> 3> o2 o2 z> `{ D, A- w= O> >> 5, C> y- p2 <> |' -> p> p> v- -> F, Q= ), q2 =! Q: n> B' r2 s2 t2 u2 v2 w2 *[ $. ,; *  *  *  6. U+          p@ 7+ $  G  H  *  *  *  *  *  =  0  I  .  +  (  J/ d  3  4  *  *  *  *  *  *  I. b.             ",
"      .  +  (  (  (  e# I@ N. O. C     C  +@ >  (  V  P; X  ;# @# *  *  *  *  *  6. U+    '] 3% K  =[ *  x2 y2 Y. j  g. .. 8  (  8  .. ]} ^} $   ' @# '2 z2 A2 B2 C2 r2 N_ n> T> G= Q= E- w- C' `{ 2) :' m- X= K- Z= M- l; ^> (> /> /> /> /> /> /> (> J> M- q; :> <> <> <> z- _' D2 E2 e( F2 ]( ]( w/ #/ n: -^ B] A, /> n; !' z, !' ^> ^> (> 3] m: #( %/ X( #/ #/ #/ #/ #/ #/ #/ #/ ~( &| 1} k[ l[ 0_ 0_ 0_ *_ ,/ #/ #/ #/ #/ '/ o^ ;^ o/ 2, 5) /> 5) 2, A, 9_ e( R( R( R( G2 h( )/ )/ )/ o^ -^ i_ ~: z, i{ |, m- I] r> U$ I% n& R> A- Z1 7, Q= Q= F, v- v- v- -> s; ,' +^ S> A> ;> x- H2 F, -> P= D- |' !> !> !, s; 7, F, R= I2 {* |] V{ B^ 8* J2 K2 L2 M2 N2 O2 =. Z  *  *  *  6. U+          p@ 7+ $  G  H  *  *  *  *  *  =  0  I  .  +  (  J/ d  3  4  *  *  *  *  *  *  I. b.             ",
"      .  +  (  (  (  2% M@ 3% P2 M. (. g. +@ /  (  V  P; X  ;# @# *  *  *  *  *  6. U+    '] 3% K  =[ *  Q2 R2 X. D  .  >  /  8  /  D  i# S2 n@ T2 U2 V2 W2 X2 6/ Y2 Z2 N* }< x, Q= Q= -> P= D- R- A> b; o& G> 8) M- ]> z, L> /> /> /> /> /> /> /> (> _> M- q; )> :> )> `2  3 .3 J> +3 4_ u/ v/ v/ {( #/ '/ r/ ;^ B] 2, ^> l; g! V~ U~ U~ W~ ~' h< @3 #3 $3 m^ '/ #/ #/ #/ #/ #/ #/ ~( &| 1} k[ .} 0_ *_ >/ t/ ,/ #/ #/ #/ #/ '/ )/ p^ *^ C] /> o: ^> z, ^> %3  _ g( g( g( g( =^ =^ =^ =^ ;^ >^ &^ X~ !' {: L- I' I' &3 h; h; G> %= w=  ! -> Q= Q= Q= ), R= W* G= 7, R- 2) #= w= A> <> F- v- -> w-  ! y- %~ 5, f; `{ ,' F- G= *! x] *3 *3 p} =3 $* -3 ;3 >3 ,3 '3 )3 !3 *  *  *  6. U+          p@ 7+ $  G  H  *  *  *  *  *  =  0  I  .  +  (  J/ d  3  4  *  *  *  *  *  *  I. b.             ",
"      .  +  (  (  (  2% M@ m* ~3 |+ l. M. 7  && (  V  P; X  ;# @# *  *  *  *  *  6. U+    '] 3% 3  52 *  g> |@ c# {3 Y. && D  j  >  8  ]3 ^3 n@ /3 (3 _3 :3 ;* x& 8* N* 8, @- Q= Q= Q= F, v- 7, |' ;> >> n& @{ L' (' !' L> /> /> /> /> /> /> /> /> (> M> `~ <3 S> A> T$ [3 }3 |3 13 Q( ;/ *_ >/ -_ ,/ #/ '/ )/ p^ *^ 2, #! K' /' i; 23 @{ i; H> Z~ 33 43 53 n( m^ #/ #/ #/ #/ #/ #/ ~( &| 1} 2} .} *_ u/ ,/ ~( ~( #/ #/ #/ #/ #/ '/ )/ l< y^ j/ M' 1, H' E' i^ &^ s^ s^ s^ s^ B] B] B] B] B] C] A, X~ o: ~' f~ k; 9) {: {: M- /' ~, R> y- -> Q= Q= Q= ), W* {* g< D- l! <3 63 V< 6, B> 73 S- x- f; }, [, E> z; z; b; A> |' 83 T> Q: [: 93 93 03 |< 5> a3 t] b3 c3 d3 e3 *  *  *  6. U+          p@ 7+ $  G  H  *  *  *  *  *  =  0  I  .  +  (  J/ d  3  4  *  *  *  *  *  *  I. (.             ",
"      .  +  (  (  (  2% M@ K  L  *  k. o  k, k  (  V  P; X  ;# @# *  *  *  *  *  6. U+    '] 3% 3  5. *  *  *  5  72 b  8  7  f  <% b  f3 g3 h3 i3 j3 k3 j% Z; m> n> T> G= Q= Q= Q= Q= Q= Q= v- w- :> #> |* P- F< !' (> /> /> /> /> /> /> /> /> /> m; 3, h~ l3 l! A- G] {> m3 m( e( ;/ 0_ 0_ 0_ *_ u/ #/ $/ m^ l< ,( 2, k^ `~ Y{ |, Y= I' h; ~> P- n3 o3 p3 m( h( #/ #/ #/ #/ #/ #/ ~( &| 1} 2} q3 *_ ,/ #/ #/ #/ #/ #/ #/ #/ #/ #/ #/ '/ J_ r3 ~' ]> O- O- #! L> /> 2, 2, 5] A, A, A, A, A, A, A, 3] 5) L> K> !' K> K> !' o; O- /' %= R| s3 Q= Q= Q= G= W* {* G= Z1 &~ t3 p; H> L- o& >> :> z- d; m- m- I% I% I% J% E> y- u3 }] o> v3 w3 x3 y3 9* z3 S/ >' A3 _! B3 C3 *  *  *  6. U+          p@ 7+ $  G  ]+ *  *  =  =  *  =  0  I  .  +  (  J/ d  3  4  *  *  *  *  *  *  f. M.             ",
"      .  +  (  (  (  2% M@ K  L  *  k. |  k, k  (  V  P; X  ;# @# *  *  *  *  *  6. U+    '] 3% 3  5. *  *  *  5   . /  /+ D3 E3 F3 (  G3 H3 I3 J3 X' K3 n< 2& )= L* V{ =! {* x] F= => F( P= L3 p2 B> $~ L- K' z, (> 2, 2, 2, 2, 2, 2, /> /> /> L> o; M- j{ }* f; >> |, l; ): l2 V( M3 W( V( 5_ _: W( #/ N3 *| O3 B] (> O- ~> |, Y= |, h; Z= 4, N> Z~ H' ]^ m( h( #/ #/ #/ #/ #/ #/ ~( &| 1} 2} q3 *_ ,/ #/ #/ #/ #/ #/ #/ #/ #/ #/ #/ #/ h( B] !' l; ]> H' l; M' !' K> L> /> 2, 2, 2, 2, 2, A, A, */ -( 3] 5] P3 Q3 `< ~: A} _> K' h; r> C> s} R3 Q= G= *! {* F, A; %= k; (' S3 N> L-  3 '> M( |* |, I' I' X= o& J% z; z- R- q} T> T3 U3 r1 V3 0, y& m% -* K3 _! 8: X_ *  *  *  6. U+          p@ 7+ $  R+ ]+ A  z@ 0. I. 5  =  0  I  .  +  (  J/ d  3  4  *  *  *  *  *  *  6. i  6  M.       ",
"      .  +  (  (  (  2% M@ K  L  *  k. |  k, k  (  V  P; X  ;# @# *  *  *  *  *  6. ;.    '] 3% 3  5. *  *  *  S  0. f  7# R. W3 Q. (  X3 Y3 Z3 `3  4 D; .4 X/ %- o> n> v3 +4 +4 @4 B^ 71 |' q> E> o& L- M- N- m; /> 2, A, A, A, A, A, 2, /> n; N- M- ~, 6, z- <> O: #4 #! $4 I_ M3 %4 ]( =_ -< -< W( #/ &( O3 A, ]^ o; H> h; Y= |, ~, h~ H> K' I> 1, !' A^ m( h( #/ #/ #/ #/ #/ #/ ~( &| 1} 2} q3 *_ ,/ #/ #/ #/ #/ #/ #/ #/ #/ #/ #/ #/ '/ g( +! z, l; ]> H' H' 3, G' !' L> /> /> /> /> X~ 5] 4] w1 %_ &4 E< y^ y^ y^ >^ A, m; N- 4, H] m- [, y> v- R= =! {* F, A> I' f~ 0) G' H' M- ~> j{ h; j! ~> ~> j! j{ %= J% c; '> O: <> g[ *4 =4 -4 ;4 V% >4 Y; ,4 '4 K, B3 C3 *  *  *  6. U+          p@ 3[ $  q+ z  /. .+ g. U+ }  *  f. I  .  +  (  J/ d  3  4  *  *  *  *  *  *  =  =  -. 6        ",
"      .  +  (  (  (  2% M@ K  L  *  k. |  k, k  (  V  P; X  ;# @# *  *  *  5  6. i  |     '] 3% 3  5. *  *  *  =  // R& )4 !4 ~4 {4 ,{ ]4 ^4 v( 1/ l_ /4 C^ %- L* o> N* ;4 (4 _4 :4 <4 [4 |' a; o& L- @2 O- M> m; /> 2, 2, A, 5] 5] 2, /> m; o; M- j{ U$ A> z> ,' }4 |4 M' 14 e_ M3 %4 24 34 44 44 W( $/ l< &^ M' O- p; L- I' I' ~, 8) M- 3, h< A} A] m: s^  _ h( #/ #/ #/ #/ #/ #/ ~( &| 1} 2} .} *_ u/ ~( ~( ~( ~( ~( #/ #/ #/ #/ #/ #/ ~( 54 e/ 64 j^ ~' ^^ {> .! W~ G' n; (> /> /> /> 2, ;( 74 Z< 84 94 Q( f( D_ !^ m( C] /> ^> 3, M- ~> X= B> w- R= *! {* v- z- |, f~ M' !' _> ,^ I> ^^ ^^ O- O- .! H> j! X= J% U$ r> '> q> -> 04 a4 b4 c4 d4 e4 ~2 f4 g4 h4 i4 j4 O< @# *  6. U+          k] o* k4 f1 l4 z@ U,    b. -  }  ]  g. -@ k  (  J/ d  3  4  *  *  *  *  *  *  *  *  S  +. C     ",
"      .  +  (  (  (  2% M@ K  L  *  k. |  k, k  (  V   ) X  ;# @# *  *  *  f. 6  M. g.    '] 3% 3  5. *  *  *  *  S  -. 2$ m4 n4 o4 p4 q4 r4 u( s4 y& 0* 8( o> o> V> $* G$ t4 u4 v4 8{ w4 |' l: |, 4, %! ]> G' !' n; L> (> F' F' F' L> n; o; @~ ~, U$ f; D> |' <> '> y, M' x4 y4 >/ u/ ,/ u/ t/ s( z4 h( i_ #~ -| ~> K- X= Y= ~, 8) k; l; A4 B4 !^ o( j| E_ R( s( ~( #/ #/ #/ #/ #/ ~( &| 1} k[ .} *_ >/ t/ t/ t/ t/ u/ #/ #/ #/ #/ #/ #/ ~( y4 C4 D4 :2 E4 F4 /' `~ K' N- z, n; (> (> /> ;( D] 9_ c( W| G4 /[ ;/ R( f( =/ m: 2, /> n; M' O- P- $~ `{ -> R= q2 -> &! Y= U~ 0) n; L> m; n; n; n; n; n; M> J' D' |, o& m- 6, c; 1] w- $- y3 O_ H4 P~ I4 J4 K4 L4 M4 N4 O4 P4 .' *  6. U+          p  N< _. Q4 h= |  a     g. M. U+ b. ;  j  8  (  J/ d  3  4  *  *  *  *  *  *  *  *  1. 2. C     ",
"      .  +  (  (  (  2% M@ K  L  *  k. |  k, k  (  V  P; X  [  Z  *  *  =  +. ;           '] 3% 3  5. *  *  *  *  *  *  l. X. R4 S4 T4 U4 V4 i} W4 0, 9, n> o> V> W% -3 X4 D& Y4 _( Z4 `4 D-  5 h; H> e~ ]> F< ]> ]> l; G' G' G' 0) G' H' {> j! 6, 5, |' D- C- D, R> .5 0) `( Y< e( Y< f( L: r/ +5 J_ m( ]^ J' j! _' |* $= j{ D' 9) ]> K> A] ;^ m^ #/ ~( t/ 0_ t/ ~( #/ #/ #/ #/ #/ ~( &| 1} k[ l[ 0_ 0_ 0_ 0_ 0_ 0_ t/ ~( #/ #/ #/ #/ #/ ~( &| 1} $| @5 Z/ #5 8) h~ N> O- ,^ z, n; L> /> ;( E] $5 %5 1} &5 &| 0_ ;/ R(  _ B] A, 2, 2, (> !' ^^ Y{ I- }' P= F, s} B> Y= L' 0) m; /> /> /> /> /> /> /> m; N- N> L- Y= |* I% c; 1] D- *5 =5 }& -5 ;5 7| 4' >5 ,5 '5 )5 !5 ~5 {5 @# 6. U+          .. /  (  /  7  ;                       7  && (  J/ d  3  4  *  *  *  *  *  *  *  *  1. 2. C     ",
"      .  +  (  (  (  2% M@ K  L  *  k. |  k, k  (  #@ z. t+ ]5 *  5  f. 0. o  C           '] 3% 3  5. *  *  *  1. /{ -] c: b1 <~ ^5 /5 (5 _5 *{ v4 :5 $* ;< <5 Z; -3 [5 }5 K, o% |5 15 25 *5 z-  3 K- @{ i; +{ @{ y, L- W< g{ k; k; H> 35 45 <3 S> z> z> 2) a/ Y{ 6] {: ~' %^ 55 65 75 85 65 #3 z^ 95 A4 H' P- |, $= X= |, ~> M- p: z, F' &^ ;^ h( #/ ~( t/ 0_ t/ ~( #/ #/ #/ #/ #/ ~( &| 1} k[ h| R( -/ +( +( d( 05 s/ '/ #/ #/ #/ #/ #/ ~( e_ a5 b5 u} c5 d5 y, j{ j! 4, {> p: 1, 1, #! e5 f5 z_ g5 1} &5 &| 0_ 0_ ;/ e(  _ s^ C] A, 2, F' #~ J' h5 q; i5 <] +^ O> X= }_ 0) L> 2, 2, 2, /> /> /> /> F' i^ N- Z~ L- |* ,> z- y- D- j5 k5 9{ l5 m5 n5 4| o5 p5 q5 r5 s5 {5 .' *  6. U+          +@ {@ (  #@ t5 '] J+                   7  && (  J/ d  3  4  *  *  *  *  *  *  *  *  1. 2. C     ",
"      .  +  (  (  (  e# M@ K  =[ *  k. |  k, k  (  J. u5 v5 C{ *  }  ;. g. C              '] 3% 3  5. *  *  *  5  u< b1 Y. b  ,  w5 x5 y5 z5 A5 B5 a| C5 D5 C5 E5 =- u& 4' F5 G5 H5 I5 J5 K5 B; ;> &! 2) >> >> &! &! >> }* .{ %= Y= X= a/ L5 M5 ,'  ! A> m- H> z, ^> G' l; H' N5 N5 N5 N5 N5 O5 O5 P5 K' 4, ~, Y= Y= ~, ~> k; ]> M' L> 2, B] m[ h( $/ ~( t/ 0_ t/ ~( #/ #/ #/ #/ #/ ~( &| 1} y} 8_ =/ >^ (2 `( >: )^ %/ o^ A_ #/ #/ #/ #/ ~( e_ Q5 R5 S5 f5 d5 |, Y= I' K- Z= 4, H> H> p; T5 U5 f/ C4 1} &5 &| 0_ 0_ 0_ ;/ e( @( >^ C] 3] 2, F' ^> I> V5 W5 @$ 9( d; $= X< 0) F' 5] A, 2, /> /> /> /> /> F' n; o; N> &= k{ <> |' D- D- |' X5 *> 0, Y5 Z5 `5  6 .6 +6 @6 @# @# V. 5+ U+          +@ >  (  V  #6 N. $6                   7  && (  J/ d  3  4  *  *  *  *  *  *  *  *  1. 2. C     ",
"      .  +  ,  v  7# 6% %6 y  B. *  k. |  k, k  (  J. &6 *6 ]_ -. I. U+ a  g.             '] 3% 3  5. *  *  *  5  E[ {@ 8  +  b  =6 -6 ;6 >6 ,6 '6 )6 @] $1 $1 $1 !6 ~6 T} {6 ]6 ^6 /6 (6 _6 :6 <6 $- <6 <6 <6 <6 $- H= [6 1) A> B> &! }6 G- |6 -> D- z- X= g! F' F' K> g! /' y] 16 y] y] y] y] y] j! ~, K- Y= |, y, D' Z~ ]> !' m; /> A, B] ;^ o^ $/ ~( t/ 0_ t/ ~( #/ #/ #/ #/ #/ ~( &|  } ^[ z_ E] ;( 5] 5] &^ q^ h_ p^ h( '/ #/ #/ #/ ~( e_ Q5 26 36 46 56 G> I' Y= Y= Y= K- j{ j{ ~, 66 76 :2 86 96 &5 &| 0_ 0_ 5_ 0_ ;/ R( j2 4] X~ /> (> 4) N- `~ 06 .$ n- b; n& a6 ~' L> 2, A, 2, /> /> /> /> /> 5) 5) L> N- b6 61 x- |' E, x- <> <> q} B^ c6 d6 e6 f6 g6 h6 i6 j6 k6 l6 }  o           +@ >  (  4[ :  )  }# I  ++ C           7  && (  J/ d  3  4  *  *  *  *  *  *  *  *  1. 2. C     ",
"      .  +  [+ e# m6 n6 1% R  ]+ *  }  C. k, k  (  #@ o6 t+ p6 6  6  0. -  U+ C           '] 3% 3  5. *  *  *  A  |@ {+ q6 b1 ,  r6 %) s6 t6 u6 v6 w6 x6 y6 y6 R! z6 A6 B6 C6 D6 E6 F6 G6 H6 I6 =4 =4 J6 K6 K6 J6 =4 c& p[ T[ P= s} w- P= 7, g[ W* v- f; X= W~ F' F' h< K' y, %= o& o& o& |* $= $= |* o& o& _' y, P- L' (' !' (> /> 2, 4] s^ D_ h( $/ v/ -_ 5_ -_ ~( #/ '/ '/ '/ '/ n^ ([ b( Z( ': ;( 5] X~ 2, A, o/ q^ ;^ r/ )/ '/ '/ A_ L6 l[ a5 k[ Y( m( M6 X< a{ y, K- |* n& o& |* Y= +{ S3 N6 O6 P6 Q6 *( ;/ 5_ 6_ 6_ 5_ 4_ !: 2, n; z, #! 3, J' h~ R6 x= B- z- b; I' %! z, L> /> /> /> 2, 2, 2, 5) q/ q/ 5) m; Z~ S6 A> 1) C- R- R- x- T6 9{ d& U6 V6 W6 X6 Y6 Z6 `6  7 .7 f> M.          +@ >  (  _  :  y@ +7 0  {+ N           7  && (  J/ d  3  4  *  *  *  *  *  *  *  *  S  2. C     ",
"      .  +  @  9  $  %  &  *  *  *  // C. k, k  (  V  P; n  /| T@ M. f. =  0. g. ^        '] 3% 3  5. *  *  *  *  *  *  l. X. ,  >. !@ @7 h  Z  #7 $7 7! 7! 7! %7 &7 *7 =7 -7 ;7 >7 ,7 '7 )7 !7 ~7 ~7 !7 ^1 ^1 {7 ~7 ]7 ^7 9] g[ Q= Q= Q= ), W* {* G= C> X= g! F' (> o; n3 51 J% J% J% J% J% J% J% J% J% m- K- P- {: ]> !' (> /> 2, A, (2 !: e( /7 #/ v/ M3 6_ M3 v/ $/ )/ o^ o^ o^ o( 3_ `[ w1 */ A, 2, /> /> 2, A, &^ i_ =^ r/ o^ o^ o^ !( k| 1} k[ Y( D_ &^ G' f~ H> j! |* J% J% m- |* h; N> N- (7 h! _7 @( R( 5_ 6_ 6_ 5_ ;/ 9_ n; W~ N> 4, D' 8) j{ :7 S> ;> <> v> L( j! f~ 1, !' L> /> 2, A, A, 3] h! h! 5) /> ~' 8) o& w= S> f; :> <7 [7 9{ }7 |7 17 m1 ;5 27 37 47 57 67 77 e>          +@ >  (  _  :  <. g] 87 f> e>          7  && (  J/ d  3  4  *  *  *  *  *  *  *  *  S  2. C     ",
"      .  +  @  97 $  %  &  *  *  *  // C. k, k  (  V  W  n  /| T@ a  2. i  U+ g. f  7  j  07 K. 3  52 *  k. B  c# a7 .' b7 c7 ,  >. )  Q  d7 ,; Z_ e7 f7 g7 X] Y] h7 i7 j7 k7 l7 m7 b| n7 o7  | ~7 ~7 !7 p7 p7 !7 q7 +4 [: F= G= Q= Q= Q= ), R= *! F, `{ m- 4, ]> H' N> 16 $= m- I% I% J% d; [' [' c; J% |* Y{ M- l; ^> (> +! q/ */ s^  _ ._ s( '/ $/ ,/ V( 6_ -_ ~( A_ l< h_ ;^ =^ !^ _7 w1 -( 3] A, 2, /> /> /> 2, A, &^ >^ ;^ =^ =^ h_  _ &_  } k[ /[ S( @( m: %^ N- H> I' o& I% I% o& $= ~, 4, @~ i! j/ m( e( 0_ 6_ 6_ 5_ l2 13 ]> ~> g~ J-  { $~ w] 2) }' x- |' x- K_ J- j{ N> 1, n; (> /> 2, 2, 5) +! `^ @! (> !' e~ D' Y~ e; r7 s7 t7 ~* m> u7 v7 p7 w7 x7 y7 j7 z7 A7 B7 C7 D7 o  a  C  f  D  /  E7 }% <. g] 87 f> e>          7  && (  J/ d  3  4  *  *  *  *  *  *  5  |+ 7. |        ",
"      .  +  @  9  $  %  &  *  *  *  // C. k, k  (  V  P; n  /| T@ C  g. a  g. C  .. >  k  F7 y[ K  =[ *  G7 H7 X. I7 J7 K7 L7 +  ;2 )  k' M7 P4 N7 O7 P7 Q7 &7 h7 __ R7 S7 T7 U7 V7 U6 W7 X7 Y7 ~7 ~7 Z7 !7 Z7 Y7 `7  8 t: W* G= Q= Q= Q= Q= Q= -> s; }' w= X= L- L- h; |, X= |* o& m- J% z; 2) 2) C, U$ X= 8) O- !' F' 5) +! h! ): t^ G2 X( ~( $/ &( /7 >/ 5_ V( X( o^ .8 {^ C] C] C] 4] q/ 3] 3] A, A, 2, 2, /> /> 2, 2, A, C] C] C] o/ `( 2_ j( y} l[ 0_ S( Y< #( %^ %! y, %= m- I% I% n& %= |, Z= +8 i/ @8 D_ T( 5_ 5_ S(  _ #8 $! I% 5, C- ;> 0; v> <> |' D- D- D- ,' v> M( ~, f~ G' ^> m; L> (> m; m; n; n; n; !' ~' e~ j; ^' f[ 0{ )= $8 %8 &8 Y7 Z7 o7 ^1 *8 =8 v& -8 ;8 >8 ,8 5+ o  ++ ^  f  .. '8 N. X  g] 87 f> e>          7  && (  J/ d  3  4  *  *  *  *  *  *  |+ U+ a  g.       ",
"      .  +  @  9  $  %  &  *  *  *  // C. k, k  (  V  P; n  /| T@                7  /  (  m, I@ K  =[ *  )8 !8 ~8 {8 ]8 ^8 /8 (8 _8  < :8 <8 P4 [8 }8 |8 (3 18 __ Y> 28 38 ^1 48 58 +4 +4 m} 68 &8 q7 78 q7 48 88 m} 93 ]* 98 ), Q= Q= Q= F, F- C' ;> S> #= )' X= |, |, I' Y= |* n& I% U$ C, 2) 2) [' m- ~, {> J> L> /> 5) +! j[ N( Y< s/ ~( #/ )/ g_ n( R( ;/ v^ j| !/ E] A, F' m; n; m; L> F' 2, A, A, C] A, 2, /> (> (> L> m; m; (> X~ 3] v1 O( ^[ /[ ;/ 4_ e(  _ A^ g! L- $= m- J% U$ J% m- $= h; `= 43 53 =/ l2 ([ l2 K: 08 a8 b8 5, |' D- |' x- <> x- |' |' E, D- D- !> K_ Q- ~> f~ l; ~' G' G' 1, l; ]> ]> ]> ]> ]> e~ j; o& G- c8 m> d8 e8 &8 78 ~7 !7 )7 f8 =8 a~ g8 h8 i8 j8 |# k8 ++ ^  f  f  N} |! =& P< 87 f> e>          7  && (  J/ d  3  4  *  *  *  *  *  *  I. (.             ",
"      .  +  @  9  $  %  &  *  *  *  // C. k, k  (  V  P; n  /| T@                .. /  (  e# I@ 3  52 *  |. l8 U, s' m8 n8 o8 p8 q8 r8 s8 t8 u8 v8 w8 x8 y8 z8 A8 4| B8 m1 ]1 C8 D8 ]* $- T> E8 w3 C8 =4 F8 a4 G8 H8 |] q2 ), Q= Q= Q= F, 7, I8 A> w] b/ 63 ~, Z= ~> Z= h; Y= o& J% :' w= H- J8 :' )' h; M- o; L> /> /> /> +! j[ K8 Y< G2 /7 h( h_ `< A] `( !: !: ~^ >^ C] 2, n; G' E' i! i! L8 A^ B] D] B] D] A, /> 4) z, M> M> o; !' (> 5) -( '( 2_ d( e( k2 j2 m: ]^ ^^ L- |* U$ :' [' :' I% Y= Z= {> M8 ~: s^ &/ N8 E2 L8 O8 P8 a; <> D- D- |' R- f; A> z- 5, }' C' D- D- R- A- )' L- j; X< X< X< P- 8) j! h; G> L- i; Z= Y= l: Q8 R8 S8 ^* y3 T8 U8 Y7 17 V8 =8 W8 X8 Y8 Z8 `8  9 .9 +9 j] f  j  >  S; t5 P2 @9 *  }- e>          7  && (  J/ d  3  4  *  *  *  *  *  *  I. b.             ",
"      .  +  @  9  $  %  &  *  *  *  // C. k, k  (  V  P; n  /| T@                7  /  (  e# I@ 3  5. *  *  =  A  A  #9 !) $9 %9 &9 6< *9 =9 l6 -9 ;9 >9 ,9 '9 )9 !9 Z5 ~9 ]1 {9 ]* v- P= D- F( [: +| w3 <1 G8 H8 o> => Q= Q= Q= Q= F, 7, |' A; I% Z= Z~ J' J' J' K' p; j! Y= m- :' 2) S> 2) z; o& L- K' _> (> /> /> /> /> +! -( ]9 -/ e( D_ m( j/ 0) G' n; 2, A, A, A, A, /> ^> 3, O- O- O- J> ^9 m( m( m( >^ &^ /> #! 3, O- I> O- o; L> 5) +! h! l( #( =/ '^ C] /> h< K' y, o& :' H- l! '' J% |, /9 ]> o: 5] A, 2, m; G' N> Y= #> :> x- D- D- C' +^ A- d; U$ d; A- +^ C' D- C' +^ '' R> m- n& m- m-  { .~ W= r7 v> A> A- A- 5, C' J= M* L* L* o> ^7 (9 _9 `} :9 <9 [9 }9 |9 19 29 39 49 a$ z! +@ >  (  k  -@ b. f. *  f. M.          7  && (  J/ d  3  4  *  *  *  *  *  *  }- b.             ",
"      .  +  @  9  $  %  &  *  *  *  // C. k, k  (  V  P; n  /| T@ ;  b. |  b. g. 7  && (  e# I@ <  59 .' @# *  h+ 69 79 89 99 09 a9 b9 c9 d9 e9 f9 g9 h9 i9 j9 k9 l9 m9 n9 U6 o9 g< s; D- D- |) /2 w3 w3 w3 p9 H8 o> => @- g[ g[ F, -> D- +^ H% ~, ./ J> n; #~ #~ o; {> j! X= I% c; C1 2) [' .{ ~, {> _> F' 2, 2, /> /> @! @! h! _7 @( @( '^ A] h< ^^ %! l; !' L> /> 2, 2, /> ^> E' O- O- O- h< @8 !/ =^ !^ =/ s^ /> 1, {> H> M- {> E' n; 5) /> +! 3] `< D] ;( 2, F' _> K' j! ^' z; 5, ;> &! J% y, f~ !' F' 2, 2, L> G' f~ j! 6, f; x- !, D- |' y- H- e; m- n& I% d; 2) g; D- D- a) }' +^ C> C> C> `{ g; q9 t; r9 F= $- s9 8, 8, |] |] F= S= => => $- }: t9 u9 a| v9 w9 x9 57 y9 z9 A9 B9 C9 #) +@ D  && D9 t| E9 F9 f. -  6  |  b. ;  j  8  (  J/ d  3  4  *  *  *  =  6. f. 2. a              ",
"      .  +  @  9  $  %  &  *  *  *  // C. k, k  (  V  P; n  /| T@ (. 0. }  T  I  -@ k  (  e# I@ k' G9 P4 O< *  H9 I9 J9 K9 L9 +; M9 N9 O9 P9 Q9 R9 S9 T9 U9 V9 W9 X9 Y9 Z9 `9 '= H( D- D- D- |) /2 w3 w3 w3 p9 ^7 p[ M* T> 9] @- F- r} C> }* Y= H>  0 F' 2, X~ /> ^> J' j! %= I% U$ :' z; R> H] p; o; (> 2, A, A, /> L> n; n; 6) 3] &/ &/ 4] L> E' {> Z~ K' 1, K> F' /> /> /> n; 1, ]> ]> l; A4 $( +5 r/ L: @( &/ /> ]> 4, 8) D' H> H' n; /> /> /> /> X~ X~ 2, /> (> _> K' i; $= z; C> R- 5, J% Z= l; (> /> /> /> n; 3, H> |, c; }' E, D- |' <> 5, :' 6, o& |* o& 6, z; %~ x- |' |' D- s; -> -> -> -> G( 71 o> H8 p9 U3 .0 `7 a4 p9 t1 #- Q= Q= Q= S= ^7 d& Y; +0 @0 $1 #0 $0 %0 &0 *0 =0 -0 >; f  +@ 7  ;0 7+ )+ e= M. ;. i  |+ ]  g. -@ k  (  J/ d  3  4  *  *  *  1. 0. M. a  C              ",
"      .  +  @  9  $  %  &  *  *  *  // C. k, k  (  V  P; n  /| T@ M. I. S  0  b. -@ k  (  e# >0 k' ,0 n' '0 )0 j6 !0 ~0 {0 ]0 81 ^0 C% /0 6( (0 _0 :0 <0 [0 }0 |0 10 20  ] r9 q} D- D- D- D- F( 30 +| w3 +| p9 H8 n> n> n> o> r9 |' 5, r> Y= 4, H' i^ 2, A, A, 2, ^> J' L- ^' J% J% m- o& _' 6] 40 m; /> 2, A, A, (> ^> M' ~' ~' !' F' F' n; #! O- #^ #^ J' 1, K> F' /> /> /> n; M' ~' G' z, 50 =^ h( !( E_ a_ n2 A, 60 P- ~> 8) P- O- n; /> /> /> /> /> /> /> /> (> _> O- H> h; U$ %~ <> 5, J% 8) 0) /> /> /> /> i^ 3, H> K- U$ f; |' D- |' Y^ B> r> m- 1* |* |* n& r> B> :> <> |' s; |) Q= Q= Q= Q= x, V{ p} o} w3 70 ~7 ~7 80 <1 t1 G= Q= Q= Q= g[ V{ 90 =} D} ^= J< 00 a0 b0 H9 c0 d0 e0 >; ^  ^  f  [% N. )  f0 ;  U+ }  *  f. I  .  +  (  J/ d  3  4  *  *  *  5  2. C  C                 ",
"      .  +  @  9  $  %  &  *  *  *  // C. k, k  (  V  P; n  /| T@ g. U+ +. U+ g. j  v  Q. g0 >0 <  h0 i0 j0 k0 l0 m0 n0 D/ o0 x& /( p0 }5 q0 G5 r0 s0 R/ t0 u0 v0  ! `{ f; 5, 5, R- P= w0 x0 y0 G8 68 z0 68 ]7 :1 v3 @4 @4 A0 I= ;> J% B0 }_ l; ^> /> 2, 2, 2, /> z, {> j{ m- <' Z{ I' 8) N> H' ^> (> /> 2, 2, 2, (> M' ^^ N> /' C0 U~ K' K' ^^ ^^ O- H' G' !' m; /> /> /> /> F' g/ ]^ D0 E0 F0 -/ @_ @_ ;/ S( G0 k/ #8 #^ 8) 8) 8) J' ^> /> /> /> /> /> /> /> /> F' n; M> H' N> I' O> +^ &! I% i; G' /> /> /> /> L> z, ]> i{ K- e; f; 3> !> R- z- d; m- 1* |* |* o& I% ,> B> 5, }' |' 7, Q= Q= Q= Q= g[ => T> X* H0 e| .0 80 =4 w3 f| W* Q= Q= Q= Q= @- ~* I0 J0 K0 L0 M0 N0 O0 P0 Q0 m8 R0 (. +@ D  >  S0 }% y@ T0 +. i  5  =  0  I  .  +  (  J/ d  3  4  *  *  *  S  f. 0. U+ g.             ",
"      .  +  @  9  $  %  &  *  *  *  // C. k, k  (  V  P; n  U0 T@    C  C  C  C  7  V+ V0 49 W0 X0 ~  *  Y0 Z0 `0  a C5 x% 0, 0, .a +a w( @a #a $a %a &a 9, *a A> c; U$ r> U$ z; f; 7, t1 T3 +4 e8 =a =a =a -a 68 a4 a4 z0 ;a  ] D, Y= k; ~' n; (> /> /> /> /> m; 1, j; |* }* l! H% >a O- 1, z, m; /> /> 5) 2, /> m; E' H> y, |, K- G> h; ,a #^ 3, #! ^> L> (> /> /> /> /> /> 5] D] E< F0 84 ^[ /[ 0_ 0_ 0_ f_ 'a r/ 95 )a z] 8) h~ {: G' L> /> /> /> /> /> /> /> /> /> (> n; E' h~ B, A> A- m- i; G' /> /> /> /> /> (> m; 0) U~ !a J% z- R- <> z- r> n& 1* |* |* |* o& m- U$ :' A- `{ s; Q= Q= Q= Q= Q= Q= G= S= ]* ~a <1 +| +| w3 {a ]* 98 ), Q= Q= Q= Q= => L* 1& ]a ^a /a (a _a :a A  7. b. k, 8  (  4[ :  <  (~ =  =  *  =  0  I  .  +  (  J/ d  3  4  *  *  *  *  =  =  i  (.             ",
"7  7  /  b  @  9  $  %  &  *  *  *  // C. k, k  (  V  P; n  <a -1 M. M. M. a  ;  7  [+ [a }a |a 1a 2a 3a 4a 5a Y] 6a 7a Z2 0* V> t- 8a ;* 9a 0a aa V/ )= q} 5, r> m- o& n& n& I] 5, |) @| =4 .| &8 ba l} u7 ]7 z0 ca `7 80 68 8; S> L- ]> L> /> 2, 2, /> (> n; M' k; Y= b; A> `{ '' ], Z~ W~ l; G' ^> n; n; 4) ^> o; J' 8) |, %= |* o& %= da X{ N- n; F' 2, 2, 2, /> /> /> /> `< m[ L: ea 96 k[ .} 0_ *_ V( -_ L6 o^ fa P5 b{ Y{ j{ 8) V[ 1, ^> (> /> 2, /> /> 2, 2, 2, 2, (> o; D' Q- S> '' m- Z= F< (> /> /> /> 2, 2, 2, (> M' {: ~, I% B> v> z- z; J% ^' X= X= X= X= $= o& J% :' S> ga -> v- v- v- F, Q= ), 98 {* Y1 93 @| ha +| m} ia ^7 $- g[ Q= Q= Q= Q= G= B^ ja ka la e% ma na A  7. b. j  k  (  _  :  <  [  *  *  *  =  0  I  .  +  (  J/ d  3  4  *  *  *  *  *  *  }- b.             ",
"&& 8  Y. (  @  9  $  %  &  *  *  *  // C. k, k  (  V  P; k' ,2 S] }- |+ f. +. I  -@ J. a+ oa pa qa ra sa ta ua %7 [9 I, $* V> 8( 90 5> V% va wa w% 9, xa 5, c; I% 1* |* |* |* I% z- F( <1 78 Y7 ya za Aa Ba Ba Ca za .| Y7 80 Da S> ~> M' 2, A, A, 2, F' ^> ~' {: K- b; C> Y^ <> K_ ^, h; Z= 8) X< L' U~ J' J' J' {> H> Z= I' |* m- 6, n& K- p; o; L> 2, A, A, 2, /> /> /> 2, E] !/ !( l[ a5 Ea Fa *_ W( %4 v/ X( %/ 65 N5 V5 X= ^' _' L- H> e~ !' F' 2, 2, 2, 2, A, A, A, F' o; D' B, S> A- J% K- Z~ J> (> /> /> 2, A, A, 2, L> G' M- ~, n& '> 2) 2) T$ g~ h; ~, y, ~, K- $= n& R> [' A; Z1 E, s; P= -> F, R= I2 {* *3 p} H8 o9 =4 Ga Ha Ia Ja p[ @- Q= Q= Q= Q= V{ 5> i} s% e% Ka La A  7. b. j  k  (  _  :  <  [  *  *  *  =  0  I  .  +  (  J/ d  3  4  *  *  *  *  *  *  }- b.             ",
"(  (  (  (  @  9  $  %  &  *  *  *  // C. k, k  (  V  P; X  ;# s+ *  *  *  f. b. Ma Na <~ Oa Pa 7! 7! 7! 7! 7! Y] Qa H$ W% J] o> J] 9, 0* Ra V> p[ Sa %~ P: 6, o& |* |* |* |* I% &! F( +4 Y7 Ta Ua Va Da o> o> Wa Xa Ya Y7 80 Da S> 8) !' 2, 2, A, 2, n; 1, L' h; ,> :> <> <> <> :> >> U$ J% I% n& |* X= j{ Y{ j! j! j! ~, Y= o& I% J% I% I' H> o; (> 2, A, A, 2, /> /> 2, A, E] !/ !( I_ Q5 Ea q3 *_ v/ ]( 24 z4 Y< Za N5 W{ o& J% 6, o& |, `a g! n; 2, A, A, A, A, A, A, F' o; 8) B, S> 2) z; o& L- K' J> L> /> 5] A, A, 2, /> m; N- Z~ @{ |* :' S> 9( G] h~ 4, H> 4, ~> |, $= n& J% :' H- +^ ,' w- F- F, R= I2 {* |] M* *3  b =a .b j} +b o{ I0 @b g[ Q= Q= Q= F= #b I, $b 8! Ka %b A  7. b. j  k  (  _  :  <  [  *  *  *  =  0  I  .  +  (  J/ d  3  4  *  *  *  *  *  =  I. (.             ",
"(  (  (  (  @  9  $  %  &  *  *  *  // C. k, k  (  V  P; n  Q; &b I. -. *  i  N  *b =b -b ;b >b `% N! N! N! ,b 'b )b 3/ W% 9, =! F= T> => G( q} C- &! !b I% o& o& o& n& o& o& I] 5, 7, 30 a4 +| ~b {b X* |] |] y0 ]b x3 68 ^b *5 l! t3 1, L> F' F' L> M' f~ L- J- 5, R- <> R- R- ;> A> C1 >> &! z- &! >> ,> m- %= X= Y= Y= $= |* n& m- o& K- H> o; (> 2, 2, 2, 2, /> /> /> 2, o/ .8 /b (b 96 2} q3 *_ :: {( _b :b <b [b o3 L- o& J% J% J% |* ~, k; ~' L> /> F' F' /> 2, 2, (> o; D' B, S> S> 2) :' ^' ~> ^^ _> (> /> X~ /> F' (> (> m; J> K' L- J- 2) '' G] P- {> O- J' H> y, K- F> |* m- e; 2) R- s; v- ), R= 98 W* S= x, F= }b |b 1b :( _( 2b 3b b) T> => => => ,= Ia J| 5& s  4b 5b A  7. b. j  k  (  _  :  <  [  *  *  *  =  0  I  .  +  (  J/ d  3  4  *  *  *  =  |+ 0. U+ g.             ",
"(  (  (  (  @  9  $  %  &  *  *  *  // C. k, k  (  V  P; n  ;; ,] o  }  =  l. ++ 6b 7b 8b 9b 0b ab 3~ 3~ 3~ 2~ bb cb db eb 9, {* q2 G= v- w- <> &! c; I% o& |* o& I% J% I% I% ,> 0; !, 7, @- => 8] #- [1 =! {* {* ]* ]* F= [_ fb @$ gb hb 3, N- o; N- K' h~ g~ '' `{ <> <> Y^ +^ A; A; D, `{ Y^ <> R- R- 5, c; m- |* |* |* |* |* |* 1* %= h; H> o; (> /> /> /> /> /> /> /> /> 5] C] ib K8 O( ^[ |} *_ t/ n^ *| l| (2 _> M- h; o& J% J% J% I% X= 8) K' N- o; o; i! _> (> 2, L> i! D' B, S> S> S> 2) e; I' /' O- o; !' K> K> ^> ^> L> /> L> E' h~  { 2) '' b/ 4, W~ ~' l; {> 8) ~> L- ~, I' o& z; `{ s; x, *! W* R= Q= Q= Q= G= n> #b J2 4& `- jb kb x/ 9, J] V> ;_ |& A/ lb X> mb nb ob #9 .@ (. j  k  (  _  :  <  [  *  *  *  =  0  I  .  +  (  J/ d  3  4  *  *  *  5  2. g. C                 ",
"(  (  (  (  @  9  $  %  &  *  *  *  // C. k, k  (  V  P; n  U0 T@ (. 0. 6. pb qb rb sb tb ub vb c~ B* c~ c~ c~ c~ c~ wb xb n> I2 98 ), -> w- Y^ >> U$ m- |* |* o& I% U$ r> d; #> %~ v> z- >> 5, x- v- W* ]* ]* x] =! P= f; #> w= .~ yb +- Y{ ~> 8) ~> ~, G] e; 2) A> )> K_ O> I- e; H% T$ w= z- v> :> :> z- c; I% o& |* |* |* |* |* |* $= j{ H> o; (> /> /> /> /> /> /> /> /> F' L> m; m; N6 zb 8_ *_ 'a l< h_ f5 K> %! 8) I' n& I% m- o& o& X= j{ j! h~ D' D' D' -| G' L> ^> N- D' Q- S> S> S> 2) :' X= @{ 4, M- J' W~ g! ]> 1, ^> F' L> 1, 8) Q- 2) '' b/ 4, l; ^> !' (' {> M- M- H> D' h; I% 5, P= F= t1 x] #- Q= Q= Q= g[ p[ Ab n< F; 7( ~2 &% (^ U/ T/ 8{ A/ U% Z- t( J| Bb Cb Db Eb Fb Gb [! /  Y. a$ }% <  [  *  *  *  =  0  I  .  +  (  J/ d  3  4  *  *  *  1. 0. (. g. C              ",
"(  (  (  (  @  9  $  %  &  *  *  *  // C. k, k  (  V  P; n  /| T@ g. e> Hb Ib Jb Kb Lb Mb Nb G* Ob l& l& l& l& Pb Qb Rb k_ @- Q= G= Q= v- S- Y^ >> r> m- 1* |* o& I% U$ [' A- >> a; ,> e2 =| S6 B> S- F= t: t: E8 M* G-  { $= &= V< <3 }* '' }* L( L( L( T$ [' C, }* J- e2 j{ j! Sb j! L- j{ &= w] O> >> E> r> I% n& |* |* |* |* o& n& |* K- 4, ,^ (> /> /> /> /> /> /> /> /> n; ~' W~ K' @~ Tb Ub R( /b ,( `< h< {> 8) h; X= %= X= j{ j! j! h; X= )'  { B, Q- Q- H] p; N- ,^ E' `~ q; S> S> S> 2) d; $= K- h; L- ~> 8) P- H> .! ~' n; K> (' D' <3 2) A- e2 4, G' L> (> !' 1, 1, 1, (' J' `~ i~ >> *a 8; Vb /2 u1 Q= Q= Q= g[ @b Z* }& Wb Xb P~ Yb (( a* ~= C& e4 %% D1 x& M| Zb `b  c .c +c @c .. j  -@ t5 #c <  [  *  *  *  =  0  I  .  +  (  J/ d  3  4  *  *  *  =  5+ I. 6  a              ",
"(  (  (  (  @  9  $  %  &  *  *  *  // C. k, k  (  V  P; n  /| T@       #) $c %c &c *c Q{ =c .$ *~ j~ j~ j~ *~ W= ][ Y^ x- |' D- 7, Q= v- S- Y^ >> r> m- 1* |* 1* m- r> '' S> O> n& h; 8) H> L- M( !, $- o} o} ^7 M* r7 X= K- K- K- J- ;> P= s; s; E, }' 2) [' U$ %= L- p; O- l; ~' ~' 1, ]> p; h; o& J% J% J% 6, n& |* |* |* |* m- J% I% X= 8) N- (> /> /> /> /> /> /> /> /> M' M- Y{ K- Y= @2 -c m( >^ C] n; K' j! K- Y= Y= h; ~> M- O- ^^ P- $= c; 2) A> S> D, }* Y~ H> .! O- H> b/ S> S> S> H- U$ |* X= Y= Y= Y= Y= Y= h; 8) J' G' G' W~ D' q; H- H- q; 4, #! (> /> m; ^> ^> ^> ^> G' .! {, O> 7, Wa Xa :6 ;c Q= Q= Q= Q= >c &* ,c 'c )c !c v( {= K< D& u& ~c u( {c >4 5> |& U% E5 b[ ]c ^c W.       /c N. <  [  *  *  *  =  0  I  .  +  (  J/ d  3  4  *  *  *  *  *  *  I. b.             ",
"(  (  (  (  @  9  $  %  &  *  *  *  // C. k, k  (  V  P; n  /| T@ w' (c _c :c <c S' G* K%  { S6 e2 q; Q- Q- Q-  { Z^ [c a; z- `{ |' -> E- r; R- B> r> m- 1* |* 1* n& J% d; L( %= i; L' f~ W~ 4, S6 g; I= ^7 [: ^7 V{ +1 ^' I' I' }c j~ |c 8, <6 #| $- 7, `{ b; ^' L- k; (' ^> L> (> L> L> K> H' D' Y= o& o& ^' |* %= X= $= |* m- U$ :' e; ^' Z= ]> L> 2, 2, 2, 2, /> (> L> n; .! e{ .{ Z{ <' ~, 60 c5 A} i^ 3, 4, K- Y= I' h; 8) M- 3, #~ _> K' ~, )' :' S> 1) ,' S> m- ~, 8) @2 j! B, f; A; D, H- d; I% |* $= $= |* n& o& X= h; /' V~ e~ M- ~> q; H- H-  { L- K' M' m; (> (> F' /> /> n; I> b6 i5 9] 1c 2c 3c /2 => R= R= g< }< U{ 4c K6 5c 6c )$ K, 7c 8c a^ _& u& 9c 0c ac t- x& u(  ; bc cc `' j  D  t5 #c <  [  *  *  *  =  0  I  .  +  (  J/ d  3  4  *  *  *  *  *  *  I. b.             ",
"(  (  (  (  @  #  $  %  &  *  *  *  // C. k, k  (  V  k4 *] dc C  ec fc gc hc ic U' [> J% |* X= X= %= |* |* |* |* |* 1* n& J% c; 5, !> !, !> <> z- d; m- 1* |* |* o& o& |* H] D' f~ ]> F< l; 9) G] +^ jc o> p} kc =! :> U$ |* q; s> ;~ Y/ p} v3 ha 93 => R- L( h; N> (' z, F' 2, A, A, A, F' o; p; j{ X= I' ~, j! L- ~, |, |* U$ [' H- '' 6, ~, W~ m; 2, 2, A, 2, L> z, 1, K' j{ &~ '' '' 2) e2 H> i! lc $^ X{ L- Y= |, L- P- 9) W~ !' (> (> J> Z~ L- o& C1 z> D- `{ L( %= X= Y= o& #> R- :> A; H- :' J% o& |* |* n& J% I% o& X= h; Z= Z= y, I' R> 2) 2) :' |* ~, H> 3, n; /> 2, A, 5] L> E' 45 r7 p} mc nc .| G8 X* {* *! *! F= o> oc =a 5c W6 pc qc x6 X] rc sc Z] tc *+ uc ,< aa vc .; wc xc yc && +  a$ :  <  [  *  *  *  =  0  I  .  +  (  J/ d  3  4  *  *  *  *  *  *  I. b.             ",
"(  (  (  (  @. Q& y[ zc Ac &  Z  *  }  C. k, k  (  D. Bc 5- Cc Dc Ec Fc Gc 5; Hc Ic r: <, |* F> F> $= |* |* |* |* Y= h; y, L- K- Z^ K_ Y^ Y^ Y^ &! r> m- 1* |* |* |* X= h; 4, J' l; ~' 1, 1, 9) G] +^ j5 @b V{ |] *! !> }1 c; O> M5 Jc @} [: p9 x3 p9 8, :> S6 H> l; ^> L> 2, A, A, A, A, F' o; M- L- |, Z= H> {> N> 4, Z= X= r> 2) A; A> }* Y= U~ n; 2, A, A, 2, ^> g! 4, Y= b; f; }' `{ +^ T$ H] D' 8) b{ y] K- Y= h; 4, K' (' M' L> /> /> L> o; @~ Z= m- 5, |' ,' z- C, [, C, B> C> <> Y^ A; A- d; J% n& o& o& I% J% J% m- o& o& m- I% I% I] b; H- 2) C1 c; 6, _' 4, G' (> 2, A, 5] L> E' 45 Kc s1 68 nc d| z0 @| Y1 ]* =! $- o> b& =a 5c Lc pc z6 Y] Mc Nc Oc Pc Qc bb Rc Sc Tc Uc Vc Wc Xc X. Y. (  _  :  <  [  *  *  *  =  0  I  .  +  (  J/ d  3  4  *  *  *  *  *  *  I. b.             ",
"(  (  (  (  /+ D. 2% Yc Zc @, r+ *  }  |  k, k  (  E  8$ `c  d .d +d @d #d D* $d 9( d; J% 1* $= %= o& m- m- n& |* I' ~> N> V~ L' G> ,> &! z- z- b; I% o& |* |* %= $= K- 8) K' E' G' 0) G' E' H> ^' +^ [6 J= H= x, ), r; %d %~ y- a) q} => &d p9 *d =d I= A> K- O- K> /> 2, A, A, 2, 2, /> n; N- {> 8) L- /' ^^ l; W~ f~ X< h; J% A> Y^ :> >> o& k; z, /> 2, 2, /> 0) H> &= >> 9; P= F- D- <> &! R> %= X= Y= I' Y= Y= @{ L' 1, ^> L> /> /> /> /> m; M' ^^ Z= H% R- !, r} y> y>  ! o2 <> <> v> &! :' 6, n& n& I% I% J% J% J% 6, J% ,> B> z- B> B> a; z; [' A- 2) C, U$ K- .! ^> L> F' F' ^> O- -d ;d >d ,d Ya 'd =4 +4 93 *3 V{ o> p}  b 48 5c 6c )$ )d &7 !d ~d {d ]d _- ^d /d =7 (d _d :d <d [d }d k  (  _  :  <  [  *  *  *  =  0  I  .  +  (  J/ d  3  4  *  *  *  *  *  *  I. b.             ",
"(  (  (  (  (  (  (  2% M@ K  L  *  k. |  k, k  (  +  |d 1d 2d 3d 4d 5d x; 6d 7d T$ U$ J% n& |* |* m- J% J% J% I% X= D' ^^ G' ~' H> X= I% J% J% o& X= F> $= |* %= X= h; 4, O- i! M' M' G' H' D' <3 A; a) D- w- D- D- |' <> <> x- D- 7, g< 8d ~b Xa 9d 0d }* i; 1, L> 2, A, A, 2, F' m; ^> M' 3, .! H> 4, {> l; M' G' l; e~ $! 1* z- <> Y^ &! m- g{ G' L> /> /> m; O- ~, b; Y^ S- F, Q= F- x- 1] ,> I% n& |* $= X= Y= i; f~ M' (> /> /> /> /> /> /> (> J> M- e2 v> S- v- Q= -> s; |' x- <> 5, P: m- $= Y= |* I% J% J% J% J% J% U$ >> :> <> <> Y^ B> U$ U$ O> S> 2) :' %= 8) O- o; M' M' l; N> ad bd l& cd dd ed ca 68 c& n> o> p} o} <1 78 )c fd v( .; gd hd id R4 jd kd s  s  s  ld md *  -  b. j  k  (  _  :  <  [  *  *  *  =  0  I  .  +  (  J/ d  3  4  *  *  *  *  *  *  I. b.             ",
"(  (  (  (  (  (  (  2% M@ K  L  *  |. e> nd od _. a$ ;0 pd qd rd sd td ud C* vd e[ .$ J- n& |* |* m- J% r> z; :' m- L- K' !' n; F< wd J: !a B0 y, Z= @{ K- |* J% Z^ $~ i~ j! `~ {> f~ @~ M- j! .{ 2) 5, 5, 5, A> A> A> z- 5, :> D- G( }< E8 xd yd zd Ad m- X< G' (> 5] A, 3] /> n; #! 1, 3, I> J' .! K' l; ^> L> n; n; M' K' L- L( )> C> >> m- j; 1, n; m; ^> W~ h5  { }6 x- F- Q= Q= E- x- z- ,> J% I% I% o& |* I' $! g! ^> (> /> /> /> /> 2, 2, /> h< {> &= )> F- G= W* F, |' ;> }6 O> $~ |, Bd i; Z= K- o& U$ d; c; d; U$ U$ &! !> w- r; !, 5, U$ U$ :' '' [' d; n& I' Y{ h5 ~> 8) ~> ~, Cd Dd Ed Fd Gd Hd T8 -a T8 Ba u- Id p9 Jd 78 n7 Kd Ld Md Nd Od Pd Qd Rd Sd Td Ud Vd Wd Xd A  i  b. j  k  (  _  :  <  [  *  *  *  =  0  I  .  +  (  J/ d  3  4  *  *  *  *  *  *  I. b.             ",
"(  (  (  (  (  (  (  2% M@ K  L  *  |@ (. T@ X+ :  Yd #c y[ Zd /} ~~ `d  e .e ~# +e e[ I- $~ |* |* o& J% :' A- H- L( Y= Z~ ^> /> !' l; e~ U~ L' {: f~ L' i; |* '> 5, K_ A- H% ^' H] y, L- L- I' m- c; c; c; c; c; d; d; d; P: 1] D- *> @e )= #e $e %e >> Y= U~ M' F' A, A, 2, L> G' J' {> .! J' O- H' l; !' (> /> /> /> L> o; p; e2 2) A> O> m- j; ~' ^> G' .! Y{ .{ 2) g; D- -> Q= Q= F- x- z- c; J% J% J% I% o& I' P- F< K> (> /> /> /> /> 2, A, X~ h< M- &= )> E- W* {* Q= Z1 '' Q- [3 4, f~ e~ J' Z~ Z= %= d; C, 2) O> U$ I] 5, w- -> -> F- f; r> J% U$ U$ U$ J% 6, 6, H% #= O> O> b; H% a/ gb &e yb *e t; =e =a z0 m} T8 m} +4 =4 78 {7 n7 -e ;e >e ,e 'e )e !e ~e {e ]e ^e /e (e *  f. M. j  k  (  _  :  <  [  *  *  *  =  0  I  .  +  (  J/ d  3  4  *  *  *  *  *  *  I. b.             ",
"(  (  (  (  (  (  (  2% M@ K  L  *  M  N  k] z( $  $  $  2- _e C  :e <e d@ [e L~ }e }> W= B, o& o& m- J% [' 2) S> w= %= k; !' /> (> 4) z, M' M' M' M' l; i{ |* >> Y^ <> Y^ A; r: J% o& |* $= |* n& I% I% I% I% I% J% J% J% r> z- D- T- |e |e 1e C' O: n& Z= W~ M' L> 2, 5] F' !' W~ /' ~> 4, .! 3, G' !' L> /> /> /> /> (> _> {> V< H- S> O> I% W< F< ~' M- H] J- 2) `{ ,' |' P= v- F, F- !> k{ ,> J% J% J% 6, o& I' /' l; K> (> /> /> /> /> 2, A, X~ h< M- &= )> -> W* {* Q= 1) &~ Y{ {> G' K> K> J> 3, H> Y= d; C1 S> A- d; U$ `{ g[ u1 #- G= z> c; J% J% J% J% J% U$ [' A; E, |) F, *a fb T$ H] ~> .1 l3 S[ ^* &8 =a `7 `7 `7 88 .0 q7 ~7 Z7 !7 ]1 2e 3e A8 (0 4e 5e 6e H  *  *  *  *  {} C. j  k  (  _  :  <  [  *  *  *  =  0  I  .  +  (  J/ d  3  4  *  *  *  *  *  *  I. b.             ",
"(  (  (  (  (  (  (  2% M@ K  L  *  M  N  k] d# $  3  $. 7e 8e y. 9e 0e ae be /! ce ;| B- }* U$ R> e; :' '' 2) S> }* %= k; !' 5) +! +~ +~ @! /> F' (> !' {> I' r> z- f; f; S> O> U$ I% m- m- m- o& o& o& o& o& m- J% I] U$ O> ;> xa de ee fe ge 1] he ie N> O- 1, #! !' ^> 0) ]> k; Z= I' L- M- N- ^> (> /> /> /> /> (> K> N- H> q; A> f; >> U$ ~, L' L' .1 I- S> ;> R- g; `{ z> I8 P= P= !, ;> A- d; U$ J% I% |* I' /' l; K> (> /> /> /> /> 2, 2, /> _> M- &= )> -> W* {* Q= }' .{ D' ~' L> X~ /> L> #! {> ~, m- c; r: C, d; [' je 20 ke le 20 B; A> !b I] J% J% J% U$ A- ,' F( <6 p} s9 I= d~ q; ~, G] me |c ^* &8 ne 78 78 78 oe pe q7 ~7 ~7 qe c| re E| se {6 te ue Q  h  *  *  *  *  {} ve j  k  (  _  :  <  [  *  *  *  =  0  I  .  +  (  J/ d  3  4  *  *  *  *  *  *  I. b.             ",
"(  (  (  (  (  (  (  2% M@ K  L  *  M  N  k] d# $  E@ ~  *  A  }@ we xe ye ze Ae Be Ce Y^ A> 2) 2) 2) 2) S> S> S> w= %= }_ !' 5) +! h! q/ 3] A, 5] 2, m; 3, 8) X= <, z; &! A> '' d; J% J% J% I% o& |* |* |* |* n& J% d; O> f[ l{ M* A0 Xa yd De c; h; n3 X{ N> N> H> 4, 4, P- P- Z= |, %= h; N> o; L> /> /> /> /> (> !' ~' f~ L- ,> :> R- f; H- .{ |, I' Z{ l! ;> <> Y^ >> d; c; A- +^ C' D- C' `{ H- :' U$ m- |* I' /' l; K> (> /> /> /> /> /> /> (> J> {> &= )> -> W* {* p> }' Ee i{ M' F' A, A, /> ^> ]> `~ j{ o& J% :' C, D, Fe yd Xa dd ^2 Ge *a 5, !b J% J% J% U$ >> |' 9] [: o} ^7 n> |c w= n& U$ 5, G( c& =a 78 ~7 ~7 ~7 ~7 ~7 ~7 ~7 He He !7 '7 >7 Ie {6 te ue Q  h  *  *  *  *  {} C. j  k  (  _  :  <  [  *  *  *  =  0  I  .  +  (  J  d  3  4  *  *  *  *  *  *  }- b.             ",
"(  (  (  (  (  (  (  2% M@ K  L  *  M  N  k] d# $  E@ F@ Je Ke Le Me Ne C= }; Oe Pe @} w- x- C- g; ;> ;> A; &! w= R> |, Z~ !' /> 5) q/ q/ 3] 2, 2, 2, (> ^> H' N> ~> I' 6, }* :' U$ J% 6, I% m- n& o& o& o& o& m- J% O> 3; Qe o> }: ;a *d Re Se G] 8) X{ `= y] i~ q; B, w]  { a/ ^' )' n& K- N> o; L> /> /> /> (> n; ~' L' ~,  { A> x- |' ,' 1) S> O> #> S> ;> R- <> 1] m- Te I' )' w= ;> |' D- C' `{ &! d; I% ^' Y= Ue F< K> (> /> /> /> /> /> /> (> J> {> &= )> -> W* {* p> }' .{ `~ M' F' 5] A, 2, L> z, E' {> 8) Y= U$ &! a)  ] ^2 za Ve 2c 3c /2 P= 5, b; U$ J% U$ >> |' => E8 30 t: *3 J= ,' f; }' F- We a4 ne Y7 ~7 ~7 Xe Z7 Z7 Xe ~7 ~7 He !7 )c >7 Ye g6 te ue Q  R  87 A  5+ f. ]  b. 7  >  8  0= }% <  [  *  *  *  =  i  a  j  /  /  6% d  3  4  *  *  *  =  -. |+ 2. a              ",
"(  (  (  (  (  (  (  2% M@ K  L  *  M  N  k] d# x  G  H  Ze `e  f .f +f %a <5 B^ >c @- v- F- D- C' x- <> C> A- J% G] j! J' z, (> /> 5) 5) 5) 2, /> /> /> (> m; J> O- 4, K- ^' 6, J% J% m- o& o& m- I% I% I% I% I% J% 2) l{ n> y3 ]7 @f ;a #f 9( Y{ 4, H> 4, i~ $f )> g; C- `{ 2) w= d; 6, K- N> o; L> /> /> (> ^> G' f~ ~, M( )> ,' E, D- D- |' C' x- ,' <> <> Y^ %~ U$ L- L' }_ j! a/ &! x- D- D- C' `{ A- d; m- F> `a g! !' (> /> /> /> /> /> /> (> J> {> &= )> -> W* {* Q= }' Q- D' N- L> 2, 2, 2, /> (> m; !' g! Z= I% 5, s; y0 G8 88 Ta nc 80 +| X* P= %~ b; J% U$ 2) |' x, x] ]* ]* x] F= @- J= 9] &d <1 80 Y7 ~7 ~7 Xe !7 o7 {7 !7 !7 !7 Z7 %f )c G| j7 &f *f =f -f F@ j. ;f B  M. b. ;  f  7  j  >f >2 <  [  *  *  *  =  T  g. +@ 7  7  X+ 2  3  4  *  *  *  1. 0. M. a  C              ",
"(  (  (  (  (  (  (  2% M@ K  L  *  M  N  k] >] '+ ,f 'f )f !f ~f {f ]f W% Q: Q= Q= Q= Q= F, P= |' x- R- %~ E> o& K- D' J' G' ^> L> F' /> /> /> /> /> /> /> /> m; o; Z~ Z= |, o& 6, J% n& |* o& I% J% J% J% J% J% U$ }6 J= v3 +4 68 m} H8 U* &~ j! 8) P- j!  { Y^ |' D- D- C' A; A- :' 6, K- N> o; L> /> (> !' l; {: j!  { K_ 9; C' E, E, D- D- D- D- D- |' R- 1] d; &3 {: ~' 1, U~ L- w] )> x- |' D- |' +^ 2) d; |* +} f~ M' (> /> /> /> /> /> /> (> _> {> &= )> -> W* {* Q= }' &~ j! ^^ z, L> /> /> /> /> 5) /> z, 4, o& %~ 7, X* ^f =4 78 ~7 78 58 @| S= <> #> U$ U$ &! E, @- *! {* {* {* =! Q: n> ^7 p9 P| /f ~7 ~7 ~7 Xe o7 )7 ]1 ]1 17 17 17 w7 *8 (f _f :f <f [f }f |f 1f D[ )@ C                 O. N. <  [  *  *  *  =  +. g.       ;  S+ T+ 3  4  *  *  *  5  a. C                    ",
"(  (  (  (  (  (  (  2% M@ K  L  *  M  N  T@ 4% y@ 2f 3f 4f 5f 6f u$ T/ V> => Q= Q= Q= Q= F, s; ,' f; z- a; c; m- X= Z= H> J' (' z, n; (> /> /> /> /> /> m; z, N- K' P- h; X= o& I% I% o& |* o& I% J% J% J% J% M( #> R- H= 30 @| 93 <6 J= g; J- |, j{ Y~ 3) '' <> |' |' x- `{ A- d; R> n& ~, M- N- n; (> !' g! /9 I' w] #> >> B> z- 5, A; 1) C' D- D- D- x- 5, J% K- k; G' m; n; ~' L' h; w] k{ R- D- s; D- Z1 S> R> h; {> M' F' 2, 2, /> /> 2, 2, /> _> M- &= )> -> W* {* x, |' A- G] P- ^^ o; ^> (> /> 5) q/ +! j^ p; e2 5, *a =! 7f w3 8f I6 .| 88 p9 => <> >> d; b; T~ u3 H= F= |] F= g< x, @- 9f T> &d <1 80 ~7 ~7 ~7 Xe ^1 {1 ,7 0f af bf cf cf df 0a ;5 ef ff gf hf if jf kf lf a. (. C           [% N. <  [  *  *  *  =  +. C           1  2  3  4  *  *  *  S  f. +. U+ g.             ",
"(  (  (  (  (  (  (  2% M@ K  L  *  M  N  j] mf nf of pf qf rf sf 0, Y* o> x, Q= Q= Q= Q= v- w- v> #> r> U$ U$ J% o& I' L- D' M- ]> M' n; F' /> /> /> (> #~ H' {> 4, L- X= |* |* o& o& 1* |* o& I% J% J% J% U$ #> Y^ tf =! ]* W* 7, E, g; 2) U$ m- I% d; 2) g; |' D- |' <> z- d; I% n& |* L- {> N- M' !' g! J: I% >> v> z- b; U$ r> r> d; '' o[ a) D- |' f; I% @{ L' 1, n; /> (> ^> l; {: j!  { }6 !> F- v- F-  ! '' 7] M- J> X~ A, 2, /> /> 2, A, 2, #~ -| &= )> -> *! {* W* P= }' C, |* ~, 4, O- n; /> 5) q/ h! K( M- e2 5, P= V* {* f| uf vf mc 88 o9 => <> 5, 2) D, s7 >c M* o> V{ H= P= D- |' |' w- Q= 04 C8 ~7 ~7 ~7 Z7 ]1 0f wf xf yf zf 7| O# Af Bf Cf Df Ef Ff Gf Hf If Jf Kf k* y. C           [% N. <  [  *  *  *  =  0. C           1  2  3  4  *  *  *  *  =  =  i  (.             ",
"(  (  (  (  (  (  (  2% M@ K  L  *  M  N  C  mf 8. Lf Mf k> ,, $* Nf Of s9 S= G= ), Q= v- r; :> >> w] m- m- I% I% I% o& X= K- ~> Z~ l; K> F' 2, /> /> (> _> O- p; D' Y{ Y= $= $= X= X= X= $= |* m- J% r> r> '> C> S- g< *! V* S- :> A> A- [' d; :' O> &! g; D- P= s; !, Y^ B> r> 6, m- o& ~, N> O- ]> l; 4, B, z> D- S- y- z; I% m- n& m- U$ '' `{ |' R- L( Z= V~ G' n; /> /> /> (> 4) G' f~ j{ }* <> -> R= G= w- A> a/ 4, N- (> 2, 2, /> /> 2, 2, F' J> p; S6 v> F- g< =! x, P= |' o2 Pf r> Y= H> G' L> @! `^ |_ j< H> S6 A; P= v- g< |] Qf :6 x3 ca G8 => <> ;> A; <] J= [: [: p} M* T[ C' `{ 1] z- C> !, =! e| Y7 Y7 q7 Y7 Rf Sf Tf Uf Vf :& A6 Wf Xf Af Yf Zf `f  g .g +g P% ma @g j. {+ C           [% N. <  [  *  1. g> |+ ;. C           1  2  3  4  *  *  *  *  *  *  }- b.             ",
"(  (  (  (  (  (  (  2% M@ K  =[ *  M  N  C  mf 8. #g $g k> C5 Z; %g &g Ge X* I2 s: *g r; C> #> r> m- |* 1* o& n& I% I% m- %= h; 4, g! ^> /> 2, 2, 5) (> _> O- H> 8) j! ~, h; h; ~, ~, h; K- Y= |* U$ O> B> 0( !, F, G= v- r; 0( B> '> d; d; :' 2) A> v> x- F- F, -> r; Y^ &! w= :' d; U$ G] j! P- /' X< V< 3; I= H= Q= 73 [, I% n& 1* o& m- d; 2) }' S> V< {> M' L> /> /> /> 5) +! `^  / 1, $! I% ;> -> *! W* F- v> w] ~, {> 0) n; /> /> /> /> L> M' W~ ~> w] 0( w- -> p> 7, !, !, P= =g %d I] L- K' 1, d{ i< k< -g Z=  { f; s; -> Q= #- x] &d X1 3c :6 H= x- ,' g; E, T> p9 @| ^7 @b u3 G- >> P: !b #> Y^ => ;g Ya `7 `7 >g ,g 'g ~$ =7 )g P% g% !g ~g {g ]g ^g Z5  g Uf /g e% (g _g j. {+ C           [% N. <. [. 87 O; x. |  a              1  2  3  4  *  *  *  *  *  *  I. b.             ",
"(  (  (  (  (  (  b  l* M@ 3  L  *  M  N  j] mf nf :g <g W; [g Y; }g |g Xa 1g t1 @^ 2g Y^ #> U$ m- 1* |* |* |* |* m- J% I% |* |, 8) W~ K> 2, A, A, 2, (> _> O- H> 8) 8) 4, H> H> H> H> 4, 8) L- X= r> z- Y^ w- v- Q= -> !> v> 3g '> U$ J% J% :' l! +1 :> 9; F- Q= v- w- R- )> D, D, D, D, w= J% n& m- m- &! T[ p} $- G= 3> [, I% o& |* |* n& J% z; S> T$ 45 O- ^> /> /> /> /> 5) h! h! J( G' i{ ^' +^ F, {* *! 4g <> z- I% y, k; ]> ^> (> /> n; l; L' ~> |* B> Y^ !> |' |' x- R- x- F- Q= s} _, |* j! 8) 8) 8) h~ L- |* O> z> s; 7, F, G= W* {* ]b uf 9d $e s; s; w- 5g X* w3 ha H8 71 |c D, :' U$ J% ,> 0; |) Qf dd uf ha m} 6g {c 7g 8g 9g 0g ag bg cg dg eg fg gg hg ig jg kg lg mg 1. {+ C           [% N. <. g] 87 f> e>                   1  2  3  4  *  *  *  *  *  *  I. b.             ",
"(  (  (  (  v  V  c  ng zc [. r+ *  /{ a  T@ dc y@ og pg qg (; rg sg tg ug vg [: @- |' +1 b; U$ I% n& o& o& o& o& n& m- o& %= |, 8) W~ ^> X~ A, 2, /> (> n; J> 3, O- O- 3, o; o; ,^ N- I> M- ~> Y= r> f; x- w- 7, 7, |' %~ #> l: r> I% o& m- U$ O> A- >> z- 9; -> v- F- !, |' |' [6 B; wg xg yg D> je zg $e /2 @| #| g[ p2 E> I% o& |* 1* m- J% r> :' 6, Y{ O- ^> /> /> /> /> 5) h! h! J( G' X< ^' +^ F, {* {* R= S- !> %~  5 F> W< ]> ^> n; F< W< X= U$ z- R- x- x- C- +^ &! >> 5, x- -> F- 3> &! }* L( w] M( M( L( >> y- D- 7, -> Q= Q= ), g< X* ]b Qf Ag Bg 8; E8 30 p9 w3 ha ^7 J= T~ b; R> J% J% d; &! Cg Dg 20 Eg &d 93 Fg D; Gg Hg Ig Jg Kg Lg Mg Ng Og Pg Qg Rg Sg Tg Ug Vg Wg 0. e> C           [% N. <. [. 87 g> 7. ;. M.             1  2  3  4  *  *  *  *  *  *  I. b.             ",
"(  (  (  (  @. F  d  G! F@ Z  Z  *  i  a  k] ;; n  Xg Yg Zg `g  h ~c Yb .h 6{ Ba J= C- S> c; J% I% I% I% I% I% m- n& o& |* $= |, i; e~ !' F' 2, 5) /> /> /> (> m; n; m; L> (> (> (> m; _> O- P- Y= c; y- D- w- w- D- R- B> l: r> J% n& |* 1* I% U$ r> U$ c; A> D- 7, -> v- Q= V* =! Ge 9d +h @h @h #h $h =d ^b ha f| -> f; P: I% o& |* |* m- J% J% U$ ^' j! O- #~ /> /> /> /> 5) h! h! J( G' X< ^' +^ F, {* {* 98 v- F- x- K_ L( |, {: 0) M' U~ |, w= }' |' D- D- |' g; S> z; U$ l: %~ !, w- D- C' R- :> v> v> v> :> ,' w- -> Q= Q= Q= Q= Q= Q= g< x] &d %h K5 *d 68 e8 a4 +| ^f $- |' A- U$ J% J% J% U$ A- &h 5g #- #- #- F= 9, }& i} *h =h $: ^/ &; &; -h ;h >h ,h 'h )h !h ~h {h ]h g. C              [% N. <  [  *  A  1. -. a. C           S+ *& 3  4  *  *  *  *  *  *  I. b.             ",
"(  (  (  (  @  #  $  %  &  *  *  *  i  >; ^h x) n  /h (h _h :h <h {f 6/ [h }h L* u3 g; A> b; d; r> c; c; c; P: c; I] |* X= Y= h; H> l; ^> (> (> (> (> F' F' /> 2, 2, 2, 2, /> 2, 2, 2, (> J> K' L- 6, A> ,' D- D- D- R- z- '> c; J% m- o& o& o& m- I% I% U$ A- C- w- -> G= =! 8d *4 +| Ve |h 1h 1h 2h za 3h ^b {a 8, E, &! d; 6, m- n& 6, U$ c; r> c; I% ~, J' #~ /> /> /> /> 5) h! h! J( G' X< ^' +^ F, {* {* q2 Q= F- !, 0( '> Y= L' ~' G' L' X= &! C' D- D- D- E, g; 2) d; J% U$ #> )> R- |' D- x- <> x- x- |' w- P= |) Q= Q= Q= Q= Q= Q= Q= Q= g< x] 1g 4h Ve ba ba 68 p9 |] s; 5, c; J% J% U$ U$ z; S> C- s; -> F- P= P= F( |e p{ m~ 5h 6h 7h @: P+ )] 8h 9h 0h ah G  ]+ j. ;f {+ a  a  a  a  C     [% N. <  [  *  *  *  =  +. C           /c b$ bh ch *  *  *  *  *  *  I. b.             ",
"(  (  (  (  @  9  $  %  &  *  *  *  L/ _/ 0= dh nf eh fh gh hh ih jh -* l% kh j5 |' R- v> z- B> >> z- z- 1] 5, z- O> o& |, L- 4, H' ^> L> L> n; ^> #~ #~ ^> m; /> 2, A, 2, /> 2, 2, A, 2, (> M> {> ~, 6, &!  ! D- D- x- :> z- #> r> J% I% n& o& 1* o& m- U$ O> +^ C' P= G= t1 lh <1 .0 Ta mh  | nh 'c z0 oh &d H= |c d~ '' U$ J% J% L( A- A> 5, A> 5, O> X= {> z, F' /> /> /> 5) h! h! J( G' X< ^' +^ F, {* {* q2 Q= F- !, )> L( j{ U~ G' G' U~ Y= #> <> !, D- D- E, g; 2) d; J% I] c; '> z- }' C- g; ;> g; x- w- F- v- Q= Q= Q= Q= Q= Q= Q= Q= Q= Q= W* f| x3 mc Ua mc G8 |] !, z- c; I] J% R> d; A- A; g; C' s; P= |' Z1 z> a) [] ph qh rh sh th uh vh wh xh yh zh Ah Bh i. 87 1. }  i  i  I. 0. M.    [% N. <  [  *  *  *  =  +. C           i# Ch Dh Eh *  *  *  *  *  *  I. b.             ",
"(  (  (  (  @  9  $  %  &  *  *  *  L/ Fh Gh Hh Ih Jh Kh `@ Lh G| Mh }h Nh l{ <> <> <> <> <> <> <> <> <> <> <> Y^ z- n& y, N> 3, i^ /> F' n; M' ]> O- O- (' M' L> 5] A, 2, /> 2, A, A, 2, /> (> J> J' ~> |* :,  ! D- |' x- :> k{ '> c; U$ I% o& |* |* m- U$ :' 2) `{ D- G= &d p9 58 Oh ~7 o7 ^1 ^1 mh 68 Ph g[ C- M5 .$ H% J% J% d; H- 1) |' D- D- s; R- J- 4, #! (> /> /> /> 5) h! h! J( G' X< ^' +^ F, {* {* q2 Q= F- !, K_  { ~> e~ G' 0) f~ K- l: v> x- |' D- |' g; 2) d; J% J% J% J% :' 2) S> S> S> A; ,' P= v- Q= Q= Q= Q= Q= Q= Q= Q= Q= Q= Q= #- 04 w3 x3 4h ^2 Qh s; B> r> J% J% J% U$ w= D, ,' D- D- D- D- R- D, S> S> S> _] v] Rh Sh <} Th e% 7! 7! 7! Uh Vh Q  h  *  *  *  *  *  *  -. 6     [% N. <  [  *  *  *  =  +. C                 a  i  *  *  *  *  *  *  I. b.             ",
"(  (  (  (  @  9  $  Wh Xh 7. i  i  )@ k] :/ Yh Zh `h  i .i +i '7 @i p} j5 x- <> <> <> x- D- P= P= w- |' x- <> :> >> |* P- E' i^ /> /> L> !' l; Z~ P- P- L' ]> !' F' 2, 2, /> /> 2, 2, 2, /> /> (> _> ^^ i; o& &!  ! |' x- Y^ 0; 3g '> r> I% n& 1* o& I% J% U$ d; >> z> g[ f| x3 `7 q7 ~7 !7 {7 !7 v7 za Da [6 S> I-  { $~ I% J% d; 2) }' w- -> F( 9] l{ #= 8) G' (> /> /> /> 5) h! h! J( G' X< )' +^ P= g< g< F, s} 3> p2 O> ], N> H' G' ~' K' L-  3 '> 5, <> |' ,' A; w= R> I% m- n& o& 6, R> e; <' [' 2) 1) D- -> Q= ), R= s: Q= F, -> |) |) |) 83 F= H0 w3 ;a Aa Re #i 1) '> I] J% J% J% U$ z; S> `{ a) |' |' C' f; O> d; U$ R> U$ w= $i %i &i {& *i P! P! =i -i ;i >i ,i ]h 'i 1^ .' a7 B  62 ++    0+ )i <  [  *  *  *  =  +. C           !i [% Dh ~i *  *  *  *  *  *  I. b.             ",
"(  (  (  (  @  9  $  t+ v5 a  a  a  g.    {i ]i ^i /i (i _f _i :i {a p> E, <> <> <> x- |' P= F, F, 7, D- C' g; A> }* I' K' K> /> /> L> ^> M> H' 4, ~, h; ~> N> e~ G' n; /> /> /> /> /> /> /> /> /> (> h< J' Z= )' :, y- <> <> Y^ 0( >> r> I% I% m- I% I% J% J% J% c; 5, 7, o} ]7 .| q7 ~7 ~7 Z7 ~7 I6 <i [i }i '' 6, ^' o& m- I] c; 2) }' P= G= T> o> J= |i ~> G' (> /> /> /> 5) h! h! J( G' j; m- A; x- w- !, y- :, b; M( %= 8) J' H' 3, H' K' ~> I' m- z; y- x- :> >> U$ m- o& |* |* |* |* o& o& I% U$ z; S> }' s; Q= R= *! *! Q= P= s; s; P= xa 9f *3 ^f w3 ^b A0 1i 2i D, :' J% J% J% J% U$ d; z; A- A; R- x- x- 5, c; I% o& |* o& I% 9( F* 3i <} 4~ 4i 4i ^& 5i 6i 7i 8i 9i 0i K7 P4 ai bi b1 D     ci di <  [  *  *  *  =  +. C           O. b$ ei fi *  *  *  *  *  *  I. b.             ",
"+  +  b  (  @  9  $  d# i'          e: ~< gi hi ii ji ki li mi |7 {a g< P= D- C' C' !, s; -> Q= Q= -> D- C- S> I- 7] 4, ~' (> /> L> z, 1, O- M- Z= Y= $= X= H] j! k; ]> K> /> /> /> /> /> /> /> /> /> (> _> J' i; $= O> v> <> x- !> %~ z; I] r> r> r> U$ I] J% J% U$ B> s; E8 T8 88 78 ~7 ~7 ~7 Y7 J6 Xa ni oi O> m- |* |* m- I] c; A- +^ I8 -> H= M* J= |i ~> G' (> /> /> /> 5) q/ h! 6) G' P- 6, A; )> v> B> J% Y= h; y, P- @~ O- J' K' {> N> ~> K- |* r> z- 0( 5, z; I% o& |* |* |* |* |* |* |* 1* I% U$ :' S>  ! -> S= |] |] 83 D- |' |' D- j5 p[ Id ^b w3 @| E8 }] Cg A; O> r> J% J% J% m- o& o& .{ }* &! v> :> z- d; m- 1* |* |* n& d; @= <* pi qi ri ri Z& si ti ui vi wi xi yi zi Ai 5% (  && ^  Bi di <  [  *  *  *  =  -  a  g. C     S+ *& 3  4  *  *  *  *  *  *  I. b.             ",
"D  .  && (  @  9  $  z( i'          Ci !. Di Ei Fi Gi Hi -e Ii v7 Jd {a #| p[ Ji t7 H( -> F, Q= Q= -> |' )> H% e{ M- d{ n; (> L> z, 3, {> 4, j! K- X= n& w] T$ .{ I' j; F< m; /> /> /> /> /> /> /> /> /> (> ^> H' 4, &= A- ,' w- F- <> z- #> >> >> >> a; '> r> J% r> B> |' 9] H8 m} `7 78 ~7 ~7 Y7 .| 4h [i oi O> m- |* o& I% J% U$ c; A- A; ,' Sa J= D- w= ~> G' (> /> /> /> /> 5) +! m; ~' 8) B, D, z- #> o& Z= L' f~ e~ ]> H' O- {> H> P- ~> ~, X= n& U$ E> #> '> d; J% m- n& o& |* |* |* |* |* |* o& m- R> [' 5, !, @- 8( B^ J= |' x- x- |' J= Wa Ki G8 v3 [: |] F( s; C- 5, O> r> J% m- Y= y, Z= ~, 7]  { b; B> C, r> I% o& |* 1* I% U$ W= Li L% l& l& Pb Mi Ni Oi Pi Qi Ri Si Ti P^ Ui Y. (  /     Bi di <  [  *  *  *  *  }  i  6  (.    1  2  3  4  *  *  *  *  *  *  I. b.             ",
"   f  <% b  Vi 9  $  z( i'          Wi Xi Yi Zi `i ~9 17 p7 Z7 ~7 q7 48 e8 ,c ** [4 H= Q= Q= Q= Q= F- 9; $f i~ {> ^> /> /> L> !' (' M- ~> K- Y= X= $= I% w= S> A- c; X= }_ M' L> /> /> /> /> /> /> /> /> /> (> !' J' .1 T$ z> F- Q= F- D- |' |' |' |' x- 0( #> J% r> B> x- [_ @b H8 m} =4 78 ~7 ~7 .| 4h [i oi O> m- |* o& I% J% J% J% U$ [' D, ,' D- ,' }* ~> G' (> /> /> /> /> /> /> n; E' h5 H% S> '' J% y, V~ M' z, !' z, o; O- M- D' j! h; I' 1* I% J% J% J% J% J% J% J% J% I% o& |* |* |* |* |* |* 1* m- r> a; Y^ t7 kh 9{ t7 x- <> <> x- ge K5 ^2 A0 o> T> G= F, F- D- ,' z- ,> I% $= ~> {> ^^ .! `~ L- Y= o& I% J% 6, n& |* 1* I% U$ 2> .$ .$ .$ .$ @$ l! L= Ni  j .j +j @j #j W. b1 (  (  /     Bi di <  [  *  *  *  *  *  *  }  |     1  2  3  4  *  *  *  *  *  *  I. b.             ",
"      $j %j ;2 t+ q+ 7< ,] C  (. o  &j *j =j -j ;j 38 b| 17 '7 '7 w7 >j ,j #b 'j )j F( v- v- v- E- !, ;> J- ~> l; m; F' (> ^> N- M- Z= K- Y= Y= F> F> o& }* S> A; f; ,> y, g! z, m; (> (> (> (> ]^ i^ n; ^> z, N- Z~ H] #= C- -> q2 ;c !j !j <6 |] $- => q} )> '> '> 1] x- q} @- <6 o} y3 68 ne 78 ba Xa [i }i O> m- |* o& I% J% I] r> z; >> C> x- D- C- }* j! O- !' L> /> F' F' (> n; i! {> ~, J- A- d; %= P- l; L> (> /> (> ^> 3, .! `~ ~> h; Y= |* m- I% m- n& n& I% J% U$ d; e; 6, o& |* |* |* |* |* |* |* I% '> :> [_ 1i @e j5 <> v> 5, %~ Sa 20 %h ~j }] 83 -> E- P= D- x- 5, M( |* h; M- i! #~ J> l; K' H> i; K- |* n& 1* |* o& I% U$ #= |i @$ @$ @$ H- S> O= Z) 8' {j X4 ]j ^j /j (j _j 8  8  -@ [% N. <  [  *  *  *  *  -. f. +. b.    1  2  3  4  *  *  *  *  *  *  I. b.             ",
"      '8 P; :j {h r+ <j g. g. 2. }  [j }j C: |j 1j xf 2j 3j 4j 5j 4j 6j 7j 8* Y* 71 8j w- r; r; L3 <> A; ^' i{ G' ^> m; n; o; 9j ~> |, Y= Y= Y= K- L- H] Z{ S> ;> R- 5, e2 H> H' o; J> J> J> M> N- N5 O- K' M- 4, y,  3 2) !> 0j {* Qf K5 ^2 1c ha {a E8 9f aj )> 0; 0( <> !, v- S= s9 ,= bj r1 J6 Ve Xa cj }i O> m- |* 1* m- I] l: B> C> 3> !, S- w- ,' A- X= 8) {> N- 4) m; n; h< E' N> @{ X= 6, d; 6, I' N> M' /> 2, A, 2, L> #! H' K' H> L- Y= %= 1* o& 1* |* 1* n& J% :' '' r: d; I% o& |* |* |* |* |* |* o& b; Y^ P= H= H= Sa ;> >> b; z; +^ *a F( xa q} dj !, !, w- D- D> z- I% G> 4, 3, n; F' L> ^> G' H' {> i; I' %= %= |* o& I% r> A- +1 T~ T~ T~ G- }' <: ej fj gj hj ij jj kj lj mj |d k  k  0= }% <  [  *  *  *  =  -  M. a  C     1  2  3  4  *  *  *  *  *  *  I. b.             ",
"   j] /| )  e  6[ /. B  ++ a  i  *  /{ a  ~< nj oj p~ 8| $a pj qj 0| u: Z; 0, ,= [_ <> v> :> Y^ Y^ ;> S> rj 9) G' M' z, o; sj b{ K- Y= Y= Y= I' Z= p; D' g~ S> ;> R- v> L( h; 4, M- {> {> {> Z~ `= tj V5 L- K- %= J% a; Y^ S- uj {* Vb ^2 4h 3h x3 ha o} @b q} !> x- x- x- r; v- G= T> o> Id m} z0 3c Xa vj }i O> I% |* |* m- U$ B> ,' -> #- #- G= 7, |' C> P: n& K- H> 1, z, M' 3, N> h; n& J% J% I% %= j! J' ^> /> 2, A, A, /> n; z, o; O- D' K- X= %= |* |* |* o& m- U$ O> A> S> z; J% n& |* |* |* |* |* |* o& l: :> w- v- -> |' A> :' 6, I% b; z- wj wj v> v> 0( Y^ ,' E,  ! C1 %= P- H' #~ F' /> (> n; z, ,^ O- P- K- X= $= |* o& I% r> z- x- P= 7, |) |) 7, T[ xj yj zj Aj Bj Cj Dj Ej Fj X. k  b  Gj :  <  [  *  *  *  =  0. g. C        1  2  3  4  *  *  *  *  *  *  I. b.             ",
"   j] S+ )  di ~@ c# 62 C  a  i  *  i  a  &; Hj Ij __ &f Jj ji Kj Lj Mj W% 0* }< |' &! '> >> +1 T~ A; S> g~ H> ]> (' 1, J' D' K- Y= Y= I' h; ~> N> O- {> H] w= &! %~ z- z; o& I' ~, L- y, ~, h; K- Y= X= |* 6, b; %~ 73 S- I( Nj {* [: Oj Pj Qj *d G8 H8 @b xa D- |' D- S- -> ), R= W* |] 30 ha +| 3h Xa cj }i O> J% o& o& 6, b; ;> J= 8; %h Vb #| => v- F- 3> 5, r> h; f~ ~' l; {> j! )' w= r: c; I% |, H> N- m; /> 2, 2, 2, /> (> L> L> _> J' Z= |, $= |* o& n& 6, R> :' &! )> 5, b; J% m- o& o& o& o& o& n& I% ,> A; x- P= w- `{ [' 6, o& o& I% ^, Z^ Rj r> l: #> B> 5, y- 5, U$ ~, J' #~ /> /> /> (> ^> M' E' K' h~ |, $= |* o& m- I% r> 1] F- =! f| {a 93 v3 '= J= t; Sj Tj Uj Vj Dj Wj Xj 8  8  <% >f N. <  [  *  *  *  =  }  -  ;. a     1  2  3  4  *  *  *  *  *  *  I. b.             ",
"   j] S+ )  N. c$ C        a  i  *  i  a  &; Yj Zj `j  k .k Jj v& ~2 P_ 9* >c dj %~ c; J% b; 2) D, A> A> Q- h5 N> p; p; D' h; Y= Y= Y= K- P- J' E' M' ]> P- %= J% r> r> U$ J% m- |* $= $= %= |* |* |* 1* I% c; z- 9; S- v- R= I2 {* p} +k 'j @k Xa uf Id M* H( s; w- F- Q= q2 *! =! =! {* 04 ^f x3 *d Xa cj oi '' U$ 6, J% :' S> X5 >c H8 ^2 Xa 1g ]* W* x, v- I8 :, Y= L' l; ]> N> ~, J- S> 2) [' m- h; {> M> (> /> /> /> /> /> /> /> /> (> N- `~ h; X= 1* n& I% e; [' S> ;> <> )> '> J% I% I% I% I% I% I% 6, J% d; 2) g; D- |' 5, d; m- 1* |* |* |* |* |* |* m- J% U$ r> d; J% I' p; J> /> /> /> /> (> ^> G' H' -| j! Y= 1* m- I% 6, I% U$ z- -> f| +| 68 -a =a #k F( D- U* ej $k %k Dj &k *k (  /  f  ci di <  [  *  *  *  *  *  =  |+ |     1  2  3  4  *  *  *  *  *  *  }- b.             ",
"   j] S+ )  )i =k M. a  C  a  i  *  i  a  &; L; -k Y] ;k >k '4 Yb ,k a& >c |' %~ '> I] J% d; [' '' '' A- J- 7] j{ j{ ~, h; I' Y= |, h; D' O- _> ^> n; z, e~ 8) L- h; |, $= m- I% I% n& o& |* |* |* |* o& I% d; #> )> !> F- Q= s: g< 9f 'k )k !k ~k {k ]k l{ ,' :> z> w- G= x] 04 Y1 04 04 ~a <1 ^k 3c Xa ni Ad A- z; c; O> A> fb j5 M* u- K5 ^2 lh ]* *! g< Q= s} _, Y= L' 1, l; Z~ ~, B, A- A- :' I% h; {> J> (> /> /> /> /> /> /> /> /> (> o; H> ~, X= 1* m- J% d; A- +^ x- r; <> &! c; E> a; >> >> A- b; U$ J% d; 2) g; E, |' 5, r> n& |* |* |* |* |* |* |* o& n& o& $= I' ~, H> 3, n; /> /> /> /> m; 1, Z~ ~> +- a/ w] ,> '> '> b; :' O> C> v- &d ^b z0 -a =a `9 J] 1e /k (k _k :k <k [k }k 8  .     ci di <. [  *  1. 5+ |+ |+ |+ 7. M.    1  2  3  4  *  *  *  =  -. |+ 2. a              ",
"   j] S+ )  |k 1k }- {+ ++ a  i  *  i  a  &; L; a> g% 2k 3k 9a C/  > ~* w- 1] P: r> J% J% U$ U$ e; d; d; e; H% &~ 6, |* X= X= I' y, 4, O- _> (> (> /> L> M' e~ U~ Z~ 4, L- X= n& 6, 6, n& |* |* |* |* n& 6, U$ d; b; 5, !> S- S- S- j_ fb 4k 5k 5k d~ 6k 2) #> b; B> 73 R= 04 ^f ha ha oh 58 .0 .0 8f 4h 7k Se 2) >> O: :> j_ T[ 71 p[ p} H8 ]b t1 W* R= G= Q= s} _, I' f~ G' ~' K' j! )' d; c; r> I% K- {> J> (> /> /> /> /> /> /> /> /> (> o; H> ~, X= 1* n& I% c; &! R- w- E- S- z> f; p2 L3 S- q} l{ f[ c; J% d; 2) g; E, |' 5, r> n& |* |* |* |* |* |* |* |* |* F> y, /' {> ]> z, (> /> /> /> /> ^> K' j{ H% S> A; `{ `{ C> f; f; f; `{ |' v- |] o} T8 z0 =a 8k 9k ac 0k ak bk ck dk 6b ek j  ..    O. )i <. [. 87 k. a. M. M. |  b. g.    1  2  3  4  *  *  *  1. -  |  a  C              ",
"   j] S+ )  K@ L@ *  .@ ++ a  i  *  i  a  &; L; a> fk Vf gk hk ^( 9f j_ v> P: J% I% J% J% J% J% J% J% J% :' S> A; 2) c; I% |* |, 8) J' _> F' /> /> /> /> L> !' G' E' K' 8) I' o& 6, J% n& |* |* |* |* n& 6, J% 6, J% O> v> R- Y^ Y^ y- 5, H- 9( *~ &~ 6, I% I% I% P: y- G= f| ha +| a4 88 ne ~7 ~7 I6 4h Fe Se S> +^ <> tf V{ p} n> o> V{ F= *! s: Q= F, Q= Q= s} &! Y= U~ M' ~' K' ~> %= I% J% J% I% K- {> J> (> /> /> /> /> /> /> /> /> (> o; H> ~, X= o& m- J% b; 5, !> -> Q= F, 7, P= Q= {* 8d E8 ,= ik O> I] :' 2) g; D- |' 5, d; m- o& |* |* |* |* |* |* |* X= h; /' H' M> ^> m; F' /> /> /> /> ^> p; $~ g; D- D- D- D- !> <> x- D- P= 7, Q= R= X* 93 jk -a kk u9 I, R' N% lk mk -[ -[ -[          O. N. <. g] 87 |. e>                   1  2  3  4  *  *  *  5  6                       ",
"   j] S+ )  e  B. *  .@ ++ a  i  *  i  a  &; L; a> y6 nk ok ,j *3 w- v> #> J% o& o& n& m- m- 6, J% U$ d; 2) }' ,' z> f; a; I% G> H> E' n; 2, 2, 2, /> /> 2, /> o: M' K' Z= X= o& 6, J% n& |* |* |* |* o& n& m- I% J% b; 3g K_ 5, A; A; A> 2) w= H%  { o& o& m- I% P: C> 7, $- 93 x3 68 =a pk o7 !7 qk rk $e Ad +^ ,' u3 M* v3 ^b o} 8, F( H( H2 w- E, D- F- v- w- %~ sk i; f~ U~ H> L- _' o& n& m- o& j{ {> J> (> /> /> /> /> 2, 2, 2, 2, (> o; H> ~, X= n& J% L( B> <> 2g p> => => x, R= x] ]b =d n} n} r9 ;> A- &! f; ,' s; P= p2 a; ,> U$ 6, m- n& n& n& n& |* I' 8) O- 7) (> /> 2, 2, /> /> /> /> ^> p; q; ;> D- D- |' |' x- <> |' F- F, F, Q= G= *! 8d ^f mc tk uk 7( $1 r% vk wk a. q6 }d .  j     6- xk <. [. 87 g> /{ 6  M.             1  2  3  4  *  *  *  5  6                       ",
"   j] S+ )  e  B. j. Q2 ++ a  i  *  i  a  &; L; a> y6 A2 L] yk F= !> 1] b; I% |* |* |* |* o& I% U$ :' A- `{ |' D- |' <> 0; M( h; L' ~' L> 2, A, 2, /> /> 2, A, /> !' U~ h; m- 6, J% J% n& |* |* |* |* |* |* 1* n& J% ,> '> >> &! S> S> S> 2) [' J% n& |* |* o& 6, d; A- 1) Sa M* c& l} =a :i ^1 o7 zk w3 |] -> P= G( 71 u- T8 a4 30 G( a) 1) +^ +^ A; `{ C' s; D- <> k{ Z^ X= |, |, Y= $= |* |* 1* |* ~, {> J> (> /> /> /> /> 2, A, A, 2, (> o; H> ~, %= I] #> K_ !> I( @^ F= M* V{ F= {* /2 =d Xa ;a w3 X* *a R- R- R- |' F- F, P= x- ;> A> '' e; J% J% J% J% o& K- H> G' (> 2, A, A, 2, /> /> /> /> ^> p; $~ :> D- |' x- x- x- 9; r; -> Q= Q= Q= ), W* ]* Ak uf Bk Ck X} Dk Ek Fk Gk k* Hk Ik +  >  ^  e= di <  [  *  *  =  5  2. C           1  2  3  4  *  *  *  5  6                       ",
"   j] S+ )  K  [. ,; O& g. a  i  *  i  a  &; L; a> y6 D& [; 9k F= !> z- l: m- |* |* |* |* o& J% :' 2) `{ C' D- D- |' R- 5, M( h; L' ~' n; X~ A, 2, /> /> 2, A, X~ !' L' _' d; d; U$ J% m- |* |* |* |* |* |* 1* m- J% U$ r> b; A- S> A> A; A> A- d; 6, o& |* 1* I% J% U$ #= f[ u3 L* :1 -a W7 o7 o7 Y7 58 ~a Jk 04 30 03 bj @f ]7 p} D- 5, w= }* }* w= 2) +^ C' D- w- D- D> &h D, #> r> I% o& |* 1* $= ~, {> J> (> /> /> /> /> 2, A, A, 2, L> o; H> j{ o& C, z> *a |] Kk Lk 93 ,= n> Q: x] /2 ^2 4h x3 w3 f| 8] w- !> <> !> F- G= Mk Nk Ok [6 +^ b; I] 6, J% 6, o& j{ N> #! (> 2, A, A, 2, /> /> /> /> ^> M- &= &! g; ;> v> )> )> )> <> F- Q= Q= Q= G= W* {* t1 %h Pk U1 qj Qk %7 Rk Sk z@ Tk Uk c. %, ^  Bi di <  [  *  1. -. |+ 6  C           1  2  3  4  *  *  *  5  6                       ",
"   j] x[ )  X  e  G  Vk ,] a  i  *  i  a  &; L; a> 8! *h (( Wk '= !> z- l: I% |* |* |* |* m- <' &! }' C' D- D- D- C' +^ >> J% |, @2 ]> !' L> /> /> /> 2, A, A, X~ M' p; g~ r: r: [' :' R> n& o& n& n& n& n& n& I% J% J% J% U$ [' S> f; :> ;> 5, A- d; 6, o& |* o& o& o& m- }* T~ j5 n> (9 -4 X7 Xk ~7 48 Yk Yk Yk C8 e8 e8 u7 ^( Zk C- O> 6, o& I% U$ z; &! G- |' F- G= Ag `k Bg [6 %~ P: I% n& o& $= y, {> J> (> /> /> /> /> 2, 2, 2, F' ^> (' 4, H] J% D,  l 20 x3 Yk 70 58 n} ^7 '= Q: Ge Va 4h x3 w3 Ph u1 F- !> <> !> S- G= .l :6 %h $e ,' #> J% n& n& o& X= L- N> 1, n; /> 2, 2, 2, /> /> /> /> #~ {> da sk ,> '> '> '> '> '> 5, |' v- v- Q= R= *! {* x] 8; +l x% %{ @l S! #l $l  . %l &l V0 V+ ^  Bi di <. [. 87 O; x. |  a              1  2  3  4  *  *  *  5  6                       ",
"   j] S+ )  $  $  $  z( i' a  i  *  i  a  &; L; a> p% 4' *l =l Ba dj -l l: I% |* |* |* |* 6, '' +^ C' D- D- D- D- ,' D, r: R> X= i; .! 3, #! ^> m; /> 2, A, A, /> J> `~ <3 S> D, D, S> w= U$ J% J% J% J% J% J% J% J% J% J% U$ ;l S> ;> <> <> :> A> r: d; 6, o& |* |* |* |* m- O> 1) u3 p[ y3 l} &8 q7 ~7 ~7 ~7 ~7 Y7 =a l} |< >l ,l o[ d; o& |* 1* I% U$ z; S> z> S- u1 :6 Xa K5 9] <> #> U$ I% n& $= L- {> M> (> /> /> /> /> /> /> (> ^> ~' %! 8) _' H% 1) Bg Va 2c Y7 ~7 Ta U3 @| p} o> u- ^2 4h x3 w3 *4 [1 E- !> <> 9; w- G= 'l Xa ^2 s9 C' '> n& X= F> I' h; ~> M- W~ G' n; F' /> /> /> /> /> /> h< sj y] Y= |* m- 6, J% J% J% O> g; s; F- Q= 98 )l {* Q: o> )= t- !l I4 ~l {l ]l p  ^l /l (l _l ^  Bi di <. g] 87 f> e>                   1  2  3  4  *  *  *  5  6                       ",
"      ;0 m  :l  < $  z( i' a  i  *  i  a  &; L; -k p% [9 s0 <l [l 83 v> b; I% |* |* |* |* 6, O> +^ C' D- C' ,' g; `{ S> 2) O> w] }l |l 1l hb ]> ^> (> 2, A, A, /> J> `~  { v> R- C- R- A; B> #> #> O> O> O> '> '> b; '> #> A- 2) S> 5, v> v> )> S> H- [' d; 6, o& |* |* |* o& U$ O> A; Cg jc p} ha 70 ~7 ~7 ~7 ~7 ne 2l N* c8 ;: 4k '' J% o& |* |* o& m- J% z; A> !> #- T3 ;a ~b 9] <> #> I] I% n& $= L- {> M> (> /> /> /> /> L> ^> G' ]> f~ H> L- X= L( 1) Dg =d J6 Y7 ~7 He Oh 58 c& H8 Aa 3h za 3c w3 Ph q2 w- C> z- %~ ,' |) 3l :6 %h Nk C- w] I' Z= 8) P- /' N> {> J' ]> G' ^> L> (> F' L> ^> 1, J' P- h; X= |* o& o& n& m- J% b; A> R- !, F, [1 ]* t1 kc p} 9, x/ c) J2 4l 5l ]$ 6l 7l 8l Q. V+ ^  Bi di <. g] 87 f> e>                   1  2  3  4  *  *  *  1. I. a. |  g.             ",
"      ;& E  V  H@ $  7+ i' a  -  *  i  a  &; Yj 9l &7 0l X} al bl cl x- A- I% |* |* |* |* m- w= +^ C' D- ,' +^ D, A> S> A> K_ 0; &! w= B, dl p; M' (> 2, A, A, X~ J> `~ ^, Y^ C' E, E, ,' :> 0( v> v> v> v> v> v> )> v> 0( ;> A; S> 2) >> >> &! S> 2) 2) '' :' J% o& |* |* 1* I% d; O> A; a) 7, 8d el ~7 ~7 ~7 ~7 -a fl @} <: f[ '' d; I% 1* |* |* |* 1* m- U$ C, C> tf H0 w3 @| 9] R- [, I] I% o& $= L- {> J> (> /> /> /> /> n; ~' %! N> D' j! K- |* L( gl Nk p9 `7 q7 ~7 ~7 ~7 48 68 m} @f e8 -a 68 <1 Ak p> Y^ #> c; z; &! Z1 |) u1 Mk *a D, 06 4, K' g! ]> ]> O- .! M- M- K' l; z, 4) n; z, H' p; ~> h; Y= $= |* |* |* |* n& J% d; '> z- hl v- t1 Ph ^f @| @| n} il t- ac X% jl kl k1 ll ml P. %, ^  Bi di <. g] 87 f> e>                   1  2  3  4  *  *  *  *  S  5  -  (.             ",
"   ^  <% b  @. }+ 5- }# v5 |  I. *  i  a  &; Yj 9l h7 Vf nl ol pl H0 w- S> J% 1* |* |* 1* R> '' +^ C' D- C- A; S> S> S> +^ x- r; !> }' S> J- L- l; L> 2, 2, A, F' o; 4, w] <> |' D- D- |' 9; x- |' !, !, !, !, !, !, |' x- R- +^ S> O> ,> l: A- A> A; +^ o[ 2) d; I% o& |* o& 6, r> [' S> }' w- ]* el ~7 ~7 ~7 Y7 58 '= E, A> z; U$ I% o& |* |* |* |* |* o& I% U$ B> D- #| w3 @| T> ,' [, I] I% n& |* ~, M- o; n; (> /> /> (> K> l; k; Z= K- |, Y= 1* L( +^ ge v3 68 78 Y7 ~7 ~7 Y7 48 .0 &8 =a ql 68 ha |] !, B> U$ m- I% U$ '' y- rl rl `{ T$ j! I> h< n; n; ^> i! K' P- j! 8) k; W~ G' z, G' K' 8) h; Y= $= |* |* |* |* |* o& I% J% r> '> 0( F, f| +| 68 U3 U3 a4 sl #2 t- m% tl ul b* vl wl (  /  ^  Bi di <. [. 87 k. y. a  ;              1  2  3  4  *  1. 5  -. -. -. -  (.             ",
"      .  +  5% xl 0+ yl L/ I. -. *  i  a  &; Yj 9l !g zl zf Al Bl Cl v- A; M( m- o& m- R> O> D, g; C' D- C- A; S> S> +1 ,' P= v- P= x- f; b; I' e~ ^> F' F' L> !' O- L- ,> Y^ |' D- D- !> <> !> P= v- -> -> -> v- -> F- !> :> K_ 2) b; U$ r> >> v> R- C' a) A; C, r> J% I% J% d; [' 2) f; ,' 7, #| C8 ~7 ~7 ~7 Y7 58 F= o2 [, J% n& o& |* |* |* |* |* |* |* 1* I% w= fb ~j uf ~b $- !> a; I] I% I% n& |, P- K' 3, G' ^> n; n; !' l; i{ K- $= $= $= o& L( +^ v0 ^7 T8 88 ne Y7 ~7 ~7 Y7 q7 Ta ba za G8 #| s; 5, ,> m- o& |* o& 6, z; Dl }4 L( Y~ -| #~ /> 2, 2, F' M' f~ L- X= Y= y, P- J' N- E' K' P- y, |, X= %= |* |* |* |* 1* o& m- I% c; ;> H= p9 .0 /f Ta /f .| %8 Fg El V% Fl v( S^ Gl wl (  /  ^  Bi di <. [  87 k* z@ T  o  C           S+ 2  3  A. *  z@ x. ;. ;. ;. M. g.             ",
"      .  +  +  >  C  -  S  *  *  *  i  a  &; Yj 9l !g :& Hl Il Jl Kl s: :> b; J% J% :' S> C- E, D- D- D- C- A; S> +1 R- r; v- Q= -> !> v> '> X= L' M' ^> M' l; V~ 8) ^' O: <> |' D- D- x- <> |' E- Q= Q= Q= Q= Q= Q= -> !, v> 3g '> r> J% U$ >> Y^ |' D- E, &h D, A- '> '> #> 2) D, +^ <> Ll H= 03 Ml ~7 ~7 ~7 Y7 e| #- %d P: I% o& |* |* |* |* |* |* |* |* |* m- }* &h [i Xa =d Nl S- B> I] J% J% J% o& I' ~, L- 8) K' G' M' G' l; i{ |, |* |* |* o& L( o[ U* @b Id m} =4 78 ~7 ~7 ~7 ~7 Ta Ua yd zd s; z- c; I% o& |* |* |* |* |* |* $= h; H> N- L> 2, A, A, X~ !' {: K- 6, I% |* h; H> ^^ O- {> P- y, |, X= |* |* |* |* |* |* |* 1* m- c; ;> @b m} 78 ~7 ~7 ~7 q7 48 =a Ol V/ v4 k> <& ;{ wl (  /  ^  Bi di <  [  *  *  *  =  +. g. ^     ;  S+ 2  K  L  *  M  N                             ",
"      .  +  5% G@ O. yl ]_ }- -. *  i  a  &; Yj 9l `j *7 Pl j9 Ql Rl q2 R- A- d; }* :] Sl ]k Tl Mk w0 P= D-  ! z> x- w- Ul I( -> !, f; O>  { K- {: G' M' ]> }_ h; 6, &! Y^ x- |' E, ,' C> z- C> !, v- Q= Q= Q= Q= -> !, C> a; ,> Z^ I% I% U$ >> :> x- D- D- D- C' R- v> )> ;> Z1 yg *a x0 $- fl 2l ne ~7 ~7 ~7 78 w3 g[ C> c; I% o& |* |* |* |* |* |* |* |* 1* I% w= fb zd Xa ^2 Eg G( v> '> r> J% J% r> c; c; l: M( h; K' ~' ~' l; H> |, o& o& o& I% }* A; E, F( E8 p9 a4 80 ~7 ~7 ~7 78 `7 uf [i je z- !b I% o& o& o& o& o& $= h; 8) H> Z~ ]> ^> (> 2, 2, A, /> !' Z~ G] [' [' U$ $= i; {> Vl Wl Xl Yl Zl `l  m $= |* o& o& o& 1* o& m- d; +^ 9] ^b .| Y7 Y7 ~7 Z7 p7 w7 uk 3j .m +m @m #m $m b1 D     ci xk <  [  *  *  *  =  y. 7  D  D  j  X+ 2  3  A. *  z@ a. U+ ;. ;. ;. ;. U+ (.       ",
"      .  +  @. }+ K. }# v5 |  f. *  I. a  .< %m 0> P% s  &m *m =m -m ;m <> A> O> l! >m ,m 'm yd #h ;c F, -> -> 7, -> v- Q= E- |' C> E> I% _' ~> %! ~' 1, L' G> L( `{ C' |' !, E, C- A; O> d; O> v> S- F, Q= Q= F, s; `{ O> I] m- o& o& I% U$ O> A; C- |' s; 7, -> P= |' x- |' P= w0 Ag xd )m u7 =a Y7 ~7 ~7 Y7 =a p9 7, 5, c; I% o& |* |* |* |* |* |* |* |* m- U$ >> D- 20 Xa ^2 u- 71 j_ v> '> I] J% O> C> 73 x> !m w] 8) ^^ H' H' H> K- o& n& I% U$ w= A; x- -> x] Ph +| 80 ~7 ~7 78 =4 ^b <6 [6 A> c; I% 1* |* n& I% I% n& X= ~> .! H' 1, M' L> /> 2, 2, 2, F' _> N> e2 2) 2) :' o& @{ @2 ~m {m ]m ^m /m (m _m Y= $= n& 6, I% m- I% I% r> 5, g[ @| 68 48 78 ~7 :m <m ^g B8 5| [m }m (h U0 |m 7  f     O. N. <  [  *  *  *  1. E[ b1 +  Y. k  O  d  3  4  *  1. -. 6. -. -. -. -. }  ;.       ",
"      .  +  @  #  $  3[ 1m (. 7. 5  0. a  ~< 2m 3m 4m 5m 6m 7m 8m 9m 0m [] <] +^ fb am |< bm cm =d dm Q= Q= Q= Q= Q= F, F- x- 0; >> U$ |* K- ~> {> W~ U~ Z= J% `{ D- D- D- D- ,' A; w= U$ J% r> >> Y^ w- v- v- F- |' A> d; n& |* |* 1* I% U$ :' H- o[ ,' w- v- Q= F, F- s; F- Q= ;m Vb Xa @f -a &8 78 Y7 78 K6 z0 o} s; z- d; I% o& |* |* |* |* |* |* o& I% r> #> v> H( Eg ^2 Aa u- V{ @- w- %~ c; U$ &! E, F( u1 Mk D, I' H> .! J' H> K- n& I% U$ c; A- A; x- -> ;m Ph +| .0 q7 78 58 lh T> D- z- r> I% o& |* |* m- J% J% I% %= j! {> O- l; ~' ^> L> (> (> L> 4) N- 4, q; 2) A- d; m- R6 em fm gm hm hm hm im jm km .~ R> J% U$ U$ U$ U$ c; 1] F- |] v3 m} =4 78 p7 V6 lm mm nm om pm !3 Dh >;          [% N. <  [  *  *  *  1. ^_ +  (  (  Y. O  d  3  4  *  *  *  *  *  *  *  *  S  +. C     ",
"      .  +  @  9  $  qm rm x. x. a. |  ;  sm tm um vm wm xm ym zm Am Bm Cm Fe B; I= Dm Em Fm mc 1g F= Q= Q= Q= Q= -> S- Y^ B> b; c; U$ n& X= h; ~> `a y, n& z- ,' D- D- E, ,' A; O> d; R> J% U$ ,> >> y- S- S- !, <> z- d; m- 1* |* o& I% J% U$ :' A- f; C' 7, Q= F, -> -> Q= W* x] Eg Gm Ca +4 =4 .0 .| J6 ba 3h y0 |' B> d; I% o& |* |* |* |* |* n& I% !b >> g; j_ H= 8; d2 H8 E8 Q: S= F, 9; z- #> ;> H( o> %h +h Hm .{ Z= H> -| P- K- m- U$ [' A- &! T~ !> -> Im Ph +| ca Ve za 1g x0 ,' B> r> n& o& |* |* |* n& J% U$ U$ 6, _' Z= P- /' k; e~ 3, N- ,^ ,^ H' M- L- )' :' e; |* <3 Jm Km Lm Mm hm hm hm Nm Om Pm Qm .$ J% b; #> #> #> >> %~ !> 7, @- $- v3 =4 mh 17 ,7 Rm Sm Tm Td Um Vm Wm          [% N. <  [  *  *  *  1. ^_ +  (  8  j  o* 2  3  4  *  *  *  *  *  *  *  *  1. 2. C     ",
"      .  +  @  9  $  p_ 9@ ~+ -]          T@ '] *] Xm Ym (0 Zm `m  n .n }0 +n K5 4h @n #n $n Ve 93 W* Q= Q= Q= Q= F- x- z- ,> J% J% J% I% o& %= |* o& U$ B> R- |' D- D- ,' D, w= U$ J% J% J% J% J% U$ >> Y^ x- <> <> z- d; m- 1* |* o& I% J% J% J% U$ O> +^ [6 F, Q= Q= Q= R= *! x] '= L* H8 p9 +| 68 68 68 za ^2 <6 !> B> d; I% o& |* |* |* |* o& I% r> a; R- [_ @b o> o> o> '= x] {* I2 ), S- 9; R- j_ 9f u- Ki dd %n [, X= j! 8) Z= I' m- :' 2) A; ;> <> r; v- x] *4 w3 3h 4h ^2 Ag D- z- r> I% 1* |* |* |* |* o& 6, c; A- 2) z; 6, o& |* X= h; ~> 4, H> H> P- y, X= I% J% |* @{ &n *n =n -n ;n hm hm hm >n ,n 'n )n !n r> &! Y^ Y^ Y^ Y^ <> <> x- |' *a <6 +4 ne Xk ]1 <m ~n {n ]n ^n /n j+          [% N. <  [  *  *  *  1. u< +  +  >  ;  42 *& 3  4  *  *  *  *  *  *  *  *  1. 2. C     ",
"      .  +  @  9  $  p_ 9@ k* .@ |  (. C  T@ (n _n :n <n [n }n |n 1n 2n 3n 4n 5n 6n 7n 8n 9n Ya {a *! R= ), ), Q= -> x- &! d; 6, I% I% m- o& n& r> >> `{ !> S- P= D- ,' A; w= R> m- n& m- I% m- n& m- ,> }6 g; ,' x- f; z; J% n& |* o& m- I% m- n& m- R> A- 3> Q= R= R= 98 98 W* W* S= => y0 :6 3h mc 68 3c G8 Ge 8] !> B> r> 6, n& o& o& |* |* o& I% c; 1] S- |] o} o} E8 Q: F= W* 98 R= ), -> P= P= @- ,= Ca *d uf 0n `{ J% Y= j{ K- X= 6, O> f; <> !, S- E- v- [1 Ph w3 ;a 4h yd Dg x- >> d; J% m- o& o& o& o& m- J% A- `{ C' z> A; &! O> L( m- %= I' j{ h; |, $= m- J% J% _' 4, an bn cn hm hm hm hm hm hm hm dn en fn }* :> tf E- S- !, x- <> <> x- s; <6 a4 d| qe gn hn in jn kn _! ln t# mn nn    [% N. <. [  87 g> |@ {+ {3 +  +  >  g. on y@ 3  4  *  *  *  *  *  *  *  *  1. 2. C     ",
"      .  +  @  9  $  %  &  A  -. }  2. g. ,] /| n  O1 pn W_ qn rn sn tn un vn wn xn yn zn An Bn ^f ]* *! W* W* g< v- x- &! c; 6, n& o& o& o& 6, #> }' w- -> F, -> D- :> >> U$ m- 1* |* 1* o& o& |* 1* J% A- g; D- S- x- %~ '> U$ m- o& o& o& 1* |* o& m- c; z> s: *! *! )l q2 G= G= Q= Q= <6 :6 3h mc 68 ]7 93 =! v- x- >> r> 6, I% I% m- o& |* o& I% P: C> F, &d p9 ha H0 {* S= G= ), ), Q= Q= v- Q= !j K5 *d *d ^b #| D- >> m- %= ^' n& I] #> :> r; E- v- v- Q= [1 Kk w3 ;a 4h 9d ge R- &! O> :' }* L( M( w] Z^ M( }* A; D- v- F- |' C- +^ H- :' J% o& %= $= |* m- J% J% J% H] N> Cn Dn En hm hm hm hm hm hm hm dn en Fn O> |' *! W* Q= F- !> <> <> x- s; t1 C8 nc Gn Hn In ,7 =8 Jn Kn Ln Mn Nn On    [% N. <. [. 87 M  R2 |d 8  (  +  >  g. Pn y@ 3  4  *  *  *  *  *  *  *  *  1. 2. C     ",
"^  f  <% b  @  9  $  %  &  *  *  *  I. a  k] d# x  Qn H  )0 Rn Sn Tn Un Vn Wn Xn Yn Zn `n  o .o (9 We {* {* ]* {* x, !> z- c; I% o& |* |* n& U$ &! x- 7, F, Q= v- !, v> '> J% n& |* |* |* |* |* |* |* 6, A-  ! F, R= G= F- R- >> U$ n& |* |* |* |* 1* m- c; ,' =! x] x] {* W* Q= Q= Q= Q= !j yd vf mc 68 +| H0 @^ Ul !> z- c; I] I] J% I% o& |* o& m- P: %d Q= f| ^b oh +o {* R= Q= Q= Q= Q= Q= Q= G= 3l ^2 @o 3c <1 ^f T> ,' #> r> U$ J% U$ #> Y^ S- F, Q= Q= Q= q2 f| x3 3h vf xd x0 x- G- +^ +^ gl gl A; &! >> &! A; ga 7, Q= -> s; C' `{ 2) :' U$ I% o& |* n& 6, J% U$ U$ I' M- #o $o %o hm hm hm hm hm hm hm dn &o *o =o l{ {* {* q2 v- w- x- x- E, -o lh /f ;o >o 9n Jl ,o wf 'o )o x6 7! !o ~o    [% N. <. g] 87 G7 !8 +  b  (  +  >     {o *& 3  4  *  *  *  *  *  *  *  *  1. 2. C     ",
"<% >  8  (  @  9  $  %  &  *  *  *  i  a  k] d# $  E@ F@ ]o ^o Sn Tn /o (o _o :o `n <o [o }o |o 2l E8 Q: X* Y1 1o F= D- z- d; 6, m- o& o& J% z; 5, C' P= F, Q= -> !, v> O> J% n& |* |* |* |* |* o& I% d; A; s; ;m &d 04 t: S= |' a; J% n& o& o& o& I% r> z- u3 8( J] n> Q: S= Q= Q= Q= Q= !j K5 @o za ^k w3 04 *! Q= P= R- z- #> ,> I] I% o& |* o& m- P: %d Q= f| ha oh +o {* R= Q= Q= Q= Q= Q= Q= Q= dm K5 za 88 C8 C8 +4 p} D- z- P: I] U$ #> Y^ S- F, Q= Q= Q= #- Qf 3h ca ba 3h #| F( -o ge r9 2o 3o v0 |' 9; !> D- P= 7, F- s; C' 1) S> [' U$ I% o& |* |* o& I% U$ b; >> e2 `~ 4o 5o En hm hm hm hm hm hm hm dn &o Fn p& j_ {* {* {* q2 p> F( Dg Qh 6o 7o >o 8o 9o 0o ao  o bo co do h% eo fo go    [% N. <. [. 87 `  l8 ho yc b  (  k  D  X+ 2  3  4  *  *  *  *  *  *  *  *  1. 2. C     ",
"(  (  (  (  @  9  $  %  &  *  *  *  i  a  k] d# $  E@ F@ io jo ko lo mo no `n :o oo po qo ro J| so V> o> E8 @| p9 #| P= z- r> J% J% I% J% :' S> G- C' P= F, Q= -> !, v> '> J% n& |* |* |* |* |* n& I] C, R- H= f| ha +| a4 ^b <6 x- O> J% I% I% I% to }4 x- 1e &* q[ %- o> S= Q= Q= Q= Q= dm K5 4h 3h +| uo 1o *! R= Q= F- !> v> #> U$ m- |* |* o& m- c; C> Q= f| ha oh +o {* R= Q= Q= Q= Q= Q= Q= Q= !j K5 Ua Ta ~7 q7 &8 ]7 *3 C' #> I] I] #> Y^ S- v- Q= Q= Q= 8] `k <i .| Y7 80 +| @| @| ^f p9 1c ^2 20 8] -> v- F, F, F- D- ,' +^ H- :' I] n& |* |* |* |* 1* m- r> z- Y^ ,> L- ad vo wo hm hm hm hm hm hm hm dn xo Fn p& j_ {* {* {* {* t1 xd yo zo Ao Bo Co Do Do Eo Fo Go Ho Io sn Jo Ko Lo go    [% N. <  [  *  *  A  -. 72 +  (  (  +  c  d  3  4  *  *  *  *  *  *  *  *  S  +. C     ",
"(  (  (  (  @  9  $  %  &  *  *  *  i  a  k] d# $  E@ F@ m= Mo No Oo Po Qo Ro So Ro To Uo Vo Wo Xo #2 Y* @4 a4 U3 lh *a z- r> J% I] r> z; &! 1) C' D- F- v- Q= -> !, v> #> U$ m- o& |* |* |* |* o& J% E> R- T> w3 `7 K6 v7 I6 ;a $e 1) [, P: '> '> a; C> D- *> Yo [4 p[ V{ F= 8] 8] 8] 8] 20 Va Xa )m n} H0 8d *! q2 ), -> w- <> >> U$ m- o& |* o& J% [,  ! Nk lh x3 w3 {a ]* W* G= Q= ), ), ), ), G= 8; =d Ve /f ~7 ~7 Y7 &8 ^b => `{ E> P: z- <> P= F, G= ), ), Mk Zo <i I6 ~7 q7 80 C8 =4 58 3c ;a Ki Qf |] R= R= ), F, F- |' +^ A- d; 6, n& |* |* |* |* |* n& I] '> f; x- &! |* `o  p .p +p @p #p $p %p hm hm dn &p *p B- q} =! {* {* ]* lh W1 =p -p ;p >p Xn ,p 'p )p !p ~p {p ]p sn Jo r] Lo ^p    [% N. <  [  *  *  *  1. u< +  (  +  && 6% d  3  4  *  *  *  *  *  *  1. 6. }- U+       ",
"(  (  (  (  @  9  $  %  &  *  *  *  i  a  k] d# $  E@ F@ &  /e /p (p _p :p <p [p }p |p g6 1p 2p 3p t( so 6g pk Oh Q| *a &! U$ J% c; }4 C>  ! D- P= F- -> Q= Q= v- w- R- A> w= U$ I% o& |* |* |* |* n& r> g; |] F8 Y7  | o7  | 4p 9d v0 o2 %d R- Q8 ,' x- E, xa T[ J= => x] #| `k `k `k `k 9d ^2 ^2 5p ^7 E8 ]* {* q2 Q= -> P= ,' >> U$ I% m- n& <, #> Z1 Ok `k )m z0 z0 6p H0 x] W* g< W* q2 W* F= <6 H8 ;a `7 q7 ~7 ~7 ~7 q7 =4 lh -> p2 %d x- xa F( => S= S= @^ x] Qf <i Fm Y7 ~7 Y7 q7 48 `7 `9 Dm d2 y0 x] *! 98 Q= -> P= C' A> d; I% o& |* |* |* |* |* n& M( #> K_ R- |' ;> w= 7p 8p 9p 0p 9p ap bp cp hm hm dn dp ep v> xa V{ Q: =! ]* fp gp hp ;p ip jp kp lp Xn mp mp ~p np <p sn !g r] op pp    [% N. <  [  *  *  *  1. u< +  b  && 7  S+ *& 3  4  *  *  *  *  *  *  }  2. M. a        ",
"(  (  (  (  @  9  $  %  &  *  *  *  i  a  k] d# $  E@ F@ *  *  =  qp rp sp tp up vp wp xp yp zp Ap Bp H$ Cp -e  | oh 7, &! r> J% #> Y^ P= Q= G= G= Q= Q= Q= Q= F, P= E, C- A; '' d; J% o& |* |* |* |* U$ :> |] =4 ~7 o7 ^1 Dp q1 <i Eg u1 W* <6 ,= 8, [_ D- D- |' w- 0j ]* ~b 4h <i <i <i <i 4h Va u- o> V{ =! {* q2 ), -> F- C' &! U$ J% J% U$ #> ,' Tl yd <i r1 =a =a 88 +| {a 8d {* {* {* ]* t: v3 T8 z0 .| q7 ~7 ~7 ~7 ~7 80 +| f| [1 S= |] p} n> n> o> Q: {* t1 Vb <i Ya Y7 ~7 ~7 ~7 q7 `7 T8 u- V{ V{ =! {* I2 ), -> P= C' &! U$ n& |* |* |* |* |* n& I] a; :> |' D- D- E, C- 2) J% 1* |* |* $~ Ep Fp Gp Hp Ip Jp Kp 9; J= o> '= =! Lp fp Mp Np =m Op Pp Qp Rp Sp :o :o :o np <p (0 {/ Tp Up Vp    [% N. <  [  *  *  =  5  72 +  +  >  g. on y@ 3  4  *  *  *  *  *  =  i  (.             ",
"(  (  (  (  @  9  $  %  &  *  *  *  i  a  k] d# $  E@ F@ *  O< >[ Wp Xp Yp Zp `p  q .q +q @q #q $q %q v& W} &q Ii 6p G( )> b; ,> }6 j_ T> /2 93 #| F= G= Q= Q= G= g[ F, 7, D- z> z- c; I% o& o& o& 6, '> R- 9] :1 ql pk Xk c| *q I6 ca e| U3 8f _6 4h Da -o [6 x- |' tf *3 x3 J6 d| I6 .| 2c vf yd 8; => x, S= q2 98 R= Q= F, D- A>  5 r> '> &! x- T> ^b 8f I6 Ta q7 q7 78 80 U3 X1 /2 X* |] kc 93 m} @f -a &8 78 78 Y7 ~7 ~7 ~7 80 =4 ^k ^k a4 z0 m} Dm ,= '= Q: X* ]b 4h 'd ~7 ~7 ~7 ~7 Ta 88 Ca 8; => x, S= q2 98 R= ), -> |' z- U$ m- o& o& o& m- 6, r> E> C> r; -> -> 7, -> 7, |' f; &! >> >> }6 =q -q ;q >q ,q 'q )q w- 8, ,= p} |] x] lh !q ~q {q ]q ^q /q (q _q {p :q So Sp <q [q }q |q 1q 2q    [% N. <. [. 87 k. c# 72 yc b  +  >  ;  42 y@ 3  4  *  *  *  =  |+ 0. U+ g.             ",
"(  (  (  (  @  9  $  %  &  *  *  *  i  a  k] d# $  E@ F@ *  i0 P4 3q 4q .< 5q 6q 7q w# 8q 9q 0q aq bq cq dq eq fq gq M* X5 ;> v> ,' r9 [: m} ]7 c& n> => Q= Q= R= W* *! W* g< Q= L3 z- r> I% I% e; A- A; C' J= kh Ja hq -4 v7 ~7 Y7 Y7 q7 Y7 Gn iq jq kq lq *a <> x- 8j '= a4 q7 ~7 ~7 ~7 d| mq xd 0n Q= Q= Q= ), 98 *! W* G= F- C> '> '> B> <> F, ]b 58 Ta ~7 ~7 ~7 ~7 ~7 ~7 d| za yd nq V{ E8 p9 z0 -a =a =a Ml `7 48 ~7 ~7 ~7 ~7 Y7 Y7 Y7 Y7 Y7 80 ^k v3 p} o> '= o} +| 80 ~7 ~7 ~7 ~7 Ta Ua xd 0n Q= Q= Q= ), q2 *! *! R= P= 5, U$ I% I% I% R> [' >> z- v> !, v- Q= Q= Q= Q= Q= F, -> -> F- F- F- X5 oq pq &n qq W5 )> F, [: p9 o} '= '= H8 ca rq sq tq uq vq /q /o wq xq yq zq Aq [q Bq Cq Dq Eq    [% N. <. [. 87 Q2 H7 Y. +  (  b  >  ;  Pn y@ 3  4  *  *  *  5  2. g. C                 ",
"(  (  (  (  @  9  $  %  &  *  *  *  i  a  k] d# $  E@ F@ *  .' Fq Gq Hq 5# Iq Jq Kq Lq c. Mq Nq Oq Pq Qq C6 Rq Sq I6 n} S= k! 2g 83 p} (9 =4 `7 `9 fl o> => ), R= =! ]* Tq 8d ]* @- x- z- E> C1 A; a) E, D- q} Uq ,m Y* Vq e8 78 ~7 ~7 ~7 Z7 Wq Xq Xq jq vf  ] s; s; I= A0 r1 Y7 ~7 ~7 ~7 Ta za %h Mk Q= Q= Q= Q= W* ]* t1 x] G=  ! >> #> K_ x- => @| =4 q7 ~7 ~7 ~7 ~7 ~7 ~7 Ta 2c Xa A0 ,= 03 ]7 .| &8 J6 r1 `9 T8 a4 &8 q7 ~7 ~7 ~7 ~7 ~7 ~7 ~7 ~7 Oh e| v3 ,= ^7 v3 Jd 80 ~7 ~7 ~7 ~7 Ta mq 9d 0n Q= Q= Q= Q= S= =! x] x] g[ `{ d; J% U$ d; '' o[ C- aj dj -> Q= Q= Q= Q= Q= Q= Q= Q= Q= Q= Q= Q= w> /, |* H] [3  { C- X* w3 P| ^b H8 n> 9, (9 -4 d6 Yq R7 g6 B6 z8 Zq Qp `q  r .r +r @r #r |d [!    O. N. <. [. 87 $r %r {@ b1 k  8  D  ;  ci b$ &r ch *  *  *  1. 0. (. (. (. a  g.       ",
"(  (  (  (  @  9  $  %  &  *  *  *  i  a  k] d# $  E@ F@ *  @# .' 9+ )@ *r =r -r ;r >r V0 ,r q' 'r )r Qq !r ~r {r ]r ^r /r Tq (r _r :1 68 80 80 88 (9 fl '= S= W* =! ]* 04 {a 30 V{ G( |' o2 C' j5 r9 [_ s; E, s7 ik 'k T{ }7 &8 ~7 ~7 ~7 ~7 Wq Xq Xq #n :r 4h @h @h <r [r _6 Y7 ~7 ~7 ~7 .| x3 Eg #- Q= Q= Q= Q= F= E8 o} Vb 20 }r S> >> 5, x- @- {a =4 q7 ~7 ~7 ~7 ~7 ~7 ~7 Ta `7 3c T8 :1 ]7 &8 Y7 d| |h *d Id u- }: +4 .0 /f ~7 ~7 ~7 ~7 ~7 ~7 ~7 He 80 ]7 y3 c& m} @i ne ~7 ~7 ~7 ~7 Ta Ua 9d 0n Q= Q= Q= Q= x, V{ ^7 Vb 20 yg '' :' z; C, o[ [6 T[ J= }] H= Q= Q= Q= Q= Q= Q= Q= Q= Q= Q= Q= Q= s3 |r z- 61 1r S[ Tl ^b `7 /f `7 T8 03 N* 0* z& 7{ 2r vc &f qc 18 lo vq vq 3r 4r 5r 6r 7r Y. <%    ci xk <. [  87 ~+ .@ -] ho [! j  ..    8r Ch 9r 0r *  *  *  =  5+ I. I. I. -  o        ",
"(  (  (  (  @  9  $  %  &  *  *  *  i  a  k] d# $  E@ F@ *  *  *  -. 2. +@ && (  P. ar br cr dr er fr gr ym hr ir jr kr lr mr x3 a4 ql ne He He /f `7 T8 9, o> $- =! ]* {a w3 p9 u- M* x, Q= => M* o> r9 s; |' <> <> nr or |< -4 ~7 ~7 ~7 ~7 Wq Xq Xq Xq Xq pr zo qr rr rr sr ~7 ~7 ~7 ~7 &8 (9 X* G= Q= Q= Q= Q= =! 30 Ca *d Va tr o[ S> f; x- p> 93 =4 78 ~7 ~7 ~7 ~7 ~7 ~7 ne 88 68 68 68 `7 78 ~7 I6 vf 9d U> o> p} @| U3 Ta ~7 ~7 ~7 ~7 ~7 ~7 ~7 ~7 ~7 48 =4 68 -a =a 78 ~7 ~7 ~7 ~7 Ta Ua xd 0n Q= Q= Q= Q= => V{ d2 Ki Va tr o[ S> S> D, Cg >c n> o> o> T> G= Q= Q= Q= Q= Q= Q= Q= Q= Q= Q= Q= Q= Q= G= T> n> ^* ]7 .| q7 ~7 q7 .| ]7 =3 &* ur l5 [h Bf f- vr wr s  xr xr yr zr (  (  (  (  /  f  Bi di <  [  *  *  *  =  +. g. ^              a  i  *  *  *  *  *  *  *  *  1. 2. C     ",
"(  (  (  (  @  9  $  %  &  *  *  *  i  a  k] d# $  E@ F@ *  *  *  -. 2. +@ && (  P. Q. V0 Ar Br Cr Dr gr Er Fr `n xn Gr Hr Ir Jr Kr Lr Mr Nr Or Pr Qr r1 ^* %- o> Rr t1 Sr 'd |h Tr u- |] W* F= V{ o> => tf w- !> x- Ur @e ,c I6 qe qe qe Vr Wq Xq 9n 9n Wr Xr hp Yr Zr `r Gn ~7 ~7 qe qe I6 *d Eg q2 R= G= G= x, |] v3 ;a z0 *d  s <: G- R- !> 83 E8 (9 `7 78 q7 /f 80 58 6p ha ha ha ha p9 m} 68 Ml ^k =d Ge <6 Q: E8 ^f U3 80 q7 Ta d| I6 J6 88 `7 .0 80 Ta 78 ne 78 78 q7 ne 80 d| d| Ya ed yd Qh 0n 0n Mk T> $- p} Id 3h *d I= C- +^ `{ g; J= @4 m} n} [: '= S= p> Q= Q= Q= Q= Q= ), R= R= G= x, |] [: ^f w3 ca 88 .| q7 ~7 ~7 ~7 q7 -a .s S8 ', c2 +s @s #s [q h9 s  h7 `j $s u* %s y2 b  (  k  .  h# N. <. [  87 k* }- 0. o  C           8r [% &s ~i *  *  *  *  *  *  -. f. 0. |        ",
"(  (  (  (  @  9  $  %  &  *  *  *  i  a  k] d# $  E@ F@ *  *  *  -. R& +@ && (  (  P. c. *s =s -s ;s gr >s ,s 's oo Go Fo )s !s ~s {s F6 F6 {s ]s ^s Fm Oj T{ U{ V{ y0 ed /s -m W1 :6 t1 {* =! o> o> V{ W* I( w- C' G( fl r1 sr (s (s (s (s >o Xq 9n _s :s <s Eo <s [s #n }s He qe |s Wq 1s 2s Vb ]* *! W* T> V{ E8 p9 3c 88 e8 Ba *> xa P= F- p> V{ Id `9 `7 `7 =4 w3 X* @- @- H= H= H= H= 8, ,= 03 30 &d t1 x] x] &d ^f ^k =4 `7 88 Ua vf )m p9 p9 w3 U3 80 ~7 ~7 ~7 ~7 78 `7 68 mq kq vf 4h ^2 yd xd 9d 9d %h Vb @| ^b a4 ]7 s9 E, ,' ,' C' M* 2l -a ]7 p9 [: o> => p> Q= Q= Q= Q= R= *! =! T> M* ^7 (9 =4 80 nc nc ~7 ~7 ~7 ~7 ~7 ~7 48 3s c& G8 kq 4s 5s 6s 7s _0 8s !g r] 9s 0s |. as Y. (  (  +  a$ }% <. [. 87 |. o  g. C              O. #c ei fi *  *  *  *  *  *  f. |  g. C        ",
"(  (  (  (  @  9  $  %  &  *  *  *  i  a  k] d# $  E@ F@ *  *  *  -. R& +@ && (  (  (  (  bs cs ds es fs gs hs is js ks ,p ls 'p ms !9 ns ns os ps qs rs @k X/ %- ss Of ts kr us vs 1c &d {* =! $- V{ '= &d x] 8] w0 y0 ca ws xs _s kr kr xs xs 9n kr ys zs As Bs Do 0o >o |s He |s Xq Cs Ds Es ~b t1 x] Q: '= ^7 v3 +| `7 &8 &8 l} c& t: |] #- S= M* ,= :1 z0 3c ^b /2 |) ,' }' `{ `{ `{ C> ,' j5 >c S= W* *! *! {* 8d ^f x3 ]7 ]7 x3 uf :6 Qf t: [: 93 w3 `7 q7 ~7 ~7 ~7 oe 88 3h ^2 yd Va dd 4h vf za Fs ts Fs Gs U3 F8 =4 ]7 E8 G( F- F- -> p} z0 &8 `7 U3 p9 H8 o> S= ), Q= Q= Q= R= {* *3 E8 H8 y3 68 Ta He He ~7 ~7 ~7 ~7 ~7 ~7 Z7 ~7 80 P| Hs Is Js Ks np }p /o z8 )g r] Fk Ls 1. Hk Y. (  (  +  a$ }% <. [. 87 |. o  g. a  a  g. C     S+ *& 3  4  *  *  *  *  *  *  f. |  g. C        ",
"(  (  (  (  @  9  $  %  &  *  *  *  i  a  k] d# $  E@ F@ *  *  *  -. R& +@ && (  (  (  (  4! Ms Ns Os V2 Ps Qs Rs Ss js Ts >p Xn 's Zi qo pc Us Vs Ws Xs <i fe |e U{ Ys Zs Xr `s  t ^b Y1 {* W* => => <6 Vb 1c 1c 1c .t +t @t #t Ws Gr jr $t $t 8n ao Ws %t &t Bs )s Wr Xq Wq |s *t =t )s Ao -t n} E8 Q: *3 fl :1 a4 70 Ta Y7 Y7 78 48 F8 ;t &d |] V{ ,= Aa 3h ;a 5p p[ [6 A; A- z; c; c; c; >> R- H( tf 4g p> Q= G= |] o} n} n} n} v3 f| &d t1 ]* ]* t: n} a4 &8 q7 ~7 ~7 78 `7 T8 A0 nq Wa Va vf 8f 80 >t ,t $n 't Ta 80 `7 +| 04 =! W* W* W* t: +| .| Ta Oh =4 p9 [: {* 98 ), Q= Q= x, F= [: :1 a4 =4 80 /f ~7 ~7 ~7 ~7 ~7 ~7 ~7 ~7 Qr Wq Wq /s )t !t Bo %t :o Sp wq ~t ;k P% {t ]t 0. ^t Y. (  k  .  h# N. <. [  87 k* }- -  -  i  2. (.    1  2  3  4  *  *  *  *  *  *  -. f. 0. |        ",
"(  (  (  (  @  9  $  %  &  *  *  *  i  a  k] d# $  E@ F@ *  *  *  -. R& +@ && (  (  (  (  m, n, /t [  *  (t _t e% lo '9 :t <t yq [t Y> w! Y> nm }t |t Ir 1t Xa 2t T{ 'j 3t :s Hr 4t +4 7f Lp R= Q= Q= 0n K5 5t 6t Xq ys Do )p ~p :o :o 7t 7t 7t 7t 7t :o :o mp 8t 9t Cs Xq Xq >o kr 0t As at bt (9 p} o> ^7 (9 `7 78 ~7 ~7 ~7 ~7 ~7 ~7 q7 C8 ha ^7 o> n> xd Xa ^2 u- 71 s7 D, :' I] J% J% J% ,> 5, x- !, D- D- D- w- J= M* n> o> o> Q: x] {* {* {* x] E8 v3 `9 -a ne Y7 ~7 78 `7 (9 ^7 o> nq yd ed 80 ~7 ct Hn Xq Wq He Oh P| ha 8d {* {* {* {* 8d ^f P| Ta He Ta U3 ^f 1o {* R= Q= Q= x, M* Id 88 He He He He ~7 ~7 ~7 ~7 ~7 ~7 ~7 qe Wq 9n _s ys )s Eo As !p 7t _o xq /o  k P% dt et -[ /  (  (  /  f  Bi di <  [  *  *  *  *  *  *  }  |     1  2  3  4  *  *  *  *  *  *  *  *  1. 2. C     ",
"(  (  (  (  @  9  $  %  &  *  *  *  i  a  k] d# $  E@ F@ *  *  *  -. R& +@ && (  (  (  (  e# >0 3  4  *  ft gt ht it jt kt zq zq lt mt :& nt nm ot wn Wr pt qt *d A& sl rt :s st tt Ya oh We W* x, G= $- K5 ut `r _s !s Eo )p vt Zn wt xt yt kp kp zt At <t Xn )p Co 0o Cs =t 0o 0t Do As Bt /s 8f G8 Dm ;a Fm Ct qe ~7 ~7 ~7 ~7 ~7 ~7 ~7 Dt =4 #k ^7 n> u- 9d Ge $- 83 C' D, b; U$ J% J% J% U$ Et a; &! A> A> A> A> G- Sl Ft [7 F( H= S= =! t1 &d f| 93 (9 z0 &8 78 ~7 ~7 q7 48 a4 }: ^7 A0 Ki Ua Gt ct Ht _s kr Hn Vr .0 +| o} x] W* W* W* W* =! t: ^b Ya It 't Jt ed lh cl S= x, x, Q: o} ]7 Gt Qr Qr Qr Vr Xe ~7 ~7 ~7 ~7 Xe Qr *t Wr ys !s <s Eo Kt Bs Lt 7t _o xq /o  k P% Mt Nt /  z~ (  (  /     Bi di <  [  *  *  *  *  6. f. +. b.    1  2  3  4  *  *  *  =  5+ I. I. I. -  o        ",
"(  (  (  (  @  9  $  %  &  *  *  *  i  a  k] d# $  E@ F@ *  *  *  -. R& +@ && (  (  (  (  e# I@ 3  5. *  Ot O7 Pt Qt Rt sn Zm Aq (0 18 qc 6( qo St Tt Ut 9n $n Vt J6 qk us :s ys Wr us Bn 6p t: Rr T> <6 K5 ut Wt ys )s Eo 8t vt ks [o Xt Yt 1n !r Zt `t  u np .u Fo Do )s Do Do Eo As As Do Wr `r :r Jt :r /s +u Qr ~7 ~7 ~7 ~7 ~7 ~7 ~7 @u oe =4 p9 H8 ,= n> $- => v- !, :> #> U$ J% J% J% J% I] U$ r> d; d; d; d; #= p& #u $u j_ m< Q= u1 Qf =d )m x3 a4 &8 q7 ~7 ~7 ~7 ~7 Y7 &8 a4 (9 m} @f ba %u *t _s Xr st &u Vr C8 ia n> S= G= ), G= G= g< V{ Id W1 -m *u *u ut K5 '= M* }< V{ 93 58 O| Gn *t Wq +u Wq qe ~7 ~7 ~7 ~7 Vr *t =t )s Eo Eo Eo Eo As As )p .u _o xq /o  k P% =u -u +  (  (  (  /  ^  Bi di <  [  *  *  *  =  i  M. a  C     1  2  3  4  *  *  *  1. 0. (. (. (. a  g.       ",
"(  (  (  (  @  9  $  %  &  *  *  *  i  a  k] d# $  E@ F@ *  *  *  -. R& +@ && (  (  (  (  e# I@ 3  5. *  *  =  Ot ;u >u ,u 'u 18 ;k )g s  :& )u !u {p ~u $t xs {u ]u ^u xs :s Np zs !s _s Gt T8 9, U> u- Va vs /u zs Eo As )p =m (u tn _u _& qc 8s Tn /q :u (o `n mp )p 8t Bs As As As As As -p !s at <u kr xs >o Qr ~7 ~7 ~7 ~7 ~7 ~7 ~7 Xe Xe nc [u ^b u- o> 9] G= v- H2 !> 1] ,> J% J% J% J% J% J% J% J% J% J% J% ^, H% .$ i5 v> 9; S- 8] Zo ^2 *d 3c =4 oe ~7 ~7 Y7 Y7 ~7 ~7 q7 80 `7 Ml &8 ne }s Xq [s :s :s _s qe Jd [: >c @- Q= Q= Q= Q= @- }< d2 W1 rr rr zo }u Va o> o> L* u- +| He |u xs Cs kr Cs Xq Qr ~7 ~7 ~7 ~7 Qr Xq ys Eo Bs 8t 8t 8t As Bs Lt 7t `n xq /o  k P% =u 1u (  (  (  (  /  ^  Bi di <  [  *  =  A  5  6  C           1  2  3  4  *  *  *  5  6                       ",
"(  (  (  (  @  9  $  %  &  *  *  *  i  a  k] d# $  E@ F@ *  *  *  -. R& +@ && (  (  (  (  e# I@ 3  5. *  *  j. ^. 2u 3u 4u 5u `j `j e% !g *7 6u 7u At :o Fo Bt Xq (s #n Cs )s -p %t %t jr 8u Y9 9u 0u au bu cu du !p !p 'p eu Wn zt !r fu 8! x6 g% gu  k Zq Rp yq Xn ~p hu Bs As As As As Lt mp xn Fo Ut ys Cs >o Qr ~7 ~7 ~7 ~7 qe Vr Qr Qr ct Qr nc 68 }: o> => g[ Q= v- E- x- 1] '> M( J% J% J% J% J% J% J% J% J% J% R> U$ c; E> B> y- [6 $e Da 1g p9 <1 88 .| I6 Fm Ya 'd .| 80 78 78 78 q7 Y7 *q Xq 0o Do Ut _s d| uo iu @- Q= Q= Q= Q= Q= x, o> Aa !q ju ku zo lu K5 o> n> u- ^2 2c ws <u 0t )s )s )s ys Xq qe ~7 ~7 He Qr Xq 0o Do 8t mp vt ;p 'p 'p mp 7t `n no /o  k P% mu nu && (  (  (  /  ^  Bi di <. [. 87 g> /{ 6  M.             1  2  3  4  *  *  *  5  6                       ",
"(  (  (  (  @  9  $  %  &  *  *  *  i  a  k] d# $  E@ F@ *  *  *  -. R& +@ && (  (  (  (  e# I@ 3  5. *  *  *  S  l] #) ou pu r] r] r] P% Jo qu ru su np mp Kt Wr Xq Xq 0o Eo !p ~p .u Go Go tu uu vu wu wu uu xu :o Zn Wn <t Vn ]p qu `j eo X] 7! yu zu Au Bu Cu {p `n ~p 8t As As As As Lt 7t :o mp As 9t Cs +u qe ~7 ~7 ~7 ~7 Qr >o >o Xq Xq *t Z7 >g c& o> => Q= Q= Q= Q= -> !, )> b; J% J% J% J% J% J% J% J% J% J% J% J% J% I] d; A- +^ a) s; p> *! 1o 1c 4h <i <i <i 4h x3 58 48 ~7 ~7 ~7 ~7 Qr Xq ys Eo Kt Hr J6 H0 g< Q= Q= Q= Q= Q= Q= Mk %h ts Du iq #n ku lu yd o> n> 9d vf Jt #n An -p As As As Do 0o >o qe He He |s Xq Wr )s )p Zn ks Eu Fu Wn `n :o So no /o  k P% Gu Hu .. 8  (  (  /     Bi di <. g] 87 f> e>                   1  2  3  4  *  *  *  5  6                       ",
"(  (  (  (  @  9  $  %  &  *  *  *  i  a  k] d# $  E@ F@ *  *  *  -. R& +@ && (  (  (  (  e# I@ 3  5. *  *  *  1. x. C  Iu Ju Ku Lu Mu Nu Ou Pu Qu Ru Su Ts mp Tu at at Ut Lt :o ks At Uu Vu Wu Xu Yu Zu .n `u  v :o oo 's .v Zt z8 +v @v #v $v %v &v *v =v -v ;v >v (o Wn Go Lt 8t Bs Bs !p 7t :o mp As 9t Cs +u qe ~7 ~7 ~7 qe Xq =t 0o [s _s Hn !7 Ml @4 o> => Q= Q= Q= Q= Q= v- |' 5, '> d; I] J% U$ d; c; ,> ,> r> I] I% m- n& I% d; O> >> z- 0( !> 7, 0n 20 Ge %h Vb ]b H8 #k `7 ~7 ~7 ~7 ~7 Qr Xq ys Eo Kt _s Ya H0 W* ), ), ), Q= Q= 8] {b ,v Xs Cs 'v Cs Ir !q K5 o> n> xd vf Jt #n Bt Kt As As As Kt )s 0o >o ]u qe |s Xq Cs )s mp Ts Vn :t _q 6s Ro :o So no /o  k P% )v !v 6  W. {@ k  && j  [% )i <. [. 87 k. a. M. a              1  2  3  4  *  *  *  5  6                       ",
"(  (  (  (  @  9  $  %  &  *  *  *  i  a  k] d# $  E@ F@ *  *  *  -. R& +@ && (  (  (  (  e# I@ 3  5. *  *  *  =  -  C  ~v {v ]v ^v /v (v _v :v <v [v }v Su np Go |v |v yn vt `n (o `t 1v 2v 3v 4v 5v 6v 7v 8v .u :o 9v 0v 6u xr h7 av bv cv dv ev fv gv hv iv jv 6m kv lv So .u mp 'p 'p mp :o :o mp As 9t Cs +u qe ~7 ~7 qe *t 0o Do Do !s ys Ht nc a4 oc o> => Q= Q= Q= Q= Q= Q= -> !, v> #> r> J% d; O> &! 5, 5, #> r> I% o& |* n& J% U$ U$ r> l: B> }' Sa x0 u1 x] X* X* '= H8 68 ~7 ~7 ~7 ~7 Qr Xq ys Eo Kt Xr :r X1 ]* @^ W* 98 98 u1 {b ,v zo [s !s Do 0t Cs Jt Dm o> n> 9d vf Jt #n Bt mv As As As As Kt Do =t >o |s #n Xq Cs Ut :o jp nv Io ov pv qv :o So rv /o sv r] tv uv 5+ y. -[ .  k  k  0= }% <  [  *  1. 5+ f. ;. C        ;  S+ *& 3  4  *  *  *  5  6                       ",
"(  (  (  (  @  9  $  %  &  *  *  *  i  a  k] d# $  E@ F@ *  *  *  -. R& +@ && (  (  (  (  e# I@ 3  5. *  *  *  =  L. g. `+ vv V0 V0 V0 wv xv yv zv Av Bv Cv }p yq _o Xn Yn :o `n Dv Ev 8s S! Fv Gv Hv Iv [o Vn `n Tt Jv Kv Lv 09 Mv Nv Ov X. +  (  Pv Qv Rv Sv Tv Tn 7s (o _o Yn :o Yn So Yn :o :o mp As 9t Cs +u qe ~7 qe Wq Cs )s As As Do ys Uv ba :1 s1 o> => Q= Q= Q= Q= Q= Q= F, F- x- z- d; J% <' 2) +^ <> x- 5, c; m- 1* |* o& I% J% J% J% U$ w= A; E, F, q2 )l {* Q: o> u- mc He He ~7 ~7 Qr Xq ys Kt As Vv Wv <i &d {* {* {* 8d 1g W1 Xv hp -p As As Eo Yv 6t G8 '= p} xd ed Jt #n ys Eo As As As As As As 0t Cs 9n 9n Xq Jl Zv {p `v Qp  w .w nm +w Tt `n @w #w $w %w _a &w j. 7. (. j  k  (  4[ :  <  [  *  *  *  =  0. g. C  f     $6 y[ 2- fi *  *  *  5  2. C  C  C  C           ",
"(  (  (  (  @  9  $  %  &  *  *  *  i  a  k] d# $  E@ F@ *  *  *  -. R& +@ && (  (  (  (  e# I@ 3  5. *  *  *  S  T  ;  *w D9 @. F3 a+ =w -w ;w >w ,w 'w )w Aq !w js ~w _o :o `n :t Ev 18 e% {w ]w ^w /w (w _w :w <w [w }w |w 1w 2w 3w 4w [! /  (  5w 6w 7w 8w 9w Tn /o (o _o :o So np no Sp _o :o mp As 0w Cs >o |s qe |s Xq [s <s As As Ut st  t )m fl p} Q: S= Q= Q= Q= Q= F, F- !, y- z- '> U$ J% d; H- `{ C' |' f; c; m- 1* |* o& I% J% U$ r> z; 2) 1) v0 !j #| &d 04 t: [: p9 Ya Wq Wq |s Qr Wq *t aw ~u 7t bw cw dw Eg Q: *3 }b `9 ew fw gw hw 'p )p As Do Bt `r qt ;t ha +| 8f >t #n 0o Eo As As As As As As Do 9t 0o at iw jw kw :w 7s lw _0 g6 mw nw ow ow <q pw qw O0 rw sw tw uw vw /  8  >  t5 >2 <  [  *  *  *  =  |+ T  |  W. .  ww c  xw '@ *  *  *  S  f. +. +. +. a. M.       ",
"(  (  (  (  @  9  $  %  &  *  *  *  i  a  k] d# $  E@ F@ *  *  *  -. 2. +@ && (  (  (  (  e# I@ 3  5. *  *  *  1. 2. C  ^  ^  f  >  (  @  :l }| yw zw qp Aw (0 Zm kt _q np :o `n xq Ev sv r] Bw Cw Dw Ew Fw (0 Gw Hw z8 B6 Iw Jw S, T, T@ +@ >  (  (  b  Kw Lw Mw Tn /o (o `n :o `n xq <p nv Nw Zn ~p As 0o 9n Xq >o >o Xq _s :s Eo As As @t Xq za u- '= cl {* 98 ), Q= Q= Q= v- w- :> #> d; U$ J% J% d; H- `{ C' D- f; c; n& |* |* |* m- U$ :' A- D, g; [6 !j K5 uf X1 ha  8 6p 88 Ow Xq Xq Xq Hn Pw gn Qw Rw Nw Sw Tw Uw 'm o> Ra G, Vw Ww Xw Yw Zw vt ls As Do :s [s iq $n >t Ta /f }s >o 0o Do As As As As As As Kt Eo mv  o `w ]g  x .x F5 (0 (0 (0 (0 +x Hw mw sn @x #x O7 [8 $x %x &x *x +  /  +@ ci di <  [  *  *  *  *  =  =  7. `' b  +  ,  9= c# *  *  *  *  =  =  =  =  5  6  C     ",
"(  (  (  (  @  9  $  %  &  *  *  *  i  a  k] d# $  E@ F@ *  *  *  6. R& f  >  8  Y. +  (  e# I@ 3  5. *  *  *  1. 2. C           .  b  @  #  $  h0 O< =x -x ;x >x ,x /o rv Yn oo :t Ev ;k r] 'x )x <~ !x ~x {x ]x ^x /x (x _x :x          f  >  (  (  (  6< <x [x Tn /o @w :q Yn np Rp ~t ^q  u Fu ,p Bs ys }x 9n 9n kr Wr :s <s As As Ut Wr jq 1c $- => W* *! 98 s: ), ), ), v- w- v> ,> I% n& I% 6, U$ H- 1) |' D- f; :' I% n& o& o& J% d; A- +^ a) s; => Qf uf 3h 3c 58 `7 I6 It #n Xq Xq Xq Xq |x 1x m1 2x 3x 4x 5x 6x Ys B^ 7x 8x %{ 9x 0x ax So vt 'p As Eo zs zs Gr jr bx *t Wq Wq Xq 0o Do Bs As As Bs 8t 8t )p )p Lt cx dx ex =7 fx gx hx ix jx kx ;% lx mx nx ox px io @# {5 qx rx 9= k  .     ci di <  [  *  *  *  *  *  *  |@ `' (  (  (  b1 -] *  *  *  *  *  *  *  *  S  +. C     ",
"(  (  (  (  @  9  $  %  &  *  *  *  i  a  k] d# $  E@ F@ *  *  *  }  U+ ^  7  7  .  8  (  e# I@ 3  5. *  *  *  1. 2.             .  b  @  #  $  sx '0 tx ux vx wx xx /q zq np no zq Zq ;k r] yx zx ,  Ax Bx Cx Dx Ex Fx Gx Hx Ix          f  >  (  (  (  Jx Kx Mw lo ru _q yq :q :t 7s z8 Aq kv (o Lx !p !s Wr Wr [s [s :s Do As Fo 0t _s Jr ts Eg => Q= G= G= R= 98 q2 98 R= ), S- v> M( o& 1* o& o& R> A- 1) |' D- `{ A- d; d; U$ L( b; B> C> |' 5g T> E8 @| ;a 3c 68 =a %u ws #n Xq Xq Xq Xq Xq Mx Nx Ox Px Qx Rx Sx Tx 5>  > Ux Vx Wx U} .i Xx Yx vt mp !p Lt &t &t xn Go |v An kr kr Cs :s Fo !p !p !p 'p mp mp mp mp .u Zx `x  y qc .y +y @y #y #y $y %y &y *y =y -y ;y ]+ @# O< i0 >y -[ -@ 7     0+ )i <  [  *  *  *  *  *  *  /{ `' (  (  (  {@ {+ *  *  *  *  *  *  *  *  1. 2. C     ",
"(  (  (  (  @  9  $  %  &  *  *  *  i  a  k] d# $  E@ F@ *  *  *  |+ |           .. /  (  e# I@ 3  5. *  *  *  1. 2.             .  b  @  #  $  ,y 'y i0 @# *  )y y8 !y ~y {y ]y ^y /y (y _y %v )x b  d$ :y <y [y }y |y 1y 2y (.          f  >  (  (  (  6< 3y 4y 5y 6y :u Rp {y :w 7y 8y 9y 0y ay At So |t !s :s :s :s !s Eo As !s 9n ,t 5t K5 s9 g[ Q= Q= Q= R= =! {* {* Lp W* F- v> M( |* |* |* |* 6, A- 1) |' D- C- A; D, D, D, +1 R- !, F- ), |] [: v3 ^f ha +4 68 =a *q Xq Xq Xq Xq Xq Xq Xq In Zf xf by cy {g Wx :( Y2 dy <[ {= *h k3 )u +w `n :o :o Yn Yn Yn Yn Yn :o xn ey :s Np :s -p Go Tt Yn Yn :o :o :o :o :o `n no <q fy gy hy pp 5#       m] iy jy ky ly 1! F@ *  *  *  *  -  (. ^        [% N. <  [  *  *  *  *  *  *  /{ `' (  (  (  {@ {+ *  *  *  *  *  *  *  *  1. 2. C     ",
"(  (  (  (  @  9  $  %  &  *  *  *  i  a  k] d# $  E@ F@ *  *  *  |+ |           .. /  (  e# I@ 3  5. *  *  *  1. 2.             .  b  @  #  $  my ny .' O< i0 ]e oy py qy ry sy ty uy vy wy xy yy b  zy Ay By Cy Dy Ey 7< E[ C           f  >  (  (  (  Fy Gy Hy Iy Jy Ky Aq >s Ly My Ny Oy Py sn 7s Rp Qy Ry %t -p <s <s Do <s Ao Jt mr T3 #| F= G= ), Q= Q= x, F= *3 Y1 +o 8d tf )> L( m- o& o& o& J% A- }' D- F- s; E, E, [6 *a G( S= kc H0 uo ha p9 @| 93 o} @| (9 U8 O| |s *t Xq Xq Xq Xq 9n Sy Ty Uy Pl [q 6( K, 5& w( Vy Wy i% :& ~l nm Xx Tt Yn :q Sp yq Nw lv ks :o !p Fo Eo Ks %t vn Xy j9 Yy {p Wn Xn :o Yx Zy `y ^q >s  z .z +z @z 5#    -[ #z $z %z &z *z 3  5. @# *  *  *  -  a           [% N. <  [  *  *  *  *  *  *  /{ `' (  (  (  {@ {+ *  *  *  *  *  *  *  *  1. 2. C     ",
"(  (  (  (  @  9  $  %  &  *  *  *  i  a  k] d# $  E@ F@ *  *  *  |+ |           .. /  (  e# I@ 3  5. *  *  *  1. 6           f  .  b  @  #  $  Qn H  O< {5 P4 =z -z e3 ;z >z ,z ;r 'z ]| )z !z ^| +  c  M@ ~z {z ]z ^z 8- C              f  >  (  (  (  ,  /z (z _z :z ;k xr ;k <z [z &; }z ~. #] lo /q <p np mp )p As Do )s Xr |z kq 1g t1 {* =! *! W* G= Q= @- }< p} v3 oh H0 83 v> ,> J% I% I% I% U$ A- }' P= F, F, v- F, g[ W* t1 {a w3 68 -a 88 +| p9 [: '= p} 93 +4 70 ~7 Qr *t Xq Xq Xq 9n 8n 1z js 2z B6 qc *7 8s mt w! __ wr wr 3z pc 4z Tt `n no Rp Qo zq }p Nw :o !p As As 5z mp Ro 6z 7z 8z :t Eu Xn :o 9z 0z az sn xr bz cz 7e dz          ^  ez fz gz hz X  ;# Z  *  *  *  -  a           [% N. <  [  *  *  *  *  *  *  /{ `' (  (  (  b1 -] *  *  *  *  *  *  *  *  1. 2. C     ",
"(  (  (  (  @  9  $  %  &  *  *  *  i  a  k] d# $  E@ F@ *  *  *  5+ 6  a  g. ;  7  && (  e# I@ 3  5. *  *  *  S  0. (. a  g. f  >  (  @  #  $  I{ &  @# i0 P4 O< *  iz jz kz lz mz (  (  (  (  (  ,  g  !@ nz F@ oz $r e> g. C           f  .  k  +  (  b  pz qz rz sz tz uz vz wz xz a  yz zz Az Bz B6 /o Sp ~p 'p 8t As -p Cz Dz Ez Vb t1 {* ]* Tq {* W* G= => o> Of Dm p9 t: H( 5, c; J% J% U$ d; :' 2) }' 7, Q= Q= Q= ), R= {* Jk ^f 3c 88 =a =a 68 w3 30 '= p} Vb Fz Gz q7 Qr *t Xq Xq Xq 9n 8n 7t Hz Ss Tn )g Iz Jz {x Kz Lz Mz Nz Oz az Pz Yx Ho Qz |p |p ~t Rz :t Yn Lt As As Lt vt Sz Tz Uz Yt <p no `n :o Vz Hl 8g Wz h7 Xz Yz Zz N           f  {@ (  `z  A $  I{ Z  *  *  *  -  a           [% N. <  [  *  *  *  *  *  *  I. {3 Y. 5% V+ ^~ <+ *  *  *  *  *  *  *  *  1. 2. C     ",
"(  (  (  (  @  9  $  %  &  *  *  *  i  a  k] d# $  E@ F@ *  *  *  1. |+ i  R& a  j  k  (  e# I@ 3  5. *  *  *  =  5+ I. +. M. +@ /  (  @  #  $  I{ &  *  O< .' O< j. z  .A +A @A 8q (  (  (  (  (  ,  O  P  e  R  *  g> }- +. M.             7  j  >  Y. ,  *, K. #A $A %A &A *A =A -A i  ;A >A ,A 'A [q Rz Ro ~p mp 'p 'p )A !A ~A {A ]A 93 Y1 7f H0 7f 8d ]* #| Ge 9d 5p H8 9] C' &! d; J% R> <' r: >> A> ,' F- Q= Q= Q= Q= R= {* 8d 93 ^b z0 -a Ml 88 a4 #k [: Vb uf 1t ^A }s Wq *t Xq Xq Xq 9n 8n 7t Fr !r 8s /A X] (A _A :A qd <A [A }A |A Tz Pz 1A .x Tn Tn (0 |p _q Yn Lt As As Lt ~p no (q g6 lw '9 :t :q :o Zy 2A _& !g P% 3A 4A 5A w)          ^  <% (  i] D! $  I{ Z  *  *  *  -  a           [% N. <  [  *  *  *  *  *  *  |+ N  -@ t| Q& 3. 6A *  *  *  *  *  *  *  *  1. 2. C     ",
"(  (  (  (  @  9  $  %  &  *  *  *  i  a  k] d# $  E@ F@ *  *  *  *  *  *  f. b. -@ Y. (  e# I@ 3  5. *  *  *  *  *  *  6. R& +@ && (  @  #  $  I{ &  *  *  *  *  *  S  -  C  >  +  (  (  (  (  (  ,  O  P  Q  R  *  *  *  -. ;.                   j  k  ,  '  P  7A ~  *  *  *  *  *  *  -  a  8A 9A 0A :u Ro 7t :o :o oo no aA bA cA dA za w3 w3 w3 w3 w3 w3 x3 4h dd 5p '= j5 g; A- d; J% U$ w= A> )> R- !, v- Q= Q= Q= Q= R= {* ]* t: v3 m} 68 -a =a =a a4 w3 eA lu zo Ir Xq Xq Xq Xq Xq Xq 9n 8n 7t kp fA 8s x6 7! P) gA ~+ o     hA iA (0 6u `@ q0 :& s  #] qc Aq _q Yn Lt As As Lt ~p (o Ev (0 _0 /o _q :q :o Zy jA b^ !g r] kA lA 6+ @'          ^  <% (  i] D! $  I{ Z  *  *  *  -  a           [% N. <  [  *  *  *  *  *  *  }  |     S+ 2  3  4  *  *  *  *  *  *  *  *  1. 2. C     ",
"(  (  (  (  @  9  $  %  &  *  *  *  i  a  k] d# $  E@ F@ *  *  *  *  *  *  f. b. -@ +  (  e# I@ 3  5. *  *  *  *  *  *  6. R& +@ && (  @  #  $  I{ &  *  *  *  *  *  1. +.    -@ >  /  k  (  (  (  ,  O  P  Q  R  *  *  *  1. i  ;. |  g. f  j  -@ >  Y. ,  '  )  !  ~  *  *  *  *  *  *  7. g. 8A 9A 0A '9 lv mA Wn <t nA Qp _w oA pA qA rA :r sA bt bt bt bt bt 'd ca ^b cl q} ;> H- :' U$ :' 2) ;> !> H2 I( ), G= G= @- x, S= =! x] t1 t: @| +4 `7 O| O| 80 Yk Em ju tA ys ys 0o kr Xq Xq }x Wr Ut :o js uA vA wA xA yA L+ }@ ;. C  zA AA BA CA DA 9g 9g `j h7 qc .x 6s Yn 'p 8t 8t !p :o :t |p (0 _0 /o _q :q Xn j9 EA FA GA HA IA JA KA LA          ^  <% (  i] D! $  %  Z  1. z@ -  ;. g.          [% N. <  [  *  *  *  =  }- c# u< .. j  X+ 2  3  4  *  *  *  *  *  *  *  *  1. 2. C     ",
"(  (  (  (  @  9  $  %  &  *  *  *  i  a  k] d# $  E@ F@ *  *  *  *  *  *  f. b. -@ Y. (  e# I@ 3  5. *  *  *  *  *  *  -. R& +@ && (  @  #  $  I{ &  *  *  *  *  *  5  2. C  f  +@ 7  /  (  (  (  ,  O  P  Q  R  *  *  *  =  1. -. 0  C. 7  /  Y. +  (  ,  '  )  !  ~  *  *  *  *  *  *  i  a  zA MA 0A Aq su Sp (o }p <q lw z8 NA OA PA Cz QA iq #n #n #n #n Wq }s Oh RA ]* D- f; 2) H- '' H- A> <> m< g< *! W* W* S= }< }< M* V{ |] {* ]* 7f oh Ya Gn Wq }s /f }s SA :s Do Eo Co Wr Xq }x TA Do !p `n UA >s VA WA |( XA YA 1. 2. C  T, &; ZA Lg `A r] P% r] !g  B )u 4z :o .u mp mp :o np .B Zm (0 z8 Un _q {p Wn +B z8 @B #B $B 3  %B &B q*          ^  <% (  i] D! $  p_ h] ~+ c# a  g.             [% N. <  [  *  *  *  A  U, |d 8  Y. k  O  d  3  4  *  *  *  *  *  *  *  *  S  +. C     ",
"(  (  (  (  @  9  $  %  &  *  *  *  i  a  k] d# $  E@ F@ *  *  *  *  *  *  f. b. -@ Y. (  e# I@ 3  5. *  *  *  *  S  5  f. U+ +@ && (  @  #  $  I{ &  *  *  *  *  *  5  6           f  <% (  (  (  ,  O  P  2- ch 5  5  5  5  5  5  f. C. 7  && +  +  (  ,  '  )  !  i. *  A  5  5  b# b# +. ++ *B =B -B ;B >B ]p ]p /o ,B {6 (0 'B )B 7t Ks :s Cs 9n Xq Xq Xq *t |s Ta e| ]* !, f; S> D, A; f; :> L3 p> =! ]* 8d 1o t: ^7 ^7 ,= n> Q: =! {* 04 ^b !B #n xs Wq Vr Wq ~B !s Eo As Do 0o 9n =t As ,p ks {B ]B ^B /B (B &  *  *  S  +. C        5# _B :B <B [B r] }B b^ qo Zy :o :o Yn `n Sp Qo |B 1B 2B 3B 4B kv  u (o 5B 6B 7B 8B =  >[ n' 9B 0B          ^  <% (  i] D! $  p_ h] O; U,                   [% N. <  [  *  A  1. 5+ 72 8  +  (  (  J  d  3  4  *  *  *  *  *  *  =  1. 6. 6        ",
"(  (  (  (  @  9  $  %  &  *  *  *  i  a  k] d# $  E@ F@ *  *  *  *  *  *  f. b. -@ Y. (  e# I@ 3  5. *  *  *  =  }- 2. U+ b. f  >  (  @  #  $  I{ &  *  *  *  *  *  5  6           f  >  (  (  (  ,  O  P  w~ aB 6  6  6  6  6  6  U+ a  +@ j  D  /  +  ,  '  )  h. i. j. z@ +. bB 4$ cB dB eB fB gB x# hB iB jB kB _0 {6 (0 (0 lB )B .u -p ys Cs Xq Xq Xq Xq #n Du Jt x3 x] s; R- `{ }' g; ,' !, E- V* Rr t: uo mB ^k mc za ;a 03 p} V{ |] ]b eA nB oB Wr Xq Wq +u _s Np Eo As Eo 0t 0o Ut 7t Nw su `t pB qB rB sB Z  *  *  =  +. C        5# tB uB vB wB r] }B b^ qo Zy :o :o `n lv zq xB yB zB AB BB >h Aq Zt CB DB EB FB GB *  O< {5 HB IB          ^  <% (  i] D! $  p_ h] O; U,                   [% N. <. [. 87 5+ 7. ;. ++ j  >  k  (  J/ d  3  4  *  *  *  *  *  *  5+ 0. ;. b.       ",
"(  (  (  (  @  9  $  %  &  *  *  *  i  a  k] d# $  E@ F@ *  *  *  *  *  *  f. b. -@ Y. (  e# I@ 3  5. *  *  *  1. 2. C        f  <% b  @  #  $  I{ &  *  *  *  *  *  5  6           f  >  (  (  (  ,  O  P  N. c$                                  j  k  ,  '  )  h.  + A  .+ ++ p  o, m, H! p  .. >  P. JB KB LB gr (0 (0 (0 Ky lB )B .u -p ys Cs Xq Xq Xq Xq iq ku gp Xa '= [_ D- E, D- E, w- F- Q= => M* H8 58 He Wq #n #n 't 68 b& '= n> =d Mp Js Xr ys _s Xq 9n _s :s Eo As As As As Lt np zq xB (0 MB NB -f ~  *  *  *  =  +. C           -@ ,  OB PB r] `j  B qo Zy :o Xn np QB Ss (0 RB SB e: TB UB (0 (0 LB VB WB Qn F@ *  *  *  5  6           f  <% (  i] D! $  p_ h] O; U,                   [% N. <. g] 87 |. e>          7  && (  J/ d  3  4  *  *  *  *  *  *  I. b.             ",
"(  (  (  (  @  9  $  %  &  *  *  *  i  a  k] d# $  E@ F@ *  *  *  *  *  *  f. b. -@ Y. (  e# I@ 3  5. *  *  *  1. 2.          ^  .  b  @  #  $  I{ &  *  *  *  *  *  5  6           f  >  (  (  (  ,  O  P  )i p6 o  o  U+ U+ U+ U+ 4- w) z! p     j  k  ,  '  )  h.  + j. f> 6  h= ^h 6+ XB YB ZB `B  C .C +C @C #C $C [q do g6 lB )B 7t Ks :s Wr 9n 9n Cs Cs oB %C &C *C s1 9f G( H( v- I( I( Q= => T> o> Dm Ya ;o <u Bt Yv Xq Vt x3 H8 %h W1 =C Cz Ws -p ys Cs Wr ys !s Eo As Bs )p mp Yn xq kt -C gu ;C >C I{ ]+ *  5  }  i  U+ C           <% +  ,C 'C )C !C ~C ,B ot `n Ro .v {C ]C ^C /C @+ #) (C MA _C :C <C [C }C I{ F@ *  *  *  S  i  U+ M. a  +@ >  (  i] D! $  p_ h] k* .@ o  (. C           [% N. <. g] 87 f> e>          7  && (  J/ d  3  4  *  *  *  *  *  *  }  2. |  a        ",
"(  (  (  (  @  9  $  %  &  *  *  *  i  a  k] d# $  -f F@ *  *  *  *  *  *  f. b. -@ Y. (  e# I@ 3  5. *  *  *  1. a.          ^  .  b  @  #  $  I{ &  *  *  *  *  *  5  6           f  >  (  (  (  ,  O  P  2- |C }  }  }  }  5+ 5+ >y 1C o, z! -[ }d Y. ,  Z. )  h. i. *  5  6. i  2C z! 3C 4C 5C 6C 7C 8C 9C 0C aC bC cC nt |A #w At :o %t Do ys Wr [s ys )s 9t Xr dC _6 :1 eC >c => S= Nj W* T> 8, o> H8 x3 Vt Xq 0t Eo Ut <u /s fC kq W1 gC hC iC cx Go -p ys ys )s Eo Eo As As Lt :o :q _q Aq jC X] kC lC $. r+ 87 k. {+ (. g.             .  +  D3 mC nC oC pC Ky ^q @w kv qC rC sC tC uC vC p  .< wC xC yC zC AC BC h. R  *  *  *  =  5  5+ i  C. +@ && (  ;] /_ $  %  Z  A  -. }  2. g.          O. N. <. g] 87 f> e>          7  && (  J  d  3  4  *  *  *  *  *  *  1. -. |+ ;.       ",
"+  +  (  (  @  9  $  %  &  *  *  *  i  a  k] d# $  E@ ~  @# @# *  *  *  *  f. b. -@ Y. (  e# I@ 3  5. *  *  *  1. +. g. C  C  f  <% b  @  #  $  I{ &  *  *  *  *  *  5  6           f  >  (  (  (  ,  O  P  e  R  *  =  S  1. S  1. M^ CC 2% DC S, EC FC GC HC M< E@ ~  *  *  *  v) dz IC JC KC LC MC NC OC PC QC RC SC TC UC VC WC (o Xn 'p As Do zs zs XC 8t As -p YC ZC I6 (9 H8 n> cl x] cl '= n> H8 w3 `C }s 9n !s As Kt  D kr SA %C 6n .D +D 2x @w Nw @D zs zs As 8t Bs As Bs !p :o np _q Zq zu X] kC #D $. z  87 |.  . C  C              .  +  $D %D `, &D *D =D -D Ev ;D >D ,D 'D )D Q2 N        W. }d 8  (  !D %) K  5. *  =  =  S  =  *  6. ~D +@ && +  D. D! $  I{ Z  *  *  *  i  (. ^  f  f  [% N. <. g] 87 f> e>          7  /  +  c  d  3  4  *  *  *  *  *  *  *  *  S  +. C     ",
".  <% 8  (  @  9  $  %  &  *  *  *  i  a  k] d# $  3  G  [  ~  *  *  *  *  f. b. -@ Y. (  e# I@ 3  5. *  *  *  =  |+ 0. R& b. +@ U  (  @  #  $  I{ &  *  *  *  *  *  5  6           f  >  (  (  (  ,  O  P  e  B. *  k. 0. 2. 2. 2. <+ {D ]D ^D /D (D _D :D <D [D $. ,; *  *  j. }D |D 1D 2D 3D LC LC LC LC MC 4D 5D 6D 7D 8D 9D 0y  u 0D vt Lt Lt !p !p !p 'p !p Lt Fo jr kr :r +| 03 J] 8( eC s1 }: 6p C8 aD |s Xq Bt Eo As bD Gr Ws Ks PA cD 4| dD Zt `q no ir %t Lt 'p 'p 'p 'p mp :o ks zt <q do eD fD gD Qn r+ *  g> I. 2. |  C           .  +  hD iD $  jD kD lD mD nD oD pD qD rD l6 |@ (.          7  /  (  2% M@ 3  A. *  O; 0. +. }  *  |+ C. +@ -@ >  t| 2+ $  I{ Z  *  *  *  0  b. 7  .  >  S0 }% <. g] 87 f> e>          f  -@ D  o6 2  3  4  *  *  *  *  *  *  *  *  1. 2. C     ",
"   f  <% +  @  9  $  %  &  *  *  *  i  a  k] z( $  $  $  <  [  Z  *  *  *  f. b. -@ Y. (  e# I@ 3  5. *  *  *  *  *  =  6. ~D +@ && (  @  #  $  I{ &  *  *  *  *  *  5  6           f  <% (  (  (  ,  O  P  e  B. *  .@ N  C  C  C  -] ;f sD tD uD vD vD wD xD yD 4  Z  *  *  *  2- zD AD BD CD DD DD DD DD DD LC ED FD GD HD ID JD :u KD LD .u 7t :o :o 7t 7t 7t .u .u !p Kt Cs Vt T8 0* T{ S8 y3 68 .0 /f qe Wq Xq 0o Do 8t mp .u .u .u Tt <w qo 6u g6 /q kv <t Xn :o 7t :o :o :o 7t :o `n Sp ow MD ^& ND OD ;# H  *  *  =  1. 2. C           <% +  E  PD $  nz R  /e QD 0g RD SD ]+ Z  V. f. M.          7  /  (  2% M@ K  L  *  77 (. a  -  *  f. M. ^     f  A! B! $  I{ Z  *  *  *  |+ M. j  k  (  4[ :  <. g] 87 |. e>             f     1  2  3  4  *  *  *  *  *  *  *  *  1. 2. C     ",
"      .  +  @  9  $  %  &  *  *  *  0  b. p  TD D! :  P  k' ,2 S] 5+ 1. *  f. b. -@ Y. (  e# I@ 3  5. *  *  *  =  -. |+ i  C. +@ /  (  @  #  $  I{ &  *  *  *  *  *  1. -  |  b. g. +@ >  (  (  (  ,  O  P  e  B. *  |@ o  M. M. M. UD &0 G. VD WD XD YD ZD `D  E .E +E @E @E #E $E %E &E *E DD DD DD DD DD DD DD 4D =E -E ;E >E ,E jB 7u xq 'E )E :o Yn `n np np <t Fu Zn mp Tu Xq !E sl ~E {E ]E O| He Vr |s +u ^E Tu /E =m 0D (E Wn Xn Tt Xx nm zl q| Tn xB _E :E {p Zn Xn :o Yn oo np Sp <E [E }E |E 1E 2E 3E Q  @# *  *  =  +. C           4E 5E 6E G+ $  M7 ,; 7E 8E 9E 0E aE *  *  *  |+ M.          7  /  (  2% M@ K  L  *  M  N  C  ;. |+ +. (. ^  +@ j  ;0 3( $  I{ Z  *  *  *  {} C. j  k  (  _  :  bE cE {} x. (.                C  S+ T+ 3  4  *  *  *  *  *  *  *  *  1. 2. C     ",
"      .  +  @  9  $  %  &  *  *  *  |+ |  +@ g# i] '  n, n  <a -1 a. }  *  f. b. -@ Y. (  e# I@ 3  5. *  *  *  S  -  |  b. g. f  >  (  @  #  $  I{ &  *  *  *  *  *  =  -. |+ -  M. .. && (  (  (  ,  O  P  e  R  *  5  }  |+ |+ |+ ^% {; dE eE fE gE hE iE jE kE lE mE nE nE oE pE qE rE &E sE DD DD DD DD DD tE 4D uE vE wE xE yE zE AE tn KD BE =m So yq _q {y }p  u ~w :o Fo An SA Y9 -t  t sr Wq Wq Wq #n }x Bt CE DE EE FE GE lv `n Tt HE qo IE 18 ;k JE KE tn :E Fu Xn :o `n no wq 6s LE ME NE OE PE QE RE SE @# *  *  =  +. C        5# TE UE VE WE $  XE 'y $x YE ZE `E io *  *  *  |+ |           7  /  (  2% M@ K  L  *  77 N     a  M. (. g. f  -@ 8  s) C( $  I{ Z  *  *  *  {} C. j  k  (  _  :  *& 42 C. (. C                    1  2  3  4  *  *  *  *  *  *  *  *  1. 2. C     ",
"      .  +  @  9  $  %  &  *  *  *  // C. k, k  (  V  P; n  U0 T@ M. f. *  f. b. -@ Y. (  e# I@ 3  5. *  *  *  1. 2. C     C  f  <% b  @  #  $  I{ &  *  *  *  *  *  *  *  *  6. ;. 7  k  (  (  (  ,  O  P  Q  R  *  *  *  *  *  =   F J7 .F +F @F 6# <~ #F $F %F &F &F &F &F &F &F &F &F &E sE DD DD DD DD DD tE *F uE =F -F ;F >F a> ,F 'F :u )F Xn !F _q '9 '9 /o `t zt Yn &t zs ys Cs xs xs xs 9n Xq Xq ^E Bt )p lp ~F #w #w #w _q oo Tt HE qo T} wr {. A6 {F ]F ^F np `n :o :q _q :u /F (F _F :F <F [F }F |F 1F ~  &  s+ 1. 2. C        p  2F 3F 4F 5F $  6F 7F 8F O< *  *  *  *  *  =  f. M.          7  /  (  2% M@ K  L  =  .@ N                 f  >  (  ;] /_ $  I{ Z  *  *  *  |+ M. j  k  (  4[ :  *& S+ ;  C  C  C  C  C           1  2  3  4  *  *  *  *  *  *  *  *  1. 2. C     ",
"      .  +  @  9  $  %  &  *  *  *  f. M. +@ D  >  9F |! n  /| T@ M. f. *  f. b. -@ Y. (  e# I@ 3  5. *  *  *  =  f. +. ;. b. +@ U  (  @  #  $  I{ &  *  *  *  *  *  *  *  *  6. U+ 7  8  (  (  (  ,  O  P  Q  R  *  *  *  1. f. 0. 0F r* 2^ =@ C  aF bF cF dF eF &F &F &F &F &F &F &F &F fF gF hF hF iF MC LC jF kF lF mF nF oF pF qF rF sF tF [o uF ]q vF wF xF _0 Ev }p Yn Lt Eo )s 9t 0t ys [s Wr Wr Wr @t yF zF AF BF CF CF DF EF FF DE GF HF IF JF KF LF MF NF OF <E oo _o Sp ot PF QF RF SF TF UF gF VF WF XF YF ZF t+ a. |  C        5# `F  G .G +G $  my @G {5 O< *  *  *  =  |+ 0. ;. a           7  /  (  2% M@ =& #G 0. o  ++                ^  <% (  i] D! $  I{ Z  *  *  *  0  b. 7  .  >  S0 }% y@ $G +. 2. 2. 2. 2. +. ;. a     1  2  3  4  *  *  *  *  *  *  *  *  1. 2. C     ",
"      .  +  @  9  $  %  &  *  *  *  i  b. ^  ^  f  C! f= n  /| T@ M. |+ *  f. b. -@ +  (  2% M@ 3  5. *  *  *  *  =  S  // ~D +@ && (  @  #  $  I{ &  *  *  *  *  *  *  *  *  6. U+ 7  8  (  (  (  ,  O  P  Q  R  *  *  *  5  2. C  C  C  C  C  ^  %G &G *G =G -G &F &F &F &F &F &F &F &F ;G >G ,G 'G )G !G ~G hF {G ]G ^G /G (G _G :G <G [G }G |G Rp 1G 2G vq {6 (0 xF }p Yn Lt As Kt Eo Kt Do :s ys Bo )s 3G 4G zq 5G 6G 7G 8G 9G 0G aG <p bG cG dG eG fG gG hG iG jG kG lG Ro Xy mG nG oG pG qG rG DD *E sG tG uG vG wG xG C  C           W. %@ 6< yG zG $  G  ,; @# *  *  *  *  S  +. g. C              .. /  (  2% M@ 5- 0+ C  C                    ^  <% (  i] D! $  I{ Z  *  *  *  i  (. ^  f  f  [% N. <  (~ S  1. 1. 1. 1. S  f. |     1  2  3  4  *  *  *  *  *  *  *  *  1. 2. C     ",
"      .  +  @  9  $  %  &  *  *  *  I. b. f  +@ 7  N} b$ n  /| T@ (. 0. }  T  I  -@ k  (  V  AG 7[ P} F@ &  Z  *  5  5+ 0  U+ +@ && (  @  #  $  I{ &  *  *  *  *  *  *  *  *  6. U+ 7  8  (  (  (  ,  O  P  e  R  *  1. -. I. |     BG CG DG EG FG GG HG *E rE &F &F &F &F &F &F &F rE rE IG JG KG LG MG NG ED OG PG QG >b RG SG TG UG VG WG XG YG ZG &m F5 __ `G B6 ,B _q Yn 'p )p 8t )p hu %t -p zs Fo 'p 0D wq ,9  H .H +H @H #H 7G CF $H %H &H *H =H -H ;H >H ,H 'H )H !H ~H {H ]H ^H /H )G OG tE DD *E rE &F (H &F _H :H <H EG EG EG DG [H }H S& E   @ $  $. H  *  *  *  *  *  =  -  M. a  g.    +@ .. -@ 8  (  2% M@ 3% e= b. (. b. (. g.          ^  <% (  i] D! $  %  Z  A  -. }  2. a  ^  +@ 7  h# >2 <  [  *  *  *  *  *  *  }  o     1  2  3  4  *  *  *  *  *  *  *  *  1. 2. C     ",
"      .  +  @  9  $  %  &  *  *  *  |+ |  7  >  && |H :  n  /| T@ g. M. U+ M. g. 7  && (  E  D. 0= 3. G  =[ 9@ A  /{ U+ M. a  +@ >  (  @  #  $  I{ &  *  *  *  *  *  *  *  *  6. U+ 7  8  (  (  (  +  ;2 3% y  i. j. f> 6  M. a     1H 2H 3H 4H 5H 6H 7H sE &E &F &F &F &F &F &F rE &E *E 8H 9H 0H aH bH cH dH eH fH gH hH iH jH kH lH mH nH oH pH qH zE rH sH ^x tH uH vH :o mp mp mp ~p vt mp Lt &t eu DE Rp wH xH yH zH AH BH CH DH EH FH GH HH IH JH KH LH MH NH OH PH QH RH SH TH UH TF rG tE DD DD *E rE &F &F &F VH WH XH YH YH YH ZH `H  I .I +I @I X  I{ &  *  *  *  *  *  =  6. f. T  C. f  .  /  8  +  (  2% M@ #I $I I. I. f. -  |           ^  <% (  i] D! $  p_ h] k* .@ o  (. ;  +@ D  /  0= }% <  [  *  *  *  *  *  *  }  |     1  2  3  4  *  *  *  *  *  *  *  *  1. 2. C     ",
"      .  +  @  9  $  $. &  *  *  *  // C. k, k  (  V  P; )  x[ T@                7  /  (  (  (  [+ F  $  q+ y) /. c#       C     .  b  W+ #  $  I{ &  *  *  *  *  *  *  *  *  6. U+ 7  8  (  (  (  ,  %I &I *I =[ @# =I ,] p  p  p  -I ;I &F &E sE DD DD DD *E &F &F &F &F &F &F rE *E DD >I ,I 'I )I !I ~I {I ]I ^I /I (I _I :I <I [I }I |I 1I 2I 3I 4I FH 5I 6I 7I 8I 9I Tt :o :o :o :o :o :o :o Xn DE 0I aI xH bI cI dI eI fI gI hI iI jI pF kI lI mI nI oI pI qI rI sI tI uI vI cH wI UF DD DD DD DD *E rE &F &F &F &F &F &F &F &F &F &E xI yI zI %. AI 9# E@ F@ @# @# @# *  *  *  *  *  -. R& +@ && (  (  (  (  2% M@ 3  4  *  *  *  5  6           ^  <% (  i] D! $  p_ h] O; U,          +@ >  (  4[ :  <  [  *  *  *  *  *  *  }  |     1  2  3  4  *  *  *  *  *  *  *  *  1. 2. C     ",
"      .  +  @  9  $  !  ;# R  ]+ *  }  C. k, k  (  #@ z. BI ~} 2. 6  6  6  C. g. j  8  (  (  (  E  F  $  R+ ]+ A  |@ a. 6  2. ;. @F >  N< C( $  I{ &  *  *  *  *  *  *  *  *  6. U+ 7  8  (  CI DI EI FI GI HI II $E JI KI LI MI NI OI VH &F *E DD DD DD DD *E &F &F &F &F rE &E *E sE DD >I PI QI RI SI TI UI VI WI XI .y YI ZI `I  J `I .J +J @J #J $J %J &J .H *J =J -J ]y Ro :q LD =m :o Xn 0D {B QB ;J >J ,J 'J )J !J ~J {J ]J ^J /J (J _J kI :J <J [J }J |J :F MG 1J 2J 3J =E dH NC LC DD DD DD DD *E rE &F &F &F &F &F &F &F &F rE &E 4J 5J 6J 7J 8J 9J 0J aJ $E bJ bJ +E 5. *  *  *  -. R& +@ && (  (  (  (  2% M@ 3  A. *  g> I. +. M.          ^  <% (  i] D! $  p_ h] O; U,          p  t| 2% cJ dJ ;# ~  *  *  *  *  *  *  }  |     1  2  3  4  *  *  *  *  *  *  *  *  1. 2. C     ",
"      .  +  @  #  $  X  <  h. B. *  k. o  k, k  (  J. u5 v5 ]_ 5  5  5  5  -  I  -@ k  (  (  (  E  F  $  G  ]+ *  1. 5  5  5  -. ;. f  ;[ 3( $  I{ &  *  *  *  *  *  *  *  *  6. U+ 7  8  (  eJ fJ gJ hJ iJ qE jJ kJ lJ mJ nJ oJ pJ qJ rJ &F *E DD DD DD DD *E &F &F &F &F &E sE DD DD DD sJ tJ uJ vJ wJ xJ yJ zJ AJ BJ CJ DJ EJ FJ GJ HJ IJ JJ KJ LJ MJ MJ NJ OJ PJ *J QJ RJ SJ lp 0D Xn :o mA ]q TJ ;J UJ VJ WJ XJ YJ ZJ `J  K .K +K @K #K $K kI %K &K zJ *K =K -K ;K rI >K ,K 'K 4D hF LC DD DD DD DD *E rE &F &F &F &F &F &F &F &F rE *E DD )K !K ~K {K iJ ]K ^K kJ kJ ^K /K `, *  *  *  -. R& +@ && (  (  (  (  2% M@ K  L  *  f>  . g. C           f  <% (  i] D! $  p_ h] O; U,          p@ u| M@ Zc (K &  @# *  *  *  *  *  *  }  o     1  2  3  4  *  *  *  *  *  *  *  *  1. 2. C     ",
"      .  +  @. w   < d  x  K  =[ *  z@ |  7  /  Y. %, &6 *6 _K *  *  *  *  f. b. -@ +  (  (  (  E  F  $  G  H  *  *  *  *  *  =  0. ;  K/ B! $  I{ &  *  *  *  *  *  *  *  *  6. U+ 7  8  (  :K <K *E rE &F &F &F &F &F rE rE *E sE *E rE &F *E DD DD DD DD *E &F &F &F &F [K }K LC LC tE |K 1K 2K 3K 4K 5K 6K 7K 8K 9K 0K aK bK cK dK eK fK gK hK iK iK jK kK lK mK nK oK pK RJ qK yq Wn Yn :q wq rK sK tK uK vK wK xK yK zK AK AK `J BK CK DK EK FK GK HK IK 'I 2J JK ;K KK JG *F LK hF LC DD DD LC LC MK rE &F &F &F &F &F &F &F &F rE sE DD DD sE *E rE &F &F &F &F &F &F RE H+ *  *  *  6. ~D +@ >  k  +  b  (  2% M@ K  L  *  M  N     g. a  g. ;  f  >  (  i] D! $  p_ h] O; y.    f  7  #) 7+ $  R+ H  *  *  *  *  *  *  1. 5  I. M.    1  2  3  4  *  *  *  *  *  *  *  *  1. 2. C     ",
"      .  +  J. i] m, &. P  K  L  *  f> e> +@ j  D  $j NK E{ OK *  *  *  *  f. b. -@ Y. (  (  (  E  PK $  G  H  *  *  *  *  *  =  +. C  A~ B! $  I{ &  *  *  *  *  *  *  *  *  6. ;. 7  8  (  QK RK *E rE &F &F &F &F rE *E sE sE DD *E rE &F *E DD DD DD DD *E &F &F &F SK VF TK TK UK >I VK WK XK YK ZK `K  L .L +L @L #L $L %L &L *L =L -L ;L >L ,L ,L >L 'L )L !L ~L {L ]L ^L RJ /L (L Ro 's _L :L <L [L vK }L |L 1L 2L 3L 4L 4L 5L xK 6L 7L 8L 9L 0L aL bL cL dL eL =K fL gL <F LK hF jF MC ~G UK hL iL jL (H &F &F &F &F &F &F &F rE sE DD DD DD sE &E &F &F &F &F &F &F kL lL *  *  *  }  U+ f  k, j  >  k  (  2% M@ K  L  *  M  N  C  U+ -  +. M. +@ /  (  i] D! $  p_ h] g> c#    -@ /  @@ f' $  G  H  *  *  *  *  *  =  f. a. |  g.    1  2  3  4  *  *  *  *  *  *  *  *  1. 2. C     ",
"      .  +  (  (  (  2% M@ K  L  *  M  (. ^        c$ f= X  ;# @# *  *  *  f. b. -@ Y. (  (  (  E  F  $  G  ]+ *  *  *  *  *  =  +. C  A~ B! $  I{ &  *  *  *  *  *  *  *  *  6. U+ 7  8  (  QK RK *E rE &F &F &F &F &E sE DD DD DD *E rE &F *E DD DD DD DD *E &F &F SK mL nL oL pL qL rL gH sL tL uL vL vL vL vL vL vL HJ wL %L xL yL zL AL BL CL DL DL CL BL EL FL GL HL IL ]L JL KL LL ML NL OL PL QL XJ RL SL TL UL VL DL DL DL 3L WL XL YL vL ZL `L  M .M +M @M #M /I $M %M &M OG hF ~G hL wI *M =M JG -M ;M (H &F &F &F &F &F &F rE sE DD DD DD sE &E &F &F &F &F &F &F kL lL *  *  *  |+ |  ^        7  /  (  2% M@ K  L  *  M  N  g. 0. *  6. ~D 7  8  (  i] D! $  p_ h] k* x. ^  /  (  E  F  $  G  H  *  *  *  *  *  =  +. C           1  2  3  4  *  *  *  *  *  *  *  *  1. 2. C     ",
"      .  +  (  (  (  2% M@ K  L  *  M  N           c$ #c X  ;# @# *  *  *  f. b. -@ Y. (  (  (  J. Gj ;@ >M ,M R  H  *  *  *  =  +. C  A~ B! $  I{ &  *  *  *  -. f. i  i  i  +. M. +@ /  (  'M )M !M ~M {M &F &F &F rE *E *E *E *E *E &E &E sE DD DD DD DD *E &F SK ]M ^M /M (M _M :M <M [M }M |M 1M 2M 3M 4M 5M 6M *L 7M &L 8M 9M 0M aM bM cM dM DL DL CL eM fM gM TL hM iM jM kM JL lM mM nM oM pM qM rM sM tM uM vM wM xM yM zM AM 4L BM CM DM EM FM @K GM HM IM JM KM LM MM NM {G OG UK ,G OM PM QM RM SM TM ;M &F &F &F &F &F &F rE sE DD DD DD sE &E &F &F &F UM pE VM $E $. *  *  *  |+ M.          .. /  (  2% M@ K  L  *  M  N  C  ;. i  T  M. +@ /  (  i] D! $  p_ h] k* x. ^  /  (  E  F  $  G  H  *  *  *  *  *  =  +. C           1  2  3  4  *  *  *  *  *  *  *  *  1. 2. C     ",
"      .  +  (  (  (  2% M@ K  L  *  M  N           Ch f= X  ;# @# *  *  *  f. b. -@ Y. (  (  (  b  v  @. ;2 7[ !  4  *  *  *  =  +. C  A~ B! $  I{ &  *  *  *  f. |  a  a  a  a  g. +@ >  (  WM CI >r XM YM &F &F &F &F rE rE rE rE &E sE sE DD DD DD DD DD *E ZM ]M ^M `M  N _M .N +N @N #N $N %N &N uM *N =N -N ;N yL >N ,N 'N )N !N ~N ~N ~N {N DL DL ~N CL ]N ^N aM /N (N _N :N <N  H [N }N |N 1N 2N 3N 4N 5N 4L wM 6N 7N 8N yM 9N DL 4L 0N aN 7M ZL bN cN dN eN fN gN hN iN jN kN ,G 'K OM RM lN mN OH nN ^M oN &F &F &F &F &F &F rE sE DD DD DD sE &E &F &F &F iJ pN `, ;# H  *  *  *  |+ |           .. /  (  2% M@ K  L  *  M  N     g. a  a  g. f  >  (  i] D! $  p_ h] k* x. ^  && (  [+ F  $  G  ,; *  *  *  *  *  =  +. C           S+ *& 3  4  *  *  *  *  *  *  *  *  S  +. C     ",
"      .  +  (  (  (  2% M@ K  L  *  |@ e> ;  C     Ch f= X  ;# @# *  *  *  f. b. -@ Y. (  (  (  (  (  (  _. :  k' [  *  *  *  =  +. C  A~ B! $  %  &  j. 1. 5  0. g.                f  <% (  (  (  S& qN rN sN tN &F &F &F &F &F &F &E sE DD DD DD DD DD }K uN IG vN wN xN yN zN AN BN CN DN EN FN GN HN !N VL ~N aM /N IN JN KN LN DL wM wM wM wM MN MN wM wM wM yM AM NN ON PN QN RN iI <L SN TN UN VN BL CL DL WN XN YN ZN `N  O .O wM VL +O /N @O `I [I #O $O %O %O &O *O =O -O ;O >O ,O cH lN 'O )O aH !O ~O oN &F &F &F &F &F &F rE sE DD DD DD sE &E &F &F &F {O ]O @# *  *  *  *  *  |+ |  ^  f  f  j  8  (  2% M@ K  L  *  M  N     C  g. g. ;  f  >  (  i] D! $  p_ h] k* x.    V@ 5% @  @I <  %  H  *  *  *  =  1. -. a. C           O. N. Y+ fi *  *  *  *  *  *  =  1. -. 6        ",
"      .  +  (  (  (  2% M@ 3  A. *  g> I. 2. M.    Ch f= X  ;# @# *  *  *  f. b. -@ Y. (  (  (  (  (  (  _  :  <  [  *  *  *  =  +. C  A~ B! $  p_ 9@ k* |@ 6  |  C                 f  >  (  (  (  ,  ^O /O (O _O &F &F &F &F &E *E sE DD DD DD DD DD MC :O <O [O }O |O 1O 2O 3O 4O 5O 6O 7O 8O KJ 9O 0O aO aM bO )N cO dO JN 'N eO fO gO hO hO hO XN XN hO hO hO iO jO kO lO mO nO oO pO qO AH rO sO tO cM DL uO vO wO xO yO zO AO BO CO 4L DO EO FO GO HO IO JO KO KO LO MO NO OO PO QO RO vI SO TO UO VO KG WO oN &F &F &F &F &F &F rE sE DD DD DD sE &E &F &F &F kJ bJ @# *  *  *  *  *  // ;. f  D  >  /  Y. (  2% M@ K  L  *  M  N  C  o  0. 2. M. +@ /  (  i] D! $  p_ h] ~+ {+    Q4 6% @I B@  ' ~  Z  *  *  *  -. -  ;. M.             J+ $6 &s l4 *  *  *  *  *  *  6. -  ;. b.       ",
"      .  +  (  (  (  2% M@ 3  4  *  *  *  5  6     Ch f= X  ;# @# *  *  *  f. b. -@ Y. (  (  (  (  (  (  _  :  <  [  87 *  *  =  +. C  A~ B! $  p_ 9@ ~+ -]                         f  <% (  (  (  b  XO YO ZO `O &F &F &F rE *E DD DD DD DD DD DD }K iL wN rI  P .P +P lN aH @P #P $P %P &P *P =P -P vL ;P >P ,P gK JN JN JN JN eO 9N 'P )P !P !P ~P ~P !P ~P )P YN {P .O DL ]P cO ^P /P (P _P :P <P [P ~N WN vO }P |P 1P 2P 2P 2P 3P 'P !N 4P TL 5P %L %L 8M 6P 7P 8P 9P 0P aP bP cP dP eP fP gP hP iP jP KG WO oN &F &F &F &F &F &F rE sE DD DD DD sE &E &F &F &F kJ bJ @# *  *  *  *  *  -. R& +@ && (  (  (  (  2% M@ K  L  *  M  N  g. 0. =  6. ~D 7  && (  i] D! $  p_ h] O; U,    $6 K. 3  5. *  *  *  *  *  *  f. M.                         (. i  *  *  *  *  *  *  I. b.             ",
"      .  +  (  (  (  2% M@ 3  4  *  *  *  1. 2.    Ch f= X  ;# @# *  *  *  f. b. -@ Y. (  (  (  (  (  (  _  :  y@ kP f. }- f. I. U+ C  A~ B! $  p_ 9@ O; -]    g. M. o  |  |  M. g. +@ `+ Q. a+ P. ,  lP mP nP oP &F &F &F rE &E sE sE *E sE sE DD jF ED pP qP rP sP tP dL tP uP vP $P wP xP HM yP ZI vL zP *L AP FO BP ,N CP KN 0M DP EP !P wO wO wO wO FP FP GP !P HP 'P IP JP KP LP MP NP KO OP [P PP QP RP FP SP TP UP VP UP WP XP YP ~N DO ZP `P  Q  Q FL .Q *N +Q @Q #Q $Q %Q &Q *Q =Q -Q ;Q >Q ,Q 'Q xN )Q ]M &F &F &F &F &F &F rE sE DD DD DD sE &E &F &F &F kJ bJ @# *  *  =  -. f. -  C. +@ /  (  (  (  (  2% M@ K  L  *  M  N  C  ;. }- -  C. +@ /  (  i] D! $  p_ h] O; U,    '] 2  3  5. *  *  *  *  *  *  5+ +. |  a              i# A! g= 0r *  *  *  *  *  *  }  2. M. a        ",
"      .  +  (  (  (  2% M@ 3  4  *  *  *  5  6     Ch f= X  ;# @# *  *  *  f. b. -@ +  (  (  (  (  (  (  _  :  *& }# M. b. M. b. g.    A~ B! $  p_ 9@ ~+ -]    |  I. }  }  }  i  C. n* !Q ~Q ar c. S& {Q ]Q ^Q /Q &F &F &F &F rE rE rE rE &E *E DD MC (Q xN jP _Q :Q <Q <Q <Q [Q }Q |Q wP 1Q 2Q 3Q 4Q vL vL 5Q 6Q 7Q %L 8Q 9Q 0Q aM aQ bQ wO FP FP FP FP }P }P }P }P cQ dQ {P eQ +Q DO TL fQ gQ WL VL hQ iQ FP jQ kQ lQ mQ nQ oQ pQ qQ rQ sQ tQ uQ vQ wQ xQ 1L HN PP CO  O  O yQ zQ AQ BQ CQ DQ HM ;Q EQ FQ GQ HQ IG ;M &F &F &F &F &F rE sE DD DD DD sE &E &F &F &F kJ IQ @# *  *  =  -  M. (. g. f  >  b  (  (  (  2% M@ K  L  *  77 N     g. b. b. g. f  >  (  i] D! $  p_ h] O; U,    '] 3% 3  5. *  *  *  *  *  *  S  -. |+ ;. C           c$ 3( JQ y~ *  *  *  *  *  *  1. -. f. ;.       ",
"      .  +  (  (  (  2% M@ 3  4  *  *  *  5  6     Ch f= X  ;# Z  *  =  S  L. b. -@ k  b  (  (  (  (  (  _  :  *& f0 ;  C  C  C        A~ B! $  p_ 9@ ~+ -]    ;. -. *  *  *  6. ;. n* KQ /l ~4 n4 #F LQ MQ &F &F &F &F &F &F &F &F &F &F &F *E DD jF (Q NQ 'Q OQ PQ gP QQ QQ QQ RQ SQ TQ UQ VQ WQ XQ 5Q vL vL HJ YQ %L ZQ `Q zL ~N  O  R }P xO }P }P }P }P }P }P }P }P wO EP XN CO .R uM +R .Q +O WN vO }P @R #R $R %R &R &R *R =R -R ;R >R ,R 'P DP dM eM >L AK .R CO 'P 'P 'P 'R )R /N !R ~R {R ]R ^R /R (R >K _R TM ;M &F &F &F &F rE sE DD DD DD sE &E &F &F &F jJ :R h  H  Z  1. a. j]       ^  .  +  (  (  (  2% M@ 3  <R A  .@ N                 f  <% (  i] D! $  p_ h] O; U,    '] 3% 3  5. *  *  *  *  *  *  *  *  =  0. C           S+ *& 3  4  *  *  *  *  *  *  *  *  S  +. C     ",
"      .  +  (  (  (  2% M@ 3  4  *  *  *  5  6     Ch f= X  @, Z  k* |@ 2. U+ g. 7  D  <% && +  (  (  (  _  :  y@ T0 T  +. +. 2. M.    A~ B! $  p_ 9@ ~+ -]    ;. -. *  *  *  6. U+ 7  F3 [R }R |R 1R dF 2R &F &F &F rE &E *E *E *E &E &F &F *E DD jF (Q NQ 3R 4R 5R 6R 7R 8R 9R 0R aR bR cR dR eR ,N fR gR hR IJ hR 8Q fQ EO iR MN jR wO kR lR lR lR mR nR }P }P }P }P oR wO )P 'P xM ^N 0N pR qR jR oR SP rR sR nQ tR uR uR vR wR xR yR zR AR BR CR aQ DR eM ER uQ FR DP .O 7N GR jO dM HR IR JR KR LR MR 4R NR >K OR IG ;M &F &F &F rE sE DD DD DD sE &E &F &F &F PR QR RR SR @, /. uw TR o, z!    .  +  (  (  (  2% M@ =& G{ +.  . ++                ^  <% (  i] D! $  p_ h] O; U,    '] 3% 3  5. *  *  *  *  *  *  *  *  =  +. C           1  2  3  4  *  *  *  *  *  *  *  *  1. 2. C     ",
"      .  +  (  (  (  2% M@ 3  4  *  *  *  5  6     Ch f= X  Y  Z  k. U, C  C           ^  .  +  (  (  (  _  :  <  (~ =  A  =  1. +. C  A~ B! $  p_ 9@ O; U,    ;. -. *  *  *  6. U+ 7  8  (  UR VR WR XR -G &F &F &F &E sE DD DD DD *E rE &F *E DD jF (Q xN 3R YR ZR `R  S .S +S @S #S dN $S %S &S yL TL 6P JN *S 'N yL EO iR DL =S CR }P -S ;S ;S ;S >S kR }P }P }P }P }P }P cQ bQ 7N 9N ~N qR ,S }P SP kQ $R mQ 'S uR )S )S !S 'S ~S {S ]S ^S 2P /S dQ .O (S BL BL BL eM dM .O {P XN _S 8N :S <S [S }S |S 1S ,Q 2S 3S 4S TM SK &F &F rE sE DD DD DD sE &E &F &F &F -G 5S UM 6S <. 7S 8S 9S 0S @' ^  .  +  (  (  (  2% M@ 5- 0+ C                       ^  .  (  i] D! $  p_ h] O; U,    '] 3% 3  5. *  *  *  *  *  *  *  *  =  +. C           1  2  3  4  *  *  *  *  *  *  *  *  1. 2. C     ",
"      .  +  (  (  (  2% M@ 3  4  *  *  *  5  6     Ch f= X  Y  Z  |.  .                   D  +  (  (  (  _  :  <. [  87 1. 5+ f. ;. C  A~ B! $  p_ 9@ k* l. M. 6  I. }  5  *  6. U+ 7  8  (  aS bS *E rE &F &F &F &F &E DD DD DD DD sE &E &E *E LC UF cS dS eS fS gS hS iS jS kS 9L lS @L mS nS oS 0Q TL 0Q IN IN 0Q .Q DO VL pS qS rS ;S sS tS tS tS uS vS kR }P }P }P }P }P FP )P wS iO =S jR oR xS yS sR zS wR 'S tR uR uR tR 'S *R *R AS BS ^S CS DS )P ES FS GS HS IS JS CL KS gO XN LS )R MS |I NS OS PS Mw QS RS =K SS TS US ;M VS sE DD DD DD sE &E &F &F &F &F &F &F WS XS YS ZS `S  T .T f  >  b  (  (  (  2% M@ 3% +T M. a  C           f  .. j  /  (  i] D! $  p_ h] O; U,    '] 3% 3  5. *  *  *  *  *  *  *  *  =  +. C           1  2  3  4  *  *  *  *  *  *  *  *  1. 2. C     ",
"      .  +  (  (  (  2% M@ 3  4  *  *  *  5  6     Ch f= X  Y  Z  |.  .                   D  +  (  (  (  _  :  <. [. 87 k. a. M. a     A~ B! $  %  &  A  5+ f. 0. U+ ;. f. *  6. U+ 7  8  (  QK @T *E rE &F &F &F &F &E DD DD DD DD DD sE sE }K NC <F OM #T $T %T &T *T =T -T ;T >T @O ,T 'N JN 'N oS 6P 6P gK TL .Q +O 'T pS )T rS !T 2P ~T {T {T ]T ^T /T !T }P (T (T cQ }P FP !P dQ _T :T FP |P <T [T }T 'S 'S 'S |T |T *R AS %R 'S 1T 1T AS lQ 2T 3T 4T 5T 6T 7T 8T 9T AL 0T aM DL aT bT cT `Q dT eT fT gT hT iT jT kT lT mT &M nT iF sE DD DD DD sE &E &F &F &F &F &F &F oT pT qT rT sT tT Hq +@ /  (  (  (  (  2% M@ m* uT f. c# ++          7  >  8  Y. (  i] D! $  p_ h] O; U,    '] 3% 3  5. *  *  *  *  *  *  *  *  =  +. C        C  S+ 2  3  4  *  *  *  *  *  *  *  *  1. 2. C     ",
"      .  +  (  (  (  2% M@ 3  4  *  *  *  5  6     Ch f= X  Y  Z  `   .                   D  +  (  (  (  _  :  <. g] 87 f> e>          A~ B! $  I{ &  A  =  =  -  a  g. 7. *  6. U+ 7  8  (  QK @T *E rE &F &F &F &F &E sE DD DD DD DD DD DD LK vT 9H uE wT xT yT zT AT cN BT CT DT ET TL gK 'N JN JN 9O JN 6P +R 0M DL pS FT oR ;S 2P GT {S =R HT IT JT KT LT MT NT NT (T }P FP wO !P wO }P ;S OT VP nQ 'S 'S 'S 'S nQ {S pQ PT BS %R 1T )S QT RT PT sR UP ST TT UT VT WT XT YT zL aM DL 4L 0T ZT `T  U fT .U }S +U ^R @U ~I #U $U wI NC LC DD DD DD sE &E &F &F &F &F &F &F &E sE %U &U *U s* 6  +@ && (  (  (  (  2% M@ K  L  *  77 N           j  k  (  (  (  i] D! $  p_ h] O; U,    '] 3% 3  5. *  *  *  *  *  *  *  *  S  +. g. ^  ^     1  2  3  4  *  *  *  *  *  *  *  *  1. 2. C     ",
"      .  +  (  (  (  2% M@ 3  4  *  *  *  5  6     Ch f= X  @, Z  g> /{ 6  M. C           D  +  (  (  (  _  :  <. [. 87 g> /{ 6  M.    A~ B! $  =U -U 0. 0. 0. U+ g. g. -  *  6. U+ 7  8  (  QK @T *E rE &F &F &F &F rE &E *E sE tE LC jF LK <F ;U >U ,U 'U )U !U ~U {U ]U ^U FJ /U (U TL 0Q KN _U :U <U ^P 'N [U DO xM )T FP ;S }U ~T BS |U QT |U 1U 2U 3U 4U 5U _S _S  R }P }P FP FP xO /S 6U ~T PT }T 'S 'S 'S 'S 7U 8U ~T 9U VP BS |U 0U 0U QT QT tR &R *R aU bU cU dU eU fU 'L 5N cM DO /N gU 9L hU iU gT jU =H Ig kU $T lU mU nU UK LC DD DD DD sE &E &F &F &F &F &F &F rE &E oU pU qU rU sU .. && (  (  (  (  2% M@ K  L  *  M  N           j  k  (  (  (  i] D! $  p_ h] O; U,    '] 3% 3  5. *  *  *  *  *  *  -. I. +. |  C  +@ j  D  o6 2  3  4  *  *  *  *  *  *  *  *  1. 2. C     ",
"      .  +  (  (  (  2% M@ 3  4  *  *  *  1. 2.    Ch f= X  ;# Z  =  A  5  +. ;           D  +  (  (  (  _  :  <  [  87 =  A  5  2. C  A~ B! $  z( p@ C  g. g. C     g. 0. *  6. U+ 7  8  (  QK @T *E rE &F &F &F &F &F &F rE MK jF ~G :O tU uU vU eL wU xU yU zU AU BU CU DU wL 5P yL TL ZJ EU FU GU %O HU mS IU DO gO JU ;S 2P ~T sR %R 1T )S KU LU MU NU OU PU xM QU ZN }P }P }P }P kR ;S 2P 9U RT *R 'S 'S 'S 'S RU TP SU TU UU ^S pQ *R KU )S VU WU WU VU uR XU YU ZU `U  V .V +V BL @V ON #V $V %V &V *V =V -V ;V >V ,V NR 'V wN :O }K DD DD DD sE &E &F &F &F &F &F &F &F &F -G )V !V ~V {V .. 8  (  (  (  (  2% M@ K  L  *  77 N           j  k  (  (  (  i] D! $  p_ h] O; U,    '] 3% 3  5. *  *  *  *  *  *  |+ o  ;  C  C  7  /  +  c  d  3  4  *  *  *  *  *  *  *  *  1. 2. C     ",
"      .  +  (  (  (  2% M@ 3  4  *  1. -. f. U+    Ch f= X  ;# Z  A  5  }  2. C           D  +  (  (  (  _  :  <  }D 6. 5+ 6. }  6  C  A~ B! $  BI b} N  (. (. (. a  |  I. *  6. U+ 7  8  (  QK @T *E rE &F &F &F &F &F &F &F ]V ^V /V nU }O (V _V vI :V <V [V }V |V 1V 2V 3V 4V 5V XL yL 6V 7V 8V 9V 0V aV $S bV cV dV eV tS fV pQ gV QT hV uR QT mQ iV jV kV lV CL 9N mV }P }P }P }P kR >S nV ~T lQ oQ oV wR 'S 'S pQ TP 1P pV qV 2P ^S {S |U uR WU rV rV rV WU sV tV uV vV wV xV yV zV ZJ _U AV TN BV CV Mv DV EV FV GV HV IV mU nU NC LC DD DD DD sE &E &F &F &F &F &F &F &F &F JV KV LV MV NV .. /  (  (  (  (  2% M@ m* OV 5+ B  N           7  /  Y. +  (  i] D! $  p_ h] O; U,    '] 3% 3  5. *  *  *  *  5  6. i  U+ a  g. ;  j  8  (  J  d  3  4  *  *  *  *  *  *  *  *  1. 2. C     ",
"      .  +  (  (  (  2% M@ 3  A. *  z@ a. |  a     Ch f= X  @, Z  ~+ l. U+ (. C           D  +  (  (  (  _  :  y@ on ;. o  U+ o  (.    A~ B! $  PV QV M  I. I. I. i  f. -. *  6. U+ 7  8  (  QK RK *E rE &F &F &F &F &F &F &F uN /V RV SV TV OH UV vP VV WV XV YV ZV `V  W .W +W @W wL bK #W $W %W bR &W *W =W -W ;W >W ,W 'W lQ AS QT uR KU *R RT lQ )W !W ~W DR {W ]W `N }P }P }P }P xO kR ^W /W UU (W _W :W <W 'S PT [W uS !T kR LT SU VP }W |T uR |W WU rV 1W 2W 3W 4W 5W 6W 7W 8W 9W 0W aW bW cW dW %P eW fW gW hW iW =E pP nU ED ~G LC DD DD DD sE &E &F &F &F &F &F &F &F &F jW kW lW mW nW f  >  b  (  (  (  2% M@ 3% 7< U+ (. C           f  7  D  /  (  i] D! $  p_ h] O; U,    '] 3% 3  5. *  *  *  =  I. ;. 6  -  i  R& g. -@ k  (  J/ d  3  4  *  *  *  *  *  *  *  *  S  2. C     ",
"      .  +  (  (  (  2% M@ K  L  *  M  N           Ch f= X  Y  Z  |.  .                   D  +  (  (  (  _  :  *& S+                   J+ B! $  I{ &  *  *  *  *  *  *  *  *  6. U+ 7  8  (  QK oW pW &E &F &F &F &F &F &F &F qW ED rW sW tW TH uW vW wW xW XV eT yW zW AW BW CW DW EW [I dI FW GW HW IW JW KW LW MW NW OW PW RT QW )S hV |U PT RW UU vS YN DL cM BL SW TW }P }P }P }P }P }P xO lR UW VW WW XW YW 'S ZW 2T uS `W }P kR qV  X 9U PT AS 1T )S VU 1W .X +X @X #X $X %X &X *X =X -X ;X >X wP ,X Od 'X )X !X ~X {X /V OG hF jF DD DD DD DD sE &E &F &F &F &F &F &F &F &F ]X ^X /X       f  .  +  (  (  (  2% M@ 5- O.                         ^  <% (  i] D! $  p_ h] O; U,    '] 3% 3  5. *  *  *  1. 2.    |  |+ =  0  I  .  +  (  J/ d  3  4  *  *  *  *  *  *  *  *  1. 2. C     ",
"      .  +  (  (  (  2% M@ 3  A. *  k. 0. U+ (.    Ch f= X  @, Z  g> 7. ;. 6  6  ;. b.    .  +  (  (  (  _  :  y@ (X R& ;. 6  ;. |  C  |m _X ;@ <a :X <X [X -  -  -  I. 6. *  6. U+ 7  8  (  }X |X 1X 2X 3X &F &F &F &F &F &F ]M 4X vT pP 5X 6X 7X 8X 9X 0X =V aX fT bX cX dX eX fX gX hX iX jX kX lX mX &T nX oX pX qX rX sX tR VU WU )S AS UP tX uX dQ vX DL uQ cM wX NT xX /S >S >S kR }P }P }P yX sS zX XW YW 'S AX BX OT |P >S FP oR CX AR DX EX FX GX HX VU IX JX KX LX MX NX OX PX QX RX SX TX UX ,x VX WX XX JK dH UK jF jF LC DD DD DD DD DD sE &E &F &F &F &F &F &F YX ZX `X  Y #)          .  +  (  (  (  2% M@ 5- O.                   +@ j  .  && (  i] D! $  p_ h] O; U,    '] 3% 3  5. *  *  *  1. 2.    |  |+ =  0  I  .  +  (  J/ d  3  4  *  *  *  *  *  *  -. f. 0. |        ",
"      .  +  (  (  (  2% M@ 3  4  *  A  5  }  ;.    Ch f= X  ;# Z  A  1. -. 5  5  }  R&    U  +  (  (  (  _  :  <  .Y 5  -. 5  -. T  g. ;& L1 V+ ,+ xk v. 9r a  g. g. M. I. *  6. ;. 7  k  (  ^| #F +Y @Y #Y &F &F &F &F &F &F ;M mL )Q $Y NQ 5X %Y &Y *Y =Y -Y ;Y >Y ,Y .S 'Y )Y )Y !Y ~Y {Y ]Y ^Y /Y (Y _Y :Y <Y [Y }Y |Y 1Y )S WU rV VU AS 2Y 3P 3Y IP MN DL DL 4Y 5Y 6Y uS uS 7Y uS ^W }P }P }P xO |P 'W PT wR 'S }T PT 9U TP 7Y xO _T ZN 8Y 9Y 0Y aY bY cY dY eY fY gY hY iY jY kY lY mY nY oY pY qY rY sY tY uY GQ vT hF DD DD DD DD DD DD DD DD sE &E &F &F &F &F &F &F vY wY xY yY C           .  +  (  (  (  2% M@ 5- O.                   7  /  +  +  (  i] D! $  p_ h] O; U,    '] 3% 3  5. *  *  *  1. 2.    |  |+ =  0  I  .  +  (  c  d  3  4  *  *  *  *  *  *  f. |  g. C        ",
"      .  +  (  (  (  2% M@ 3  4  *  A  5  }  ;.    Ch f= X  ;# @# *  *  *  *  *  {  ]  ^  /  (  (  (  (  _  :  <  [  87 *  *  *  f. I  .  +  (  2% P& y[ [%          g. 2. -. 0  C. 7  && (  (  (  zY AY BY CY DY &F &F &F &F (H ;M -M vT EY OM $Y FY GY HY @U IY JY KY LY LY MY MY MY LY NY OY PY QY RY SY TY UY VY WY XY YY )S 1W rV VU LU 'W ZY  O KS 9N 9N .O `Y  Z .Z 2T 2T <T SU |P xO }P }P }P LT rR lQ %R 'S 'S *R RT sR  X +Z bQ dV >W @Z #Z $Z %Z &Z QT *Z =Z -Z ;Z >Z ,Z 'Z WY )Z !Z ~Z {Z ]Z 9w ^Z /Z (Z 1J _Z hF DD DD DD DD DD DD DD DD sE &E &F &F &F :Z <Z [Z }Z w~ |Z 1Z C  ^  f  +@ >  b  (  (  (  2% M@ 3% ci a  ++             7  /  +  +  (  i] D! $  p_ h] O; U,    '] 3% 3  52 *  A  5  }  ;.    |  |+ =  0  I  .  +  (  Gj W  |% 1% &  Z  *  *  *  *  f. |  g. C        ",
"      .  +  (  (  (  2% M@ 3  A. *  k. 0. U+ (.    Ch f= X  ;# @# *  *  *  *  *  {  ]  ^  /  (  (  (  (  _  :  <  [  *  *  *  =  0  I  .  +  (  J/ d  y[ O.          C  M. 6  U+ I  +@ /  (  (  c. 2Z 3Z 4Z 5Z 6Z &F &F &F &F &F &F oN 7Z -M 8Z NC ED HQ 9Z 0Z aZ ,x wP TQ wP bZ bZ cZ dZ eZ fZ QY gZ hZ iZ jZ kZ lZ jY mZ nZ oZ VU VU vR pZ NU qZ rZ sZ tZ uZ vZ zO 7Y GT ZW wZ VP TP |P xO }P }P }P ;S SU UP {S }T tR 0U QT =R xZ yZ zZ AZ BZ CZ DZ EZ FZ GZ HZ IZ JZ KZ LZ MZ NZ OZ jY PZ QZ RZ SZ TZ SX UZ VZ WZ qP XZ YZ LC DD DD DD DD DD DD DD sE &E &F &F &F ZZ `Z bJ  ` .` U, u< C  .. D  /  k  (  (  (  (  2% M@ =& '; -  y. ++          +@ j  .  && (  i] D! $  p_ h] O; U,    '] 3% 3  52 *  k. 0. U+ (.    |  |+ =  0  I  .  +  (  @. _  ,+ 0$ $. 4  &  *  *  *  -. f. 0. |        ",
"      .  +  (  (  (  2% M@ K  L  *  77 N           Ch f= X  ;# @# *  *  *  *  *  {  ]  ^  /  (  (  (  (  _  :  <  [  *  *  *  =  0  I  .  +  (  J/ d  y[ O.                         f  >  (  P. Q. +` @` :8 #` $` &F &F &F &F &F &F &F &F rE *E DD }K :O EY %` @P &` *` sY sY =` sY -` wP DV (Y ;` >` ,` '` )` !` OZ iY ~` {` uR QW &R ]` ^` /` (` _` CZ CZ CZ :` <` [` ZW 'S }T pQ <T UW xO }P }P }P /S CS [W VP =R QT )S hV *R }` |` 9Y CZ 1` CZ 2` 3` 4` 5` 6` 7` 8` =R 9` 0` a` b` iY jY WY c` d` e` f` g` ;V h` (R i` j` jF LC DD DD DD DD DD DD sE &E &F &F &F k` l` h] 77 (.          k, 8  (  (  (  (  (  (  2% M@ K  L  *  M  N                 ^  <% (  i] D! $  p_ h] O; U,    '] 3% K  =[ *  77 (.          |  }  =  0  I  .  +  (  (  (  @. m6 $  $. H  *  *  *  *  *  1. 2. C     ",
"      .  +  (  (  (  2% M@ m* m` I. {+ ++          Ch f= X  ;# @# *  *  *  *  *  {  ]  ^  /  (  (  (  (  _  :  <  [  *  *  *  =  0  I  .  +  (  J/ d  3% 7< U+ (. C  C  b. U+ |  a  +@ U  (  (  a+ n` o` p` q` $` &F &F &F &F &F &F &F &F rE *E DD DD hF <F r` s` TH (Z t` 0C u` v` 1S w` x` y` z` A` '` B` C` D` E` >Z F` nZ tR aU XW G` H` I` J` K` L` M` N` O` 9U wZ }T 'S }T pQ <T P` nR FP cQ FP xO LT tS TP Q` R` 1T uR &R S` T` U` V` W` X` Y` Z` ``   .. .+ .@ .# .$ .% .& .* .gY = .- .; .> ., .' .) .! .~ .{ .] .^ ./ .}K DD DD DD DD DD DD sE &E &F &F &F ( ._ .Z  77 u<          7  8  (  (  (  J. @  4[ ;@ P  3  A. *  k. a. |  b.    .. j  D  /  (  i] D! $  p_ h] O; U,    '] 3% K  =[ *  77 u<          (. +. I. R& g. -@ k  (  (  (  @. #. $  $. H  *  *  *  5  |+ -  o        ",
"      .  +  (  (  (  2% M@ 3% e= (. g. C           c$ >2 X  ;# @# *  *  *  *  *  {  ]  ^  /  (  (  (  (  _  :  <  [  *  *  *  =  0  I  .  +  (  J/ d  m* OV 5+ B  ++ g. 2. 5+ 0  C. 7  && (  (  P. : .< .p` #` [ .&F &F &F &F &F &F &F &F &F *E DD DD jF NC } .| .1 .tW lN 2 .3 .4 .5 .VQ 6 .7 .8 .9 .0 .C` a .b .MZ c .d .e .'S f .$ .g .h .i .j .k .l .m .n .o .%R wR 'S 'S wR p .q .xS mR r .dQ dQ )P s .yO t .u .v .w .'S &R YW XW iV x .y .z .A .B .C .D .E .F .G .H .I .J .K .L .M .N .O .P .Q .R .S .T .) .@< U .V .W .X .}K DD DD DD DD DD DD sE &E &F &F &F Y .Z .Z  ` .(.          7  8  (  (  (  @. m  :  M@ '+ 3  52 *  1. -. }  +. ;  .  8  Y. +  (  i] D! $  p_ h] O; U,    '] 3% K  =[ *  77 (.          C  a  (. g. ;  j  8  (  (  (  @. #. $  $. H  *  *  *  |+ ;. a  g.       ",
"      .  +  (  (  (  2% M@ 5- 0+ g. C              A!  ..2  4. &  @# *  *  *  *  {  ]  ^  /  (  (  (  (  _  :  <  [  *  *  *  =  0  I  .  +  (  J/ d  K  L  *  M  N  g. -  *  6. U+ 7  && +  b  (  b  ...+..@..[ .&F &F &F &F &F &F &F &F &F *E DD DD LC hF LK *F vT OM QC #..$..fP %..&..*..=..-..;..!` >..,..'..)..*Z !..uR oQ ~..{..]..^../..(.._..:..<..[..}..|..'S 'S 'S }T lQ TP |P xO CR XN 7N gO .O gO FT xX 1..RW {S }T 'S *R 2..3..4..5..6..7..8..9..0..a..b..c..d..e..f..g..h..i..j..k..GX l..m..n..o..p..hW q..r..X .s..DD DD DD DD DD DD sE &E &F DY t..u..v..w..M  u<          7  8  (  (  (  @  #  $  X  X  !  4  *  =  S  -. T  ;  >  +  (  (  (  i] D! $  p_ h] O; U,    '] 3% K  =[ *  77 (.    C  ;  g. g. ;  C  C  7  && (  (  (  @. #. $  $. H  *  *  *  I. (.             ",
"      .  +  (  (  (  2% M@ =& #G 0. o  ++          /X 0= 6% 3. *. 5. H  *  *  *  {  ]  ^  /  (  (  (  (  _  :  <  [  *  *  *  =  0  I  .  +  (  J/ d  K  L  *  M  N  g. -  *  |+ |  +@ j  D  /  Y. b  ...+..@..[ .&F &F &F &F &E *E &E &F &F *E DD DD DD tE LC jF LK ED x..y..z..=Y A..B..C..D..E..F..NZ G..H..I..J..wR K..L..M..N..O..P..Q..R..S..T..U..V..F` W..uR wR }T mQ PT (W X..Y..Z..`.. +.+Q -N ]P 0N .+.++.@+.#+.$+.{S }T &R vR %+.&+.*+.=+.-+.;+.>+.,+.'+.)+.!+.~+.{+.]+.^+./+.(+._+.:+.<+.[+.}+.|+.1+.2+.3+.4+.5+.6+.sE DD DD DD DD DD DD sE &E &F 7+.8+.9+.0+.2.  . ++          7  8  (  (  (  @  9  $  !  I{ 4  H  *  5+ -  6  |  C  D  Y. (  (  (  i] D! $  p_ h] O; U,    '] 3% K  =[ *  77 (. C  |  +. 0. 0. +. ;. g. -@ k  (  (  (  @. #. $  $. H  *  *  *  I. b.             ",
"      .  +  (  (  (  2% M@ K  L  =  M  N           j  8  J. m  )  !  ~  *  *  *  {  ]  ^  /  (  (  (  (  _  :  <  [  *  *  *  =  0  I  .  +  (  J/ d  K  L  *  M  N  g. -  *  f. M. ^        j  8  b  ...+..@..[ .&F &F &F rE *E DD *E rE &F *E DD DD DD DD DD DD LC ~G a+.OM b+.U .c+.B..d+.e+.f+.g+.h+.i+.j+.k+.l+.TT m+.|` n+.o+.p+.q+.r+.s+.t+.u+.v+.w+.x+.y+.)S 2..wZ UP 'W z+.A+.B+.C+.D+.;N /N cO dO oS +R NN 'R xX .Z E+.oQ 'S F+..X G+.H+.I+.J+.K+.L+.M+.N+.O+.P+.OS Q+.R+.S+.T+.U+.V+.W+.X+.Y+.Z+.`+. @..@.+@.@@.#@.rE *E DD DD DD DD DD DD sE &E &F $@.&' |# v< C                 7  8  (  (  (  @  9  $  $. &  *  *  *  I. (.          j  k  (  (  (  W+ /_ $  p_ h] O; U,    '] 3% K  =[ *  77 u< ;  +. =  =  =  =  L. a  .  +  (  (  (  @. #. $  $. H  *  *  *  I. b.             ",
"      .  +  (  (  (  2% M@ K  L  *  77 N           j  k  ,  '  )  !  ~  *  *  *  {  ]  ^  /  (  (  (  (  _  :  <  [  *  *  *  =  0  I  .  +  (  J/ d  3  A. *  |. ;. U+ 0. f. 2. a           7  8  b  ...+..@..[ .&F &F &F rE *E DD *E rE &F *E DD DD DD DD DD DD DD %@.&@.)Q *@.=@.-@.;@.>@.,@.HZ '@.)@.!@.~@.{@.]@.^@./@.(@._@.:@.5M <@.[@.}@.|@.1@.2@.w+.x+.3@.4@.5@.~T 6@.7@.8@.9@.0@.a@.SL b@.c@.d@.e@.$S f@.6V g@.XN h@.1..i@.}W j@.k@.l@.H+.m@.n@.o@.p@.q@.r@.s@.t@.u@.v@.w@.x@.y@.z@.A@.B@.C@.D@.E@.F@.G@.H@.I@.J@.K@.rE *E DD DD DD DD DD DD L@.M@.N@.II G  O@..@ |  (. C           7  8  (  (  (  @  9  $  %  &  A  5+ f. 0. ;. M. I  C  -@ k  (  V+ i] ;2 S2 E@ A. Z  O; o     '] 3% 3  =[ *  z@ 6  U+ }- *  *  *  =  0  I  .  +  (  (  (  @. #. $  $. H  *  *  *  I. b.             ",
"      .  +  (  (  (  2% M@ K  L  *  M  N           j  k  ,  '  )  !  ~  *  *  *  {  ]  ^  /  (  (  (  (  _  :  <  [  *  *  *  =  0  I  .  +  (  J  d  3  4  *  5  5+ f. 2. M. a  C           j  8  b  P@.Q@.R@.S@.&F &F &F rE *E DD *E rE &F *E DD DD DD DD DD DD sE &E SK T@.U@.V@.W@.X@.Y@.Z@.`@.<W  #..#.+#.@#.##.$#.%#.&#.*#.wL =#.-#.;#.>#.,#.1@.'#.w+.x+.)#.!#.~#.{#.AO ]#.:S xQ ^#./#.(#._#.:#.AU <#.[#.}#.rO |#.cM 1#.2#..Z VP 3#.4#.5#.H+.m@.6#.PZ 7#.8#.Q+.9#.0#.a#.b#.c#.d#.e#.f#.g#.h#.i#.j#.k#.l#.kN m#.n#.(H &F &F *E DD DD DD DD DD DD o#.p#.q#.r#.s#.t#.s* }  +. a           7  8  (  (  (  @  9  $  p_ 9@ k* l. M. 6  I. f. 2. ;  .  +  ,  Gj /_ u#.,M F@ &  87 5+ o     '] 3% 3  52 *  1. 5+ }  5  *  *  *  =  0  I  .  +  (  (  (  @. #. $  $. H  *  *  *  I. b.             ",
"      .  +  (  (  (  2% M@ K  L  *  |@ (. C        j  k  ,  '  )  !  ~  *  *  *  {  ]  ^  /  (  (  (  (  _  :  <  [  *  *  *  =  0  a  D  k  +  c  d  3  4  *  *  =  -. 6  C  C  C  C        n* 7# v#.w#.x#.y#.z#.UM UM UM 2R A#.DD *E rE rE *E DD DD DD DD DD DD sE &E &F #@.B#.C#.D#.6B E#.F#.G#.H#.I#.J#.K#.L#.M#.N#._#.lH O#.`T {U 6L P#.Q#.R#.S#.v+.T#.x+.)#.U#.V#.W#. O X#.Y#.Z#.`#. $..$.YV +$.YV @$.#$.$$.%$.&$.<S (S *$.+Z =$.-$.4#.;$.>$.,$.'$.)$.!$.~$.{$.;Y ]$.^$./$.($._$.1N :$.N#.<$.[$.}$.|$.lF 1$.oN &F &F &F &F &E DD DD DD DD DD DD 2$.3$.3  m' 8F Fq @# *  f. b.          7  && (  (  (  @  9  $  p_ 4$.O; U,    U+ 5+ 1. -  ;  >  +  ,  m  )  !  ~  *  *  *  5+ U+    '] 3% 3  5. *  *  *  *  *  *  *  =  S  L. a  .  +  (  (  (  @. #. $  $. H  *  *  *  I. b.             ",
"      .  +  (  (  (  2% M@ 3  A. *  O; 7. R& C. C  D  Y. ,  '  )  !  ~  *  *  *  {  ]  ^  /  (  (  (  (  _  :  <  [  *  *  *  =  -  g. 7  .  .  z. 2  3  A. *  O; 7. +. +. +. +. +. a. M. C  5$.6$.7$.8$.9$.0$.a$.b$.b$.0J c$.d$.*E *E *E *E *E *E *E sE DD DD DD sE &E &F SK TM e$.f$.g$.h$.i$.j$.k$.l$.K#.m$.n$.!Y o$.p$.q$.r$.s$.t$.u$.v$.w$.x$.y$.z$.A$.F` KZ B$.C$.D$.E$.hK F$.G$.H$.I$.J$.o$.aX K$.L$.M$.N$.]R O$.P$.Q$.R$.S$.T$.U$..X V$.W$.X$.Y$.Z$.`$. %..%.LY +%.@%.wW #%.$%.%%.&%.o$.*%.=%.-%.;%.>%.)Q ]M &F &F &F &F *E DD DD DD DD DD DD ,%.'%.$  59 Fq .' @# *  I. b.          +@ j  >  8  (  @  9  $  {_ -U {+ (.    (. 6  +. C. C  D  Y. ,  '  )  !  ~  *  *  *  6. U+    '] 3% 3  5. *  *  *  *  *  *  -. i  2. U+ g. j  k  (  (  (  @. #. $  $. H  *  *  *  I. b.             ",
"      .  +  (  (  (  2% M@ 3  4  *  =  =  5  T  ;  )%.+  ,  '  )  !  ~  *  *  *  {  ]  ^  /  (  (  (  (  _  :  <  [  *  *  *  =  +. g. ^  f     ^+ 2  K  L  *  77 (. a  -  S  =  =  5  6  C  !%.~%.{%.]%.^%./%.(%.~  ~  F@ lL _%.&F rE sE sE &E &F &E sE DD DD DD sE &E &F (H ]M -M :%.|J <%.[%.}%.|%.1%.2%.3%.CN 4%.5%.6%.7%.8%.9%.0%.a%.b%.c%.d%.e%.f%.g%.h%.nZ i%.j%.k%.l%.m%.n%.o%.p%.q%.q%.r%.r%.b#.s%.t%.u%.v%.w%. M x%.y%.z%.A%.B%.C%.D%.E%.F%.G%.H%.I%.J%.K%.0R L%.=` M%.N%.#%.O%.P%.5%.Q%.9w QQ R%.S%.~O oN &F &F &F &F *E DD DD DD DD DD DD ,%.T%.3  ~  @# *  *  *  I. b.                f  <% +  @  9  $  z( p@ C           C  C  C     j  k  ,  '  )  !  ~  *  *  *  6. U+    '] 3% 3  4  *  *  *  *  *  *  |+ |  C  C  C  7  && (  (  (  @. #. $  $. H  *  *  *  I. b.             ",
"      .  +  (  (  (  2% M@ 3  4  *  *  *  =  L. ;  >  +  ,  '  )  !  ~  *  *  *  {  ]  ^  /  (  (  (  (  _  :  <  [  *  *  *  =  +. C        ;  S+ T+ m* ~3 }  l. |  |  0. }  -. =  S  +. C  U%.V%.W%.X%.Y%.Z%.#E *  *  *  `%. &..&.+&.WR sE &E &F rE sE DD DD DD sE rE &F &F SK oN 7Z vN @&.#&.$&.%&.&&.*&.=&.-&.;&.>&.>&.>&.,&.'&.o$.)&.!&.~&.{&.]&.^&./&./&.(&._&.:&.<&.[&.}&.4K |&.HW UX L%.L%.1&.v` 2&.GD 3&.4&.5&.6&.7&.8&.9&.0&.a&.b&.e .c&.d&.e&.f&.g&.h&.i&.j&.k&.iP l&.m&.n&.o&.p&.^$.q&.r&./R s&.t&.-M oN &F &F &F &F *E DD DD DD DD DD DD u&.v&.w&.$  ,; *  @# O< x&.b.          f  +@ 7  >  b  @  9  $  t+ e1 a  ++                   j  8  ,  '  )  !  ~  *  *  *  6. U+    '] 3% <  I{ F@ H  Z  *  5  }  -  U+ b. a  ;  j  8  (  (  (  @. #. $  $. H  *  *  *  I. b.    g. b. M. ",
"      .  +  (  (  (  2% M@ 3  4  *  *  *  =  -  ;  >  +  ,  '  )  !  ~  *  *  *  {  ]  ^  /  (  (  (  (  _  :  <  [  *  *  *  =  +. C           1  2  3% +T |  a. i  I. 2. |  0. -. 1. 2. C  I! V%.A#.y&.9J z&.Qn *  *  *  A&.B&.C&.D&.E&.*E rE &F rE *E DD DD DD sE rE &F &F &F &F F&.;M G&.H&.I&.J&.K&.L&.M&.N&.O&.P&.P&.Q&.R&.r%.S&.T&.U&.V&.W&.*R X&.Y&.1T }T Z&.`&. *..*.+*.@*.TX bZ wW #*.Od GD $*.%*.&*.**.=*.-*.;*.>*.,*.'*.)*.!*.~*.uR {*.|..FX R .]*.^*./*.(*._*.tP aH bH sP :Q !I Od Od 4&.:*.FD <*.;G SK &F &F &F &F *E DD DD DD DD DD DD [*.}*.|*.1*. ' *  O< {5 2*.4-          .. <% 8  Y. (  @  9  $  3*.4*.7.  .                   j  k  ,  '  )  !  ~  *  *  *  6. U+    '] 2  X  e  E@ [. 9@ 1. /{ o  6  i  I. 2. g. -@ k  (  (  (  @. #. $  $. H  *  *  *  }- b. C  ;. I. f. ",
"      .  +  (  (  (  2% M@ 3  4  *  *  *  =  -  ;  >  +  ,  '  )  !  ~  *  *  *  {  ]  ^  /  (  (  (  (  _  :  <  [  *  *  *  =  +. C           1  2  K. O.    ;. -. 5  6     o  }  S  2. C  5*.6*.7*.8*.9*.52 &  *  *  *  g> ;.    0*.a*.b*.c*.:Z d*.e*.xI f*.DD sE rE &F &F &F &F &F &F g*.h*.i*.j*.-H k*.v` l*.u` m*.m*.n*.o*.xW p*.q*.r*.s*.t*.u*.'S aU v*.WW w*.x*.y*.z*.-F A*.B*.*` iP C*.tP D*.cH E*.QC ;K lT 'I <Q F*.G*.H*.I*.J*.K*.L*.wR ~S M*.R .N*.O*.P*.Q*.R*.S*.MG RM tW qP T*.D*.D*.lU lT mT U*.SK (H &F -G V*.V*.W*.DD DD DD DD DD DD sE &E &F X*.Q  O< Fq n' Y*.1m          7  8  (  (  (  @  9  $  p_ 9@ ~+ -]                   j  k  ,  '  )  !  ~  *  *  *  6. U+    $6 K. $  $  $  q+ y) /. c# C  |  |+ =  0  a  .  +  (  (  (  @. #. $  $. H  *  *  *  I. (. C  0. =  *  ",
"      .  +  (  (  (  2% M@ 3  4  *  *  *  =  -  ;  >  +  ,  '  )  !  ~  *  *  *  {  ]  ^  /  (  (  (  (  _  :  <  [  *  *  *  =  f. +. o  a     1  2  3% Z*.6  a. 0. +. M.    U+ }  =  T  C  `*. =..=.+=.@=.E@ ;# 5. ~  Z  1. ~{ uw #=.$=.%=.&=.*=.==.-=.;=.6H BD *E rE &F &F &F &F &F &F >=.oL ,=.'=.)=.!=.~=.tY t` {=.{=.WX !I <V |S ]=.^=./=.(=._=.:=.<=.[=.}=.|=.1=.2=.3=.gS 4=.5=.6=.7=.aH 8=.9=._Z *F *F <F 0=.] .a=.b=.c=.d=.e=.f=.g=.h=.i=.j=.k=.l=.m=.n=.o=.p=.HY KK cS wI _Z q=.*M *M EY gL OR r=.]M &F &F &F s=.`Z t=.u=.v=.DD DD DD DD DD sE &E &F /%.w=.x=.y=.'0 s' 8-          7  8  (  (  (  @  9  $  qm rm a. (.                   j  k  ,  '  )  !  ~  *  *  *  -. 6     Q4 6% #. :  $  R+ ]+ A  f> 2. 2. 0. 0. ;. g. -@ k  (  (  (  @. #. $  Z+ ]+ A  z@ -  ;. g. C  0. =  *  ",
"      .  +  (  (  (  2% M@ 3  4  *  *  *  =  -  ;  >  +  ,  '  )  !  ~  *  *  *  {  ]  ^  /  (  (  (  (  _  :  <  [  *  *  *  *  =  1. f. |     1  2  3  z=.5  .@ (. g. C     U+ 5+ =  L. g. A=.B=.C=.D=.M< $  <  <  ;# &  @# E=.zi F=.sD G=.H=.I=.I=.I=.J=.K=.L=.&E rE &F &F &F &F &F &F 7Z wN M=.N=.O=.%*.P=.Q=.R=.R=.R=.XX $*.S=.T=.U=.V=.C@.W=.X=.Y=.Z=.I%.`=. -..-.+-.@-.#-.$-.%-.'O eL &-.*-.nU NC LC LC hF NC =-.--.;-.>-.,-.'-.)-.!-.~-.{-.]-.K*.^-./-.(-._-.:-.<-.[-.}-.~G NC NC NC NC NC |-.TM ]M (H &F &F &F lE 1-.q+ 2-.3-.DD DD DD DD sE *E rE &F uG <Z 4-.5-.Z  ` .(.          7  8  (  (  (  @  9  $  6-.1m C  C                    j  8  ,  '  )  !  ~  *  *  *  {  ]     V@ 5% @  &. $  G  ]+ *  A  1. I. |  g. ;  C  7  8  (  (  (  @. #. $  F{ y) k* c# g. C     C  +. =  *  ",
"      .  +  (  (  (  2% M@ 3  4  *  *  *  =  -  ;  >  +  ,  '  )  !  ~  *  *  *  {  ]  ^  /  (  (  (  (  _  :  <  [  *  *  *  *  1. -. i  M.    1  2  3  L  *  f> |  a  ;     M. I. 6. ]  g. <% +  b  G@ 7-.M@ )  $  $. &  @# i0 P4 8-.9-.0-.a-.   b-.c-.d-.e-.f-.&E rE &F &F &F &F rE rE ;G nL =M g-.h-.h-.1J 1J 1J 1J 0H IV _V i-.FV j-.k-.l-.m-.n-.n-.J*.o-.p-.q-.r-.s-.t-.u-.v-.w-.x-.y-.qI <*.8H %@.sE sE DD jF }-.z-.;K A-.B-.C-.D-.E-.F-.G-.H-.I-.J-.K-.L-.M-.N-.FY O-.MC LC jF P-.LC LC }K fF ;M SK SK :Z Q-.R-.S-.T-.U-.V-.W-.X-.Y-.Y-.LV Z-.`-. ;.&F &F &F Y ..;.+;..+ N           7  8  (  (  (  @  9  $  6-.5$ g. C              f  +@ D  k  ,  '  )  !  i. *  1. -. |+ R&    /  (  [+ }+ $  G  H  *  *  *  f. M.          7  && (  (  (  @. #. $  Z+ ]+ k* x. (. g. C  C  +. =  *  ",
"      .  +  (  (  (  2% M@ 3  4  *  *  *  =  -  ;  >  +  ,  '  )  !  ~  *  *  *  {  ]  ^  /  (  (  (  (  _  :  <  [  *  *  *  =  I. 6  M. g.    1  2  3  A. *  g> }- 0. |     g. |  ;. M. ;  -@ k  (  @. V  '  k4 $  %  &  *  O< .' Gq @;.#;.$;.   %;.JC &;.*;.=;.*E rE &F &F &F rE &E *E fF IG -;.| .;;.>;.>;.pP >;.KG KK KK NH ,;.';.);.!;.~;.{;.];.^;./;.(;._;.:;.<;.[;.dL aH QM };.9=.|;.1;.mL SK rE &E *E sE tE UF (Q OM NH 2;.3;.4;.5;.6;.7;.8;.9;.0;.}%.&1 a;.b;.c;.d;.LC DD DD DD DD DD sE &E &F &F (H e;.f;.g;.h;.i;.rx j;.k;.l;.m;.n;.o;.bF p;.q;.&F &F &F r;.s;.Hb e> C           7  8  (  (  (  @  9  $  t;.u;.x. e>          f  j  /  8  +  ,  '  )  h. i. j. f> 6  C. b.    .  +  E  F  $  G  H  *  *  *  f. M.          7  && (  (  (  @. #. $  Z+ ]+ A  }  I. 6  g. C  +. =  *  ",
"      .  +  (  (  (  2% M@ 3  4  *  *  *  =  -  ;  >  +  ,  '  )  !  ~  *  *  *  {  ]  ^  /  (  (  (  (  _  :  <  [  *  *  *  =  +. C           1  2  3  4  *  *  *  5  6                    j  8  (  (  (  @  9  $  %  &  *  *  *  M^ N^ a$ H!    v;.6H DD DD DD sE rE &F &F &F rE *E DD *E X .TM WO vT vT vT vT vT vT vT vT vT c;.w;.x;.y;.z;.A;.B;.*X C;.D;.E;.F;.G;.H;.rI QC KG I;.J;.(Q K;.ZM &F &F &F rE *E DD MC hL <F L;.M;.N;.O;.P;.Q;.R;.S;.T;.U;.V;.W;.X;.e$.Y;.Z;.DD DD DD DD DD DD sE &E &F &F &F `;. >.|m z! 6+ m, H!          f  .  +  .>.+>.&F &F &F mJ @>.p                 7  8  (  (  (  @  9  $  =] 9@ ~+ -]          f  >  (  (  (  ,  '  )  h.  + A  .+ ++          D  +  E  F  $  G  ]+ *  *  *  f. M.          7  && (  (  (  @. #. $  $. H  *  *  *  I. b. C  0. =  *  ",
"      .  +  (  (  (  2% M@ 3  4  *  *  *  =  -  ;  >  +  ,  '  )  !  ~  *  *  *  {  ]  ^  /  (  (  (  (  _  :  <  [  *  *  *  =  f. a. |  g.    1  2  3  4  *  *  *  5  6     a  |  ;. M. ;  -@ k  (  (  (  @  9  $  %  &  *  *  *  (/ $;.#>.$>.%>.&>.*>.DD DD DD sE rE &F &F &F rE *E DD sE %@.uN iL :O 4D 4D :O NC LK LK LK LK =>.->.;>.>>.,>.'>.)>.!>.~>.{>.]>.^>.0H >;.cS />.(>.hL iL qW ZM &F &F &F &F rE *E DD DD MC UF LK NC 4D <F kN _>.:>.<>.[>.}>.|>.1>.WO iL 2>.DD DD DD DD DD DD DD sE &E &F 3>.QR 4>.5>.H{ h= ^h o, z!    .. D  /  Y. (  6>.7>.RE 8>.9>.mJ @>.p                 7  8  (  (  (  @  9  $  =] 9@ ~+ -]          f  >  (  [+ D. c  #  '+ h.  + A  .+ ++          D  +  E  F  $  R+ ]+ A  }  I. 6  a           7  && (  (  (  @. #. $  $. H  *  *  *  5+ +. 6  f. *  *  ",
"      .  +  (  (  (  2% M@ 3  4  *  *  *  =  -  ;  >  +  ,  '  )  !  ~  *  *  *  {  ]  ^  /  (  (  (  (  _  :  <  [  *  *  *  *  1. 5  I. M.    1  2  3  4  *  *  *  5  6     |  I. 6. ]  g. .  +  (  (  (  @  9  $  %  &  *  *  *  i  a  0>.a>.b>.c>.d>.DD DD DD sE rE &F &F &F rE *E DD tE P-.MC UF LK LK LK ~G e>.LC DD DD DD *E (H f>.g>.h>.i>.j>.k>.l>.m>.n>.o>.p>.q>.NC hF LC }K MK &F &F &F &F &F &F rE *E DD DD DD DD tE tE }K e>.r>.s>.t>.u>.u>.v>.w>.x>.y>.}K DD DD DD DD DD DD DD sE *E rE &F oE z>.Qn ch -. 7. 8- p  p     7  /  (  P. a+ A>.B>..E C>.D>.E>.F>.p                 7  8  (  (  (  %. 9  $  =] 9@ ~+ -]          f  >  (  i] &. I@ P  $  `. L@ j. .+ ++          D  +  E  F  $  q+ y) /. l. a  g. C           7  && (  (  (  @. #. $  $. H  *  *  *  =  5  -. 1. *  *  ",
"      .  +  (  (  (  2% M@ 3  4  *  *  *  =  -  ;  >  +  ,  '  )  !  ~  *  *  *  {  ]  ^  /  (  (  (  (  _  :  <  [  *  *  *  *  *  *  }  o     1  2  3  4  *  *  *  5  6     U+ 5+ =  0  g. .  +  (  (  (  @  9  $  %  &  *  *  *  }- M. G>.H>.I>.*E DD DD DD DD J>.K>.qE jJ kJ L>.M>.N>.nJ O>.P>.Q>.R>.S>.S>.T>.U>.CD DD DD DD *E rE SK T@.V>.=K W>.X>.Y>.Z>.`>.KG cS NC MC tE DD DD &E &F &F &F &F &F &F rE *E DD DD DD DD DD DD DD tE OG  ,..,.+,.+,.@,.#,.$,.VS sE DD DD DD %,.&,.*,.*,.=,.-,.hJ ;,.>,.Bh *  *  *  }  U+ g. ;  C  j  8  (  zY ,,.',.),.3  !,.~,.{,.],.                  7  8  (  ,  v  V  D! $  p_ 9@ k* c# g. g. ;  +@ >  (  V  k4 $  X  <  ^,./,.g> c# C           D  +  E  F  $  q+ y) /. B  a  ;  C           7  && (  (  (  @. #. $  $. H  *  *  *  *  *  *  *  *  *  ",
"      .  +  (  (  (  2% M@ 3  4  *  *  *  =  -  ;  >  +  ,  '  )  !  ~  *  *  *  {  ]  ^  /  (  (  (  (  _  :  <  [  *  *  *  *  *  *  }  |     1  2  3  4  *  *  *  5  6     o  }  =  L. g. .  +  (  (  (  @  9  $  %  &  *  *  *  -. /{ on (,.c*.&E sE DD DD DD _,.:,.<,.[,.bJ $E },.|,.|,.1,.2,.3,.4,.:H 5,.6,.7,.8,.DD DD DD *E &F F&.;G 9,.0,.a,.b,.c,.V .d,.e,.>G LK jF tE DD DD &E &F &F &F &F &F &F rE *E DD DD DD DD DD DD DD tE ~G 'K |J f,.f,.g,.h,.i,.&E sE DD DD DD -,.j,.k,.|X k,.l,.m,.n,.o,.;# *  *  *  5  f. 0. ;. g. -@ k  (  p,.q,.r,.s,.$  t,.u,.v,.w,.                  7  8  (  D. '  #   < $  %  9@ 1. z@ -  2. b. 7  && (  V  P; X  y  [  |C -U ;. e> C           D  +  E  F  $  R+ ]+ A  k. i  ;. a           7  && (  (  (  @. #. $  $. H  *  *  *  *  *  *  *  *  *  ",
"      .  +  (  (  (  2% M@ 3  4  *  *  *  =  -  ;  >  +  ,  '  )  !  ~  *  *  *  {  ]  ^  /  (  (  (  (  _  :  <  [  *  *  *  *  *  *  }  |     1  2  3  4  *  *  *  5  6     o  }  =  L. g. .  +  (  (  (  @  9  $  %  &  *  *  *  *  j. [. >,.JV &E sE DD DD DD x,.y,.<  4  @# @# @# @# @# Z  v) H{ T@ 5# p  Q+ z,.A,.DD DD DD *E &F (H ;M ]M US US B,.g*.g*.g*.g*.7Z y>.}K DD DD sE &E &F &F &F &F &F &F rE *E DD DD DD DD DD DD DD LC MC C,.IG IG IG IG ;G D,.sG *E DD DD DD E,.F,.P. P. P. V+ G,.y=.E@ F@ *  *  *  *  *  =  0  a  .  +  (  2% M@ $  $  $  q+ r+ k* {+                   7  8  ,  c  P  $  $  $  %  &  *  *  *  // C. k, k  (  V  P; X  Y  Z  k.  .                   D  +  E  F  $  G  ]+ *  *  *  f. M.          7  && (  (  (  @. #. $  $. H  *  *  *  *  *  *  *  *  *  ",
"      .  +  l  @  _  ;@ P  3  4  *  *  *  =  -  ;  >  +  ,  '  )  !  ~  *  *  *  {  ]  ^  /  (  (  (  (  _  :  <  [  *  *  *  *  -. f. +. b.    1  2  3  4  *  *  *  1. i  U+ 0. -. =  L. g. .  +  (  (  (  @  9  $  %  &  *  *  *  *  *  R  x=.H,.I,.J,.K,.L,.M,.N,.O,.e  h  @# *  *  *  *  *  5  a.    j  {@ P,.Q,.R,.S,.T,.sE &E &F &F SK SK SK X .U,.V,.W,.X,.Y,.Z,.`,.5H  '.!M .'.+'.@'.#'.$'.RE %'.5S rE *E DD DD DD {%.&'.*'.='.='.-'.;'.>'.,'.''.)'.!'.~'.{'.]'.4C ^'./'.(D ('.(  (  (  [+ _'.k' $. H  *  *  *  *  *  =  0  I  .  +  (  c  d  X  Q  G  A. Z  /. M  U+ b. C           7  8  ,  g  P  k' Q  G  4  Z  A  5+ I. ]  b. 7  && (  V  P; X  g] Z  |.  .          f  7  j  {@ +  E  F  $  G  H  *  *  *  |+ M.          7  && (  (  (  @. #. $  $. H  *  *  *  *  *  =  6. f. I. ",
"      .  +  7# m  :  M@ '+ 3  5. *  *  *  =  -  ;  >  +  ,  '  )  !  ~  *  *  *  {  ]  ^  /  (  (  (  (  _  :  <  [  *  *  *  =  -  M. a  C     1  2  3  4  *  *  *  =  5  5+ -. =  =  L. g. .  +  (  (  (  @  9  $  %  &  *  *  *  *  *  &  I{ $  :'.<'.['.}'.|'.1'.2'.X  [  @# *  *  *  *  *  S  T  C  >  +  ,  CI 3'.4'.5'.*E rE &F &F &F &F SK ]V 6'.7'.8'.9'.0'.EG EG a'.b'.c'.d'.e'.f'..E g'.h'.i'.WF rE sE DD DD DD j'.k'.>r l'.l'.m'.n'.o'.p'.q'.r'.$  s'.t'.u'.FG FG v'.w'.x'.(  (  (  [+ _'.$  G  H  *  *  *  *  *  =  0  I  .  +  (  J/ d  3  ;# F@ &  Z  =  5  5+ 0. (.          7  8  ,  O  P  3  [  ,; &  *  5  +. b. a  g. +@ /  (  V  P; X  Y  Z  |.  .          +@ <% k  +  (  E  F  $  G  H  *  *  *  f. M.          7  && (  (  (  @. #. $  $. H  *  *  *  *  *  =  -  M. (. ",
"      .  +  @  #  $  X  X  Q  4  *  *  *  =  -  ;  >  +  ,  '  )  !  ~  *  *  *  {  ]  ^  /  (  (  (  (  _  :  <  [  *  *  *  =  0. g. C        1  2  3  4  *  *  *  *  =  1. =  *  =  L. g. .  k  b  (  (  @  9  $  %  &  *  *  *  &  ~  h  H  j. 5+ y. [! Y. (  y'.A@ $  I{ Z  *  *  *  *  *  S  T  C  z'.X@ .I .I .I DI A'.U>.=G -G &F &F &F B'.C'.D'.E'.C  C           -[ X. Y. l  v~ 2- %  H  &  F'.3>.G'.XR DD vD H'.I'.J'.+  (  (  J. D{ m* @, H  j. #9 /. ` .e>       -[ n* K'..I .I L'.M'.N'.$  $. H  *  *  *  *  *  =  0  I  .  +  (  J/ d  3  4  *  *  *  *  =  S  i  b. ^     f  j  8  ,  O  P  Q  h  *  *  *  -. ;.          f  >  (  V  P; X  Y  Z  k. U, C  C  C  7  && (  (  (  E  F  $  G  H  *  *  *  |+ |  C  C  C  7  && (  (  (  @. #. $  $. H  *  *  *  *  *  1. 2. C     ",
"      .  +  @  9  $  !  I{ 4  H  *  *  *  =  -  ;  >  +  ,  '  )  !  ~  *  *  *  {  ]  ^  /  (  (  (  (  _  :  <  [  *  *  *  =  }  -  ;. a     1  2  3  4  *  *  *  S  f. 2. i  5  =  T  g. 7  D  <% 8  (  @  9  $  %  &  *  *  *  k' aJ O'.P'.Z  5+ ;. Q'.8  (  i] D! $  I{ Z  *  *  *  *  *  5  2.    R'.S'.T'.U'.U'.V'.W'.7$.X'.3X &F &F tG Y'.Z'.l;.`'.+. o  g.          j  k  l  m  n  !  ~  @#  ).F'.i'..).W%.+).@).#).$)..  /  +  v  w  x  E@ r+ A  |. .+ U, N        -[ %).&).*).*).k'.=).-).H+ ;# &  *  *  *  *  *  =  0  I  .  +  (  J/ d  3  4  *  *  *  S  f. +. o  g. f  [! .  /  +  ,  O  P  Q  R  *  *  *  -. ;.          f  >  (  V  P; X  @, Z  k* I. +. ;. g. j  8  (  (  (  E  F  $  G  H  *  *  *  -. I. +. U+ g. -@ k  (  (  (  @. #. $  $. H  *  *  *  *  *  1. 2. C     ",
"      .  +  @  9  $  $. H  *  *  *  *  *  =  -  ;  >  +  ,  '  )  !  ~  *  *  *  {  ]  ^  /  (  (  (  (  _  :  <  [  *  *  *  *  *  =  |+ |     1  2  3  4  *  *  *  5  2. C  ;. 5+ S  +. C  ^     f  <% +  @  9  $  %  &  *  *  *  ;).>).,)._ .Z  O; y. Q'.8  (  i] D! $  I{ Z  *  *  *  *  *  5  6     ').)).vD vD vD !).~).{).]).YM &F &F JV ^)./).1m ]_ =  -  a           j  k  l  m  n  !  ~  *  @# &  ()._).tG :).<).|m 5# ^  D  Y. v  w  x  y  r+ A  B  C                 [).}).vD vD AD |).1).9# 5. Z  *  *  *  *  *  =  0  I  .  +  (  J/ d  3  4  *  *  *  5  2. C     C  f  <% b  (  (  ,  O  P  Q  R  *  *  *  -. ;.          f  >  (  V  P; X  ;# Z  *  =  =  0  b. -@ k  (  (  (  E  F  $  G  H  *  *  *  *  =  =  L. a  .  +  (  (  (  @. #. $  $. H  *  *  *  *  *  1. 2. C     ",
"      .  +  @  9  $  I{ &  *  *  *  *  *  =  -  ;  >  +  ,  '  )  !  ~  *  *  *  {  ]  ^  /  (  (  (  (  _  :  <  [  *  *  *  *  *  *  }  |     1  2  3  4  *  *  *  5  6     o  }  1. 2. C           .  +  @  9  $  %  &  *  *  *  x=.2).iJ 3).h] O; y. Q'.8  (  i] D! $  I{ Z  *  *  *  *  *  -. 6     4).5).DD DD DD 6).7).^| 8).9).&F &F :Z 2H I=.a  i  *  i  a           j  k  l  m  n  !  ~  *  *  *  k' _%.tG 0).a).         j  Y. v  w  x  y  z  A  c# C                 %;.b).DD DD DD c).d).9# 4  @# *  *  *  *  *  =  0  I  .  +  (  J/ d  3  4  *  *  *  5  6           f  >  (  (  (  ,  O  P  Q  R  *  *  *  -. ;.          f  >  (  V  P; X  ;# @# *  *  *  f. b. -@ +  (  (  (  E  F  $  G  H  *  *  *  *  *  =  0  I  .  +  (  (  (  @. #. $  $. H  *  *  *  *  *  1. 2. C     "};
