/* XPM */
static char * tunnel_xpm[] = {
"256 256 40208 3",
"   	c #F6A966",
".  	c #F29C5C",
"+  	c #F9985D",
"@  	c #F19056",
"#  	c #F39D61",
"$  	c #EF995D",
"%  	c #F08D54",
"&  	c #F8915A",
"*  	c #F58858",
"=  	c #F67A52",
"-  	c #F1714C",
";  	c #EC6A48",
">  	c #EC6647",
",  	c #F55746",
"'  	c #EE3934",
")  	c #F03532",
"!  	c #ED302E",
"~  	c #E8322E",
"{  	c #EC3D35",
"]  	c #F0473C",
"^  	c #EF4F3F",
"/  	c #F25C48",
"(  	c #F2624A",
"_  	c #F56951",
":  	c #F16A4F",
"<  	c #EF7653",
"[  	c #F79467",
"}  	c #F39769",
"|  	c #F49266",
"1  	c #F2855A",
"2  	c #F27550",
"3  	c #F2724F",
"4  	c #F0694B",
"5  	c #ED6246",
"6  	c #F2664D",
"7  	c #F46952",
"8  	c #F76C55",
"9  	c #F56350",
"0  	c #EB5542",
"a  	c #EC4B3D",
"b  	c #EA4037",
"c  	c #E93132",
"d  	c #E72229",
"e  	c #E11523",
"f  	c #D70921",
"g  	c #D0021E",
"h  	c #CA0321",
"i  	c #C70124",
"j  	c #C40120",
"k  	c #C3001E",
"l  	c #C80020",
"m  	c #C8001D",
"n  	c #C7001B",
"o  	c #C8011C",
"p  	c #BD0119",
"q  	c #B40015",
"r  	c #B8021C",
"s  	c #C50221",
"t  	c #BD001C",
"u  	c #BC0019",
"v  	c #C0011A",
"w  	c #C0001A",
"x  	c #BD001A",
"y  	c #BF001A",
"z  	c #C20118",
"A  	c #C60019",
"B  	c #C7011A",
"C  	c #CA011B",
"D  	c #CD0019",
"E  	c #D1001F",
"F  	c #D1001E",
"G  	c #D3021F",
"H  	c #D60621",
"I  	c #DA0722",
"J  	c #D4061E",
"K  	c #A40014",
"L  	c #9E001B",
"M  	c #A4001E",
"N  	c #A8011C",
"O  	c #AA001B",
"P  	c #AE001D",
"Q  	c #B2011E",
"R  	c #B80020",
"S  	c #BC0121",
"T  	c #BB0221",
"U  	c #C20927",
"V  	c #C30928",
"W  	c #C40320",
"X  	c #CA0623",
"Y  	c #CA0924",
"Z  	c #CD0A24",
"`  	c #CD0722",
" . 	c #CE0622",
".. 	c #CC0622",
"+. 	c #CA0722",
"@. 	c #CC0722",
"#. 	c #D00524",
"$. 	c #CF0325",
"%. 	c #BF011A",
"&. 	c #BB011D",
"*. 	c #AB001A",
"=. 	c #A2011B",
"-. 	c #AB0020",
";. 	c #B7001D",
">. 	c #BF001C",
",. 	c #D10B28",
"'. 	c #D20E23",
"). 	c #D61227",
"!. 	c #D9152B",
"~. 	c #D71228",
"{. 	c #E11B32",
"]. 	c #DE1A30",
"^. 	c #D7152B",
"/. 	c #CC0E27",
"(. 	c #C70726",
"_. 	c #CD0B28",
":. 	c #D2102B",
"<. 	c #D8132D",
"[. 	c #D9162C",
"}. 	c #D8172A",
"|. 	c #D8192B",
"1. 	c #D7222E",
"2. 	c #EB5550",
"3. 	c #F6775D",
"4. 	c #F98864",
"5. 	c #F48861",
"6. 	c #EF845B",
"7. 	c #F1855E",
"8. 	c #F0835D",
"9. 	c #F7825E",
"0. 	c #F37F5B",
"a. 	c #F2875D",
"b. 	c #F39C65",
"c. 	c #F6AC6D",
"d. 	c #F8AE72",
"e. 	c #F5966D",
"f. 	c #F08B5F",
"g. 	c #F09462",
"h. 	c #F29161",
"i. 	c #F38D60",
"j. 	c #F28B5E",
"k. 	c #F28D60",
"l. 	c #F69767",
"m. 	c #F39465",
"n. 	c #F39265",
"o. 	c #F18C60",
"p. 	c #F28B60",
"q. 	c #F48A60",
"r. 	c #F38F60",
"s. 	c #F59462",
"t. 	c #F49160",
"u. 	c #F59562",
"v. 	c #F99D6B",
"w. 	c #E28D6F",
"x. 	c #694F7D",
"y. 	c #2A45A0",
"z. 	c #2B49A6",
"A. 	c #2A4BA8",
"B. 	c #2B4CAA",
"C. 	c #2E51AF",
"D. 	c #294FAC",
"E. 	c #2550AC",
"F. 	c #224DAB",
"G. 	c #2651AF",
"H. 	c #244FAD",
"I. 	c #234EAD",
"J. 	c #214FAF",
"K. 	c #214FAE",
"L. 	c #2351AF",
"M. 	c #2453B0",
"N. 	c #2251AD",
"O. 	c #204DAC",
"P. 	c #1E4FAF",
"Q. 	c #2453B5",
"R. 	c #2151B5",
"S. 	c #1F50B1",
"T. 	c #204EAC",
"U. 	c #2451B0",
"V. 	c #2550AF",
"W. 	c #2753B3",
"X. 	c #2351AE",
"Y. 	c #2351AB",
"Z. 	c #214DAB",
"`. 	c #204CAE",
" + 	c #1F4BAD",
".+ 	c #214DAD",
"++ 	c #214EAE",
"@+ 	c #204EAE",
"#+ 	c #2051A9",
"$+ 	c #1F52AC",
"%+ 	c #1F50AF",
"&+ 	c #214EAC",
"*+ 	c #2753B2",
"=+ 	c #2450AF",
"-+ 	c #2552B1",
";+ 	c #2754B3",
">+ 	c #2052AE",
",+ 	c #2252B0",
"'+ 	c #2652B2",
")+ 	c #2551B0",
"!+ 	c #2754B1",
"~+ 	c #2754AF",
"{+ 	c #2853AF",
"]+ 	c #2752AE",
"^+ 	c #2652AC",
"/+ 	c #2955AE",
"(+ 	c #2753AC",
"_+ 	c #2951AD",
":+ 	c #2A51B0",
"<+ 	c #2B51B1",
"[+ 	c #2D54B1",
"}+ 	c #2950AD",
"|+ 	c #2950AE",
"1+ 	c #2950AF",
"2+ 	c #294FAE",
"3+ 	c #2F48AC",
"4+ 	c #3D4B9F",
"5+ 	c #B67895",
"6+ 	c #F39C77",
"7+ 	c #F79B6F",
"8+ 	c #F59D70",
"9+ 	c #F8AA7A",
"0+ 	c #FBAC7A",
"a+ 	c #EF9063",
"b+ 	c #F28E65",
"c+ 	c #F7916C",
"d+ 	c #F68F6B",
"e+ 	c #F28864",
"f+ 	c #F68A66",
"g+ 	c #F78B66",
"h+ 	c #F38660",
"i+ 	c #F68A64",
"j+ 	c #F38F65",
"k+ 	c #F39568",
"l+ 	c #F7976C",
"m+ 	c #F28B63",
"n+ 	c #F38B64",
"o+ 	c #F38862",
"p+ 	c #F78867",
"q+ 	c #F48264",
"r+ 	c #F27B60",
"s+ 	c #F67059",
"t+ 	c #F35F4E",
"u+ 	c #EF5248",
"v+ 	c #EF4D43",
"w+ 	c #EF5045",
"x+ 	c #ED5347",
"y+ 	c #F35D4F",
"z+ 	c #F9AA6A",
"A+ 	c #F49B5F",
"B+ 	c #F59459",
"C+ 	c #F08B51",
"D+ 	c #EB8951",
"E+ 	c #EA8C51",
"F+ 	c #F28E56",
"G+ 	c #F7955D",
"H+ 	c #FA915F",
"I+ 	c #F2774E",
"J+ 	c #ED6B46",
"K+ 	c #E86944",
"L+ 	c #F27553",
"M+ 	c #F5614C",
"N+ 	c #EE3D36",
"O+ 	c #EC322F",
"P+ 	c #E82C2A",
"Q+ 	c #E52D2A",
"R+ 	c #EA3832",
"S+ 	c #F0453B",
"T+ 	c #ED4A3C",
"U+ 	c #F25946",
"V+ 	c #F3624A",
"W+ 	c #F1644B",
"X+ 	c #EF674C",
"Y+ 	c #F17754",
"Z+ 	c #F59064",
"`+ 	c #EE9163",
" @ 	c #F29164",
".@ 	c #F1845B",
"+@ 	c #F47753",
"@@ 	c #F16E4E",
"#@ 	c #EE6448",
"$@ 	c #EB6045",
"%@ 	c #EE6349",
"&@ 	c #F0644C",
"*@ 	c #F36851",
"=@ 	c #F3634F",
"-@ 	c #F15847",
";@ 	c #EF493F",
">@ 	c #EC3C36",
",@ 	c #E82D31",
"'@ 	c #E31C26",
")@ 	c #DD1120",
"!@ 	c #D40820",
"~@ 	c #CE011E",
"{@ 	c #C8011D",
"]@ 	c #C80222",
"^@ 	c #C4011E",
"/@ 	c #C2001B",
"(@ 	c #C9001D",
"_@ 	c #CB001D",
":@ 	c #C8001B",
"<@ 	c #C6011B",
"[@ 	c #BD0018",
"}@ 	c #B50116",
"|@ 	c #BC041F",
"1@ 	c #C90524",
"2@ 	c #BF011B",
"3@ 	c #BE001A",
"4@ 	c #C70019",
"5@ 	c #CE051F",
"6@ 	c #CD001A",
"7@ 	c #D20220",
"8@ 	c #D3031E",
"9@ 	c #D80520",
"0@ 	c #D4051F",
"a@ 	c #A50015",
"b@ 	c #AE001C",
"c@ 	c #B1001D",
"d@ 	c #BD0020",
"e@ 	c #BE0221",
"f@ 	c #C00323",
"g@ 	c #C60727",
"h@ 	c #C80723",
"i@ 	c #C90821",
"j@ 	c #CB0820",
"k@ 	c #CA0721",
"l@ 	c #CD0823",
"m@ 	c #CF0423",
"n@ 	c #CE0223",
"o@ 	c #AC001A",
"p@ 	c #A10018",
"q@ 	c #AA001E",
"r@ 	c #B7001E",
"s@ 	c #BE001B",
"t@ 	c #CB0421",
"u@ 	c #CD0721",
"v@ 	c #D10D22",
"w@ 	c #D40F24",
"x@ 	c #D8142A",
"y@ 	c #E01C32",
"z@ 	c #DD1A2F",
"A@ 	c #D5142A",
"B@ 	c #CC0E26",
"C@ 	c #C90927",
"D@ 	c #D00E28",
"E@ 	c #DA172F",
"F@ 	c #DC1A2E",
"G@ 	c #D9192B",
"H@ 	c #D8222E",
"I@ 	c #EF5A53",
"J@ 	c #F67A5D",
"K@ 	c #F98B65",
"L@ 	c #F48B61",
"M@ 	c #F4895F",
"N@ 	c #F78B64",
"O@ 	c #F2855F",
"P@ 	c #F27E59",
"Q@ 	c #F17C58",
"R@ 	c #ED8158",
"S@ 	c #F59B66",
"T@ 	c #F6A870",
"U@ 	c #F8B07C",
"V@ 	c #F19570",
"W@ 	c #F89267",
"X@ 	c #F69A69",
"Y@ 	c #F49464",
"Z@ 	c #F59263",
"`@ 	c #F48D60",
" # 	c #F28E61",
".# 	c #F59566",
"+# 	c #F79669",
"@# 	c #F18A5F",
"## 	c #F58B60",
"$# 	c #F59062",
"%# 	c #F59465",
"&# 	c #F69467",
"*# 	c #F89569",
"=# 	c #FA9A6C",
"-# 	c #E28E6F",
";# 	c #664E7D",
"># 	c #2A459F",
",# 	c #294AA5",
"'# 	c #2B4CA9",
")# 	c #2B4CAB",
"!# 	c #2D4FAD",
"~# 	c #294EAC",
"{# 	c #234EAC",
"]# 	c #234FAE",
"^# 	c #224FAF",
"/# 	c #2250AE",
"(# 	c #2352AE",
"_# 	c #2150AC",
":# 	c #204DAD",
"<# 	c #1E50B0",
"[# 	c #2352B4",
"}# 	c #2050B4",
"|# 	c #1F4FB0",
"1# 	c #2150AE",
"2# 	c #1F4EAC",
"3# 	c #2251AF",
"4# 	c #214DAC",
"5# 	c #2652B1",
"6# 	c #2553B1",
"7# 	c #214FAC",
"8# 	c #214DAF",
"9# 	c #204BAF",
"0# 	c #224EAE",
"a# 	c #2250B0",
"b# 	c #1F4DAC",
"c# 	c #1E4EA8",
"d# 	c #1E50AB",
"e# 	c #1D4EAD",
"f# 	c #2250AF",
"g# 	c #224FAE",
"h# 	c #2955B4",
"i# 	c #2753B1",
"j# 	c #2854B3",
"k# 	c #2151AD",
"l# 	c #2452AE",
"m# 	c #2451AE",
"n# 	c #2653B0",
"o# 	c #2653AE",
"p# 	c #2752AD",
"q# 	c #2952AD",
"r# 	c #2B52B1",
"s# 	c #2A51AE",
"t# 	c #2A51AF",
"u# 	c #2B52B0",
"v# 	c #2F4BAB",
"w# 	c #3B4BA0",
"x# 	c #AC7795",
"y# 	c #F5A67E",
"z# 	c #F49F6E",
"A# 	c #F09F6F",
"B# 	c #F6A877",
"C# 	c #FAA877",
"D# 	c #F7986D",
"E# 	c #F69269",
"F# 	c #F9936D",
"G# 	c #F28B66",
"H# 	c #F18762",
"I# 	c #F68B64",
"J# 	c #F78D64",
"K# 	c #F39066",
"L# 	c #F49569",
"M# 	c #FA9A6E",
"N# 	c #F4976C",
"O# 	c #F28F66",
"P# 	c #F18862",
"Q# 	c #F58865",
"R# 	c #F58264",
"S# 	c #F47D61",
"T# 	c #F67159",
"U# 	c #F25E4C",
"V# 	c #ED4F44",
"W# 	c #EB483F",
"X# 	c #ED4C42",
"Y# 	c #EC4D43",
"Z# 	c #EC5146",
"`# 	c #F9A96D",
" $ 	c #F2995D",
".$ 	c #F49357",
"+$ 	c #F18950",
"@$ 	c #F08850",
"#$ 	c #F08D52",
"$$ 	c #F59159",
"%$ 	c #F2935B",
"&$ 	c #F68E5A",
"*$ 	c #EE754B",
"=$ 	c #EE6F47",
"-$ 	c #EC714A",
";$ 	c #F6805A",
">$ 	c #F3694F",
",$ 	c #F1463C",
"'$ 	c #EC332F",
")$ 	c #EC2F2E",
"!$ 	c #E82E2C",
"~$ 	c #EC3331",
"{$ 	c #F1413A",
"]$ 	c #EF473B",
"^$ 	c #F15544",
"/$ 	c #F05C46",
"($ 	c #EE5E46",
"_$ 	c #F1674B",
":$ 	c #F57956",
"<$ 	c #F58C61",
"[$ 	c #F49466",
"}$ 	c #F19061",
"|$ 	c #F48860",
"1$ 	c #F67958",
"2$ 	c #F26C4E",
"3$ 	c #EF6549",
"4$ 	c #ED6349",
"5$ 	c #F0644A",
"6$ 	c #EF6249",
"7$ 	c #F26650",
"8$ 	c #F2614E",
"9$ 	c #F35748",
"0$ 	c #EE423A",
"a$ 	c #EF3735",
"b$ 	c #E82A2E",
"c$ 	c #E51C28",
"d$ 	c #DC0F20",
"e$ 	c #D40821",
"f$ 	c #CD011E",
"g$ 	c #C7001D",
"h$ 	c #C3011C",
"i$ 	c #C3001A",
"j$ 	c #CA001D",
"k$ 	c #CD001C",
"l$ 	c #C9001A",
"m$ 	c #C40019",
"n$ 	c #BD0019",
"o$ 	c #B80117",
"p$ 	c #BD021D",
"q$ 	c #C50320",
"r$ 	c #C1011B",
"s$ 	c #C2011C",
"t$ 	c #C1011A",
"u$ 	c #C7001A",
"v$ 	c #C8021B",
"w$ 	c #D10823",
"x$ 	c #CE001A",
"y$ 	c #CF001E",
"z$ 	c #D0011F",
"A$ 	c #D1011F",
"B$ 	c #D2011D",
"C$ 	c #D90522",
"D$ 	c #D80724",
"E$ 	c #A60116",
"F$ 	c #B8001F",
"G$ 	c #BD0121",
"H$ 	c #BF0222",
"I$ 	c #C00223",
"J$ 	c #C70527",
"K$ 	c #C40421",
"L$ 	c #C70722",
"M$ 	c #C8071E",
"N$ 	c #C9071D",
"O$ 	c #CE0722",
"P$ 	c #CB0621",
"Q$ 	c #C9041F",
"R$ 	c #CF0824",
"S$ 	c #D00422",
"T$ 	c #CD0221",
"U$ 	c #C00119",
"V$ 	c #BC001C",
"W$ 	c #AD001A",
"X$ 	c #A10016",
"Y$ 	c #B7011F",
"Z$ 	c #C8021D",
"`$ 	c #D30D23",
" % 	c #D50F25",
".% 	c #D71128",
"+% 	c #D71329",
"@% 	c #DC1A2F",
"#% 	c #D8172C",
"$% 	c #D8182D",
"%% 	c #CB0E27",
"&% 	c #C80826",
"*% 	c #D21028",
"=% 	c #D7162B",
"-% 	c #DB192D",
";% 	c #DC182C",
">% 	c #DC1A2D",
",% 	c #D8242F",
"'% 	c #EF5F52",
")% 	c #F47C5D",
"!% 	c #F48962",
"~% 	c #EF885D",
"{% 	c #F2885D",
"]% 	c #F88C63",
"^% 	c #EE7C57",
"/% 	c #F27C59",
"(% 	c #ED7C56",
"_% 	c #F69666",
":% 	c #F7A172",
"<% 	c #FBB086",
"[% 	c #EB936D",
"}% 	c #F79567",
"|% 	c #F79D6A",
"1% 	c #F59765",
"2% 	c #F59463",
"3% 	c #F49161",
"4% 	c #F49162",
"5% 	c #F39162",
"6% 	c #F69466",
"7% 	c #F38D61",
"8% 	c #F38C60",
"9% 	c #F38A5F",
"0% 	c #F69165",
"a% 	c #F7986C",
"b% 	c #F7996E",
"c% 	c #F69069",
"d% 	c #F49066",
"e% 	c #E29374",
"f% 	c #5F4B7E",
"g% 	c #2B469F",
"h% 	c #2B4AA6",
"i% 	c #294AA7",
"j% 	c #284EAB",
"k% 	c #244FAB",
"l% 	c #2350AD",
"m% 	c #2350B0",
"n% 	c #2250AD",
"o% 	c #214FAB",
"p% 	c #224FAC",
"q% 	c #1F51B0",
"r% 	c #2252B4",
"s% 	c #2050B3",
"t% 	c #1F50B0",
"u% 	c #2252AF",
"v% 	c #2253B0",
"w% 	c #1F50AD",
"x% 	c #1F4DAB",
"y% 	c #2350AE",
"z% 	c #2452AF",
"A% 	c #2251AC",
"B% 	c #214EB2",
"C% 	c #1E4BAF",
"D% 	c #1F4CAD",
"E% 	c #2451B1",
"F% 	c #2452B1",
"G% 	c #2351B0",
"H% 	c #1C4DA8",
"I% 	c #184AA6",
"J% 	c #1E4FAE",
"K% 	c #2352B0",
"L% 	c #2350AF",
"M% 	c #2752B0",
"N% 	c #2352AC",
"O% 	c #2452AC",
"P% 	c #2352AA",
"Q% 	c #2651AD",
"R% 	c #2652AD",
"S% 	c #2853AC",
"T% 	c #2A52AE",
"U% 	c #2951B0",
"V% 	c #2C53B2",
"W% 	c #2B52AF",
"X% 	c #284FAC",
"Y% 	c #2F51AB",
"Z% 	c #384BA1",
"`% 	c #9B7096",
" & 	c #F4AE85",
".& 	c #F7AA74",
"+& 	c #F1A573",
"@& 	c #F4A473",
"#& 	c #F6A071",
"$& 	c #F6966B",
"%& 	c #F59068",
"&& 	c #F68F69",
"*& 	c #F38964",
"=& 	c #F48964",
"-& 	c #F48863",
";& 	c #F68B65",
">& 	c #F79168",
",& 	c #F89269",
"'& 	c #F39167",
")& 	c #F5956A",
"!& 	c #FB9E72",
"~& 	c #F6A072",
"{& 	c #F4976B",
"]& 	c #F08A61",
"^& 	c #F58262",
"/& 	c #F67F63",
"(& 	c #F57059",
"_& 	c #F05C4A",
":& 	c #EB4D41",
"<& 	c #EB453D",
"[& 	c #F34C46",
"}& 	c #EF4C45",
"|& 	c #ED4E46",
"1& 	c #F6A96A",
"2& 	c #F09C5C",
"3& 	c #FA9D5E",
"4& 	c #F28E53",
"5& 	c #F49056",
"6& 	c #F49055",
"7& 	c #F69059",
"8& 	c #F29059",
"9& 	c #F08753",
"0& 	c #EB784A",
"a& 	c #F1774E",
"b& 	c #F17B51",
"c& 	c #F37E56",
"d& 	c #F1684C",
"e& 	c #EF493C",
"f& 	c #EB3531",
"g& 	c #EE3131",
"h& 	c #EA2F2E",
"i& 	c #EC302F",
"j& 	c #ED3935",
"k& 	c #EE4137",
"l& 	c #EF4F3E",
"m& 	c #EF5843",
"n& 	c #EE5B43",
"o& 	c #F5684C",
"p& 	c #F77856",
"q& 	c #F3885F",
"r& 	c #F59366",
"s& 	c #F29263",
"t& 	c #F58B63",
"u& 	c #F37556",
"v& 	c #F16D4F",
"w& 	c #F06A4E",
"x& 	c #F26A51",
"y& 	c #F0654B",
"z& 	c #EC5C43",
"A& 	c #F2604B",
"B& 	c #F35F4D",
"C& 	c #F05245",
"D& 	c #EC3F38",
"E& 	c #EB3130",
"F& 	c #E8262B",
"G& 	c #E41A27",
"H& 	c #D90C1F",
"I& 	c #D20721",
"J& 	c #CC011E",
"K& 	c #C7011C",
"L& 	c #C70220",
"M& 	c #C3001C",
"N& 	c #C7021E",
"O& 	c #CB011F",
"P& 	c #CA001B",
"Q& 	c #C8001A",
"R& 	c #C50019",
"S& 	c #B90016",
"T& 	c #C3001D",
"U& 	c #CB031D",
"V& 	c #CE011F",
"W& 	c #CF001F",
"X& 	c #D2001E",
"Y& 	c #DA0523",
"Z& 	c #DA0926",
"`& 	c #A80118",
" * 	c #B2001E",
".* 	c #BC0120",
"+* 	c #BE0222",
"@* 	c #BF0323",
"#* 	c #C60627",
"$* 	c #C50421",
"%* 	c #C80720",
"&* 	c #CA0620",
"** 	c #CE0723",
"=* 	c #CA051F",
"-* 	c #C9031E",
";* 	c #CF0321",
">* 	c #CD0220",
",* 	c #BD001D",
"'* 	c #AF001B",
")* 	c #A20015",
"!* 	c #AA001C",
"~* 	c #B7011E",
"{* 	c #C0011B",
"]* 	c #D40D23",
"^* 	c #D61026",
"/* 	c #D50E25",
"(* 	c #D51227",
"_* 	c #D9182D",
":* 	c #D51429",
"<* 	c #CB0F26",
"[* 	c #C70625",
"}* 	c #CE0C28",
"|* 	c #D31228",
"1* 	c #D41628",
"2* 	c #D81629",
"3* 	c #DB172B",
"4* 	c #DC192D",
"5* 	c #D7272E",
"6* 	c #F06553",
"7* 	c #F57D5D",
"8* 	c #F68B63",
"9* 	c #EE885C",
"0* 	c #F1875B",
"a* 	c #F58A60",
"b* 	c #F58961",
"c* 	c #F1815B",
"d* 	c #F8825E",
"e* 	c #F48F62",
"f* 	c #F4956D",
"g* 	c #F6A57D",
"h* 	c #EE9D6E",
"i* 	c #F89C68",
"j* 	c #F7A36D",
"k* 	c #F79D69",
"l* 	c #F49663",
"m* 	c #F49462",
"n* 	c #F49363",
"o* 	c #F59364",
"p* 	c #F69163",
"q* 	c #F49366",
"r* 	c #F38D62",
"s* 	c #F48D61",
"t* 	c #F38B5E",
"u* 	c #F79167",
"v* 	c #F99A6E",
"w* 	c #FDA276",
"x* 	c #F7906A",
"y* 	c #E0967C",
"z* 	c #5C4C82",
"A* 	c #2D48A0",
"B* 	c #2C4CA7",
"C* 	c #2E4FAE",
"D* 	c #284DAB",
"E* 	c #2652AF",
"F* 	c #2551AF",
"G* 	c #224EAD",
"H* 	c #2150AF",
"I* 	c #1F53B2",
"J* 	c #2051B2",
"K* 	c #2254B0",
"L* 	c #2255B1",
"M* 	c #1E4FAC",
"N* 	c #2150AB",
"O* 	c #214FAD",
"P* 	c #214FB1",
"Q* 	c #1E4CAF",
"R* 	c #204EAF",
"S* 	c #2553B2",
"T* 	c #2452B2",
"U* 	c #1F4FAC",
"V* 	c #1A4BA9",
"W* 	c #2051B0",
"X* 	c #2251B0",
"Y* 	c #254FAE",
"Z* 	c #2751AF",
"`* 	c #2553AE",
" = 	c #2653AF",
".= 	c #2455AE",
"+= 	c #2553AF",
"@= 	c #2853AE",
"#= 	c #2A54AF",
"$= 	c #2A52B0",
"%= 	c #2C53B0",
"&= 	c #2950AC",
"*= 	c #2A51AD",
"== 	c #2C52AC",
"-= 	c #354BA6",
";= 	c #8C6799",
">= 	c #F3B28C",
",= 	c #FCB179",
"'= 	c #F3A672",
")= 	c #F3A26F",
"!= 	c #F49A6C",
"~= 	c #F39369",
"{= 	c #F38C65",
"]= 	c #F68C65",
"^= 	c #F58A63",
"/= 	c #F38760",
"(= 	c #F78C65",
"_= 	c #F39166",
":= 	c #F9956B",
"<= 	c #F39268",
"[= 	c #F6946A",
"}= 	c #F89B70",
"|= 	c #F6A273",
"1= 	c #FA9F73",
"2= 	c #F28F64",
"3= 	c #F28963",
"4= 	c #F58362",
"5= 	c #F26D57",
"6= 	c #EF5C4A",
"7= 	c #EB4D3F",
"8= 	c #EC443E",
"9= 	c #F64B48",
"0= 	c #F14A44",
"a= 	c #F04C46",
"b= 	c #F8B671",
"c= 	c #F09E5B",
"d= 	c #FBA561",
"e= 	c #FB9E5F",
"f= 	c #F7975B",
"g= 	c #F39358",
"h= 	c #F7915B",
"i= 	c #F99761",
"j= 	c #F28B55",
"k= 	c #EB7E4D",
"l= 	c #F38053",
"m= 	c #FA885D",
"n= 	c #F37F56",
"o= 	c #EC3834",
"p= 	c #EC3131",
"q= 	c #EB2E2E",
"r= 	c #EB2B2C",
"s= 	c #E8302D",
"t= 	c #EC3D34",
"u= 	c #EF4C3D",
"v= 	c #F05642",
"w= 	c #EE5942",
"x= 	c #F36549",
"y= 	c #F37350",
"z= 	c #F3865C",
"A= 	c #F49163",
"B= 	c #F29162",
"C= 	c #F27356",
"D= 	c #F16C50",
"E= 	c #F26B50",
"F= 	c #F46B51",
"G= 	c #EF634A",
"H= 	c #EB5942",
"I= 	c #F05A46",
"J= 	c #EF5546",
"K= 	c #EC4C40",
"L= 	c #EC3C38",
"M= 	c #E92C2D",
"N= 	c #E01524",
"O= 	c #D5071D",
"P= 	c #CF0420",
"Q= 	c #CA011F",
"R= 	c #C7011D",
"S= 	c #C6011E",
"T= 	c #C6021D",
"U= 	c #CA0421",
"V= 	c #CC011F",
"W= 	c #BE0018",
"X= 	c #B80115",
"Y= 	c #BE011A",
"Z= 	c #C2001C",
"`= 	c #BF0019",
" - 	c #C20018",
".- 	c #CD001B",
"+- 	c #CD001E",
"@- 	c #CE001E",
"#- 	c #D30220",
"$- 	c #DA0625",
"%- 	c #DA0827",
"&- 	c #AA0118",
"*- 	c #9E001A",
"=- 	c #A4011E",
"-- 	c #B1011D",
";- 	c #B6001F",
">- 	c #B9001F",
",- 	c #B9021F",
"'- 	c #B4011D",
")- 	c #C10524",
"!- 	c #C90722",
"~- 	c #CB0721",
"{- 	c #CF0522",
"]- 	c #CC0521",
"^- 	c #CB031F",
"/- 	c #CD0320",
"(- 	c #CE021F",
"_- 	c #BF001F",
":- 	c #B2001D",
"<- 	c #A30117",
"[- 	c #AB001B",
"}- 	c #B6011E",
"|- 	c #CF0723",
"1- 	c #D40D24",
"2- 	c #D71026",
"3- 	c #D9182C",
"4- 	c #D61429",
"5- 	c #D6172C",
"6- 	c #C90C24",
"7- 	c #C60624",
"8- 	c #CF0D28",
"9- 	c #D31226",
"0- 	c #D7182A",
"a- 	c #D81729",
"b- 	c #DC182B",
"c- 	c #D8282E",
"d- 	c #ED614E",
"e- 	c #F47C5A",
"f- 	c #F1855C",
"g- 	c #F48F61",
"h- 	c #F3895D",
"i- 	c #F78A61",
"j- 	c #F2835D",
"k- 	c #F6805D",
"l- 	c #F1865D",
"m- 	c #F49268",
"n- 	c #EF9D6E",
"o- 	c #FAAC72",
"p- 	c #FBAA6F",
"q- 	c #F6A86E",
"r- 	c #F39F69",
"s- 	c #F29663",
"t- 	c #F29361",
"u- 	c #F59264",
"v- 	c #F49062",
"w- 	c #F59265",
"x- 	c #F58F63",
"y- 	c #F2895E",
"z- 	c #F38D64",
"A- 	c #F19467",
"B- 	c #F99F71",
"C- 	c #F38E66",
"D- 	c #F59469",
"E- 	c #D89378",
"F- 	c #544A82",
"G- 	c #2D479F",
"H- 	c #2A4BA5",
"I- 	c #2D50AF",
"J- 	c #254EAA",
"K- 	c #244FAC",
"L- 	c #2852AE",
"M- 	c #264FAD",
"N- 	c #2751B0",
"O- 	c #2150AD",
"P- 	c #2051AF",
"Q- 	c #1F53B3",
"R- 	c #1F4FB2",
"S- 	c #1F50B3",
"T- 	c #1F52AE",
"U- 	c #1E4EAA",
"V- 	c #2450B0",
"W- 	c #204FA9",
"X- 	c #204FAC",
"Y- 	c #1D4DAA",
"Z- 	c #1F4FAE",
"`- 	c #2452B0",
" ; 	c #2752B1",
".; 	c #2652B0",
"+; 	c #2453AF",
"@; 	c #2552AE",
"#; 	c #2753AF",
"$; 	c #2956B1",
"%; 	c #2954AF",
"&; 	c #2853AD",
"*; 	c #2C57AF",
"=; 	c #2B54AF",
"-; 	c #2B53AF",
";; 	c #2C53B1",
">; 	c #2B51AD",
",; 	c #2C51AE",
"'; 	c #2A50AD",
"); 	c #3349A8",
"!; 	c #805E9A",
"~; 	c #EFAC8B",
"{; 	c #F5A771",
"]; 	c #EE9A69",
"^; 	c #F49E6F",
"/; 	c #F5986C",
"(; 	c #F3926A",
"_; 	c #F7916B",
":; 	c #F28962",
"<; 	c #F58B64",
"[; 	c #F28760",
"}; 	c #F68E66",
"|; 	c #F29367",
"1; 	c #F9976D",
"2; 	c #F4926A",
"3; 	c #F6936B",
"4; 	c #F3956A",
"5; 	c #F19B6D",
"6; 	c #F5996D",
"7; 	c #F48360",
"8; 	c #F37A5D",
"9; 	c #F46F57",
"0; 	c #F05D4B",
"a; 	c #ED4E41",
"b; 	c #EE453F",
"c; 	c #F24845",
"d; 	c #F14945",
"e; 	c #F04945",
"f; 	c #F8BF76",
"g; 	c #F6A25F",
"h; 	c #F4A35E",
"i; 	c #FBA663",
"j; 	c #FAA162",
"k; 	c #F89C62",
"l; 	c #F4915B",
"m; 	c #F89C64",
"n; 	c #FA9F66",
"o; 	c #F28E59",
"p; 	c #F38557",
"q; 	c #F6885C",
"r; 	c #F47E56",
"s; 	c #F16749",
"t; 	c #EF4D3D",
"u; 	c #EB3A37",
"v; 	c #E93131",
"w; 	c #E92B2D",
"x; 	c #EA282A",
"y; 	c #ED3D35",
"z; 	c #F14A3D",
"A; 	c #F25542",
"B; 	c #F15B47",
"C; 	c #EF6146",
"D; 	c #F1714F",
"E; 	c #F3835A",
"F; 	c #F68F63",
"G; 	c #F28F61",
"H; 	c #F16E52",
"I; 	c #F26A50",
"J; 	c #F2654C",
"K; 	c #EE6149",
"L; 	c #F05844",
"M; 	c #EF5143",
"N; 	c #EF4940",
"O; 	c #ED3837",
"P; 	c #E8282C",
"Q; 	c #E51E28",
"R; 	c #DC0E20",
"S; 	c #D5051E",
"T; 	c #CE0321",
"U; 	c #C80120",
"V; 	c #C5001E",
"W; 	c #C5001C",
"X; 	c #CF0A23",
"Y; 	c #CF051F",
"Z; 	c #CD011C",
"`; 	c #CA001A",
" > 	c #BD0116",
".> 	c #B80112",
"+> 	c #C1021A",
"@> 	c #BE0019",
"#> 	c #C9011B",
"$> 	c #CC011B",
"%> 	c #CE011C",
"&> 	c #CD001D",
"*> 	c #CE001D",
"=> 	c #D30422",
"-> 	c #D90626",
";> 	c #D90828",
">> 	c #AE0118",
",> 	c #9F001B",
"'> 	c #A8011B",
")> 	c #AA011B",
"!> 	c #AC001C",
"~> 	c #B0001C",
"{> 	c #B4001D",
"]> 	c #B7001F",
"^> 	c #B5021E",
"/> 	c #AD0118",
"(> 	c #BC0420",
"_> 	c #C4031F",
":> 	c #C90721",
"<> 	c #CE0421",
"[> 	c #D30624",
"}> 	c #CE0320",
"|> 	c #CF021F",
"1> 	c #CD0322",
"2> 	c #C00120",
"3> 	c #B5001F",
"4> 	c #A60118",
"5> 	c #AB001D",
"6> 	c #B5001D",
"7> 	c #C9021E",
"8> 	c #D00822",
"9> 	c #D30C24",
"0> 	c #D60F25",
"a> 	c #DA162C",
"b> 	c #D7182E",
"c> 	c #C90D25",
"d> 	c #CF0D29",
"e> 	c #D7152A",
"f> 	c #DB1A2D",
"g> 	c #D81728",
"h> 	c #DC192A",
"i> 	c #D82A2D",
"j> 	c #F16150",
"k> 	c #F17959",
"l> 	c #F0825A",
"m> 	c #F38A5D",
"n> 	c #F3875C",
"o> 	c #F2865E",
"p> 	c #F4815D",
"q> 	c #F6815E",
"r> 	c #F0835C",
"s> 	c #F4996B",
"t> 	c #F5AF75",
"u> 	c #FCB574",
"v> 	c #F4AA6B",
"w> 	c #FAAD71",
"x> 	c #F8A870",
"y> 	c #F39A66",
"z> 	c #F39764",
"A> 	c #F59464",
"B> 	c #F69365",
"C> 	c #F69364",
"D> 	c #F79266",
"E> 	c #FA9468",
"F> 	c #F78E63",
"G> 	c #F48960",
"H> 	c #F48B64",
"I> 	c #F19065",
"J> 	c #F69C6F",
"K> 	c #F39469",
"L> 	c #F69E70",
"M> 	c #CE8D72",
"N> 	c #4D467F",
"O> 	c #2B479D",
"P> 	c #2748A1",
"Q> 	c #2A4BA9",
"R> 	c #2E4FAF",
"S> 	c #2B4EAD",
"T> 	c #2A4EAC",
"U> 	c #264DAA",
"V> 	c #264DAB",
"W> 	c #2A50AB",
"X> 	c #264AAA",
"Y> 	c #2950B0",
"Z> 	c #2250AC",
"`> 	c #2454B0",
" , 	c #2052AF",
"., 	c #1F53AF",
"+, 	c #1D52B1",
"@, 	c #1E50B2",
"#, 	c #2253B1",
"$, 	c #1F4FAB",
"%, 	c #234FAF",
"&, 	c #204FAB",
"*, 	c #204EAB",
"=, 	c #204FAA",
"-, 	c #2651B0",
";, 	c #2954B3",
">, 	c #2352AF",
",, 	c #2352AD",
"', 	c #2755AF",
"), 	c #2957B0",
"!, 	c #2B54AE",
"~, 	c #2E58AD",
"{, 	c #2A54AC",
"], 	c #2D55AF",
"^, 	c #2B52AE",
"/, 	c #2E55B2",
"(, 	c #2A4FAD",
"_, 	c #2C50AE",
":, 	c #2C50AD",
"<, 	c #3249A7",
"[, 	c #755898",
"}, 	c #EBA285",
"|, 	c #F6A16F",
"1, 	c #F1966A",
"2, 	c #F59A6E",
"3, 	c #F4946C",
"4, 	c #F7956E",
"5, 	c #F28860",
"6, 	c #F18861",
"7, 	c #F18C63",
"8, 	c #F7996F",
"9, 	c #F5936C",
"0, 	c #F8956C",
"a, 	c #F5976C",
"b, 	c #F29B6C",
"c, 	c #F38A63",
"d, 	c #F07F5C",
"e, 	c #F37A5C",
"f, 	c #F8725A",
"g, 	c #F2604D",
"h, 	c #EE4E42",
"i, 	c #ED453F",
"j, 	c #EC433F",
"k, 	c #EF4742",
"l, 	c #F04943",
"m, 	c #F3B56D",
"n, 	c #F8A361",
"o, 	c #F4A05D",
"p, 	c #F9A765",
"q, 	c #F8A766",
"r, 	c #FAA064",
"s, 	c #EF9159",
"t, 	c #F3A266",
"u, 	c #FBAE71",
"v, 	c #F1965F",
"w, 	c #F48F5F",
"x, 	c #F18558",
"y, 	c #F47A54",
"z, 	c #F0674A",
"A, 	c #F35542",
"B, 	c #EE4039",
"C, 	c #EA3331",
"D, 	c #E72A2B",
"E, 	c #E72528",
"F, 	c #E72C2B",
"G, 	c #EC3A34",
"H, 	c #EF483C",
"I, 	c #F05240",
"J, 	c #EF5844",
"K, 	c #F16349",
"L, 	c #F1704F",
"M, 	c #F5835B",
"N, 	c #F38C61",
"O, 	c #F3805C",
"P, 	c #EA6548",
"Q, 	c #F0664D",
"R, 	c #F56950",
"S, 	c #F2644B",
"T, 	c #EF6048",
"U, 	c #EE5944",
"V, 	c #EE5441",
"W, 	c #EE4E41",
"X, 	c #EE453D",
"Y, 	c #EB3232",
"Z, 	c #E8242B",
"`, 	c #E41A29",
" ' 	c #DE1024",
".' 	c #D3061E",
"+' 	c #CE0422",
"@' 	c #C7021F",
"#' 	c #C4011F",
"$' 	c #C6011D",
"%' 	c #D10A25",
"&' 	c #D7102A",
"*' 	c #CF041F",
"=' 	c #D0041F",
"-' 	c #CB011C",
";' 	c #C50119",
">' 	c #BD0115",
",' 	c #BA0114",
"'' 	c #C5021C",
")' 	c #C6001C",
"!' 	c #CF001C",
"~' 	c #D80625",
"{' 	c #D70826",
"]' 	c #9F001A",
"^' 	c #A2001D",
"/' 	c #A7001B",
"(' 	c #AB001C",
"_' 	c #B1001C",
":' 	c #B3011A",
"<' 	c #BF0421",
"[' 	c #C60420",
"}' 	c #CA0822",
"|' 	c #C90620",
"1' 	c #D10322",
"2' 	c #CE0521",
"3' 	c #CD0420",
"4' 	c #CF0322",
"5' 	c #CE0425",
"6' 	c #BF0020",
"7' 	c #B70120",
"8' 	c #A70119",
"9' 	c #C1021C",
"0' 	c #C9031F",
"a' 	c #CF0823",
"b' 	c #D20A24",
"c' 	c #D81228",
"d' 	c #D9152A",
"e' 	c #D8142B",
"f' 	c #D7182F",
"g' 	c #C90827",
"h' 	c #CD0B27",
"i' 	c #D7162C",
"j' 	c #D9192C",
"k' 	c #D61527",
"l' 	c #DB1A2B",
"m' 	c #DA192A",
"n' 	c #D82E2E",
"o' 	c #F66553",
"p' 	c #F2795A",
"q' 	c #F0825B",
"r' 	c #F79363",
"s' 	c #F28A5B",
"t' 	c #F18659",
"u' 	c #F78C61",
"v' 	c #F5835D",
"w' 	c #F57F5C",
"x' 	c #EB8259",
"y' 	c #F3A270",
"z' 	c #FCC384",
"A' 	c #F8B171",
"B' 	c #EEA465",
"C' 	c #F6A96D",
"D' 	c #F5A56C",
"E' 	c #F19A65",
"F' 	c #F49262",
"G' 	c #F38E60",
"H' 	c #F49264",
"I' 	c #F99367",
"J' 	c #F58B61",
"K' 	c #F38860",
"L' 	c #F58E66",
"M' 	c #FA9E71",
"N' 	c #FAA173",
"O' 	c #F9AB78",
"P' 	c #CB8E75",
"Q' 	c #484782",
"R' 	c #2A469F",
"S' 	c #2747A2",
"T' 	c #2748A5",
"U' 	c #294CAB",
"V' 	c #284CAC",
"W' 	c #254CAB",
"X' 	c #264CAA",
"Y' 	c #264AAB",
"Z' 	c #274FAF",
"`' 	c #224EAC",
" ) 	c #2555B1",
".) 	c #1D51AF",
"+) 	c #2152B0",
"@) 	c #2152AE",
"#) 	c #1F4EAA",
"$) 	c #2551AE",
"%) 	c #2150AA",
"&) 	c #2B57B6",
"*) 	c #2553B0",
"=) 	c #2453AE",
"-) 	c #2453AD",
";) 	c #2654AE",
">) 	c #2755AD",
",) 	c #2952AC",
"') 	c #2C55AE",
")) 	c #2F59B0",
"!) 	c #2C54AF",
"~) 	c #2C53AF",
"{) 	c #2F54B2",
"]) 	c #2E53B0",
"^) 	c #2A4EAB",
"/) 	c #2E50AE",
"() 	c #334BA9",
"_) 	c #705496",
":) 	c #E7977F",
"<) 	c #F4986B",
"[) 	c #F7966E",
"}) 	c #F8976F",
"|) 	c #F88E66",
"1) 	c #F48A62",
"2) 	c #F38861",
"3) 	c #F08862",
"4) 	c #F28E66",
"5) 	c #F39A6E",
"6) 	c #F69C70",
"7) 	c #F2946A",
"8) 	c #F6956C",
"9) 	c #F6996C",
"0) 	c #F69B6D",
"a) 	c #F6986A",
"b) 	c #F39164",
"c) 	c #F1815E",
"d) 	c #F2795B",
"e) 	c #F66F57",
"f) 	c #ED4C40",
"g) 	c #EC413C",
"h) 	c #EB3F3C",
"i) 	c #ED443F",
"j) 	c #ED4741",
"k) 	c #F1AB66",
"l) 	c #F49F5F",
"m) 	c #F29E5C",
"n) 	c #F7A664",
"o) 	c #F6AB68",
"p) 	c #F2A160",
"q) 	c #EF995C",
"r) 	c #FAB072",
"s) 	c #FBB375",
"t) 	c #ED905D",
"u) 	c #F79362",
"v) 	c #F28559",
"w) 	c #F1744E",
"x) 	c #F06749",
"y) 	c #F35A43",
"z) 	c #EF4338",
"A) 	c #E93430",
"B) 	c #E62A2B",
"C) 	c #E7272A",
"D) 	c #E92E2D",
"E) 	c #EE3B36",
"F) 	c #F1483D",
"G) 	c #F05040",
"H) 	c #F06247",
"I) 	c #F37D58",
"J) 	c #F1825B",
"K) 	c #F48961",
"L) 	c #F37D5A",
"M) 	c #EB6346",
"N) 	c #EE624A",
"O) 	c #F3654D",
"P) 	c #F16149",
"Q) 	c #EB5C44",
"R) 	c #EF5943",
"S) 	c #F15542",
"T) 	c #EE4C40",
"U) 	c #EB3F38",
"V) 	c #EB2D2F",
"W) 	c #E81F2A",
"X) 	c #E21427",
"Y) 	c #DC1025",
"Z) 	c #D1071E",
"`) 	c #CB0320",
" ! 	c #C3021F",
".! 	c #C8011F",
"+! 	c #D30A26",
"@! 	c #D60D26",
"#! 	c #D0061F",
"$! 	c #D00421",
"%! 	c #CB011D",
"&! 	c #BC0017",
"*! 	c #C8041F",
"=! 	c #C6001D",
"-! 	c #C00019",
";! 	c #C10017",
">! 	c #D0001D",
",! 	c #CD011F",
"'! 	c #D70625",
")! 	c #D40624",
"!! 	c #AB0117",
"~! 	c #A3001D",
"{! 	c #A7001C",
"]! 	c #AB001E",
"^! 	c #B0001F",
"/! 	c #B7021F",
"(! 	c #B9011F",
"_! 	c #C20423",
":! 	c #C70421",
"<! 	c #CA0823",
"[! 	c #CD0622",
"}! 	c #D00925",
"|! 	c #D00522",
"1! 	c #CB0420",
"2! 	c #CC0420",
"3! 	c #CD0521",
"4! 	c #D00523",
"5! 	c #CC0324",
"6! 	c #BE011B",
"7! 	c #BF011F",
"8! 	c #BA0321",
"9! 	c #AC001D",
"0! 	c #C0011E",
"a! 	c #C8021E",
"b! 	c #CF0922",
"c! 	c #D10B24",
"d! 	c #D91329",
"e! 	c #D8152B",
"f! 	c #DC182F",
"g! 	c #D91931",
"h! 	c #C80B24",
"i! 	c #D21029",
"j! 	c #D61528",
"k! 	c #D81829",
"l! 	c #D81828",
"m! 	c #D93230",
"n! 	c #F76753",
"o! 	c #F17958",
"p! 	c #EF8258",
"q! 	c #FA9668",
"r! 	c #F79562",
"s! 	c #F48E5D",
"t! 	c #F48C5B",
"u! 	c #F89061",
"v! 	c #F8865D",
"w! 	c #F37C59",
"x! 	c #ED9766",
"y! 	c #FBC081",
"z! 	c #F2A869",
"A! 	c #F3A769",
"B! 	c #F7A96D",
"C! 	c #F6A56C",
"D! 	c #F29964",
"E! 	c #F39664",
"F! 	c #F39161",
"G! 	c #F18F60",
"H! 	c #F29061",
"I! 	c #F59163",
"J! 	c #F0895D",
"K! 	c #F1875E",
"L! 	c #F48B63",
"M! 	c #F7966C",
"N! 	c #F9A271",
"O! 	c #FAAF7C",
"P! 	c #CD977F",
"Q! 	c #464987",
"R! 	c #2849A3",
"S! 	c #2648A4",
"T! 	c #294AA8",
"U! 	c #284BAB",
"V! 	c #264DAC",
"W! 	c #254EAB",
"X! 	c #284FAD",
"Y! 	c #274DAF",
"Z! 	c #2650AF",
"`! 	c #2154B1",
" ~ 	c #1E53AF",
".~ 	c #2153B0",
"+~ 	c #1E51AE",
"@~ 	c #2053AF",
"#~ 	c #204EAA",
"$~ 	c #2451AC",
"%~ 	c #234FAD",
"&~ 	c #1E4DAA",
"*~ 	c #2453AC",
"=~ 	c #2351AC",
"-~ 	c #2853B2",
";~ 	c #2655B2",
">~ 	c #2554AE",
",~ 	c #2856B0",
"'~ 	c #2553AB",
")~ 	c #2856AC",
"!~ 	c #2953AB",
"~~ 	c #2A53AB",
"{~ 	c #2D56AE",
"]~ 	c #2C55B0",
"^~ 	c #3054B2",
"/~ 	c #2E52B0",
"(~ 	c #2D52AD",
"_~ 	c #2B4FAA",
":~ 	c #2D4FAC",
"<~ 	c #2E4EAD",
"[~ 	c #344DAB",
"}~ 	c #6D5397",
"|~ 	c #E88E7E",
"1~ 	c #F38F69",
"2~ 	c #F38D6A",
"3~ 	c #F48F6B",
"4~ 	c #FC9873",
"5~ 	c #FC9B74",
"6~ 	c #F78D65",
"7~ 	c #F38962",
"8~ 	c #F18A64",
"9~ 	c #F6936C",
"0~ 	c #FBA176",
"a~ 	c #F59B6F",
"b~ 	c #F3996C",
"c~ 	c #F29368",
"d~ 	c #F29568",
"e~ 	c #F39768",
"f~ 	c #F59668",
"g~ 	c #F39165",
"h~ 	c #F38C64",
"i~ 	c #F48561",
"j~ 	c #F3795C",
"k~ 	c #F26B53",
"l~ 	c #ED5847",
"m~ 	c #EB4A3E",
"n~ 	c #EE3F3B",
"o~ 	c #EB3C3A",
"p~ 	c #EB413C",
"q~ 	c #EB4640",
"r~ 	c #F3A464",
"s~ 	c #F8A565",
"t~ 	c #F0A15E",
"u~ 	c #F3AE69",
"v~ 	c #F7BA74",
"w~ 	c #F6B36E",
"x~ 	c #F7AA69",
"y~ 	c #F6AF70",
"z~ 	c #F6A96F",
"A~ 	c #EE8958",
"B~ 	c #F88D5F",
"C~ 	c #F5855A",
"D~ 	c #F0714D",
"E~ 	c #F0684A",
"F~ 	c #F15A41",
"G~ 	c #EE4235",
"H~ 	c #E9332F",
"I~ 	c #E5292B",
"J~ 	c #EB2C30",
"K~ 	c #EB2F30",
"L~ 	c #EF463C",
"M~ 	c #EE4F40",
"N~ 	c #F05945",
"O~ 	c #EB5D43",
"P~ 	c #EF6A4B",
"Q~ 	c #F07654",
"R~ 	c #EF7E59",
"S~ 	c #F1845E",
"T~ 	c #F87F5C",
"U~ 	c #EC6145",
"V~ 	c #ED5E47",
"W~ 	c #ED5D45",
"X~ 	c #ED5C45",
"Y~ 	c #F65946",
"Z~ 	c #F04A3F",
"`~ 	c #EC3C37",
" { 	c #E8272B",
".{ 	c #E71927",
"+{ 	c #DF0F24",
"@{ 	c #D80D23",
"#{ 	c #CF071F",
"${ 	c #CA031F",
"%{ 	c #C5011E",
"&{ 	c #C1001C",
"*{ 	c #C90420",
"={ 	c #D20723",
"-{ 	c #D30821",
";{ 	c #CE041C",
">{ 	c #CA011D",
",{ 	c #C5031F",
"'{ 	c #C4011C",
"){ 	c #D1001D",
"!{ 	c #CD021F",
"~{ 	c #CF011F",
"{{ 	c #D60625",
"]{ 	c #D40726",
"^{ 	c #AC0118",
"/{ 	c #A3011D",
"({ 	c #A8001D",
"_{ 	c #AD001E",
":{ 	c #B3001D",
"<{ 	c #B90220",
"[{ 	c #B90120",
"}{ 	c #BB0120",
"|{ 	c #C40424",
"1{ 	c #C80421",
"2{ 	c #CB041F",
"3{ 	c #CB0520",
"4{ 	c #D00725",
"5{ 	c #C90122",
"6{ 	c #C0011F",
"7{ 	c #BC0322",
"8{ 	c #A90118",
"9{ 	c #AC011D",
"0{ 	c #BF0120",
"a{ 	c #C8021F",
"b{ 	c #D30D25",
"c{ 	c #DD172E",
"d{ 	c #DD1931",
"e{ 	c #D81932",
"f{ 	c #C70A24",
"g{ 	c #C80726",
"h{ 	c #D00D2B",
"i{ 	c #D3102A",
"j{ 	c #D61529",
"k{ 	c #DC1D2D",
"l{ 	c #D61928",
"m{ 	c #D93330",
"n{ 	c #F66753",
"o{ 	c #F37B56",
"p{ 	c #F38559",
"q{ 	c #F69462",
"r{ 	c #EF8D59",
"s{ 	c #F18C58",
"t{ 	c #F7915F",
"u{ 	c #F68F5F",
"v{ 	c #F48359",
"w{ 	c #ED7653",
"x{ 	c #F6875F",
"y{ 	c #EA8A5C",
"z{ 	c #F8B175",
"A{ 	c #EFA265",
"B{ 	c #F9AC6F",
"C{ 	c #F0A166",
"D{ 	c #F8A46D",
"E{ 	c #F59865",
"F{ 	c #F59563",
"G{ 	c #F39261",
"H{ 	c #F59666",
"I{ 	c #F29363",
"J{ 	c #F29262",
"K{ 	c #F79466",
"L{ 	c #F38E62",
"M{ 	c #F28960",
"N{ 	c #F48862",
"O{ 	c #F49068",
"P{ 	c #F59A6A",
"Q{ 	c #F8AC79",
"R{ 	c #CF9C85",
"S{ 	c #424A8A",
"T{ 	c #2945A2",
"U{ 	c #294AA4",
"V{ 	c #2A4BA6",
"W{ 	c #2A4DAC",
"X{ 	c #274BAB",
"Y{ 	c #244CAC",
"Z{ 	c #2250AB",
"`{ 	c #244DAE",
" ] 	c #2451AF",
".] 	c #2252AE",
"+] 	c #2154B0",
"@] 	c #2055B1",
"#] 	c #2255B0",
"$] 	c #1C4EAB",
"%] 	c #1E4EAF",
"&] 	c #1F52AF",
"*] 	c #2350AB",
"=] 	c #2450AC",
"-] 	c #1C4BA7",
";] 	c #2554B0",
">] 	c #2251AB",
",] 	c #2352AB",
"'] 	c #244EAE",
")] 	c #2A55B4",
"!] 	c #2B57B5",
"~] 	c #2856B3",
"{] 	c #2756AB",
"]] 	c #2B55AB",
"^] 	c #2B54AC",
"/] 	c #2B55AD",
"(] 	c #2851AD",
"_] 	c #2C52AF",
":] 	c #2F52B0",
"<] 	c #2E51AD",
"[] 	c #2C4FAB",
"}] 	c #2D50AC",
"|] 	c #304FAE",
"1] 	c #664F94",
"2] 	c #E7877B",
"3] 	c #F58C6A",
"4] 	c #F28969",
"5] 	c #F38A69",
"6] 	c #F7916D",
"7] 	c #F5946C",
"8] 	c #F48E67",
"9] 	c #F58C63",
"0] 	c #F38D68",
"a] 	c #F6946E",
"b] 	c #F89A72",
"c] 	c #F3986D",
"d] 	c #F19468",
"e] 	c #F29466",
"f] 	c #F69869",
"g] 	c #F59667",
"h] 	c #F59367",
"i] 	c #F28C63",
"j] 	c #F48662",
"k] 	c #F57A5D",
"l] 	c #F36B54",
"m] 	c #F05A4A",
"n] 	c #EE4B40",
"o] 	c #EF3E3B",
"p] 	c #EA3A37",
"q] 	c #ED433E",
"r] 	c #ED4942",
"s] 	c #EE9A5A",
"t] 	c #FAAA68",
"u] 	c #F2A663",
"v] 	c #F6B973",
"w] 	c #FACD86",
"x] 	c #F8C17C",
"y] 	c #F8B272",
"z] 	c #F1A769",
"A] 	c #F69F66",
"B] 	c #ED8051",
"C] 	c #F17C52",
"D] 	c #F1774F",
"E] 	c #F36E4C",
"F] 	c #F05A42",
"G] 	c #EB4332",
"H] 	c #EB352F",
"I] 	c #EC2F31",
"J] 	c #EE3033",
"K] 	c #EB3030",
"L] 	c #EE3A36",
"M] 	c #EE453C",
"N] 	c #ED5040",
"O] 	c #EF5B43",
"P] 	c #ED6044",
"Q] 	c #F36D4F",
"R] 	c #F67A59",
"S] 	c #F27F5B",
"T] 	c #F3855F",
"U] 	c #F97E5D",
"V] 	c #E5563E",
"W] 	c #EF5C47",
"X] 	c #F15F4A",
"Y] 	c #EA5944",
"Z] 	c #F05F49",
"`] 	c #EC5441",
" ^ 	c #ED513F",
".^ 	c #ED453B",
"+^ 	c #EA3633",
"@^ 	c #E62028",
"#^ 	c #E61827",
"$^ 	c #E01128",
"%^ 	c #D70C26",
"&^ 	c #C70420",
"*^ 	c #C1011D",
"=^ 	c #BF001B",
"-^ 	c #CD0723",
";^ 	c #D20923",
">^ 	c #D30720",
",^ 	c #CF031C",
"'^ 	c #CF031E",
")^ 	c #B70017",
"!^ 	c #B70019",
"~^ 	c #B80119",
"{^ 	c #BF011C",
"]^ 	c #C1001E",
"^^ 	c #BD0118",
"/^ 	c #D2001F",
"(^ 	c #CF0320",
"_^ 	c #D10422",
":^ 	c #D70524",
"<^ 	c #D80A28",
"[^ 	c #9F0017",
"}^ 	c #A2021C",
"|^ 	c #A8001E",
"1^ 	c #AF001D",
"2^ 	c #B2001C",
"3^ 	c #BA0120",
"4^ 	c #BD0221",
"5^ 	c #C10221",
"6^ 	c #C40223",
"7^ 	c #CB0722",
"8^ 	c #CF0724",
"9^ 	c #C80320",
"0^ 	c #C4001E",
"a^ 	c #BF031F",
"b^ 	c #AA0017",
"c^ 	c #B4001E",
"d^ 	c #BE011F",
"e^ 	c #C8031F",
"f^ 	c #D20C25",
"g^ 	c #D50F27",
"h^ 	c #DC182E",
"i^ 	c #DB172E",
"j^ 	c #DB162E",
"k^ 	c #D6172E",
"l^ 	c #C70B24",
"m^ 	c #C90A28",
"n^ 	c #D01028",
"o^ 	c #D61629",
"p^ 	c #D91A2B",
"q^ 	c #D91C2B",
"r^ 	c #D61B2B",
"s^ 	c #DD3634",
"t^ 	c #F36751",
"u^ 	c #F17955",
"v^ 	c #F5875B",
"w^ 	c #EF8A59",
"x^ 	c #EE8956",
"y^ 	c #EB8653",
"z^ 	c #F08B58",
"A^ 	c #F08A58",
"B^ 	c #F28258",
"C^ 	c #F07B55",
"D^ 	c #F08057",
"E^ 	c #EA895A",
"F^ 	c #F4AA70",
"G^ 	c #EFAA6C",
"H^ 	c #F6B074",
"I^ 	c #ECA267",
"J^ 	c #F69E68",
"K^ 	c #F69764",
"L^ 	c #F59363",
"M^ 	c #F59868",
"N^ 	c #F29465",
"O^ 	c #F29464",
"P^ 	c #F69766",
"Q^ 	c #F99465",
"R^ 	c #F28C60",
"S^ 	c #F38863",
"T^ 	c #F48D65",
"U^ 	c #F49667",
"V^ 	c #F5A772",
"W^ 	c #C8967D",
"X^ 	c #3E498C",
"Y^ 	c #2A45A3",
"Z^ 	c #2A48A5",
"`^ 	c #2B4BA7",
" / 	c #2B4EAC",
"./ 	c #284DAE",
"+/ 	c #244CAB",
"@/ 	c #214EAB",
"#/ 	c #2551B1",
"$/ 	c #224FAD",
"%/ 	c #2051AC",
"&/ 	c #2154AF",
"*/ 	c #1F51AD",
"=/ 	c #2050AC",
"-/ 	c #2151A8",
";/ 	c #1D4FA7",
">/ 	c #1F4FA9",
",/ 	c #1E4DA6",
"'/ 	c #1F4EA9",
")/ 	c #2050AB",
"!/ 	c #224CAD",
"~/ 	c #2650B2",
"{/ 	c #2853B5",
"]/ 	c #2958B4",
"^/ 	c #2756B2",
"// 	c #2454AE",
"(/ 	c #2354AE",
"_/ 	c #2453AA",
":/ 	c #2655AA",
"</ 	c #2954A9",
"[/ 	c #2854AB",
"}/ 	c #2A55AE",
"|/ 	c #2750AC",
"1/ 	c #2951AE",
"2/ 	c #2B51AE",
"3/ 	c #2F53B1",
"4/ 	c #2F53AF",
"5/ 	c #2A4FA8",
"6/ 	c #294EA9",
"7/ 	c #2C50AC",
"8/ 	c #3050AF",
"9/ 	c #334CAD",
"0/ 	c #5F4E95",
"a/ 	c #E68981",
"b/ 	c #F48C6D",
"c/ 	c #F28A69",
"d/ 	c #F38767",
"e/ 	c #F58C69",
"f/ 	c #F38E67",
"g/ 	c #F28C64",
"h/ 	c #F58B65",
"i/ 	c #F48A63",
"j/ 	c #F38B66",
"k/ 	c #F28F69",
"l/ 	c #F6966F",
"m/ 	c #F4996D",
"n/ 	c #F39B6D",
"o/ 	c #F4986C",
"p/ 	c #F99B6E",
"q/ 	c #F29165",
"r/ 	c #F08D63",
"s/ 	c #F58763",
"t/ 	c #F87A5D",
"u/ 	c #F46D55",
"v/ 	c #F25C4D",
"w/ 	c #F04B42",
"x/ 	c #EE3C39",
"y/ 	c #EC3A38",
"z/ 	c #EF443F",
"A/ 	c #F14E47",
"B/ 	c #EF9758",
"C/ 	c #F9A564",
"D/ 	c #F3AA67",
"E/ 	c #F6C37C",
"F/ 	c #FED992",
"G/ 	c #FBC882",
"H/ 	c #FBB574",
"I/ 	c #FBAD6E",
"J/ 	c #F69961",
"K/ 	c #EE7D4E",
"L/ 	c #F1764D",
"M/ 	c #EE6F49",
"N/ 	c #F16B4B",
"O/ 	c #F1694C",
"P/ 	c #F25B43",
"Q/ 	c #EC4234",
"R/ 	c #EB3530",
"S/ 	c #EE3234",
"T/ 	c #ED3032",
"U/ 	c #F03E39",
"V/ 	c #EC5040",
"W/ 	c #EC5841",
"X/ 	c #F06549",
"Y/ 	c #F67153",
"Z/ 	c #F77D5C",
"`/ 	c #F4835E",
" ( 	c #F3845F",
".( 	c #F37756",
"+( 	c #F06049",
"@( 	c #F4604C",
"#( 	c #ED5945",
"$( 	c #F25E4B",
"%( 	c #F05644",
"&( 	c #EA483A",
"*( 	c #EB3E37",
"=( 	c #E92F30",
"-( 	c #E31B25",
";( 	c #E01223",
">( 	c #DC1027",
",( 	c #D40A25",
"'( 	c #C80322",
")( 	c #C2031F",
"!( 	c #C6031E",
"~( 	c #D40823",
"{( 	c #D2061E",
"]( 	c #D0041C",
"^( 	c #D10520",
"/( 	c #B60017",
"(( 	c #B00018",
"_( 	c #AE0016",
":( 	c #B5001A",
"<( 	c #CB011B",
"[( 	c #D0011D",
"}( 	c #D00321",
"|( 	c #D50322",
"1( 	c #D80C2A",
"2( 	c #AF0219",
"3( 	c #A0011A",
"4( 	c #A6001C",
"5( 	c #AA011D",
"6( 	c #AE011D",
"7( 	c #C10220",
"8( 	c #C60524",
"9( 	c #C90522",
"0( 	c #CA041F",
"a( 	c #CC0621",
"b( 	c #CD0623",
"c( 	c #CB0622",
"d( 	c #C0031E",
"e( 	c #AA0016",
"f( 	c #BE011E",
"g( 	c #C90521",
"h( 	c #D20D27",
"i( 	c #DA192F",
"j( 	c #DC162F",
"k( 	c #D6182E",
"l( 	c #C70D25",
"m( 	c #C60A27",
"n( 	c #CE102A",
"o( 	c #D31327",
"p( 	c #D81929",
"q( 	c #D81B2A",
"r( 	c #D51C2B",
"s( 	c #DD3839",
"t( 	c #F36A55",
"u( 	c #F17A57",
"v( 	c #F4875B",
"w( 	c #F08B59",
"x( 	c #F08B5A",
"y( 	c #ED8757",
"z( 	c #EE8756",
"A( 	c #F48456",
"B( 	c #F7875B",
"C( 	c #EE8359",
"D( 	c #EB9565",
"E( 	c #F0B075",
"F( 	c #F7BD7F",
"G( 	c #F3B677",
"H( 	c #F4AE72",
"I( 	c #F39A64",
"J( 	c #F39263",
"K( 	c #F29766",
"L( 	c #F6996A",
"M( 	c #F89A6B",
"N( 	c #F59162",
"O( 	c #EF885E",
"P( 	c #F1855F",
"Q( 	c #F69568",
"R( 	c #F1A26D",
"S( 	c #BB8B72",
"T( 	c #38458B",
"U( 	c #2944A2",
"V( 	c #2B4BA8",
"W( 	c #2B4FAC",
"X( 	c #294EAF",
"Y( 	c #244DAB",
"Z( 	c #2450B1",
"`( 	c #2152AF",
" _ 	c #1F50AC",
"._ 	c #1E50AC",
"+_ 	c #1D4EA9",
"@_ 	c #1D4DA8",
"#_ 	c #204EA9",
"$_ 	c #2150A9",
"%_ 	c #2152AD",
"&_ 	c #1F4DAA",
"*_ 	c #244FAF",
"=_ 	c #2757B3",
"-_ 	c #2353AE",
";_ 	c #2454AD",
">_ 	c #2453AB",
",_ 	c #2654AA",
"'_ 	c #2854AA",
")_ 	c #2753AA",
"!_ 	c #2954AE",
"~_ 	c #2751AC",
"{_ 	c #2E53AE",
"]_ 	c #2E53AC",
"^_ 	c #2C51AC",
"/_ 	c #2F4BAE",
"(_ 	c #5C4F9A",
"__ 	c #E28986",
":_ 	c #F78E70",
"<_ 	c #F68B6B",
"[_ 	c #F28365",
"}_ 	c #F48969",
"|_ 	c #F08A66",
"1_ 	c #F08C65",
"2_ 	c #F88F68",
"3_ 	c #F18B66",
"4_ 	c #F29D6E",
"5_ 	c #F59E70",
"6_ 	c #F59D6F",
"7_ 	c #F49C6E",
"8_ 	c #EC9668",
"9_ 	c #F29166",
"0_ 	c #F48763",
"a_ 	c #F6795B",
"b_ 	c #EE5849",
"c_ 	c #EC463D",
"d_ 	c #EC3A37",
"e_ 	c #EB3A38",
"f_ 	c #EB433E",
"g_ 	c #F2524A",
"h_ 	c #F29E5D",
"i_ 	c #F2AE6A",
"j_ 	c #F8C680",
"k_ 	c #FCCD88",
"l_ 	c #F1BA73",
"m_ 	c #F1AA68",
"n_ 	c #FAA366",
"o_ 	c #F38E59",
"p_ 	c #F37A4F",
"q_ 	c #F67651",
"r_ 	c #F67753",
"s_ 	c #ED6C4A",
"t_ 	c #F45B47",
"u_ 	c #EF4238",
"v_ 	c #EA322F",
"w_ 	c #EB2F31",
"x_ 	c #EC3232",
"y_ 	c #F03F3A",
"z_ 	c #ED473C",
"A_ 	c #EB5640",
"B_ 	c #F06448",
"C_ 	c #F47153",
"D_ 	c #F47C59",
"E_ 	c #F2805C",
"F_ 	c #F37555",
"G_ 	c #F16049",
"H_ 	c #EC5543",
"I_ 	c #F05A48",
"J_ 	c #EF5848",
"K_ 	c #EF5748",
"L_ 	c #F25447",
"M_ 	c #E94237",
"N_ 	c #E93532",
"O_ 	c #E82B2F",
"P_ 	c #E31A26",
"Q_ 	c #DE0F23",
"R_ 	c #D70B25",
"S_ 	c #D00824",
"T_ 	c #CC0222",
"U_ 	c #C3031F",
"V_ 	c #D60623",
"W_ 	c #D70822",
"X_ 	c #D4041E",
"Y_ 	c #D30521",
"Z_ 	c #B60118",
"`_ 	c #AD0119",
" : 	c #A70016",
".: 	c #AE011A",
"+: 	c #C30018",
"@: 	c #D10120",
"#: 	c #D10321",
"$: 	c #D70525",
"%: 	c #D80B2A",
"&: 	c #B00219",
"*: 	c #A00118",
"=: 	c #A1011B",
"-: 	c #AA021C",
";: 	c #AF021D",
">: 	c #B5021F",
",: 	c #BA0220",
"': 	c #BC0221",
"): 	c #C10423",
"!: 	c #BF021E",
"~: 	c #C70825",
"{: 	c #C80422",
"]: 	c #CF0924",
"^: 	c #CE0825",
"/: 	c #BF021D",
"(: 	c #A90016",
"_: 	c #AB011C",
":: 	c #B5001E",
"<: 	c #BF021F",
"[: 	c #CF0923",
"}: 	c #D40E25",
"|: 	c #D71227",
"1: 	c #DC182D",
"2: 	c #DB1A2F",
"3: 	c #DF1B32",
"4: 	c #DE1831",
"5: 	c #D81A30",
"6: 	c #C91128",
"7: 	c #C50B26",
"8: 	c #CE122B",
"9: 	c #D7182C",
"0: 	c #DC1D2C",
"a: 	c #DA1B2A",
"b: 	c #D91D2C",
"c: 	c #D21C2A",
"d: 	c #DA3939",
"e: 	c #F66D5A",
"f: 	c #F17C59",
"g: 	c #F3885B",
"h: 	c #F08A5A",
"i: 	c #F28F62",
"j: 	c #F18E5F",
"k: 	c #F28D5F",
"l: 	c #F38A5B",
"m: 	c #FA8B5A",
"n: 	c #F88C5D",
"o: 	c #F9AF7C",
"p: 	c #F8C387",
"q: 	c #F6C485",
"r: 	c #F8BE7F",
"s: 	c #F6AE73",
"t: 	c #EE9761",
"u: 	c #F29360",
"v: 	c #F79465",
"w: 	c #F09463",
"x: 	c #F7996A",
"y: 	c #FB9B6D",
"z: 	c #F28B5D",
"A: 	c #F69367",
"B: 	c #F39065",
"C: 	c #F68862",
"D: 	c #FB9669",
"E: 	c #F5A26F",
"F: 	c #B98A76",
"G: 	c #36438D",
"H: 	c #2743A1",
"I: 	c #2948A5",
"J: 	c #2D4CA9",
"K: 	c #2C4FAD",
"L: 	c #274DAD",
"M: 	c #214EAD",
"N: 	c #224EAF",
"O: 	c #1F50AE",
"P: 	c #1C4CAA",
"Q: 	c #1E4CAA",
"R: 	c #1E4EAE",
"S: 	c #1E4EAD",
"T: 	c #1F4DA9",
"U: 	c #2251AA",
"V: 	c #1E4DA9",
"W: 	c #2652AE",
"X: 	c #2553AD",
"Y: 	c #2655AC",
"Z: 	c #2552A8",
"`: 	c #2754AD",
" < 	c #2952AE",
".< 	c #2C52B0",
"+< 	c #2D51AF",
"@< 	c #2D51AD",
"#< 	c #294BA8",
"$< 	c #2D4CB0",
"%< 	c #564F9D",
"&< 	c #DC888D",
"*< 	c #FA9274",
"=< 	c #F6896A",
"-< 	c #F18264",
";< 	c #F08564",
">< 	c #EE8A67",
",< 	c #EE8D68",
"'< 	c #F6946D",
")< 	c #F68F67",
"!< 	c #F4916B",
"~< 	c #F3986C",
"{< 	c #F5A071",
"]< 	c #F3A070",
"^< 	c #F5A273",
"/< 	c #F3A271",
"(< 	c #F9A173",
"_< 	c #F9996E",
":< 	c #F48A65",
"<< 	c #F27A5A",
"[< 	c #EF6A52",
"}< 	c #EB5445",
"|< 	c #E94239",
"1< 	c #EA3835",
"2< 	c #EE4640",
"3< 	c #F4554D",
"4< 	c #F3AC67",
"5< 	c #EEA361",
"6< 	c #F6BE76",
"7< 	c #F9C87F",
"8< 	c #F7BC76",
"9< 	c #F8BA73",
"0< 	c #F2A461",
"a< 	c #F38E55",
"b< 	c #EE794D",
"c< 	c #F1724D",
"d< 	c #F2714D",
"e< 	c #F47855",
"f< 	c #EC704D",
"g< 	c #F67151",
"h< 	c #F45746",
"i< 	c #F0413A",
"j< 	c #ED3331",
"k< 	c #EA3031",
"l< 	c #EB3032",
"m< 	c #EC3433",
"n< 	c #ED3F39",
"o< 	c #EE493E",
"p< 	c #F25545",
"q< 	c #F05944",
"r< 	c #ED5E45",
"s< 	c #F46E51",
"t< 	c #F57A59",
"u< 	c #F67F5C",
"v< 	c #F57355",
"w< 	c #F05E48",
"x< 	c #EB5342",
"y< 	c #EE5444",
"z< 	c #EF5346",
"A< 	c #EE5044",
"B< 	c #EF4B41",
"C< 	c #E93C36",
"D< 	c #EA3132",
"E< 	c #E7262C",
"F< 	c #E31826",
"G< 	c #DF0F25",
"H< 	c #D80B25",
"I< 	c #D10623",
"J< 	c #CC0421",
"K< 	c #C5011D",
"L< 	c #D20A25",
"M< 	c #D80823",
"N< 	c #D70620",
"O< 	c #D70621",
"P< 	c #D6051F",
"Q< 	c #C0011C",
"R< 	c #B7011A",
"S< 	c #AE011C",
"T< 	c #A8001A",
"U< 	c #AC001B",
"V< 	c #B80120",
"W< 	c #BE0122",
"X< 	c #BC001E",
"Y< 	c #BE011C",
"Z< 	c #C8011A",
"`< 	c #D20120",
" [ 	c #D00220",
".[ 	c #D70725",
"+[ 	c #D70A29",
"@[ 	c #B1021A",
"#[ 	c #A0001A",
"$[ 	c #A8001B",
"%[ 	c #AD011B",
"&[ 	c #B2011D",
"*[ 	c #B80320",
"=[ 	c #BA011F",
"-[ 	c #BD0120",
";[ 	c #C00320",
">[ 	c #C0031F",
",[ 	c #C60724",
"'[ 	c #C50321",
")[ 	c #CA0520",
"![ 	c #CE0823",
"~[ 	c #C8031E",
"{[ 	c #CE0724",
"][ 	c #C8011E",
"^[ 	c #CA0020",
"/[ 	c #BE011D",
"([ 	c #A90116",
"_[ 	c #CF0A24",
":[ 	c #D20D25",
"<[ 	c #DA1A2F",
"[[ 	c #DF1932",
"}[ 	c #CA1128",
"|[ 	c #C60B27",
"1[ 	c #CD1029",
"2[ 	c #D5152A",
"3[ 	c #D8192A",
"4[ 	c #D71829",
"5[ 	c #D81C2B",
"6[ 	c #D21E2B",
"7[ 	c #DB3F3C",
"8[ 	c #F5705A",
"9[ 	c #F4835D",
"0[ 	c #F2885B",
"a[ 	c #F69566",
"b[ 	c #F18D5F",
"c[ 	c #F68B5E",
"d[ 	c #FA8B5E",
"e[ 	c #F28158",
"f[ 	c #FBB681",
"g[ 	c #F9C88B",
"h[ 	c #F4C483",
"i[ 	c #FABD7E",
"j[ 	c #F8AD73",
"k[ 	c #F19C65",
"l[ 	c #F89365",
"m[ 	c #FA996B",
"n[ 	c #F4895D",
"o[ 	c #F69065",
"p[ 	c #F69469",
"q[ 	c #F48963",
"r[ 	c #F78E64",
"s[ 	c #F6996E",
"t[ 	c #B17E73",
"u[ 	c #354392",
"v[ 	c #2743A0",
"w[ 	c #2947A5",
"x[ 	c #2C4BA8",
"y[ 	c #2D4EAB",
"z[ 	c #2C4FAC",
"A[ 	c #264CAC",
"B[ 	c #234CAA",
"C[ 	c #214DAE",
"D[ 	c #2251AE",
"E[ 	c #2051AE",
"F[ 	c #1D4FAD",
"G[ 	c #1E4EAC",
"H[ 	c #1F4CAC",
"I[ 	c #1D4CA5",
"J[ 	c #1F4EA7",
"K[ 	c #1D4CA8",
"L[ 	c #1C4BA5",
"M[ 	c #2353B0",
"N[ 	c #2555B2",
"O[ 	c #2655B0",
"P[ 	c #2755B0",
"Q[ 	c #2752AA",
"R[ 	c #2553A9",
"S[ 	c #2755AE",
"T[ 	c #2953AE",
"U[ 	c #2F54AF",
"V[ 	c #2A4EAD",
"W[ 	c #284CAB",
"X[ 	c #2B4DB0",
"Y[ 	c #4D4E9E",
"Z[ 	c #D58B93",
"`[ 	c #F89476",
" } 	c #F58B6B",
".} 	c #F38666",
"+} 	c #EF8564",
"@} 	c #F4926C",
"#} 	c #F4976E",
"$} 	c #F7986F",
"%} 	c #F79269",
"&} 	c #F58863",
"*} 	c #F58C68",
"=} 	c #F7936C",
"-} 	c #F1966B",
";} 	c #F5A272",
">} 	c #F2A06E",
",} 	c #F7A472",
"'} 	c #F9A575",
")} 	c #FAA677",
"!} 	c #FAA072",
"~} 	c #FA9A6F",
"{} 	c #F47E5E",
"]} 	c #F06C54",
"^} 	c #EF5849",
"/} 	c #EB463D",
"(} 	c #EB3936",
"_} 	c #EE443F",
":} 	c #F25049",
"<} 	c #F7BB72",
"[} 	c #F4B56F",
"}} 	c #FBD084",
"|} 	c #F7CC7E",
"1} 	c #EFB26A",
"2} 	c #F6B36C",
"3} 	c #F9A664",
"4} 	c #F38752",
"5} 	c #EC6D49",
"6} 	c #EE6A4A",
"7} 	c #EE6E4C",
"8} 	c #F07A54",
"9} 	c #EC7651",
"0} 	c #F87454",
"a} 	c #F15041",
"b} 	c #ED3C38",
"c} 	c #ED3433",
"d} 	c #EB3031",
"e} 	c #EA3032",
"f} 	c #EC3534",
"g} 	c #EB3D37",
"h} 	c #F14B41",
"i} 	c #F25345",
"j} 	c #F25846",
"k} 	c #EC5A43",
"l} 	c #F46B50",
"m} 	c #F47555",
"n} 	c #F27756",
"o} 	c #FA815F",
"p} 	c #F57154",
"q} 	c #ED5C46",
"r} 	c #EA5240",
"s} 	c #EF5344",
"t} 	c #F05045",
"u} 	c #ED4B42",
"v} 	c #EC443D",
"w} 	c #EB2D31",
"x} 	c #E51F2A",
"y} 	c #E01526",
"z} 	c #DA0D24",
"A} 	c #D90B26",
"B} 	c #C6011A",
"C} 	c #CC0520",
"D} 	c #D50E27",
"E} 	c #D90A24",
"F} 	c #D80822",
"G} 	c #DA0823",
"H} 	c #D80721",
"I} 	c #D60824",
"J} 	c #C7001E",
"K} 	c #B6011A",
"L} 	c #AE001B",
"M} 	c #A9001A",
"N} 	c #AD001C",
"O} 	c #B5011D",
"P} 	c #BC0021",
"Q} 	c #BC001F",
"R} 	c #C30019",
"S} 	c #C8011B",
"T} 	c #D0001C",
"U} 	c #D0001E",
"V} 	c #D00320",
"W} 	c #D40524",
"X} 	c #D60A27",
"Y} 	c #B6051C",
"Z} 	c #AA011C",
"`} 	c #AF001C",
" | 	c #B3011C",
".| 	c #BA001E",
"+| 	c #BD011E",
"@| 	c #C10520",
"#| 	c #C50822",
"$| 	c #C60523",
"%| 	c #C70621",
"&| 	c #C80520",
"*| 	c #C8031D",
"=| 	c #CC0522",
"-| 	c #C9021F",
";| 	c #CC0121",
">| 	c #AB0016",
",| 	c #C80521",
"'| 	c #D10D26",
")| 	c #DA182E",
"!| 	c #DD1A30",
"~| 	c #DD1831",
"{| 	c #D61930",
"]| 	c #C70B28",
"^| 	c #CC0E2A",
"/| 	c #D11229",
"(| 	c #D71729",
"_| 	c #D71D2B",
":| 	c #D1212D",
"<| 	c #E34842",
"[| 	c #F57259",
"}| 	c #F5845D",
"|| 	c #EF8558",
"1| 	c #F38C5C",
"2| 	c #F69363",
"3| 	c #F99868",
"4| 	c #F5865D",
"5| 	c #F3825B",
"6| 	c #F17D57",
"7| 	c #F18359",
"8| 	c #F2A46E",
"9| 	c #FBC585",
"0| 	c #FBC987",
"a| 	c #F7B376",
"b| 	c #F2A56C",
"c| 	c #F7A86F",
"d| 	c #F79063",
"e| 	c #F89767",
"f| 	c #F28E60",
"g| 	c #F2875C",
"h| 	c #F38A60",
"i| 	c #F79469",
"j| 	c #F08860",
"k| 	c #F2855E",
"l| 	c #F48B62",
"m| 	c #F3906A",
"n| 	c #A66E6E",
"o| 	c #344193",
"p| 	c #26419F",
"q| 	c #2946A5",
"r| 	c #2B4AA7",
"s| 	c #2B4DAA",
"t| 	c #254BAB",
"u| 	c #204DAB",
"v| 	c #204EAD",
"w| 	c #214EAF",
"x| 	c #2252AC",
"y| 	c #2152AC",
"z| 	c #1E4FAB",
"A| 	c #214FB0",
"B| 	c #2451B2",
"C| 	c #2253AB",
"D| 	c #2252A8",
"E| 	c #1C4CA3",
"F| 	c #1D4DA6",
"G| 	c #1D4BA6",
"H| 	c #1D4CA6",
"I| 	c #2554AF",
"J| 	c #2356AF",
"K| 	c #2456B0",
"L| 	c #2353AF",
"M| 	c #2454AF",
"N| 	c #2855B0",
"O| 	c #2954B0",
"P| 	c #2855B1",
"Q| 	c #2754AE",
"R| 	c #2753AB",
"S| 	c #2654AB",
"T| 	c #2856AE",
"U| 	c #2A52AF",
"V| 	c #274BA9",
"W| 	c #2A4EAE",
"X| 	c #474E9F",
"Y| 	c #CF8B97",
"Z| 	c #F89878",
"`| 	c #F48C6A",
" 1 	c #F48768",
".1 	c #F08664",
"+1 	c #F6976E",
"@1 	c #FAA174",
"#1 	c #F69A6F",
"$1 	c #F7926A",
"%1 	c #F68963",
"&1 	c #F48762",
"*1 	c #F48B67",
"=1 	c #F2976B",
"-1 	c #F5A271",
";1 	c #F19F6D",
">1 	c #F5A06F",
",1 	c #F79F6F",
"'1 	c #F49B6D",
")1 	c #F09366",
"!1 	c #F6976C",
"~1 	c #F9966E",
"{1 	c #F78563",
"]1 	c #F37058",
"^1 	c #F1594B",
"/1 	c #EC473E",
"(1 	c #EB3937",
"_1 	c #EB3F3B",
":1 	c #F04D46",
"<1 	c #F6C477",
"[1 	c #F6C57A",
"}1 	c #FCDB8E",
"|1 	c #F8C97D",
"11 	c #F3B76F",
"21 	c #EFA863",
"31 	c #F59E5D",
"41 	c #F38552",
"51 	c #EC6B49",
"61 	c #EC6749",
"71 	c #F0724F",
"81 	c #F2825A",
"91 	c #F26C50",
"01 	c #EF493D",
"a1 	c #EB3735",
"b1 	c #EB3D38",
"c1 	c #F14A41",
"d1 	c #F04F43",
"e1 	c #F15746",
"f1 	c #ED5B46",
"g1 	c #F36950",
"h1 	c #F16F51",
"i1 	c #F17552",
"j1 	c #EC5B46",
"k1 	c #EE5745",
"l1 	c #F25546",
"m1 	c #ED4C41",
"n1 	c #EC423C",
"o1 	c #EC3837",
"p1 	c #E8282D",
"q1 	c #E21A27",
"r1 	c #E01627",
"s1 	c #D70E22",
"t1 	c #D60B23",
"u1 	c #C7021C",
"v1 	c #D40925",
"w1 	c #D70F26",
"x1 	c #DA0E26",
"y1 	c #DD0E27",
"z1 	c #D90C25",
"A1 	c #D80A23",
"B1 	c #D70A25",
"C1 	c #D00020",
"D1 	c #C90020",
"E1 	c #B50119",
"F1 	c #A7011A",
"G1 	c #AD011D",
"H1 	c #BB001F",
"I1 	c #BE021F",
"J1 	c #C2011B",
"K1 	c #CC001D",
"L1 	c #D1011D",
"M1 	c #D2011E",
"N1 	c #D20320",
"O1 	c #D20524",
"P1 	c #D40A26",
"Q1 	c #B8051E",
"R1 	c #A1011D",
"S1 	c #9F001C",
"T1 	c #A9021C",
"U1 	c #AF011D",
"V1 	c #B5011C",
"W1 	c #B8001C",
"X1 	c #C2061F",
"Y1 	c #C50824",
"Z1 	c #C40622",
"`1 	c #C70623",
" 2 	c #C70521",
".2 	c #C80621",
"+2 	c #CC0824",
"@2 	c #C9051D",
"#2 	c #CC071F",
"$2 	c #C20420",
"%2 	c #AC0015",
"&2 	c #C20623",
"*2 	c #D20E26",
"=2 	c #D41026",
"-2 	c #D9142C",
";2 	c #DA182D",
">2 	c #D81730",
",2 	c #D51931",
"'2 	c #C70E25",
")2 	c #C60A28",
"!2 	c #CB0E2A",
"~2 	c #D0122A",
"{2 	c #D61729",
"]2 	c #D8182A",
"^2 	c #D91F2D",
"/2 	c #D0232B",
"(2 	c #E95049",
"_2 	c #F67357",
":2 	c #F8865E",
"<2 	c #F48B5E",
"[2 	c #FA9064",
"}2 	c #F48E5F",
"|2 	c #F58D62",
"12 	c #F58760",
"22 	c #F4845E",
"32 	c #F07F5B",
"42 	c #F28259",
"52 	c #EF8D5E",
"62 	c #F2AA6E",
"72 	c #FBC282",
"82 	c #F4AB70",
"92 	c #F3A96F",
"02 	c #F7AF74",
"a2 	c #F79969",
"b2 	c #F28C5E",
"c2 	c #F69362",
"d2 	c #F3865F",
"e2 	c #F8976C",
"f2 	c #F08861",
"g2 	c #F68762",
"h2 	c #F89369",
"i2 	c #F08E69",
"j2 	c #A1666F",
"k2 	c #344393",
"l2 	c #2742A2",
"m2 	c #2946A3",
"n2 	c #2C4AA8",
"o2 	c #254DAC",
"p2 	c #2051AD",
"q2 	c #1D4EAC",
"r2 	c #1D51B0",
"s2 	c #204FB1",
"t2 	c #2351B2",
"u2 	c #2253AC",
"v2 	c #2153AB",
"w2 	c #1A4CA4",
"x2 	c #1B4EA7",
"y2 	c #1B4BA4",
"z2 	c #1D4BA5",
"A2 	c #1E4DA7",
"B2 	c #1B4DA6",
"C2 	c #2653AD",
"D2 	c #2552AF",
"E2 	c #2458AF",
"F2 	c #2356AD",
"G2 	c #2556B2",
"H2 	c #2354B0",
"I2 	c #2B56B4",
"J2 	c #2A55AF",
"K2 	c #2955AC",
"L2 	c #2A56AF",
"M2 	c #2C51AD",
"N2 	c #2B4DAE",
"O2 	c #444CA1",
"P2 	c #CA8A9A",
"Q2 	c #F99A7A",
"R2 	c #F78F6A",
"S2 	c #F58766",
"T2 	c #F28765",
"U2 	c #F9A071",
"V2 	c #F89D71",
"W2 	c #F58D69",
"X2 	c #F28460",
"Y2 	c #F2825F",
"Z2 	c #F3946C",
"`2 	c #F39A6D",
" 3 	c #F4A270",
".3 	c #F2A16E",
"+3 	c #F49E6D",
"@3 	c #F79C6D",
"#3 	c #F29667",
"$3 	c #EF9263",
"%3 	c #F19569",
"&3 	c #F6966C",
"*3 	c #F4755C",
"=3 	c #F15C4F",
"-3 	c #EE4942",
";3 	c #EE3F3C",
">3 	c #ED3C3A",
",3 	c #EE433F",
"'3 	c #F15149",
")3 	c #F6C77A",
"!3 	c #F6CB7D",
"~3 	c #FCDC8D",
"{3 	c #F8C87C",
"]3 	c #FAC077",
"^3 	c #F4A864",
"/3 	c #F19656",
"(3 	c #F58452",
"_3 	c #F06C49",
":3 	c #F06A4B",
"<3 	c #F47653",
"[3 	c #FA8D63",
"}3 	c #F4875E",
"|3 	c #F0694D",
"13 	c #EF453C",
"23 	c #EC3736",
"33 	c #E83030",
"43 	c #ED3635",
"53 	c #ED3937",
"63 	c #EC3E38",
"73 	c #EF4840",
"83 	c #F15748",
"93 	c #EE5A47",
"03 	c #F2654E",
"a3 	c #F26E50",
"b3 	c #F37654",
"c3 	c #F37856",
"d3 	c #EE654B",
"e3 	c #F15C49",
"f3 	c #F45D4C",
"g3 	c #F15445",
"h3 	c #EC483E",
"i3 	c #EB443C",
"j3 	c #EC403A",
"k3 	c #EA3434",
"l3 	c #E31B28",
"m3 	c #E1192A",
"n3 	c #DB1528",
"o3 	c #D40B22",
"p3 	c #CE041E",
"q3 	c #CF061F",
"r3 	c #D70C25",
"s3 	c #D70E24",
"t3 	c #DA0F25",
"u3 	c #DD1027",
"v3 	c #D90F25",
"w3 	c #D60C21",
"x3 	c #D20720",
"y3 	c #D00120",
"z3 	c #C9001F",
"A3 	c #B50019",
"B3 	c #B1001F",
"C3 	c #B9001E",
"D3 	c #C7011B",
"E3 	c #CB001C",
"F3 	c #D1011E",
"G3 	c #D20824",
"H3 	c #B90620",
"I3 	c #A1021D",
"J3 	c #9F001D",
"K3 	c #B0011D",
"L3 	c #B5001C",
"M3 	c #B9001C",
"N3 	c #C20620",
"O3 	c #C60A25",
"P3 	c #C40420",
"Q3 	c #C8061F",
"R3 	c #CA071F",
"S3 	c #CE0921",
"T3 	c #D00A25",
"U3 	c #CA0420",
"V3 	c #C50622",
"W3 	c #AD0015",
"X3 	c #B5011E",
"Y3 	c #C6031F",
"Z3 	c #D30F27",
"`3 	c #D51129",
" 4 	c #DA172E",
".4 	c #D71730",
"+4 	c #D1172E",
"@4 	c #C20921",
"#4 	c #C30826",
"$4 	c #C90C29",
"%4 	c #D0112A",
"&4 	c #D51628",
"*4 	c #D81D2C",
"=4 	c #ED564E",
"-4 	c #F47256",
";4 	c #F8855D",
">4 	c #FC9165",
",4 	c #FB9165",
"'4 	c #F68D5F",
")4 	c #F08B5D",
"!4 	c #F58A61",
"~4 	c #F88B65",
"{4 	c #F37E58",
"]4 	c #EF8458",
"^4 	c #F09862",
"/4 	c #F9B276",
"(4 	c #FAB277",
"_4 	c #FBB77B",
":4 	c #F5AA70",
"<4 	c #F39564",
"[4 	c #F08E5F",
"}4 	c #EE8C5D",
"|4 	c #F29160",
"14 	c #F2845D",
"24 	c #F7956B",
"34 	c #F18B61",
"44 	c #F38961",
"54 	c #FC9B6E",
"64 	c #ED8F6B",
"74 	c #96606F",
"84 	c #304194",
"94 	c #2844A2",
"04 	c #2B4AA8",
"a4 	c #2A4EAA",
"b4 	c #294FAB",
"c4 	c #254DAD",
"d4 	c #214EAA",
"e4 	c #2351AD",
"f4 	c #2551AD",
"g4 	c #224EAA",
"h4 	c #1D4FAB",
"i4 	c #1D4EAB",
"j4 	c #1B4FAD",
"k4 	c #1F4EAF",
"l4 	c #2250B1",
"m4 	c #2253AD",
"n4 	c #1F51AA",
"o4 	c #1D4FA8",
"p4 	c #1B4EA8",
"q4 	c #184AA4",
"r4 	c #1949A5",
"s4 	c #1B4CA7",
"t4 	c #194CA7",
"u4 	c #2451AD",
"v4 	c #2457AF",
"w4 	c #2656B1",
"x4 	c #2657B3",
"y4 	c #2354AD",
"z4 	c #2452AD",
"A4 	c #2552AD",
"B4 	c #2A55B2",
"C4 	c #2955AD",
"D4 	c #2854AD",
"E4 	c #2854B0",
"F4 	c #2751AD",
"G4 	c #2A53AF",
"H4 	c #3053B1",
"I4 	c #2F53B0",
"J4 	c #294DAD",
"K4 	c #2B4FAD",
"L4 	c #2B4EAE",
"M4 	c #3F4AA3",
"N4 	c #C28197",
"O4 	c #F69478",
"P4 	c #F68D6B",
"Q4 	c #F58768",
"R4 	c #F48967",
"S4 	c #F39168",
"T4 	c #F8996D",
"U4 	c #F38968",
"V4 	c #ED7E5C",
"W4 	c #F2805E",
"X4 	c #F38965",
"Y4 	c #F79D73",
"Z4 	c #F9A677",
"`4 	c #F3A471",
" 5 	c #F8A674",
".5 	c #F6A170",
"+5 	c #F59E6E",
"@5 	c #F59C6C",
"#5 	c #F29369",
"$5 	c #F7946C",
"%5 	c #F98B66",
"&5 	c #F5785F",
"*5 	c #F05F51",
"=5 	c #F04D45",
"-5 	c #F0423E",
";5 	c #F14642",
">5 	c #F35149",
",5 	c #F8C77C",
"'5 	c #FBCD7F",
")5 	c #FCD286",
"!5 	c #F8C279",
"~5 	c #FABE77",
"{5 	c #F8AD6A",
"]5 	c #F2995A",
"^5 	c #F28551",
"/5 	c #EF7049",
"(5 	c #F16E4B",
"_5 	c #F67955",
":5 	c #F78960",
"<5 	c #ED7C55",
"[5 	c #EE413A",
"}5 	c #EC3132",
"|5 	c #EF3938",
"15 	c #EE413B",
"25 	c #EE473F",
"35 	c #EF4E43",
"45 	c #F25649",
"55 	c #ED5746",
"65 	c #EE5F49",
"75 	c #F16C4E",
"85 	c #F57857",
"95 	c #F37454",
"05 	c #E95A42",
"a5 	c #F05645",
"b5 	c #F45C4D",
"c5 	c #ED453D",
"d5 	c #ED413B",
"e5 	c #EB3B36",
"f5 	c #E52E2D",
"g5 	c #E42328",
"h5 	c #DF1926",
"i5 	c #DD1827",
"j5 	c #DB1829",
"k5 	c #D20B20",
"l5 	c #CC031D",
"m5 	c #D50B23",
"n5 	c #DA0E24",
"o5 	c #D80D20",
"p5 	c #D80D21",
"q5 	c #DB1025",
"r5 	c #D80F24",
"s5 	c #D70D22",
"t5 	c #D40921",
"u5 	c #B60119",
"v5 	c #B50121",
"w5 	c #B7001C",
"x5 	c #B2001B",
"y5 	c #B9011D",
"z5 	c #CA001C",
"A5 	c #CD021D",
"B5 	c #CF031F",
"C5 	c #D10723",
"D5 	c #B70520",
"E5 	c #9F011A",
"F5 	c #A0001E",
"G5 	c #B8011D",
"H5 	c #BB001D",
"I5 	c #BF041D",
"J5 	c #C40723",
"K5 	c #C40623",
"L5 	c #C50522",
"M5 	c #C50220",
"N5 	c #C80522",
"O5 	c #CA0824",
"P5 	c #C90720",
"Q5 	c #CC0820",
"R5 	c #D30D28",
"S5 	c #CA0521",
"T5 	c #C60723",
"U5 	c #AF0116",
"V5 	c #AE0119",
"W5 	c #CE0B23",
"X5 	c #D00F27",
"Y5 	c #D31129",
"Z5 	c #DC1931",
"`5 	c #D8182C",
" 6 	c #D91A32",
".6 	c #D0172E",
"+6 	c #C10820",
"@6 	c #C10624",
"#6 	c #C80A27",
"$6 	c #D61B2A",
"%6 	c #CF222B",
"&6 	c #EF5750",
"*6 	c #F67559",
"=6 	c #F8845E",
"-6 	c #F78B62",
";6 	c #F1855B",
">6 	c #F4885B",
",6 	c #F88A64",
"'6 	c #F27D56",
")6 	c #F3895C",
"!6 	c #F2955E",
"~6 	c #ED9960",
"{6 	c #F5A96E",
"]6 	c #FCBB7D",
"^6 	c #F2A66E",
"/6 	c #F19360",
"(6 	c #F08E5D",
"_6 	c #F89669",
":6 	c #F49465",
"<6 	c #F9986A",
"[6 	c #FB9E71",
"}6 	c #F39267",
"|6 	c #F18B60",
"16 	c #FB9A6C",
"26 	c #EA8D6C",
"36 	c #915E74",
"46 	c #2E3F95",
"56 	c #2944A1",
"66 	c #2A4AA9",
"76 	c #294DAA",
"86 	c #264EAE",
"96 	c #1F4CA9",
"06 	c #234FAB",
"a6 	c #214DA8",
"b6 	c #1B4DA8",
"c6 	c #1A4EAB",
"d6 	c #1D4DAD",
"e6 	c #1E4DAE",
"f6 	c #204FAE",
"g6 	c #2151AE",
"h6 	c #1B4DA9",
"i6 	c #1649A4",
"j6 	c #1549A3",
"k6 	c #194EA9",
"l6 	c #1E51AC",
"m6 	c #2050A9",
"n6 	c #2956B3",
"o6 	c #2458B1",
"p6 	c #2355B0",
"q6 	c #2354AF",
"r6 	c #2853B0",
"s6 	c #2753AE",
"t6 	c #2D51AE",
"u6 	c #2B4FAF",
"v6 	c #3D49A6",
"w6 	c #BA7B93",
"x6 	c #F49279",
"y6 	c #F58C6D",
"z6 	c #F48667",
"A6 	c #F38864",
"B6 	c #F58D65",
"C6 	c #F48A67",
"D6 	c #F48669",
"E6 	c #ED7C5C",
"F6 	c #F07E5C",
"G6 	c #F9A076",
"H6 	c #F8A576",
"I6 	c #F4A471",
"J6 	c #F6A472",
"K6 	c #F4A16F",
"L6 	c #F9A675",
"M6 	c #FAA374",
"N6 	c #F89C6E",
"O6 	c #F5956B",
"P6 	c #F78663",
"Q6 	c #F5785E",
"R6 	c #EF5F50",
"S6 	c #EE4D45",
"T6 	c #EF423E",
"U6 	c #ED3F3C",
"V6 	c #EE4540",
"W6 	c #F04E46",
"X6 	c #FBD185",
"Y6 	c #FED083",
"Z6 	c #F2C176",
"`6 	c #F2B66E",
" 7 	c #F5B66F",
".7 	c #FBB46E",
"+7 	c #F8A664",
"@7 	c #F8955E",
"#7 	c #F38154",
"$7 	c #F2754E",
"%7 	c #F57B55",
"&7 	c #F27F58",
"*7 	c #F47A56",
"=7 	c #F15D47",
"-7 	c #ED4039",
";7 	c #EA3636",
">7 	c #E93031",
",7 	c #ED3233",
"'7 	c #EE3938",
")7 	c #E93935",
"!7 	c #EE423B",
"~7 	c #ED463D",
"{7 	c #F04D43",
"]7 	c #F25549",
"^7 	c #EC5545",
"/7 	c #EC5B47",
"(7 	c #F47655",
"_7 	c #F17151",
":7 	c #E95840",
"<7 	c #EF5041",
"[7 	c #F3594B",
"}7 	c #ED4F43",
"|7 	c #EF453D",
"17 	c #ED3E39",
"27 	c #EA3733",
"37 	c #E42A2A",
"47 	c #E52328",
"57 	c #DC1724",
"67 	c #D61222",
"77 	c #D61425",
"87 	c #D10A20",
"97 	c #D00C24",
"07 	c #D80D24",
"a7 	c #D90C20",
"b7 	c #D90E21",
"c7 	c #D80E21",
"d7 	c #D90E22",
"e7 	c #D70C20",
"f7 	c #D30A21",
"g7 	c #D10621",
"h7 	c #C0001C",
"i7 	c #AF011C",
"j7 	c #AC011B",
"k7 	c #B70121",
"l7 	c #B90021",
"m7 	c #B4001B",
"n7 	c #B0011A",
"o7 	c #B5001B",
"p7 	c #BD011B",
"q7 	c #D2021F",
"r7 	c #CD021C",
"s7 	c #CE031D",
"t7 	c #B70421",
"u7 	c #9E0118",
"v7 	c #A1001F",
"w7 	c #A9001F",
"x7 	c #AE001F",
"y7 	c #BD021F",
"z7 	c #C0041E",
"A7 	c #C30721",
"B7 	c #C60824",
"C7 	c #C60421",
"D7 	c #C70422",
"E7 	c #C80523",
"F7 	c #C80722",
"G7 	c #C80821",
"H7 	c #CA0922",
"I7 	c #CF0A22",
"J7 	c #D10B26",
"K7 	c #C90925",
"L7 	c #B20216",
"M7 	c #AF0119",
"N7 	c #B6001D",
"O7 	c #CD0923",
"P7 	c #D10F27",
"Q7 	c #D3112A",
"R7 	c #DA1830",
"S7 	c #D71931",
"T7 	c #D0182F",
"U7 	c #D6172A",
"V7 	c #D91A2C",
"W7 	c #D51B2A",
"X7 	c #CF232B",
"Y7 	c #ED584F",
"Z7 	c #F7775A",
"`7 	c #F7825D",
" 8 	c #EF8359",
".8 	c #F18458",
"+8 	c #F48B5F",
"@8 	c #F88C62",
"#8 	c #F1815C",
"$8 	c #F47F5C",
"%8 	c #EE7C55",
"&8 	c #F08F5E",
"*8 	c #F29C61",
"=8 	c #EF985F",
"-8 	c #F19F64",
";8 	c #F7B779",
">8 	c #F4A972",
",8 	c #F39663",
"'8 	c #F39160",
")8 	c #F59564",
"!8 	c #F49468",
"~8 	c #F79768",
"{8 	c #F39467",
"]8 	c #F7976A",
"^8 	c #F38A61",
"/8 	c #F38B62",
"(8 	c #FBA375",
"_8 	c #F69D6E",
":8 	c #F89264",
"<8 	c #EA8A6D",
"[8 	c #8C5977",
"}8 	c #2F4099",
"|8 	c #28449F",
"18 	c #2945A3",
"28 	c #2648A6",
"38 	c #274CAA",
"48 	c #284FAB",
"58 	c #244DAC",
"68 	c #204DA9",
"78 	c #1F4DA7",
"88 	c #1C4EA9",
"98 	c #1D4EAA",
"08 	c #1D51AD",
"a8 	c #1D4DAC",
"b8 	c #1C4CAD",
"c8 	c #1549A4",
"d8 	c #164BA6",
"e8 	c #164AA5",
"f8 	c #174EA8",
"g8 	c #1D51AC",
"h8 	c #2053AD",
"i8 	c #2152AB",
"j8 	c #2356B1",
"k8 	c #2455B1",
"l8 	c #2253AF",
"m8 	c #2555AE",
"n8 	c #2B54B0",
"o8 	c #2F57B3",
"p8 	c #2E53B1",
"q8 	c #2D51B0",
"r8 	c #2F52B1",
"s8 	c #3A49A6",
"t8 	c #B5768E",
"u8 	c #EE8C72",
"v8 	c #F2886B",
"w8 	c #F48668",
"x8 	c #F48864",
"y8 	c #F38460",
"z8 	c #F28263",
"A8 	c #F58369",
"B8 	c #F17F60",
"C8 	c #F27E5D",
"D8 	c #F28561",
"E8 	c #F2996C",
"F8 	c #F29E6D",
"G8 	c #FCAB7A",
"H8 	c #F5996C",
"I8 	c #F37E5C",
"J8 	c #F3735B",
"K8 	c #F05E51",
"L8 	c #EB4A42",
"M8 	c #EC403C",
"N8 	c #EE423E",
"O8 	c #EE4741",
"P8 	c #F14E46",
"Q8 	c #FDD489",
"R8 	c #FCD084",
"S8 	c #EBB76C",
"T8 	c #F4BA6F",
"U8 	c #F4B66F",
"V8 	c #F9B46F",
"W8 	c #F5A664",
"X8 	c #F99E61",
"Y8 	c #F7935E",
"Z8 	c #F28254",
"`8 	c #F07B52",
" 9 	c #F07852",
".9 	c #F36F4E",
"+9 	c #EE3E39",
"@9 	c #EA3635",
"#9 	c #EB3033",
"$9 	c #EE3334",
"%9 	c #E93835",
"&9 	c #EE463F",
"*9 	c #F24F44",
"=9 	c #F4564A",
"-9 	c #F05445",
";9 	c #F05C49",
">9 	c #F26D4E",
",9 	c #F0714C",
"'9 	c #E95941",
")9 	c #ED5042",
"!9 	c #F3584C",
"~9 	c #EE4D42",
"{9 	c #F0453D",
"]9 	c #E93230",
"^9 	c #E52829",
"/9 	c #E32026",
"(9 	c #DB1824",
"_9 	c #D61323",
":9 	c #D00A21",
"<9 	c #CA061F",
"[9 	c #D20F27",
"}9 	c #D81124",
"|9 	c #DB0F23",
"19 	c #DB1224",
"29 	c #D80F1F",
"39 	c #DA0F20",
"49 	c #D80C20",
"59 	c #D40A20",
"69 	c #C7021D",
"79 	c #AD011A",
"89 	c #B8001E",
"99 	c #B1011B",
"09 	c #B2011A",
"a9 	c #B9011A",
"b9 	c #C5001B",
"c9 	c #CA011A",
"d9 	c #D0021B",
"e9 	c #D2021C",
"f9 	c #D2031D",
"g9 	c #D1021D",
"h9 	c #CE041D",
"i9 	c #CE051D",
"j9 	c #CD051C",
"k9 	c #BD0422",
"l9 	c #9F0118",
"m9 	c #A3001C",
"n9 	c #A8001F",
"o9 	c #BB0422",
"p9 	c #BD0220",
"q9 	c #C00420",
"r9 	c #C30622",
"s9 	c #C60923",
"t9 	c #C70322",
"u9 	c #C50823",
"v9 	c #C40922",
"w9 	c #C90A23",
"x9 	c #CC0A22",
"y9 	c #CF0C24",
"z9 	c #D10C26",
"A9 	c #D00B26",
"B9 	c #C90520",
"C9 	c #C90621",
"D9 	c #C90A24",
"E9 	c #B30218",
"F9 	c #B3001C",
"G9 	c #BD011D",
"H9 	c #C6051F",
"I9 	c #C90820",
"J9 	c #D31128",
"K9 	c #D41229",
"L9 	c #D8172F",
"M9 	c #D7152D",
"N9 	c #D8162D",
"O9 	c #D81931",
"P9 	c #D11930",
"Q9 	c #C30A22",
"R9 	c #C30825",
"S9 	c #CA0C28",
"T9 	c #D0102A",
"U9 	c #D5152D",
"V9 	c #D8192E",
"W9 	c #D41B2A",
"X9 	c #CD2329",
"Y9 	c #EB5A4D",
"Z9 	c #F57859",
"`9 	c #F2855C",
" 0 	c #F3845B",
".0 	c #F78A60",
"+0 	c #F78961",
"@0 	c #ED7D55",
"#0 	c #ED7D54",
"$0 	c #F3815A",
"%0 	c #EF835A",
"&0 	c #F6A770",
"*0 	c #F7AE70",
"=0 	c #F3A467",
"-0 	c #F3A969",
";0 	c #F7B777",
">0 	c #F6A971",
",0 	c #F69C68",
"'0 	c #F89A68",
")0 	c #F99B69",
"!0 	c #F79366",
"~0 	c #F59267",
"{0 	c #F48D64",
"]0 	c #FAA375",
"^0 	c #FCA476",
"/0 	c #F58E61",
"(0 	c #E8886C",
"_0 	c #845874",
":0 	c #2F4098",
"<0 	c #28449E",
"[0 	c #2947A4",
"}0 	c #2649A7",
"|0 	c #244BA8",
"10 	c #224CAB",
"20 	c #1F4EAB",
"30 	c #1C4EA8",
"40 	c #1D4DA7",
"50 	c #1F51AB",
"60 	c #1F52AD",
"70 	c #1C4EAA",
"80 	c #1D4EAE",
"90 	c #1B4CAD",
"00 	c #2050B0",
"a0 	c #1A4CA8",
"b0 	c #134AA3",
"c0 	c #154CA4",
"d0 	c #154BA4",
"e0 	c #174BA4",
"f0 	c #1C4EA6",
"g0 	c #2052AA",
"h0 	c #1D4FAA",
"i0 	c #2652B3",
"j0 	c #2456B3",
"k0 	c #2354B1",
"l0 	c #2654AF",
"m0 	c #2654AC",
"n0 	c #2857AE",
"o0 	c #2756AD",
"p0 	c #2755AC",
"q0 	c #2652AB",
"r0 	c #2B56AF",
"s0 	c #2C55AF",
"t0 	c #2C52AD",
"u0 	c #2C53AE",
"v0 	c #2D54AF",
"w0 	c #2B50AC",
"x0 	c #3B4AA7",
"y0 	c #B2708C",
"z0 	c #ED886F",
"A0 	c #F18568",
"B0 	c #F18366",
"C0 	c #F38564",
"D0 	c #F0815F",
"E0 	c #F38160",
"F0 	c #F27D60",
"G0 	c #F58064",
"H0 	c #F27C5E",
"I0 	c #F07B5B",
"J0 	c #F18361",
"K0 	c #F18C64",
"L0 	c #F5976D",
"M0 	c #F09569",
"N0 	c #F69F70",
"O0 	c #FAA576",
"P0 	c #F39569",
"Q0 	c #F29167",
"R0 	c #F17B5A",
"S0 	c #F3725A",
"T0 	c #F15F51",
"U0 	c #EB4841",
"V0 	c #EF4440",
"W0 	c #ED4740",
"X0 	c #F05146",
"Y0 	c #F8CA81",
"Z0 	c #F7CA7E",
"`0 	c #F2C074",
" a 	c #FBC579",
".a 	c #FABE75",
"+a 	c #FCB672",
"@a 	c #F4A362",
"#a 	c #F79D60",
"$a 	c #F99760",
"%a 	c #F28556",
"&a 	c #F07651",
"*a 	c #F06949",
"=a 	c #EC4F3C",
"-a 	c #EE3D38",
";a 	c #EA3634",
">a 	c #EA3034",
",a 	c #EE3535",
"'a 	c #E93D38",
")a 	c #F14941",
"!a 	c #F34F45",
"~a 	c #F35549",
"{a 	c #F15344",
"]a 	c #F15E4A",
"^a 	c #F77252",
"/a 	c #F0754E",
"(a 	c #F3734E",
"_a 	c #ED5D44",
":a 	c #EE5042",
"<a 	c #EF4E44",
"[a 	c #EB3833",
"}a 	c #E9302F",
"|a 	c #E62729",
"1a 	c #E11C25",
"2a 	c #DB1825",
"3a 	c #DB1828",
"4a 	c #DC1B2D",
"5a 	c #CF0920",
"6a 	c #CC0921",
"7a 	c #CF0E25",
"8a 	c #D91325",
"9a 	c #DC1326",
"0a 	c #DC1125",
"aa 	c #DC1124",
"ba 	c #DC1222",
"ca 	c #DB1121",
"da 	c #D80D1F",
"ea 	c #D40A1F",
"fa 	c #AC0019",
"ga 	c #B8011F",
"ha 	c #B8001D",
"ia 	c #B10019",
"ja 	c #B70018",
"ka 	c #CC031C",
"la 	c #D1031D",
"ma 	c #D50520",
"na 	c #D1031C",
"oa 	c #CF051D",
"pa 	c #D20A22",
"qa 	c #D0091F",
"ra 	c #CE0721",
"sa 	c #A1011F",
"ta 	c #A7011F",
"ua 	c #B0001D",
"va 	c #BA0221",
"wa 	c #BD0321",
"xa 	c #C50922",
"ya 	c #C70423",
"za 	c #C70522",
"Aa 	c #C50723",
"Ba 	c #C50B23",
"Ca 	c #C80A23",
"Da 	c #CA0921",
"Ea 	c #CE0822",
"Fa 	c #CF0A25",
"Ga 	c #C90923",
"Ha 	c #B30219",
"Ia 	c #AE0019",
"Ja 	c #BB001B",
"Ka 	c #C4031D",
"La 	c #C8081F",
"Ma 	c #D31227",
"Na 	c #D41328",
"Oa 	c #D8182F",
"Pa 	c #D81831",
"Qa 	c #D21830",
"Ra 	c #C40B23",
"Sa 	c #C40926",
"Ta 	c #CA0C29",
"Ua 	c #D0102B",
"Va 	c #D4152E",
"Wa 	c #D5182F",
"Xa 	c #D41D2C",
"Ya 	c #CE282C",
"Za 	c #F16153",
"`a 	c #F47A5B",
" b 	c #F98B63",
".b 	c #F88B62",
"+b 	c #F5885F",
"@b 	c #F3835B",
"#b 	c #F3865D",
"$b 	c #F08158",
"%b 	c #F18258",
"&b 	c #F3825A",
"*b 	c #EF875B",
"=b 	c #FBB179",
"-b 	c #FAB97A",
";b 	c #F4AE6F",
">b 	c #F9B472",
",b 	c #F8BE7C",
"'b 	c #F3A86F",
")b 	c #F8A16C",
"!b 	c #F79E6A",
"~b 	c #F79A68",
"{b 	c #F28C61",
"]b 	c #F58F66",
"^b 	c #FBA074",
"/b 	c #F59C6D",
"(b 	c #F69667",
"_b 	c #F48C5F",
":b 	c #E8886B",
"<b 	c #7D5471",
"[b 	c #2E4097",
"}b 	c #29459F",
"|b 	c #2746A2",
"1b 	c #284BA8",
"2b 	c #234AA6",
"3b 	c #244DA9",
"4b 	c #234DAA",
"5b 	c #1E4CA8",
"6b 	c #1D4EA8",
"7b 	c #1F4EA8",
"8b 	c #1E4DA8",
"9b 	c #2153AE",
"0b 	c #2154AD",
"ab 	c #1C4DAC",
"bb 	c #184AAB",
"cb 	c #1D4EAF",
"db 	c #1E4FB0",
"eb 	c #164CA5",
"fb 	c #134BA1",
"gb 	c #144AA0",
"hb 	c #13479D",
"ib 	c #194CA3",
"jb 	c #1C4EA5",
"kb 	c #1E50A8",
"lb 	c #2652B4",
"mb 	c #2854B1",
"nb 	c #2959B6",
"ob 	c #2456B2",
"pb 	c #2554AA",
"qb 	c #2855AA",
"rb 	c #2955AB",
"sb 	c #2A56AE",
"tb 	c #2A52AC",
"ub 	c #2E55B0",
"vb 	c #2F57B1",
"wb 	c #2D53AD",
"xb 	c #3B4BA7",
"yb 	c #AF6E8B",
"zb 	c #EF8970",
"Ab 	c #F28667",
"Bb 	c #F08165",
"Cb 	c #F38262",
"Db 	c #EF7D5B",
"Eb 	c #F37E5D",
"Fb 	c #F27C60",
"Gb 	c #F17A5E",
"Hb 	c #EF7A5C",
"Ib 	c #F08161",
"Jb 	c #F48665",
"Kb 	c #F18463",
"Lb 	c #F48F6A",
"Mb 	c #F39269",
"Nb 	c #F1996C",
"Ob 	c #F7A273",
"Pb 	c #F1986B",
"Qb 	c #F68B66",
"Rb 	c #F27B5B",
"Sb 	c #F26F58",
"Tb 	c #F05B4E",
"Ub 	c #EA3D39",
"Vb 	c #EC4840",
"Wb 	c #F05246",
"Xb 	c #F1B873",
"Yb 	c #F9CC81",
"Zb 	c #FDD082",
"`b 	c #F5BF70",
" c 	c #F3B56C",
".c 	c #FAAF6D",
"+c 	c #F7A364",
"@c 	c #F6985D",
"#c 	c #F8915C",
"$c 	c #F08353",
"%c 	c #F58259",
"&c 	c #F97F59",
"*c 	c #F06748",
"=c 	c #EB4D3A",
"-c 	c #EF3C38",
";c 	c #E93332",
">c 	c #EB3336",
",c 	c #EE3737",
"'c 	c #F13F3D",
")c 	c #EC3D3A",
"!c 	c #EA3F39",
"~c 	c #EF463F",
"{c 	c #EF4C42",
"]c 	c #EF5044",
"^c 	c #F05344",
"/c 	c #F15E49",
"(c 	c #F87254",
"_c 	c #F0724E",
":c 	c #F37251",
"<c 	c #F05E47",
"[c 	c #EF4F42",
"}c 	c #E9443B",
"|c 	c #EC413A",
"1c 	c #E93A34",
"2c 	c #EA3431",
"3c 	c #E92E2F",
"4c 	c #E5252A",
"5c 	c #E11A25",
"6c 	c #DA1523",
"7c 	c #D71325",
"8c 	c #D00B22",
"9c 	c #D00E26",
"0c 	c #D00F26",
"ac 	c #D91526",
"bc 	c #DC1528",
"cc 	c #DE1427",
"dc 	c #DC1023",
"ec 	c #DD1224",
"fc 	c #D60C22",
"gc 	c #CD051E",
"hc 	c #B50018",
"ic 	c #AC0017",
"jc 	c #B9021E",
"kc 	c #B60221",
"lc 	c #AF0019",
"mc 	c #C7031E",
"nc 	c #CC021C",
"oc 	c #CF001A",
"pc 	c #D3051E",
"qc 	c #D0051D",
"rc 	c #D00820",
"sc 	c #D10920",
"tc 	c #C40522",
"uc 	c #9F0121",
"vc 	c #A6011C",
"wc 	c #B4011E",
"xc 	c #BE0321",
"yc 	c #BF0220",
"zc 	c #C30720",
"Ac 	c #C30420",
"Bc 	c #C60623",
"Cc 	c #C30521",
"Dc 	c #C70822",
"Ec 	c #CB0921",
"Fc 	c #CB061F",
"Gc 	c #CF0B24",
"Hc 	c #CC0822",
"Ic 	c #CD0C26",
"Jc 	c #BB0821",
"Kc 	c #B0011B",
"Lc 	c #C8081E",
"Mc 	c #D11126",
"Nc 	c #D9192F",
"Oc 	c #D61730",
"Pc 	c #D31830",
"Qc 	c #C40C23",
"Rc 	c #D0112B",
"Sc 	c #D2152D",
"Tc 	c #D2192E",
"Uc 	c #D21F2E",
"Vc 	c #D02F31",
"Wc 	c #F36556",
"Xc 	c #F57C5B",
"Yc 	c #F6865E",
"Zc 	c #ED7F58",
"`c 	c #EF8056",
" d 	c #F7885D",
".d 	c #F7865E",
"+d 	c #EE865A",
"@d 	c #EE9A66",
"#d 	c #F4B475",
"$d 	c #F0AD6D",
"%d 	c #F8BF7D",
"&d 	c #EFA76B",
"*d 	c #F7A36C",
"=d 	c #F8A36C",
"-d 	c #F59B68",
";d 	c #F39365",
">d 	c #F49263",
",d 	c #F59063",
"'d 	c #F28D61",
")d 	c #F89A6E",
"!d 	c #EF9363",
"~d 	c #E6886A",
"{d 	c #79506F",
"]d 	c #2A46A0",
"^d 	c #2745A2",
"/d 	c #2649A5",
"(d 	c #254DA8",
"_d 	c #2851AC",
":d 	c #264FAB",
"<d 	c #224BA9",
"[d 	c #1E4BA8",
"}d 	c #1D4FA9",
"|d 	c #1E51AB",
"1d 	c #1C4FAB",
"2d 	c #1B4EAB",
"3d 	c #2053B0",
"4d 	c #1F51AE",
"5d 	c #184FA7",
"6d 	c #164DA3",
"7d 	c #164CA1",
"8d 	c #14489D",
"9d 	c #1749A0",
"0d 	c #1F4FAA",
"ad 	c #2552B2",
"bd 	c #2652B5",
"cd 	c #2B58B6",
"dd 	c #2754B2",
"ed 	c #2C5DB9",
"fd 	c #2355B1",
"gd 	c #2A57AE",
"hd 	c #2754AC",
"id 	c #2653A8",
"jd 	c #2A53AD",
"kd 	c #3158B3",
"ld 	c #2F56B1",
"md 	c #2D54B0",
"nd 	c #2B52AC",
"od 	c #3A4BA4",
"pd 	c #AC6B89",
"qd 	c #EE876F",
"rd 	c #F38668",
"sd 	c #F48463",
"td 	c #F17859",
"ud 	c #F27B5E",
"vd 	c #F37B60",
"wd 	c #F1785D",
"xd 	c #F07A5D",
"yd 	c #F18163",
"zd 	c #F28264",
"Ad 	c #F48A68",
"Bd 	c #FA976F",
"Cd 	c #F49C6F",
"Dd 	c #F59C6E",
"Ed 	c #F5976B",
"Fd 	c #F78B67",
"Gd 	c #F98161",
"Hd 	c #F6705A",
"Id 	c #F3594E",
"Jd 	c #ED423D",
"Kd 	c #EB3D3A",
"Ld 	c #EF433F",
"Md 	c #ED4941",
"Nd 	c #F0A869",
"Od 	c #FBC97F",
"Pd 	c #F9CB7D",
"Qd 	c #ECB365",
"Rd 	c #EBA75F",
"Sd 	c #F6A767",
"Td 	c #F59D61",
"Ud 	c #F08E55",
"Vd 	c #F18552",
"Wd 	c #F08253",
"Xd 	c #F58459",
"Yd 	c #F16647",
"Zd 	c #EA4837",
"`d 	c #EB3633",
" e 	c #E73030",
".e 	c #EB3236",
"+e 	c #EB3736",
"@e 	c #F44341",
"#e 	c #EE403D",
"$e 	c #EC413B",
"%e 	c #EC443C",
"&e 	c #EE4A40",
"*e 	c #EF5244",
"=e 	c #EE5C47",
"-e 	c #F87153",
";e 	c #EF704E",
">e 	c #F16E4F",
",e 	c #F05D47",
"'e 	c #EC493D",
")e 	c #E9423A",
"!e 	c #EA3D37",
"~e 	c #E83631",
"{e 	c #E82F2F",
"]e 	c #E4272A",
"^e 	c #E11F27",
"/e 	c #E01826",
"(e 	c #DA1525",
"_e 	c #D61224",
":e 	c #D51127",
"<e 	c #CF0A21",
"[e 	c #D4122A",
"}e 	c #D11228",
"|e 	c #DD1B2C",
"1e 	c #DB1729",
"2e 	c #DD1729",
"3e 	c #DF1528",
"4e 	c #E21628",
"5e 	c #DE1426",
"6e 	c #DA0F22",
"7e 	c #D60B21",
"8e 	c #CD061E",
"9e 	c #AD0017",
"0e 	c #B8001B",
"ae 	c #BA001C",
"be 	c #B40121",
"ce 	c #B60018",
"de 	c #C8041E",
"ee 	c #CA021B",
"fe 	c #CC021B",
"ge 	c #D0011B",
"he 	c #D3041E",
"ie 	c #D1021C",
"je 	c #D2051E",
"ke 	c #D0061E",
"le 	c #CF071E",
"me 	c #D30823",
"ne 	c #A4001B",
"oe 	c #9E011F",
"pe 	c #A6001A",
"qe 	c #C40721",
"re 	c #C40724",
"se 	c #C70721",
"te 	c #CE0821",
"ue 	c #CE0A23",
"ve 	c #CE0C27",
"we 	c #BF0B24",
"xe 	c #B3011E",
"ye 	c #BC011C",
"ze 	c #C80620",
"Ae 	c #D31429",
"Be 	c #D9192E",
"Ce 	c #DA192D",
"De 	c #D6152A",
"Ee 	c #D51830",
"Fe 	c #C60D24",
"Ge 	c #C90B28",
"He 	c #CC0E28",
"Ie 	c #D0142C",
"Je 	c #D21A30",
"Ke 	c #D32231",
"Le 	c #CF2E31",
"Me 	c #EF6354",
"Ne 	c #F47E5D",
"Oe 	c #F3855E",
"Pe 	c #EF8259",
"Qe 	c #EF8059",
"Re 	c #EF8057",
"Se 	c #F7885E",
"Te 	c #FA8961",
"Ue 	c #F5875C",
"Ve 	c #EC875A",
"We 	c #EA925F",
"Xe 	c #FAB87C",
"Ye 	c #F1AF70",
"Ze 	c #F8B677",
"`e 	c #F2AC6F",
" f 	c #F4A46B",
".f 	c #F6A46B",
"+f 	c #F19864",
"@f 	c #F39464",
"#f 	c #FB9D6F",
"$f 	c #F79664",
"%f 	c #F69564",
"&f 	c #EF8B5D",
"*f 	c #EF8F64",
"=f 	c #ED8E60",
"-f 	c #F28C5D",
";f 	c #E88A6D",
">f 	c #764E70",
",f 	c #304199",
"'f 	c #2A47A0",
")f 	c #264AA4",
"!f 	c #254DA5",
"~f 	c #264EA9",
"{f 	c #1F50AB",
"]f 	c #204FAD",
"^f 	c #1D50AB",
"/f 	c #1D50AC",
"(f 	c #1C4EAD",
"_f 	c #1B4CAB",
":f 	c #2055B0",
"<f 	c #1950A8",
"[f 	c #1951A8",
"}f 	c #194FA7",
"|f 	c #184BA4",
"1f 	c #174AA1",
"2f 	c #1E4FA7",
"3f 	c #2A59B3",
"4f 	c #2857B2",
"5f 	c #2456B1",
"6f 	c #2655AB",
"7f 	c #2554A9",
"8f 	c #2957AD",
"9f 	c #2854AC",
"0f 	c #2652AA",
"af 	c #2C57B1",
"bf 	c #2956AE",
"cf 	c #2A52AD",
"df 	c #2B52AB",
"ef 	c #384CA1",
"ff 	c #AB6A89",
"gf 	c #EF8670",
"hf 	c #F28567",
"if 	c #FA8765",
"jf 	c #F17556",
"kf 	c #F2785D",
"lf 	c #F37A5F",
"mf 	c #F47C61",
"nf 	c #F2795E",
"of 	c #F18262",
"pf 	c #F28463",
"qf 	c #EF805F",
"rf 	c #F58B68",
"sf 	c #F5A172",
"tf 	c #F59E6F",
"uf 	c #F18D64",
"vf 	c #F46A55",
"wf 	c #F15249",
"xf 	c #EB3B38",
"yf 	c #F3A366",
"zf 	c #FAC17A",
"Af 	c #F6C376",
"Bf 	c #F5B76B",
"Cf 	c #F1A862",
"Df 	c #F1A161",
"Ef 	c #F1975B",
"Ff 	c #F0804F",
"Gf 	c #F38355",
"Hf 	c #F5845A",
"If 	c #F67B56",
"Jf 	c #EE6246",
"Kf 	c #E84434",
"Lf 	c #E9322F",
"Mf 	c #E62E2F",
"Nf 	c #EC3437",
"Of 	c #EB3636",
"Pf 	c #EF3E3C",
"Qf 	c #EB3E3A",
"Rf 	c #EA3E38",
"Sf 	c #EB423A",
"Tf 	c #ED493F",
"Uf 	c #ED4E42",
"Vf 	c #EE5B46",
"Wf 	c #F77052",
"Xf 	c #F06D4F",
"Yf 	c #ED694C",
"Zf 	c #ED4A3E",
"`f 	c #EA423B",
" g 	c #E83430",
".g 	c #E42529",
"+g 	c #DF1C25",
"@g 	c #DE1725",
"#g 	c #DA1425",
"$g 	c #D71124",
"%g 	c #D10C22",
"&g 	c #CE0A20",
"*g 	c #D21027",
"=g 	c #D6162B",
"-g 	c #DA1A29",
";g 	c #DB1627",
">g 	c #DD1628",
",g 	c #DF1627",
"'g 	c #DD1326",
")g 	c #DA0F23",
"!g 	c #D50A20",
"~g 	c #CE071F",
"{g 	c #AF0118",
"]g 	c #BB001C",
"^g 	c #B8011E",
"/g 	c #B40122",
"(g 	c #C6021C",
"_g 	c #C9021B",
":g 	c #CC021A",
"<g 	c #D1031B",
"[g 	c #D4051E",
"}g 	c #D3041D",
"|g 	c #D2041C",
"1g 	c #D0061D",
"2g 	c #CD051D",
"3g 	c #CD041C",
"4g 	c #CE0621",
"5g 	c #A0001D",
"6g 	c #A60019",
"7g 	c #BD0523",
"8g 	c #BE0422",
"9g 	c #C30824",
"0g 	c #C30722",
"ag 	c #C30620",
"bg 	c #C30621",
"cg 	c #C2041F",
"dg 	c #C60521",
"eg 	c #C70923",
"fg 	c #C80721",
"gg 	c #CD0A22",
"hg 	c #D30E27",
"ig 	c #CE0B27",
"jg 	c #BD0823",
"kg 	c #B3031F",
"lg 	c #C5041E",
"mg 	c #CA0920",
"ng 	c #D21328",
"og 	c #D6172D",
"pg 	c #D7172D",
"qg 	c #D8162C",
"rg 	c #D41228",
"sg 	c #D4162E",
"tg 	c #D4172F",
"ug 	c #C80F26",
"vg 	c #C40925",
"wg 	c #C70A26",
"xg 	c #CA0C27",
"yg 	c #CF132B",
"zg 	c #D61E33",
"Ag 	c #DD2B3C",
"Bg 	c #CE2E31",
"Cg 	c #F06456",
"Dg 	c #F47E5C",
"Eg 	c #F0835A",
"Fg 	c #F3855C",
"Gg 	c #F5855D",
"Hg 	c #F4855C",
"Ig 	c #F08056",
"Jg 	c #F28358",
"Kg 	c #F6855E",
"Lg 	c #F7855C",
"Mg 	c #F38258",
"Ng 	c #ED885A",
"Og 	c #F4AD73",
"Pg 	c #F7B778",
"Qg 	c #F2A76B",
"Rg 	c #F5B172",
"Sg 	c #F2A368",
"Tg 	c #F8A86D",
"Ug 	c #F29B67",
"Vg 	c #F49766",
"Wg 	c #F99A6C",
"Xg 	c #F69563",
"Yg 	c #F89865",
"Zg 	c #F79965",
"`g 	c #F49267",
" h 	c #F28B5F",
".h 	c #E98D6E",
"+h 	c #724E70",
"@h 	c #30429A",
"#h 	c #2946A0",
"$h 	c #2646A1",
"%h 	c #284CA5",
"&h 	c #264EA6",
"*h 	c #2851AA",
"=h 	c #1D4FAE",
"-h 	c #1A4FAA",
";h 	c #1C52AC",
">h 	c #1F53AD",
",h 	c #1950A9",
"'h 	c #1B52AA",
")h 	c #1C50AC",
"!h 	c #1A4EA7",
"~h 	c #1B4DA4",
"{h 	c #1D4DA5",
"]h 	c #224FAA",
"^h 	c #2252AD",
"/h 	c #2554AC",
"(h 	c #2958B1",
"_h 	c #2A5BB6",
":h 	c #285AB5",
"<h 	c #2657B0",
"[h 	c #2350AC",
"}h 	c #2756AC",
"|h 	c #2B59AF",
"1h 	c #2A57AF",
"2h 	c #2855AD",
"3h 	c #2A55B0",
"4h 	c #2651AC",
"5h 	c #2A57B0",
"6h 	c #2951AC",
"7h 	c #2C54AE",
"8h 	c #2B53AC",
"9h 	c #374BA0",
"0h 	c #AA6889",
"ah 	c #F28671",
"bh 	c #F58769",
"ch 	c #F38466",
"dh 	c #EB6B4E",
"eh 	c #F0735A",
"fh 	c #F47C60",
"gh 	c #F57D61",
"hh 	c #F37C5E",
"ih 	c #F27F5E",
"jh 	c #F28361",
"kh 	c #F18560",
"lh 	c #F0845E",
"mh 	c #F28B64",
"nh 	c #F19067",
"oh 	c #F4966B",
"ph 	c #F7A072",
"qh 	c #F29A6C",
"rh 	c #F3966A",
"sh 	c #F18E64",
"th 	c #EF825E",
"uh 	c #F17759",
"vh 	c #EF634F",
"wh 	c #EE4C43",
"xh 	c #ED3D3A",
"yh 	c #EC3B39",
"zh 	c #F0443F",
"Ah 	c #EF4A43",
"Bh 	c #ED4F45",
"Ch 	c #EDA05D",
"Dh 	c #F5B573",
"Eh 	c #EFB56E",
"Fh 	c #F7B76F",
"Gh 	c #EFA55F",
"Hh 	c #F09F5E",
"Ih 	c #F2965D",
"Jh 	c #F38E5A",
"Kh 	c #EE7C4E",
"Lh 	c #EF7B50",
"Mh 	c #F07D54",
"Nh 	c #F77A57",
"Oh 	c #EC5D43",
"Ph 	c #E94035",
"Qh 	c #E9312E",
"Rh 	c #E82D2D",
"Sh 	c #EB3035",
"Th 	c #EF3739",
"Uh 	c #E93B35",
"Vh 	c #ED413A",
"Wh 	c #EC473F",
"Xh 	c #EF4E41",
"Yh 	c #EE5744",
"Zh 	c #EF694D",
"`h 	c #EB654B",
" i 	c #EA5741",
".i 	c #EB493B",
"+i 	c #EE443C",
"@i 	c #EE3E38",
"#i 	c #E82D2E",
"$i 	c #E12229",
"%i 	c #DC1A24",
"&i 	c #DA1524",
"*i 	c #D91225",
"=i 	c #D50F22",
"-i 	c #D50E21",
";i 	c #CD091B",
">i 	c #C9071E",
",i 	c #DC1928",
"'i 	c #DD1727",
")i 	c #DD1728",
"!i 	c #DE1829",
"~i 	c #DC1526",
"{i 	c #DB1127",
"]i 	c #D30A20",
"^i 	c #BE001D",
"/i 	c #BB011F",
"(i 	c #B60222",
"_i 	c #AC0119",
":i 	c #C0001B",
"<i 	c #C20019",
"[i 	c #C8041C",
"}i 	c #CC041A",
"|i 	c #D10419",
"1i 	c #D2061B",
"2i 	c #D1051A",
"3i 	c #D1061A",
"4i 	c #D1061C",
"5i 	c #D10820",
"6i 	c #D50821",
"7i 	c #D10622",
"8i 	c #A90019",
"9i 	c #A00019",
"0i 	c #A5011C",
"ai 	c #AE011E",
"bi 	c #BF0422",
"ci 	c #BE0823",
"di 	c #BF0822",
"ei 	c #C0051E",
"fi 	c #C20322",
"gi 	c #C50521",
"hi 	c #C60822",
"ii 	c #C40620",
"ji 	c #C60520",
"ki 	c #CB0A24",
"li 	c #CD0B24",
"mi 	c #CE0C23",
"ni 	c #D20E27",
"oi 	c #D20F28",
"pi 	c #C50620",
"qi 	c #C4021E",
"ri 	c #CD0925",
"si 	c #C10925",
"ti 	c #B10420",
"ui 	c #BC001D",
"vi 	c #C2031E",
"wi 	c #CD0821",
"xi 	c #D40F27",
"yi 	c #D7112B",
"zi 	c #D7152E",
"Ai 	c #D5142D",
"Bi 	c #D5152E",
"Ci 	c #D6152E",
"Di 	c #D3142D",
"Ei 	c #C70E26",
"Fi 	c #C10922",
"Gi 	c #C60926",
"Hi 	c #CB0E2B",
"Ii 	c #D3152F",
"Ji 	c #D81D31",
"Ki 	c #D62535",
"Li 	c #CF3235",
"Mi 	c #F4685A",
"Ni 	c #EE7D56",
"Oi 	c #F1835A",
"Pi 	c #F18259",
"Qi 	c #F4845C",
"Ri 	c #F7855D",
"Si 	c #F8845D",
"Ti 	c #F38057",
"Ui 	c #F3825C",
"Vi 	c #F5845C",
"Wi 	c #F08457",
"Xi 	c #F39765",
"Yi 	c #F2A56A",
"Zi 	c #FBB97B",
"`i 	c #F4AD70",
" j 	c #F9B375",
".j 	c #EFA065",
"+j 	c #F7A36A",
"@j 	c #F39565",
"#j 	c #F29365",
"$j 	c #F79B66",
"%j 	c #F69B64",
"&j 	c #F19060",
"*j 	c #F39266",
"=j 	c #F89B6C",
"-j 	c #EA8B70",
";j 	c #6B4F73",
">j 	c #2F439A",
",j 	c #2845A0",
"'j 	c #2747A3",
")j 	c #274CA5",
"!j 	c #2D52AB",
"~j 	c #2A51AB",
"{j 	c #234EAA",
"]j 	c #2551AC",
"^j 	c #2151A9",
"/j 	c #1B4EA9",
"(j 	c #174CA6",
"_j 	c #184EA8",
":j 	c #1C52AA",
"<j 	c #1D50A9",
"[j 	c #1D51A9",
"}j 	c #1C51AA",
"|j 	c #1C4FA5",
"1j 	c #1C50A6",
"2j 	c #1E4FA6",
"3j 	c #204FA6",
"4j 	c #1E4DA5",
"5j 	c #2253AE",
"6j 	c #2C5AB4",
"7j 	c #2A5BB5",
"8j 	c #2456AF",
"9j 	c #2959B3",
"0j 	c #2856B1",
"aj 	c #2957AE",
"bj 	c #2858AD",
"cj 	c #2A58AF",
"dj 	c #2654AD",
"ej 	c #2A55B1",
"fj 	c #2E53AB",
"gj 	c #2B53AB",
"hj 	c #374AA3",
"ij 	c #AA678D",
"jj 	c #F48570",
"kj 	c #F6886A",
"lj 	c #F48565",
"mj 	c #F88364",
"nj 	c #E6664C",
"oj 	c #F07158",
"pj 	c #F37A60",
"qj 	c #F27C5F",
"rj 	c #F17D5D",
"sj 	c #F18360",
"tj 	c #EE825D",
"uj 	c #F39468",
"vj 	c #F89D70",
"wj 	c #F19568",
"xj 	c #F29468",
"yj 	c #EF8D63",
"zj 	c #F28662",
"Aj 	c #F3765B",
"Bj 	c #F26350",
"Cj 	c #EC3F3B",
"Dj 	c #EE3D3A",
"Ej 	c #EF4B44",
"Fj 	c #EE5148",
"Gj 	c #EEA15C",
"Hj 	c #F5B373",
"Ij 	c #F3BF7A",
"Jj 	c #F0AF69",
"Kj 	c #EDA25F",
"Lj 	c #F29E5E",
"Mj 	c #F3965D",
"Nj 	c #F7915D",
"Oj 	c #ED7C4D",
"Pj 	c #EE7C51",
"Qj 	c #EF7E55",
"Rj 	c #F87B59",
"Sj 	c #EB5841",
"Tj 	c #EB4237",
"Uj 	c #EA3230",
"Vj 	c #E72C2C",
"Wj 	c #E92D32",
"Xj 	c #EB3234",
"Yj 	c #ED3535",
"Zj 	c #EB3635",
"`j 	c #EA3A36",
" k 	c #EC463E",
".k 	c #EE5645",
"+k 	c #EF6349",
"@k 	c #EE674D",
"#k 	c #EF5B46",
"$k 	c #ED4C3E",
"%k 	c #ED453C",
"&k 	c #EF3E39",
"*k 	c #E8312F",
"=k 	c #E3272A",
"-k 	c #E12128",
";k 	c #DE1C26",
">k 	c #DC1727",
",k 	c #DA1326",
"'k 	c #D50F21",
")k 	c #CD0A1C",
"!k 	c #C6041B",
"~k 	c #D41326",
"{k 	c #DB1826",
"]k 	c #DC1927",
"^k 	c #DF1928",
"/k 	c #E01A2A",
"(k 	c #DE1929",
"_k 	c #DC1425",
":k 	c #DA0F24",
"<k 	c #D10B23",
"[k 	c #B80118",
"}k 	c #B6021E",
"|k 	c #C10120",
"1k 	c #BB001E",
"2k 	c #B50120",
"3k 	c #C3031D",
"4k 	c #C7021B",
"5k 	c #CD041B",
"6k 	c #D1051B",
"7k 	c #CF061A",
"8k 	c #D1081C",
"9k 	c #D40722",
"0k 	c #D80923",
"ak 	c #9C0018",
"bk 	c #A4011C",
"ck 	c #BE0623",
"dk 	c #BC0924",
"ek 	c #BD0921",
"fk 	c #C0061E",
"gk 	c #C00221",
"hk 	c #C30320",
"ik 	c #CA0C22",
"jk 	c #CB0C23",
"kk 	c #D01229",
"lk 	c #D0132A",
"mk 	c #C2021D",
"nk 	c #CB0924",
"ok 	c #C10823",
"pk 	c #B2021E",
"qk 	c #B4011F",
"rk 	c #CE0E26",
"sk 	c #D9122C",
"tk 	c #D2172C",
"uk 	c #D4172D",
"vk 	c #D4122C",
"wk 	c #C80F27",
"xk 	c #BF0721",
"yk 	c #C60827",
"zk 	c #CD102C",
"Ak 	c #D71C30",
"Bk 	c #D01E2D",
"Ck 	c #D73C3C",
"Dk 	c #F46C5C",
"Ek 	c #F17A58",
"Fk 	c #EE7E56",
"Gk 	c #F2865D",
"Hk 	c #F2845B",
"Ik 	c #EF8158",
"Jk 	c #F18159",
"Kk 	c #F4825A",
"Lk 	c #EF7E54",
"Mk 	c #F18156",
"Nk 	c #F2815C",
"Ok 	c #F4835C",
"Pk 	c #F9A56E",
"Qk 	c #F5A569",
"Rk 	c #F8B474",
"Sk 	c #F8B071",
"Tk 	c #F8AD6F",
"Uk 	c #F1A066",
"Vk 	c #F5A168",
"Wk 	c #F89F6A",
"Xk 	c #F29565",
"Yk 	c #F29364",
"Zk 	c #F29362",
"`k 	c #F79C66",
" l 	c #F49B63",
".l 	c #F29260",
"+l 	c #F19063",
"@l 	c #F19364",
"#l 	c #E88875",
"$l 	c #694C7B",
"%l 	c #30449B",
"&l 	c #2748A3",
"*l 	c #264BA4",
"=l 	c #274FAB",
"-l 	c #254EA7",
";l 	c #2352A9",
">l 	c #2454AB",
",l 	c #2252A9",
"'l 	c #1E52A5",
")l 	c #2052A8",
"!l 	c #1C4FAA",
"~l 	c #1C4DAA",
"{l 	c #194CA8",
"]l 	c #1549A5",
"^l 	c #174DA7",
"/l 	c #1D53AB",
"(l 	c #1E51AA",
"_l 	c #1B4EAA",
":l 	c #1D52AA",
"<l 	c #1C53AB",
"[l 	c #1E53A7",
"}l 	c #1F52A8",
"|l 	c #1E4EA6",
"1l 	c #2255AC",
"2l 	c #2053AC",
"3l 	c #2C5BB5",
"4l 	c #2859B2",
"5l 	c #2455AF",
"6l 	c #2857B1",
"7l 	c #2956AF",
"8l 	c #2656AB",
"9l 	c #2655AF",
"0l 	c #2756B0",
"al 	c #2353AD",
"bl 	c #2953AF",
"cl 	c #2D54AB",
"dl 	c #344AA5",
"el 	c #A5678D",
"fl 	c #F2856D",
"gl 	c #F58566",
"hl 	c #F98466",
"il 	c #E6674C",
"jl 	c #EF7359",
"kl 	c #F27B62",
"ll 	c #F57F64",
"ml 	c #F27F5D",
"nl 	c #F1805E",
"ol 	c #EE805C",
"pl 	c #F18760",
"ql 	c #F38D65",
"rl 	c #F19366",
"sl 	c #F29768",
"tl 	c #F19266",
"ul 	c #F28F67",
"vl 	c #F48865",
"wl 	c #F5775C",
"xl 	c #F36450",
"yl 	c #EB3D39",
"zl 	c #EF5148",
"Al 	c #EEA55E",
"Bl 	c #FAB778",
"Cl 	c #FCC782",
"Dl 	c #F3B06D",
"El 	c #F4A865",
"Fl 	c #F39E5F",
"Gl 	c #F4955C",
"Hl 	c #F78F5C",
"Il 	c #F08050",
"Jl 	c #F48257",
"Kl 	c #F97A5A",
"Ll 	c #EA533E",
"Ml 	c #EB4037",
"Nl 	c #E92F2F",
"Ol 	c #E82B2D",
"Pl 	c #E92C31",
"Ql 	c #EB3134",
"Rl 	c #ED3435",
"Sl 	c #EC3B36",
"Tl 	c #EC453D",
"Ul 	c #EE5644",
"Vl 	c #EF6248",
"Wl 	c #F1694F",
"Xl 	c #F35F4A",
"Yl 	c #EE4E3F",
"Zl 	c #EC433A",
"`l 	c #EC3B35",
" m 	c #E5292D",
".m 	c #E3242B",
"+m 	c #DF1D27",
"@m 	c #DC1726",
"#m 	c #D71023",
"$m 	c #D00D1F",
"%m 	c #DB1926",
"&m 	c #DB1724",
"*m 	c #E01A27",
"=m 	c #DE1828",
"-m 	c #DD1828",
";m 	c #D20C24",
">m 	c #C3021C",
",m 	c #BA021A",
"'m 	c #C20121",
")m 	c #B0011C",
"!m 	c #C2021C",
"~m 	c #C10018",
"{m 	c #C6021B",
"]m 	c #D1071D",
"^m 	c #CF071A",
"/m 	c #D0081B",
"(m 	c #D30A1E",
"_m 	c #D1051C",
":m 	c #D3061F",
"<m 	c #D40622",
"[m 	c #D90822",
"}m 	c #D80A27",
"|m 	c #A60219",
"1m 	c #9A0018",
"2m 	c #A3001B",
"3m 	c #AD001D",
"4m 	c #C00825",
"5m 	c #BE0C25",
"6m 	c #BE0A22",
"7m 	c #C20820",
"8m 	c #C40520",
"9m 	c #C40821",
"0m 	c #C80922",
"am 	c #CB0E24",
"bm 	c #C90E23",
"cm 	c #CE1328",
"dm 	c #CF142A",
"em 	c #C40921",
"fm 	c #C3041E",
"gm 	c #C10821",
"hm 	c #B3011B",
"im 	c #B60120",
"jm 	c #C60522",
"km 	c #CB0522",
"lm 	c #CB1029",
"mm 	c #BC0F26",
"nm 	c #C31028",
"om 	c #D2162E",
"pm 	c #D3122B",
"qm 	c #CD142D",
"rm 	c #C00723",
"sm 	c #C60928",
"tm 	c #D2142D",
"um 	c #D71C32",
"vm 	c #D11F2F",
"wm 	c #DB403E",
"xm 	c #F5725D",
"ym 	c #F07C58",
"zm 	c #EF7F57",
"Am 	c #F78D62",
"Bm 	c #F2895D",
"Cm 	c #F58B5F",
"Dm 	c #F2865B",
"Em 	c #EF8257",
"Fm 	c #F4865B",
"Gm 	c #F4855E",
"Hm 	c #F3835C",
"Im 	c #FBAA71",
"Jm 	c #F6A469",
"Km 	c #F8B174",
"Lm 	c #F8AF73",
"Mm 	c #F3A269",
"Nm 	c #F6A069",
"Om 	c #F7A16A",
"Pm 	c #F9A06C",
"Qm 	c #F29564",
"Rm 	c #F19463",
"Sm 	c #F79E68",
"Tm 	c #F49D64",
"Um 	c #F1945F",
"Vm 	c #F09261",
"Wm 	c #EF9361",
"Xm 	c #F19464",
"Ym 	c #F88C66",
"Zm 	c #E58878",
"`m 	c #644B80",
" n 	c #30459C",
".n 	c #2C48A1",
"+n 	c #2448A0",
"@n 	c #254AA3",
"#n 	c #2850AB",
"$n 	c #2352A8",
"%n 	c #2152A8",
"&n 	c #1E54A5",
"*n 	c #2053A8",
"=n 	c #1E53AD",
"-n 	c #1B50AA",
";n 	c #1A4EA8",
">n 	c #1A4DA8",
",n 	c #1E52AB",
"'n 	c #1D53AC",
")n 	c #2353AB",
"!n 	c #1E50A7",
"~n 	c #2052AB",
"{n 	c #2256AB",
"]n 	c #1E53A9",
"^n 	c #2A59B2",
"/n 	c #2353AC",
"(n 	c #2A56B2",
"_n 	c #2956AD",
":n 	c #2958AD",
"<n 	c #2557B0",
"[n 	c #2556AF",
"}n 	c #2254AD",
"|n 	c #2B55B1",
"1n 	c #2A54AD",
"2n 	c #2853AB",
"3n 	c #324CA7",
"4n 	c #A3668D",
"5n 	c #F0846D",
"6n 	c #F58665",
"7n 	c #F48464",
"8n 	c #F88264",
"9n 	c #E86B50",
"0n 	c #F0765C",
"an 	c #F17C62",
"bn 	c #F58066",
"cn 	c #F47D60",
"dn 	c #F17C5B",
"en 	c #EF7E5A",
"fn 	c #F48A64",
"gn 	c #EE9264",
"hn 	c #F09566",
"in 	c #F4966A",
"jn 	c #F29267",
"kn 	c #F5916B",
"ln 	c #F6785E",
"mn 	c #F1604D",
"nn 	c #EB493E",
"on 	c #F24D47",
"pn 	c #EE5249",
"qn 	c #F0AF68",
"rn 	c #F8B876",
"sn 	c #F3B573",
"tn 	c #F7B473",
"un 	c #F6AA6A",
"vn 	c #F49D5E",
"wn 	c #F29159",
"xn 	c #F28855",
"yn 	c #F18252",
"zn 	c #F38256",
"An 	c #F2845C",
"Bn 	c #F27354",
"Cn 	c #EE5341",
"Dn 	c #EB3F37",
"En 	c #E82D2F",
"Fn 	c #E82A30",
"Gn 	c #EC3133",
"Hn 	c #EB3131",
"In 	c #EC3935",
"Jn 	c #EE3E3A",
"Kn 	c #F3654B",
"Ln 	c #F16B4F",
"Mn 	c #ED4F40",
"Nn 	c #EA4138",
"On 	c #E63630",
"Pn 	c #E7302F",
"Qn 	c #E52A2E",
"Rn 	c #E4252D",
"Sn 	c #DF1C26",
"Tn 	c #DB1427",
"Un 	c #D61023",
"Vn 	c #D31022",
"Wn 	c #CD0B21",
"Xn 	c #D9182A",
"Yn 	c #DC1A27",
"Zn 	c #DC1824",
"`n 	c #E01B28",
" o 	c #E01A29",
".o 	c #DB1425",
"+o 	c #D1081E",
"@o 	c #C5031D",
"#o 	c #BC021B",
"$o 	c #BC0320",
"%o 	c #C20020",
"&o 	c #AF011B",
"*o 	c #B8011A",
"=o 	c #C6031C",
"-o 	c #CD061F",
";o 	c #CF051C",
">o 	c #D2071B",
",o 	c #D4081D",
"'o 	c #D4091E",
")o 	c #D3081E",
"!o 	c #D50320",
"~o 	c #DA0A27",
"{o 	c #A70219",
"]o 	c #9B0118",
"^o 	c #B0011E",
"/o 	c #B90522",
"(o 	c #BF0825",
"_o 	c #BF0924",
":o 	c #BF0821",
"<o 	c #C30922",
"[o 	c #C30524",
"}o 	c #C60A23",
"|o 	c #CA0A23",
"1o 	c #CB0D24",
"2o 	c #CD1127",
"3o 	c #CE1329",
"4o 	c #C50820",
"5o 	c #C90823",
"6o 	c #B6021B",
"7o 	c #B80121",
"8o 	c #C00122",
"9o 	c #C80625",
"0o 	c #C50B25",
"ao 	c #AF1025",
"bo 	c #760511",
"co 	c #8D0918",
"do 	c #CA162F",
"eo 	c #D2132C",
"fo 	c #D3122C",
"go 	c #D5162F",
"ho 	c #CE152E",
"io 	c #C70A29",
"jo 	c #D0132C",
"ko 	c #D51A31",
"lo 	c #CC1B2A",
"mo 	c #DB423F",
"no 	c #F3745C",
"oo 	c #F5865E",
"po 	c #FA9066",
"qo 	c #F39163",
"ro 	c #FB9869",
"so 	c #F28E5F",
"to 	c #EE875A",
"uo 	c #F48A5E",
"vo 	c #F6885F",
"wo 	c #F08159",
"xo 	c #F4A06B",
"yo 	c #F49E67",
"zo 	c #FCB37A",
"Ao 	c #F3AA70",
"Bo 	c #F19C67",
"Co 	c #F8A06A",
"Do 	c #F8A16B",
"Eo 	c #F39766",
"Fo 	c #F69F69",
"Go 	c #F49F65",
"Ho 	c #EE945D",
"Io 	c #EF9460",
"Jo 	c #EF9360",
"Ko 	c #F39665",
"Lo 	c #F98E65",
"Mo 	c #E28A76",
"No 	c #5E4B80",
"Oo 	c #2F469B",
"Po 	c #2C49A1",
"Qo 	c #294BA3",
"Ro 	c #2549A1",
"So 	c #284DA5",
"To 	c #2950A9",
"Uo 	c #264EAB",
"Vo 	c #2554AD",
"Wo 	c #2154A8",
"Xo 	c #1A50AA",
"Yo 	c #1F53AB",
"Zo 	c #2151A7",
"`o 	c #2053A9",
" p 	c #2154AB",
".p 	c #1F54AA",
"+p 	c #1F55AB",
"@p 	c #2556AD",
"#p 	c #2757AF",
"$p 	c #2255AE",
"%p 	c #2955B1",
"&p 	c #2A55AC",
"*p 	c #2B58AE",
"=p 	c #2553AC",
"-p 	c #2757B1",
";p 	c #2955B0",
">p 	c #2C55AC",
",p 	c #314CA5",
"'p 	c #A3658D",
")p 	c #F2826F",
"!p 	c #F58462",
"~p 	c #F28060",
"{p 	c #F47E61",
"]p 	c #F4785C",
"^p 	c #F57F63",
"/p 	c #F07E62",
"(p 	c #F37E61",
"_p 	c #F27C5D",
":p 	c #F17A5A",
"<p 	c #F37C5C",
"[p 	c #F3815D",
"}p 	c #F68D66",
"|p 	c #F39B6B",
"1p 	c #F79B6E",
"2p 	c #F6976B",
"3p 	c #F6956B",
"4p 	c #F28D69",
"5p 	c #F38465",
"6p 	c #F27459",
"7p 	c #EF5E4A",
"8p 	c #EB473C",
"9p 	c #EB3E35",
"0p 	c #F14C45",
"ap 	c #F0534A",
"bp 	c #F8C37A",
"cp 	c #FCBF7A",
"dp 	c #ECA462",
"ep 	c #FAB673",
"fp 	c #F5A969",
"gp 	c #F59E60",
"hp 	c #EE8351",
"ip 	c #F18052",
"jp 	c #F58660",
"kp 	c #EC694B",
"lp 	c #EF5340",
"mp 	c #EE4139",
"np 	c #E92E30",
"op 	c #E6292A",
"pp 	c #E6282E",
"qp 	c #EA2D33",
"rp 	c #EB2F33",
"sp 	c #EC3334",
"tp 	c #E83734",
"up 	c #EE403B",
"vp 	c #EE4B42",
"wp 	c #EC4B40",
"xp 	c #EF5445",
"yp 	c #F3664E",
"zp 	c #F1684E",
"Ap 	c #EF634B",
"Bp 	c #EF5845",
"Cp 	c #ED4B3C",
"Dp 	c #E83532",
"Ep 	c #E62D2F",
"Fp 	c #E3262C",
"Gp 	c #E0212A",
"Hp 	c #DD1B28",
"Ip 	c #DC1828",
"Jp 	c #D91427",
"Kp 	c #D20E1F",
"Lp 	c #D71528",
"Mp 	c #CC0B21",
"Np 	c #DD1A29",
"Op 	c #DD1926",
"Pp 	c #DF1B29",
"Qp 	c #DE1928",
"Rp 	c #DD1726",
"Sp 	c #DE1627",
"Tp 	c #C3011B",
"Up 	c #BD041D",
"Vp 	c #C0001F",
"Wp 	c #BC011D",
"Xp 	c #BA001F",
"Yp 	c #AE0018",
"Zp 	c #BB011B",
"`p 	c #C4001A",
" q 	c #CB041D",
".q 	c #CE031C",
"+q 	c #D4091F",
"@q 	c #D50620",
"#q 	c #D50421",
"$q 	c #DC0724",
"%q 	c #DA0B28",
"&q 	c #A70218",
"*q 	c #9D0119",
"=q 	c #B1011E",
"-q 	c #B90320",
";q 	c #BC0423",
">q 	c #C10924",
",q 	c #C00621",
"'q 	c #C0041F",
")q 	c #C30522",
"!q 	c #C50921",
"~q 	c #C60A22",
"{q 	c #C80823",
"]q 	c #CB0A25",
"^q 	c #CA0B23",
"/q 	c #CC0E24",
"(q 	c #CE1127",
"_q 	c #C3011E",
":q 	c #C80724",
"<q 	c #C20822",
"[q 	c #B6021C",
"}q 	c #C40123",
"|q 	c #C60625",
"1q 	c #A80A1F",
"2q 	c #710812",
"3q 	c #44070A",
"4q 	c #850C1C",
"5q 	c #CB1630",
"6q 	c #D2142E",
"7q 	c #D2152E",
"8q 	c #D3142E",
"9q 	c #CD132C",
"0q 	c #C00924",
"aq 	c #C80929",
"bq 	c #CE1129",
"cq 	c #D51930",
"dq 	c #CC1A2A",
"eq 	c #E14844",
"fq 	c #F2755D",
"gq 	c #F58862",
"hq 	c #F4885F",
"iq 	c #F2895F",
"jq 	c #EF895D",
"kq 	c #EF8F5F",
"lq 	c #F89768",
"mq 	c #F49364",
"nq 	c #ED895C",
"oq 	c #F6895F",
"pq 	c #F4855D",
"qq 	c #F99268",
"rq 	c #F9A06E",
"sq 	c #F19562",
"tq 	c #F4A16B",
"uq 	c #ED9A64",
"vq 	c #F39966",
"wq 	c #F89D69",
"xq 	c #F79E69",
"yq 	c #F49C67",
"zq 	c #F49C64",
"Aq 	c #F39863",
"Bq 	c #F09460",
"Cq 	c #F09361",
"Dq 	c #F79869",
"Eq 	c #F79067",
"Fq 	c #E28C77",
"Gq 	c #5B497F",
"Hq 	c #2D449A",
"Iq 	c #2C499E",
"Jq 	c #294AA3",
"Kq 	c #274CA4",
"Lq 	c #2A4FA7",
"Mq 	c #2A51A9",
"Nq 	c #274EAA",
"Oq 	c #244EAC",
"Pq 	c #2050AD",
"Qq 	c #1A4EA9",
"Rq 	c #1D52AB",
"Sq 	c #2151AB",
"Tq 	c #2251A8",
"Uq 	c #2454AC",
"Vq 	c #2254AC",
"Wq 	c #2055AD",
"Xq 	c #1E51A9",
"Yq 	c #1F54AC",
"Zq 	c #1F57AC",
"`q 	c #2357AD",
" r 	c #2355AE",
".r 	c #2852AA",
"+r 	c #2A58B2",
"@r 	c #2451AB",
"#r 	c #2D55AD",
"$r 	c #344CA6",
"%r 	c #A3668E",
"&r 	c #F0806E",
"*r 	c #F37F5F",
"=r 	c #F27E5E",
"-r 	c #F47E60",
";r 	c #F37D5E",
">r 	c #F58563",
",r 	c #F18060",
"'r 	c #F37D5F",
")r 	c #F47D5E",
"!r 	c #F07A5A",
"~r 	c #F48160",
"{r 	c #F49669",
"]r 	c #F69C6C",
"^r 	c #F3976A",
"/r 	c #FA9970",
"(r 	c #F6906B",
"_r 	c #F68565",
":r 	c #F06F55",
"<r 	c #EE5847",
"[r 	c #EB433A",
"}r 	c #EB3C35",
"|r 	c #E93936",
"1r 	c #E83E3A",
"2r 	c #F05449",
"3r 	c #FCCC82",
"4r 	c #FAC279",
"5r 	c #E8A15C",
"6r 	c #F8B470",
"7r 	c #FAAE6E",
"8r 	c #F8A063",
"9r 	c #F18E57",
"0r 	c #EC7E4D",
"ar 	c #F7865F",
"br 	c #F78662",
"cr 	c #EB6449",
"dr 	c #EF5040",
"er 	c #EE3F38",
"fr 	c #E82C2E",
"gr 	c #E92C33",
"hr 	c #EC2F35",
"ir 	c #E92E32",
"jr 	c #EB3133",
"kr 	c #E83633",
"lr 	c #EC453C",
"mr 	c #EF4C43",
"nr 	c #EE5445",
"or 	c #EE604A",
"pr 	c #EF654B",
"qr 	c #F1614A",
"rr 	c #ED5341",
"sr 	c #EA4638",
"tr 	c #EC4037",
"ur 	c #EB3634",
"vr 	c #E72C30",
"wr 	c #E4262D",
"xr 	c #DE1F27",
"yr 	c #DD1A28",
"zr 	c #DB1727",
"Ar 	c #D81225",
"Br 	c #D61022",
"Cr 	c #D00A1D",
"Dr 	c #D31023",
"Er 	c #CC0A20",
"Fr 	c #D51326",
"Gr 	c #DE1A2B",
"Hr 	c #DE1A29",
"Ir 	c #E01C2A",
"Jr 	c #E01B2A",
"Kr 	c #DF1827",
"Lr 	c #E01728",
"Mr 	c #D91025",
"Nr 	c #D60D25",
"Or 	c #CF0821",
"Pr 	c #CE0923",
"Qr 	c #BF051F",
"Rr 	c #BD031F",
"Sr 	c #BD011F",
"Tr 	c #BA0020",
"Ur 	c #AD021A",
"Vr 	c #BC001B",
"Wr 	c #C1001B",
"Xr 	c #CB031C",
"Yr 	c #D3071E",
"Zr 	c #D60522",
"`r 	c #DD0625",
" s 	c #DB0D28",
".s 	c #A90318",
"+s 	c #A5011D",
"@s 	c #B10020",
"#s 	c #B40120",
"$s 	c #B8031F",
"%s 	c #BC0424",
"&s 	c #BF0622",
"*s 	c #C40823",
"=s 	c #C60823",
"-s 	c #CB0E26",
";s 	c #CC1026",
">s 	c #D01128",
",s 	c #D1102A",
"'s 	c #C20720",
")s 	c #C0021D",
"!s 	c #C90723",
"~s 	c #C00820",
"{s 	c #B80220",
"]s 	c #9F061C",
"^s 	c #710A14",
"/s 	c #652125",
"(s 	c #4A0C11",
"_s 	c #A4142B",
":s 	c #CE132F",
"<s 	c #D2132E",
"[s 	c #D1162F",
"}s 	c #D4142F",
"|s 	c #D0132E",
"1s 	c #C10824",
"2s 	c #C70928",
"3s 	c #D11E2E",
"4s 	c #E54D48",
"5s 	c #F3765E",
"6s 	c #F19161",
"7s 	c #F39264",
"8s 	c #F68B61",
"9s 	c #F4875D",
"0s 	c #F7875F",
"as 	c #F88F65",
"bs 	c #FA9868",
"cs 	c #EF8B5B",
"ds 	c #F19162",
"es 	c #F59766",
"fs 	c #F59967",
"gs 	c #F79A69",
"hs 	c #F69967",
"is 	c #F79B67",
"js 	c #F59965",
"ks 	c #F89A67",
"ls 	c #F49463",
"ms 	c #F89268",
"ns 	c #E18D77",
"os 	c #574782",
"ps 	c #2B4399",
"qs 	c #2B489D",
"rs 	c #294AA2",
"ss 	c #254AA2",
"ts 	c #294EA6",
"us 	c #274EA7",
"vs 	c #254CAA",
"ws 	c #2251A9",
"xs 	c #2254AB",
"ys 	c #1B4FAA",
"zs 	c #1B4CA8",
"As 	c #1C4DA9",
"Bs 	c #194DA8",
"Cs 	c #1C51AC",
"Ds 	c #1B51AB",
"Es 	c #1B51A9",
"Fs 	c #2052AC",
"Gs 	c #2054AC",
"Hs 	c #1E55AC",
"Is 	c #1D57AB",
"Js 	c #2056AC",
"Ks 	c #2154AA",
"Ls 	c #2556AE",
"Ms 	c #2351A9",
"Ns 	c #2854AE",
"Os 	c #2953AA",
"Ps 	c #2857AD",
"Qs 	c #2755AA",
"Rs 	c #2555AD",
"Ss 	c #2350AA",
"Ts 	c #2955AF",
"Us 	c #2B57B1",
"Vs 	c #2C54AC",
"Ws 	c #324BA6",
"Xs 	c #A1658C",
"Ys 	c #F07F6D",
"Zs 	c #F07D5C",
"`s 	c #F37F5E",
" t 	c #F58762",
".t 	c #F28562",
"+t 	c #F07B5A",
"@t 	c #F2805F",
"#t 	c #F58C65",
"$t 	c #F6986C",
"%t 	c #F69D6D",
"&t 	c #F59D6D",
"*t 	c #FA986F",
"=t 	c #EF6B51",
"-t 	c #ED5244",
";t 	c #EA4039",
">t 	c #E93C35",
",t 	c #EA3C38",
"'t 	c #EB423F",
")t 	c #EC4740",
"!t 	c #F1544A",
"~t 	c #F3BF75",
"{t 	c #ECA561",
"]t 	c #F6B16D",
"^t 	c #F8AD6D",
"/t 	c #F79E61",
"(t 	c #EF8B54",
"_t 	c #EC7C4D",
":t 	c #F17E53",
"<t 	c #F6845D",
"[t 	c #F57F5E",
"}t 	c #ED6149",
"|t 	c #F14E3F",
"1t 	c #EC3B37",
"2t 	c #E72A2D",
"3t 	c #E8282B",
"4t 	c #EC3135",
"5t 	c #E92E31",
"6t 	c #ED3C37",
"7t 	c #E13931",
"8t 	c #F15646",
"9t 	c #EF5F49",
"0t 	c #ED6249",
"at 	c #EF5D46",
"bt 	c #EB4E3F",
"ct 	c #ED3E38",
"dt 	c #EB3533",
"et 	c #E62A2E",
"ft 	c #E4252C",
"gt 	c #E12029",
"ht 	c #DF1D28",
"it 	c #D91324",
"jt 	c #D1091E",
"kt 	c #CE091C",
"lt 	c #CC091F",
"mt 	c #D20F23",
"nt 	c #DD192C",
"ot 	c #DF1A2C",
"pt 	c #E01B2B",
"qt 	c #E21B2B",
"rt 	c #E01727",
"st 	c #DA1126",
"tt 	c #D80E26",
"ut 	c #D10A23",
"vt 	c #D00C25",
"wt 	c #C10521",
"xt 	c #BE0220",
"yt 	c #BD001E",
"zt 	c #C6011C",
"At 	c #CA031D",
"Bt 	c #CB021C",
"Ct 	c #CF041D",
"Dt 	c #D2081F",
"Et 	c #D2071E",
"Ft 	c #D2041E",
"Gt 	c #DC0725",
"Ht 	c #DC0F2A",
"It 	c #AA0319",
"Jt 	c #9E0119",
"Kt 	c #AF0120",
"Lt 	c #BA0621",
"Mt 	c #BE0525",
"Nt 	c #BE0520",
"Ot 	c #C00520",
"Pt 	c #C30623",
"Qt 	c #C40722",
"Rt 	c #C50923",
"St 	c #C80C24",
"Tt 	c #CC1126",
"Ut 	c #D11129",
"Vt 	c #BF031D",
"Wt 	c #CA0724",
"Xt 	c #C50724",
"Yt 	c #B6011D",
"Zt 	c #AA041E",
"`t 	c #890215",
" u 	c #630D15",
".u 	c #61272C",
"+u 	c #57292C",
"@u 	c #5C0812",
"#u 	c #BF132F",
"$u 	c #D3112F",
"%u 	c #D1132F",
"&u 	c #D21430",
"*u 	c #D5122F",
"=u 	c #D31431",
"-u 	c #C20A25",
";u 	c #C50B27",
">u 	c #CB112B",
",u 	c #CD142C",
"'u 	c #D21930",
")u 	c #CF1E2E",
"!u 	c #E34D47",
"~u 	c #F3765C",
"{u 	c #F78F62",
"]u 	c #F39363",
"^u 	c #F48C61",
"/u 	c #F4875F",
"(u 	c #F0845A",
"_u 	c #F1885B",
":u 	c #F18658",
"<u 	c #F4885D",
"[u 	c #F78D63",
"}u 	c #F79868",
"|u 	c #F19262",
"1u 	c #F39262",
"2u 	c #F69865",
"3u 	c #F89967",
"4u 	c #F58F64",
"5u 	c #F28E64",
"6u 	c #D3826D",
"7u 	c #504485",
"8u 	c #2C439B",
"9u 	c #2B499D",
"0u 	c #284AA2",
"au 	c #2449A1",
"bu 	c #274EAB",
"cu 	c #214CAA",
"du 	c #2250AA",
"eu 	c #2153AD",
"fu 	c #1F51AC",
"gu 	c #194EA8",
"hu 	c #1B4FAB",
"iu 	c #1D54AE",
"ju 	c #1B51A8",
"ku 	c #2153AC",
"lu 	c #2051AA",
"mu 	c #2655AD",
"nu 	c #2555AB",
"ou 	c #2053AB",
"pu 	c #1E53AB",
"qu 	c #1D55AC",
"ru 	c #1A56AA",
"su 	c #1C54A9",
"tu 	c #1D53A9",
"uu 	c #2855AE",
"vu 	c #2854AF",
"wu 	c #2A56AD",
"xu 	c #2552A7",
"yu 	c #2855AC",
"zu 	c #2452AA",
"Au 	c #2B58B0",
"Bu 	c #2A52AA",
"Cu 	c #314BA3",
"Du 	c #A0648B",
"Eu 	c #F2806F",
"Fu 	c #F17F5E",
"Gu 	c #F2815F",
"Hu 	c #F38360",
"Iu 	c #F48560",
"Ju 	c #F58B62",
"Ku 	c #F28A63",
"Lu 	c #EE7B57",
"Mu 	c #F47C5C",
"Nu 	c #F47C5E",
"Ou 	c #F39969",
"Pu 	c #F19868",
"Qu 	c #F3996D",
"Ru 	c #F5946B",
"Su 	c #F38763",
"Tu 	c #F07558",
"Uu 	c #EE644E",
"Vu 	c #EC4D41",
"Wu 	c #EA3C37",
"Xu 	c #ED413D",
"Yu 	c #EE4642",
"Zu 	c #EC4841",
"`u 	c #EE5246",
" v 	c #FBC77F",
".v 	c #F5C076",
"+v 	c #F8B16D",
"@v 	c #F7B470",
"#v 	c #F2A566",
"$v 	c #F49D60",
"%v 	c #F08E57",
"&v 	c #EF8251",
"*v 	c #F6805B",
"=v 	c #EF6F51",
"-v 	c #F1604B",
";v 	c #EE4C3F",
">v 	c #E93737",
",v 	c #E92A2E",
"'v 	c #EB2A2F",
")v 	c #EA2C33",
"!v 	c #EA3133",
"~v 	c #EA2F2F",
"{v 	c #EC3632",
"]v 	c #EC3932",
"^v 	c #E73D34",
"/v 	c #EC4940",
"(v 	c #EE5243",
"_v 	c #F2614B",
":v 	c #EC6047",
"<v 	c #F05A45",
"[v 	c #ED413C",
"}v 	c #EB3C39",
"|v 	c #EA3233",
"1v 	c #E3262A",
"2v 	c #E5242C",
"3v 	c #E3212A",
"4v 	c #E4212C",
"5v 	c #DE1927",
"6v 	c #DB1225",
"7v 	c #D30920",
"8v 	c #CD061A",
"9v 	c #D61126",
"0v 	c #E0192D",
"av 	c #E01A2B",
"bv 	c #DE1526",
"cv 	c #DD1328",
"dv 	c #D10A24",
"ev 	c #C10522",
"fv 	c #C10422",
"gv 	c #C1001F",
"hv 	c #BE001F",
"iv 	c #B70321",
"jv 	c #B0001B",
"kv 	c #C9021C",
"lv 	c #CC041E",
"mv 	c #D1061F",
"nv 	c #D1071F",
"ov 	c #D2071F",
"pv 	c #D50623",
"qv 	c #DB0724",
"rv 	c #DC102B",
"sv 	c #AA041A",
"tv 	c #A2001C",
"uv 	c #AB001F",
"vv 	c #AF0020",
"wv 	c #B3021F",
"xv 	c #B90621",
"yv 	c #BD0524",
"zv 	c #BD041F",
"Av 	c #C30624",
"Bv 	c #C40725",
"Cv 	c #C20522",
"Dv 	c #C40A25",
"Ev 	c #C70D24",
"Fv 	c #CA1027",
"Gv 	c #CA1025",
"Hv 	c #D11027",
"Iv 	c #BE071E",
"Jv 	c #C90628",
"Kv 	c #C20728",
"Lv 	c #A5031D",
"Mv 	c #790312",
"Nv 	c #591418",
"Ov 	c #612D2F",
"Pv 	c #592D2E",
"Qv 	c #3C0E11",
"Rv 	c #830C21",
"Sv 	c #CB1431",
"Tv 	c #D2142F",
"Uv 	c #D01532",
"Vv 	c #D01833",
"Wv 	c #CC1630",
"Xv 	c #CF1934",
"Yv 	c #C40D28",
"Zv 	c #C40C25",
"`v 	c #C9122A",
" w 	c #CC152D",
".w 	c #CE172D",
"+w 	c #CA1C2B",
"@w 	c #E5524B",
"#w 	c #F37759",
"$w 	c #F28560",
"%w 	c #F2895C",
"&w 	c #F18D5B",
"*w 	c #F3915F",
"=w 	c #ED885B",
"-w 	c #F08459",
";w 	c #F3895A",
">w 	c #F3865A",
",w 	c #F1855A",
"'w 	c #F0865B",
")w 	c #FA9568",
"!w 	c #F69465",
"~w 	c #F89868",
"{w 	c #EF8F60",
"]w 	c #EF8F61",
"^w 	c #F08A60",
"/w 	c #F99068",
"(w 	c #F59067",
"_w 	c #CB7E6C",
":w 	c #4A4184",
"<w 	c #2D469D",
"[w 	c #2A4A9D",
"}w 	c #284BA2",
"|w 	c #264BA3",
"1w 	c #2C53AB",
"2w 	c #254DAA",
"3w 	c #1B53AB",
"4w 	c #174FA7",
"5w 	c #184EA6",
"6w 	c #1A4DA6",
"7w 	c #1B50AC",
"8w 	c #1D53AD",
"9w 	c #2456AB",
"0w 	c #1E54AB",
"aw 	c #1B54AB",
"bw 	c #1B56AA",
"cw 	c #1D55AA",
"dw 	c #2053AA",
"ew 	c #2554AB",
"fw 	c #2656AE",
"gw 	c #2754B0",
"hw 	c #2856AD",
"iw 	c #2451AA",
"jw 	c #2552A6",
"kw 	c #2451A6",
"lw 	c #2957AF",
"mw 	c #2754AB",
"nw 	c #334AA1",
"ow 	c #A0648A",
"pw 	c #EF8170",
"qw 	c #F1825E",
"rw 	c #EF805C",
"sw 	c #F68A62",
"tw 	c #F48F63",
"uw 	c #F59268",
"vw 	c #EE7E58",
"ww 	c #F18761",
"xw 	c #F09066",
"yw 	c #F19667",
"zw 	c #F19767",
"Aw 	c #F39B6E",
"Bw 	c #F49C70",
"Cw 	c #F29069",
"Dw 	c #F68764",
"Ew 	c #F37358",
"Fw 	c #EF5F4C",
"Gw 	c #E9463D",
"Hw 	c #EA3B39",
"Iw 	c #F0403E",
"Jw 	c #F04642",
"Kw 	c #EC4742",
"Lw 	c #E94E42",
"Mw 	c #F6BD76",
"Nw 	c #FAC47A",
"Ow 	c #F6AE6A",
"Pw 	c #ECA764",
"Qw 	c #F3A867",
"Rw 	c #F6A264",
"Sw 	c #F5965E",
"Tw 	c #F68D5C",
"Uw 	c #F6885B",
"Vw 	c #F67B59",
"Ww 	c #EC6249",
"Xw 	c #F05C48",
"Yw 	c #EC4A3D",
"Zw 	c #E93535",
"`w 	c #EE2C32",
" x 	c #EB2D34",
".x 	c #E92E2E",
"+x 	c #EC3531",
"@x 	c #EC372F",
"#x 	c #EF4339",
"$x 	c #F14D44",
"%x 	c #ED4D42",
"&x 	c #ED5142",
"*x 	c #F3614C",
"=x 	c #EC5F47",
"-x 	c #F15944",
";x 	c #EF4A40",
">x 	c #EA3C3A",
",x 	c #E73634",
"'x 	c #E72F30",
")x 	c #E6282C",
"!x 	c #E8262E",
"~x 	c #E3202A",
"{x 	c #E4202A",
"]x 	c #E11B28",
"^x 	c #DB1423",
"/x 	c #DA1024",
"(x 	c #D50B22",
"_x 	c #D0091D",
":x 	c #D00A22",
"<x 	c #D10C23",
"[x 	c #D10B22",
"}x 	c #DD162B",
"|x 	c #E11A2C",
"1x 	c #E1182A",
"2x 	c #DD1426",
"3x 	c #DD1324",
"4x 	c #DB1126",
"5x 	c #D70D25",
"6x 	c #D20B24",
"7x 	c #C1031F",
"8x 	c #C30020",
"9x 	c #B2011C",
"0x 	c #BB011E",
"ax 	c #CA011C",
"bx 	c #CE0520",
"cx 	c #D10620",
"dx 	c #D0051E",
"ex 	c #D0031C",
"fx 	c #CF021B",
"gx 	c #D40521",
"hx 	c #D90724",
"ix 	c #DC112A",
"jx 	c #AA0419",
"kx 	c #9F0019",
"lx 	c #A1001C",
"mx 	c #AD0020",
"nx 	c #B2021F",
"ox 	c #B90721",
"px 	c #BB0523",
"qx 	c #C20523",
"rx 	c #C40624",
"sx 	c #C20422",
"tx 	c #C40824",
"ux 	c #C50C26",
"vx 	c #C10921",
"wx 	c #C80F25",
"xx 	c #C90E24",
"yx 	c #BC061E",
"zx 	c #C10529",
"Ax 	c #A50824",
"Bx 	c #7A0214",
"Cx 	c #5C1419",
"Dx 	c #5A2D30",
"Ex 	c #52302F",
"Fx 	c #634F49",
"Gx 	c #4C1D1D",
"Hx 	c #AC112F",
"Ix 	c #CD1631",
"Jx 	c #D11630",
"Kx 	c #CB1733",
"Lx 	c #B5172D",
"Mx 	c #9C091C",
"Nx 	c #BF162F",
"Ox 	c #C00C26",
"Px 	c #C10A22",
"Qx 	c #C61027",
"Rx 	c #CA152D",
"Sx 	c #CC172E",
"Tx 	c #CA1E2C",
"Ux 	c #E9574F",
"Vx 	c #F27656",
"Wx 	c #ED7F5A",
"Xx 	c #F1865A",
"Yx 	c #F18B5A",
"Zx 	c #F48E60",
"`x 	c #F08A5D",
" y 	c #EF885B",
".y 	c #F3885E",
"+y 	c #F1845C",
"@y 	c #F48A5D",
"#y 	c #F58D5F",
"$y 	c #F18C5B",
"%y 	c #F28E5C",
"&y 	c #F58F5E",
"*y 	c #F08759",
"=y 	c #F99869",
"-y 	c #F49867",
";y 	c #F29867",
">y 	c #EF9264",
",y 	c #F18C62",
"'y 	c #F0855C",
")y 	c #F38661",
"!y 	c #F59069",
"~y 	c #C97E70",
"{y 	c #484185",
"]y 	c #2D479D",
"^y 	c #2B4B9E",
"/y 	c #2A4CA4",
"(y 	c #274BA4",
"_y 	c #274EAC",
":y 	c #1E50A9",
"<y 	c #1F4DA8",
"[y 	c #1C54AB",
"}y 	c #1952A9",
"|y 	c #1850A7",
"1y 	c #1A52A9",
"2y 	c #1C50A8",
"3y 	c #1C4CA6",
"4y 	c #1A4EAA",
"5y 	c #1B53AC",
"6y 	c #1E56AC",
"7y 	c #2159AE",
"8y 	c #1F52AA",
"9y 	c #2151AA",
"0y 	c #2353AA",
"ay 	c #2355A9",
"by 	c #2054A9",
"cy 	c #1E56AD",
"dy 	c #1B53AA",
"ey 	c #1D55AB",
"fy 	c #2155AC",
"gy 	c #2356AE",
"hy 	c #2155AD",
"iy 	c #2155AE",
"jy 	c #2657AF",
"ky 	c #2455AD",
"ly 	c #2956B2",
"my 	c #2859AE",
"ny 	c #2855A9",
"oy 	c #2755AB",
"py 	c #2855AB",
"qy 	c #364AA3",
"ry 	c #9C6388",
"sy 	c #ED8270",
"ty 	c #EF815C",
"uy 	c #F0855E",
"vy 	c #F29062",
"wy 	c #F99C6E",
"xy 	c #F1865E",
"yy 	c #F2815E",
"zy 	c #F28861",
"Ay 	c #EE8E63",
"By 	c #F69B6C",
"Cy 	c #F1986E",
"Dy 	c #EF8D67",
"Ey 	c #F47055",
"Fy 	c #EC5947",
"Gy 	c #E64038",
"Hy 	c #EA3A39",
"Iy 	c #F04040",
"Jy 	c #F14844",
"Ky 	c #EC4843",
"Ly 	c #EC4A42",
"My 	c #EB5044",
"Ny 	c #F1B56D",
"Oy 	c #FBC57C",
"Py 	c #EFAB67",
"Qy 	c #ECA965",
"Ry 	c #F9AF6E",
"Sy 	c #FDA86B",
"Ty 	c #F69660",
"Uy 	c #FB9563",
"Vy 	c #F98A5C",
"Wy 	c #F47254",
"Xy 	c #EC5944",
"Yy 	c #EF5341",
"Zy 	c #ED463A",
"`y 	c #EC2D30",
" z 	c #ED2F34",
".z 	c #EA2D34",
"+z 	c #EB2F32",
"@z 	c #E72D2E",
"#z 	c #EB3330",
"$z 	c #EE3831",
"%z 	c #EF4138",
"&z 	c #F04C43",
"*z 	c #EB4940",
"=z 	c #ED5043",
"-z 	c #ED5A48",
";z 	c #EF5442",
">z 	c #EB453A",
",z 	c #E63733",
"'z 	c #E83332",
")z 	c #E72F2F",
"!z 	c #E5232B",
"~z 	c #E11F29",
"{z 	c #DF1B25",
"]z 	c #DC1423",
"^z 	c #D80E24",
"/z 	c #D50B20",
"(z 	c #CF081E",
"_z 	c #D40E24",
":z 	c #CD071F",
"<z 	c #DF182C",
"[z 	c #DF172A",
"}z 	c #DC1225",
"|z 	c #DD1226",
"1z 	c #D70D23",
"2z 	c #D20D24",
"3z 	c #C0031C",
"4z 	c #BD011C",
"5z 	c #B5011F",
"6z 	c #C3011D",
"7z 	c #CA021E",
"8z 	c #D00520",
"9z 	c #D1051E",
"0z 	c #D1051D",
"az 	c #D1031A",
"bz 	c #D0011A",
"cz 	c #D50420",
"dz 	c #D70520",
"ez 	c #DB1128",
"fz 	c #A0011B",
"gz 	c #A1001D",
"hz 	c #B0021F",
"iz 	c #B70620",
"jz 	c #BA0623",
"kz 	c #BE0722",
"lz 	c #C20521",
"mz 	c #C50925",
"nz 	c #C50B24",
"oz 	c #C30921",
"pz 	c #C80E26",
"qz 	c #CC1326",
"rz 	c #BB0720",
"sz 	c #B3031D",
"tz 	c #9B051F",
"uz 	c #6B0511",
"vz 	c #5C1318",
"wz 	c #562629",
"xz 	c #4D3733",
"yz 	c #878B7F",
"zz 	c #9E9C92",
"Az 	c #682428",
"Bz 	c #BF1233",
"Cz 	c #D01130",
"Dz 	c #CB142C",
"Ez 	c #A21026",
"Fz 	c #630513",
"Gz 	c #520309",
"Hz 	c #B61931",
"Iz 	c #BF0B27",
"Jz 	c #C20B24",
"Kz 	c #C91229",
"Lz 	c #CA172D",
"Mz 	c #CB1931",
"Nz 	c #CC2231",
"Oz 	c #EB5B4F",
"Pz 	c #EF7E5B",
"Qz 	c #F4895C",
"Rz 	c #F18858",
"Sz 	c #EF8857",
"Tz 	c #F48D5F",
"Uz 	c #F38D5F",
"Vz 	c #F0885B",
"Wz 	c #F3875E",
"Xz 	c #F69161",
"Yz 	c #F99765",
"Zz 	c #F39660",
"`z 	c #F39B61",
" A 	c #F49961",
".A 	c #EF8F5D",
"+A 	c #F18C5E",
"@A 	c #F39666",
"#A 	c #F79C69",
"$A 	c #F59B69",
"%A 	c #F19766",
"&A 	c #F69167",
"*A 	c #F08361",
"=A 	c #F4906B",
"-A 	c #C98278",
";A 	c #474388",
">A 	c #294699",
",A 	c #2A4A9E",
"'A 	c #2B4BA5",
")A 	c #284BA5",
"!A 	c #2A4EA8",
"~A 	c #2A50A9",
"{A 	c #2A50AE",
"]A 	c #284FAF",
"^A 	c #204DA7",
"/A 	c #1D53AA",
"(A 	c #194CA6",
"_A 	c #194FAA",
":A 	c #1B52AB",
"<A 	c #1C54AA",
"[A 	c #2058AD",
"}A 	c #1D54A8",
"|A 	c #2055AA",
"1A 	c #2256AC",
"2A 	c #2155A9",
"3A 	c #2054AB",
"4A 	c #1F55AD",
"5A 	c #2057B0",
"6A 	c #2057AD",
"7A 	c #2357B0",
"8A 	c #2257AF",
"9A 	c #2857AF",
"0A 	c #2252A7",
"aA 	c #2453A9",
"bA 	c #2A55AB",
"cA 	c #2D53AB",
"dA 	c #364DA5",
"eA 	c #9A6A8A",
"fA 	c #F48D78",
"gA 	c #F38761",
"hA 	c #F0875E",
"iA 	c #F89C6D",
"jA 	c #F48E63",
"kA 	c #EF815A",
"lA 	c #F2835E",
"mA 	c #F48760",
"nA 	c #F29065",
"oA 	c #F09665",
"pA 	c #F49D70",
"qA 	c #F19169",
"rA 	c #F46D52",
"sA 	c #E9523F",
"tA 	c #E93F36",
"uA 	c #E93A37",
"vA 	c #EC443F",
"wA 	c #F04A44",
"xA 	c #EE4A44",
"yA 	c #EE4C45",
"zA 	c #F4BD73",
"AA 	c #FCC67E",
"BA 	c #F2B06C",
"CA 	c #F8B672",
"DA 	c #F8AC6C",
"EA 	c #FAA266",
"FA 	c #F4915C",
"GA 	c #FB9162",
"HA 	c #F78558",
"IA 	c #F26E51",
"JA 	c #EE5844",
"KA 	c #F04F40",
"LA 	c #ED4339",
"MA 	c #EA2E31",
"NA 	c #EA2F34",
"OA 	c #E72C33",
"PA 	c #E62C2D",
"QA 	c #ED4840",
"RA 	c #ED5745",
"SA 	c #EF5B47",
"TA 	c #EE5041",
"UA 	c #EC3836",
"VA 	c #DE1825",
"WA 	c #DC1424",
"XA 	c #D30B20",
"YA 	c #CF081D",
"ZA 	c #D71125",
"`A 	c #D60F24",
" B 	c #CE081F",
".B 	c #CB051D",
"+B 	c #DA152B",
"@B 	c #DF182B",
"#B 	c #DF1628",
"$B 	c #DD1427",
"%B 	c #D71025",
"&B 	c #D10C25",
"*B 	c #CB0823",
"=B 	c #C1031D",
"-B 	c #C60222",
";B 	c #CC021E",
">B 	c #CC011D",
",B 	c #CE021D",
"'B 	c #D2031B",
")B 	c #D0001B",
"!B 	c #D40320",
"~B 	c #DA1027",
"{B 	c #AA031A",
"]B 	c #9F011D",
"^B 	c #A2001F",
"/B 	c #AA0121",
"(B 	c #AB0120",
"_B 	c #B6051F",
":B 	c #BF0823",
"<B 	c #C20823",
"[B 	c #C00822",
"}B 	c #C10722",
"|B 	c #C60B25",
"1B 	c #C60922",
"2B 	c #CA0B25",
"3B 	c #C91427",
"4B 	c #D4182C",
"5B 	c #D01029",
"6B 	c #AD081D",
"7B 	c #8B0313",
"8B 	c #640911",
"9B 	c #581B1D",
"0B 	c #522324",
"aB 	c #4C3E3A",
"bB 	c #9AA297",
"cB 	c #D5E4D3",
"dB 	c #8D7F76",
"eB 	c #95152A",
"fB 	c #CD1039",
"gB 	c #C6112F",
"hB 	c #9A0E1D",
"iB 	c #510509",
"jB 	c #250303",
"kB 	c #64111D",
"lB 	c #C01F37",
"mB 	c #C50D28",
"nB 	c #CB182F",
"oB 	c #CC1A31",
"pB 	c #CE2733",
"qB 	c #EC5F51",
"rB 	c #F47856",
"sB 	c #F17F5D",
"tB 	c #F68A5E",
"uB 	c #F38A5A",
"vB 	c #F08758",
"wB 	c #F38C5F",
"xB 	c #F99365",
"yB 	c #F78E62",
"zB 	c #F68A60",
"AB 	c #F1835B",
"BB 	c #F79364",
"CB 	c #FB9C69",
"DB 	c #F59E65",
"EB 	c #F2A065",
"FB 	c #F5A067",
"GB 	c #F49864",
"HB 	c #F39062",
"IB 	c #F19865",
"JB 	c #C8847C",
"KB 	c #434389",
"LB 	c #274499",
"MB 	c #27479B",
"NB 	c #2A49A3",
"OB 	c #2A4DA6",
"PB 	c #2B4FA7",
"QB 	c #2C51AA",
"RB 	c #274FAE",
"SB 	c #1851A8",
"TB 	c #1C54AC",
"UB 	c #1B4DA7",
"VB 	c #1F57AE",
"WB 	c #1C53A8",
"XB 	c #2157AD",
"YB 	c #2156AA",
"ZB 	c #1F53AC",
"`B 	c #2255AD",
" C 	c #2155AF",
".C 	c #2156AE",
"+C 	c #2458B0",
"@C 	c #2555AC",
"#C 	c #2551AB",
"$C 	c #2555AA",
"%C 	c #2852A8",
"&C 	c #2C54AB",
"*C 	c #3953AA",
"=C 	c #9A6F8F",
"-C 	c #F49B81",
";C 	c #EE875E",
">C 	c #ED875E",
",C 	c #EF9265",
"'C 	c #F59B6B",
")C 	c #F79A6C",
"!C 	c #F69266",
"~C 	c #F78F66",
"{C 	c #F69369",
"]C 	c #ED9263",
"^C 	c #F9A175",
"/C 	c #F48261",
"(C 	c #E54B3B",
"_C 	c #E93F38",
":C 	c #EE4641",
"<C 	c #F44E48",
"[C 	c #EC4943",
"}C 	c #EE4E46",
"|C 	c #EF5246",
"1C 	c #F8C47A",
"2C 	c #FBC17A",
"3C 	c #F1AD6A",
"4C 	c #F3AC6A",
"5C 	c #F4A465",
"6C 	c #EC8653",
"7C 	c #F28456",
"8C 	c #F27B50",
"9C 	c #EF5847",
"0C 	c #EF4D41",
"aC 	c #E82F32",
"bC 	c #E72F32",
"cC 	c #E82F35",
"dC 	c #E42C2C",
"eC 	c #EF433D",
"fC 	c #EE4840",
"gC 	c #ED5545",
"hC 	c #EC4E40",
"iC 	c #EE3E3C",
"jC 	c #ED3B39",
"kC 	c #E63030",
"lC 	c #E62D2D",
"mC 	c #E7292E",
"nC 	c #E4212A",
"oC 	c #DF1B27",
"pC 	c #DD1725",
"qC 	c #D91323",
"rC 	c #D91227",
"sC 	c #D70F23",
"tC 	c #D20A21",
"uC 	c #CC0620",
"vC 	c #DF182D",
"wC 	c #DE1729",
"xC 	c #DA1529",
"yC 	c #CE0A22",
"zC 	c #C1031E",
"AC 	c #B9011C",
"BC 	c #C40422",
"CC 	c #C50021",
"DC 	c #BF0021",
"EC 	c #D0041D",
"FC 	c #D1001C",
"GC 	c #DA0E27",
"HC 	c #AC031C",
"IC 	c #9E001E",
"JC 	c #A20021",
"KC 	c #A90022",
"LC 	c #AB0021",
"MC 	c #AF021F",
"NC 	c #B5041E",
"OC 	c #BB0622",
"PC 	c #BF0824",
"QC 	c #C00923",
"RC 	c #BF0A23",
"SC 	c #C40B24",
"TC 	c #C40A22",
"UC 	c #C70C24",
"VC 	c #CA0A24",
"WC 	c #C71428",
"XC 	c #AC0D20",
"YC 	c #76060E",
"ZC 	c #5E1010",
"`C 	c #582424",
" D 	c #492A28",
".D 	c #605D57",
"+D 	c #AFB9B0",
"@D 	c #DDF1E5",
"#D 	c #CEDBCF",
"$D 	c #78403F",
"%D 	c #B80E32",
"&D 	c #C10F35",
"*D 	c #8B061D",
"=D 	c #4B0C10",
"-D 	c #3F2D2B",
";D 	c #46161C",
">D 	c #9D1E34",
",D 	c #C81B37",
"'D 	c #C10C29",
")D 	c #C60E2A",
"!D 	c #CB132D",
"~D 	c #CA1730",
"{D 	c #CB1B30",
"]D 	c #CE2B32",
"^D 	c #EE6453",
"/D 	c #F47A57",
"(D 	c #F3815E",
"_D 	c #F38759",
":D 	c #F3895B",
"<D 	c #FA9166",
"[D 	c #F5895F",
"}D 	c #F3855B",
"|D 	c #F49061",
"1D 	c #F29561",
"2D 	c #EE9C63",
"3D 	c #F5A96B",
"4D 	c #F5A86C",
"5D 	c #F69D67",
"6D 	c #F79566",
"7D 	c #F09461",
"8D 	c #F39964",
"9D 	c #F9A26B",
"0D 	c #F8A16A",
"aD 	c #F49968",
"bD 	c #F48E64",
"cD 	c #F18160",
"dD 	c #F28C65",
"eD 	c #C47E7A",
"fD 	c #40438D",
"gD 	c #26429B",
"hD 	c #25449A",
"iD 	c #2847A1",
"jD 	c #294CA4",
"kD 	c #2C50A8",
"lD 	c #2C51A8",
"mD 	c #2650AC",
"nD 	c #2355AF",
"oD 	c #2555AF",
"pD 	c #2054AD",
"qD 	c #2252AA",
"rD 	c #1D52A8",
"sD 	c #1A53A8",
"tD 	c #1A51A8",
"uD 	c #1B50A8",
"vD 	c #1D51AA",
"wD 	c #1F52AB",
"xD 	c #1B51AA",
"yD 	c #1C53AA",
"zD 	c #1E55AD",
"AD 	c #1F56AB",
"BD 	c #2256AA",
"CD 	c #2154AE",
"DD 	c #1E54AC",
"ED 	c #2154AC",
"FD 	c #2457B0",
"GD 	c #2A54AE",
"HD 	c #2655AE",
"ID 	c #2A54AA",
"JD 	c #344FA4",
"KD 	c #966D8F",
"LD 	c #EE9F82",
"MD 	c #F09769",
"ND 	c #EE9063",
"OD 	c #F18F65",
"PD 	c #EE9366",
"QD 	c #F19669",
"RD 	c #F6996B",
"SD 	c #F49265",
"TD 	c #F28961",
"UD 	c #F59167",
"VD 	c #F69468",
"WD 	c #F09367",
"XD 	c #F3966C",
"YD 	c #F0936A",
"ZD 	c #F58F6B",
"`D 	c #F58062",
" E 	c #F16750",
".E 	c #E74D3F",
"+E 	c #EC3E3B",
"@E 	c #F34D47",
"#E 	c #EB4741",
"$E 	c #ED4C44",
"%E 	c #ED5145",
"&E 	c #F3BE73",
"*E 	c #F7B873",
"=E 	c #F2A867",
"-E 	c #ED9D5E",
";E 	c #F6A466",
">E 	c #F59A5F",
",E 	c #EC8351",
"'E 	c #EF7D50",
")E 	c #F1764E",
"!E 	c #F2694F",
"~E 	c #EA3D3A",
"{E 	c #E93437",
"]E 	c #E93236",
"^E 	c #EA3238",
"/E 	c #EB3434",
"(E 	c #E52D2E",
"_E 	c #E73130",
":E 	c #EB3835",
"<E 	c #F44D45",
"[E 	c #EE4A41",
"}E 	c #F05747",
"|E 	c #EF5744",
"1E 	c #EC4C3F",
"2E 	c #EE443E",
"3E 	c #EE3D3C",
"4E 	c #EA3937",
"5E 	c #E93232",
"6E 	c #E5222B",
"7E 	c #DF1B28",
"8E 	c #D71221",
"9E 	c #D20D20",
"0E 	c #D60F22",
"aE 	c #D90F23",
"bE 	c #D5112C",
"cE 	c #E01A2F",
"dE 	c #DC1728",
"eE 	c #D81224",
"fE 	c #D61326",
"gE 	c #C0021E",
"hE 	c #B7011C",
"iE 	c #C20320",
"jE 	c #B90221",
"kE 	c #BF0121",
"lE 	c #CB021D",
"mE 	c #D2031F",
"nE 	c #D70823",
"oE 	c #DA0E28",
"pE 	c #AF021E",
"qE 	c #9D0120",
"rE 	c #A20022",
"sE 	c #AA0023",
"tE 	c #AB0122",
"uE 	c #BB0522",
"vE 	c #C00A25",
"wE 	c #BE0922",
"xE 	c #C30B25",
"yE 	c #C50C25",
"zE 	c #C40B22",
"AE 	c #C70C25",
"BE 	c #CB0D27",
"CE 	c #C11126",
"DE 	c #9A0A18",
"EE 	c #670B0D",
"FE 	c #59221C",
"GE 	c #5C2B27",
"HE 	c #4C2F2B",
"IE 	c #71736C",
"JE 	c #C2D1C7",
"KE 	c #DCF7E9",
"LE 	c #E8F8F0",
"ME 	c #A29996",
"NE 	c #811A24",
"OE 	c #AF0D2D",
"PE 	c #82081D",
"QE 	c #480D12",
"RE 	c #544549",
"SE 	c #69565A",
"TE 	c #832032",
"UE 	c #C11D37",
"VE 	c #CB1631",
"WE 	c #C10C2A",
"XE 	c #C20C29",
"YE 	c #C8112B",
"ZE 	c #CA1630",
"`E 	c #C9182E",
" F 	c #CD2D31",
".F 	c #F06A56",
"+F 	c #F47B57",
"@F 	c #F4805E",
"#F 	c #F4855B",
"$F 	c #F28659",
"%F 	c #F58B5D",
"&F 	c #F08C5F",
"*F 	c #F78F65",
"=F 	c #F3885D",
"-F 	c #F6895E",
";F 	c #F49562",
">F 	c #EE9C62",
",F 	c #F6AF6F",
"'F 	c #F4AD6E",
")F 	c #F29C66",
"!F 	c #F29662",
"~F 	c #F59C66",
"{F 	c #F8A369",
"]F 	c #F7A269",
"^F 	c #F69E66",
"/F 	c #F29764",
"(F 	c #F18B62",
"_F 	c #F28461",
":F 	c #F28261",
"<F 	c #C27979",
"[F 	c #404290",
"}F 	c #25419B",
"|F 	c #234399",
"1F 	c #2747A0",
"2F 	c #274AA1",
"3F 	c #2C51A7",
"4F 	c #2E52A7",
"5F 	c #2B52A9",
"6F 	c #2551A9",
"7F 	c #254FAB",
"8F 	c #2152AA",
"9F 	c #1852A6",
"0F 	c #1A50A9",
"aF 	c #1D54AC",
"bF 	c #1C53AF",
"cF 	c #1D54AD",
"dF 	c #1C52A8",
"eF 	c #1E55AA",
"fF 	c #1F53A7",
"gF 	c #1A51A9",
"hF 	c #2656B0",
"iF 	c #2959AD",
"jF 	c #2555B0",
"kF 	c #2855AF",
"lF 	c #2B58B1",
"mF 	c #2959AE",
"nF 	c #2B53AA",
"oF 	c #2B54AA",
"pF 	c #2E4BA0",
"qF 	c #976D90",
"rF 	c #EEA284",
"sF 	c #EFA16E",
"tF 	c #F1A16E",
"uF 	c #EF9767",
"vF 	c #F2996D",
"wF 	c #F5986B",
"xF 	c #F28E63",
"yF 	c #F7946A",
"zF 	c #F49368",
"AF 	c #F08F65",
"BF 	c #F28D67",
"CF 	c #F68968",
"DF 	c #F36753",
"EF 	c #EB4E44",
"FF 	c #E83C39",
"GF 	c #ED463F",
"HF 	c #EA4640",
"IF 	c #EB4B42",
"JF 	c #F8BE75",
"KF 	c #F4A866",
"LF 	c #F3A060",
"MF 	c #F9A567",
"NF 	c #F59A5E",
"OF 	c #EE8753",
"PF 	c #EF7E50",
"QF 	c #F27850",
"RF 	c #EF654D",
"SF 	c #EE5749",
"TF 	c #EE4D43",
"UF 	c #EC433D",
"VF 	c #ED413E",
"WF 	c #EB383B",
"XF 	c #E73335",
"YF 	c #EA3438",
"ZF 	c #EC3636",
"`F 	c #E62F31",
" G 	c #EA3936",
".G 	c #EE423D",
"+G 	c #F24C44",
"@G 	c #EC483F",
"#G 	c #E9493D",
"$G 	c #F05746",
"%G 	c #F35B48",
"&G 	c #EE4D41",
"*G 	c #EF443E",
"=G 	c #EC3735",
"-G 	c #E62F2E",
";G 	c #E62B2D",
">G 	c #E3232C",
",G 	c #DE1B28",
"'G 	c #DD1627",
")G 	c #D81325",
"!G 	c #D30F20",
"~G 	c #D71123",
"{G 	c #DB1527",
"]G 	c #D80F22",
"^G 	c #D5112B",
"/G 	c #E01A2E",
"(G 	c #DC1627",
"_G 	c #DA1526",
":G 	c #D10E21",
"<G 	c #B6011C",
"[G 	c #C20421",
"}G 	c #BA0121",
"|G 	c #BD001B",
"1G 	c #C3001B",
"2G 	c #CC021D",
"3G 	c #D0031E",
"4G 	c #D2031E",
"5G 	c #D91028",
"6G 	c #AE021F",
"7G 	c #9C0222",
"8G 	c #A10022",
"9G 	c #A70023",
"0G 	c #AA0022",
"aG 	c #AF0220",
"bG 	c #B5041F",
"cG 	c #B90623",
"dG 	c #BF0A25",
"eG 	c #C10C26",
"fG 	c #BF0722",
"gG 	c #C20A23",
"hG 	c #C10B22",
"iG 	c #C20A22",
"jG 	c #C9112A",
"kG 	c #BE0F25",
"lG 	c #8E0713",
"mG 	c #631111",
"nG 	c #5E2727",
"oG 	c #60332F",
"pG 	c #4F312A",
"qG 	c #797D72",
"rG 	c #C6DBCE",
"sG 	c #DDF8EB",
"tG 	c #E2FDF2",
"uG 	c #DEE4DF",
"vG 	c #63474A",
"wG 	c #820C1E",
"xG 	c #860517",
"yG 	c #500F12",
"zG 	c #514B47",
"AG 	c #847979",
"BG 	c #692E3B",
"CG 	c #AE1E38",
"DG 	c #D11633",
"EG 	c #CA112C",
"FG 	c #BF0A28",
"GG 	c #C00B29",
"HG 	c #C40D29",
"IG 	c #C8142D",
"JG 	c #C9192D",
"KG 	c #CE3032",
"LG 	c #EF6853",
"MG 	c #F17854",
"NG 	c #F37F5A",
"OG 	c #F4845B",
"PG 	c #F3855A",
"QG 	c #F58A5E",
"RG 	c #F99667",
"SG 	c #ED8458",
"TG 	c #F58A5F",
"UG 	c #F68A5F",
"VG 	c #F79A65",
"WG 	c #F5A46B",
"XG 	c #F9B476",
"YG 	c #F5B070",
"ZG 	c #F29063",
"`G 	c #F18E61",
" H 	c #F29762",
".H 	c #F5A267",
"+H 	c #F5A266",
"@H 	c #EF9A5F",
"#H 	c #EF8B5F",
"$H 	c #F58561",
"%H 	c #F68A65",
"&H 	c #BF7676",
"*H 	c #404091",
"=H 	c #25409A",
"-H 	c #26449D",
";H 	c #284CA3",
">H 	c #2C50A7",
",H 	c #2E52A9",
"'H 	c #2B52AA",
")H 	c #2552AA",
"!H 	c #1F50A9",
"~H 	c #1A51A7",
"{H 	c #1950A7",
"]H 	c #1F58AC",
"^H 	c #1F53A8",
"/H 	c #2057AF",
"(H 	c #1B52A9",
"_H 	c #2A5AAE",
":H 	c #2858AF",
"<H 	c #2B59B2",
"[H 	c #2B59B1",
"}H 	c #2C59B1",
"|H 	c #2B56AD",
"1H 	c #2D55AC",
"2H 	c #2B55AC",
"3H 	c #2D4C9F",
"4H 	c #956B8F",
"5H 	c #F2A88B",
"6H 	c #F0AB76",
"7H 	c #F6AD77",
"8H 	c #FAA572",
"9H 	c #EE9464",
"0H 	c #F19A6B",
"aH 	c #F49B6E",
"bH 	c #F5996B",
"cH 	c #F9996C",
"dH 	c #F28F65",
"eH 	c #F49469",
"fH 	c #F38F66",
"gH 	c #EF8C63",
"hH 	c #F18E66",
"iH 	c #F9956D",
"jH 	c #F48D68",
"kH 	c #F08262",
"lH 	c #F3775F",
"mH 	c #F36553",
"nH 	c #EB4D43",
"oH 	c #E83D38",
"pH 	c #ED4742",
"qH 	c #EC4C43",
"rH 	c #ED5146",
"sH 	c #F6B86F",
"tH 	c #F6AB6B",
"uH 	c #F4A764",
"vH 	c #F6A465",
"wH 	c #F49C5D",
"xH 	c #F4925A",
"yH 	c #F28555",
"zH 	c #F57D54",
"AH 	c #ED644B",
"BH 	c #ED5748",
"CH 	c #EC4B41",
"DH 	c #EB433B",
"EH 	c #ED403C",
"FH 	c #EC3A3A",
"GH 	c #E63333",
"HH 	c #E83536",
"IH 	c #E93733",
"JH 	c #E93336",
"KH 	c #EA3533",
"LH 	c #EF4740",
"MH 	c #EA463D",
"NH 	c #EC493F",
"OH 	c #EE5343",
"PH 	c #EF5846",
"QH 	c #F45548",
"RH 	c #EF473F",
"SH 	c #EE3A38",
"TH 	c #E93231",
"UH 	c #E3252E",
"VH 	c #E01D29",
"WH 	c #D71224",
"XH 	c #D31021",
"YH 	c #D91426",
"ZH 	c #D60F21",
"`H 	c #CB0923",
" I 	c #E0192E",
".I 	c #DD1626",
"+I 	c #D91424",
"@I 	c #D71226",
"#I 	c #D00B1F",
"$I 	c #CC0A21",
"%I 	c #C70620",
"&I 	c #BC011E",
"*I 	c #C30121",
"=I 	c #D1031E",
"-I 	c #D1021E",
";I 	c #DB0924",
">I 	c #D80F27",
",I 	c #AC021E",
"'I 	c #990120",
")I 	c #9F0021",
"!I 	c #A30021",
"~I 	c #A80021",
"{I 	c #AE0220",
"]I 	c #B50521",
"^I 	c #B90724",
"/I 	c #BE0B27",
"(I 	c #C30F29",
"_I 	c #C20A26",
":I 	c #C00B24",
"<I 	c #BF0B22",
"[I 	c #C20C24",
"}I 	c #C40B26",
"|I 	c #C20824",
"1I 	c #C00D25",
"2I 	c #AF0D24",
"3I 	c #850713",
"4I 	c #611611",
"5I 	c #692E2D",
"6I 	c #673133",
"7I 	c #50312D",
"8I 	c #787D71",
"9I 	c #CBDFCE",
"0I 	c #DBFAEC",
"aI 	c #DDFEF2",
"bI 	c #E4F9F4",
"cI 	c #A1A2A1",
"dI 	c #381519",
"eI 	c #560914",
"fI 	c #5B181C",
"gI 	c #62514E",
"hI 	c #9EA097",
"iI 	c #6E4B4B",
"jI 	c #941931",
"kI 	c #C31936",
"lI 	c #D41532",
"mI 	c #CA102B",
"nI 	c #C10C2B",
"oI 	c #BF0B28",
"pI 	c #C20C27",
"qI 	c #C6122B",
"rI 	c #C8182B",
"sI 	c #D03233",
"tI 	c #EE6750",
"uI 	c #F27754",
"vI 	c #F18459",
"wI 	c #F3885C",
"xI 	c #F49566",
"yI 	c #EE8258",
"zI 	c #F4865D",
"AI 	c #F59663",
"BI 	c #F5A069",
"CI 	c #F5AC6E",
"DI 	c #F39B66",
"EI 	c #F39064",
"FI 	c #F59964",
"GI 	c #F6A066",
"HI 	c #F6A166",
"II 	c #F09A5F",
"JI 	c #F39862",
"KI 	c #F38663",
"LI 	c #B87271",
"MI 	c #3F3F90",
"NI 	c #27429B",
"OI 	c #2947A1",
"PI 	c #274AA2",
"QI 	c #2D51A9",
"RI 	c #2B4FA8",
"SI 	c #2A51AA",
"TI 	c #2852AB",
"UI 	c #1A50A7",
"VI 	c #1D50A8",
"WI 	c #1E58AB",
"XI 	c #1E56AA",
"YI 	c #2056AE",
"ZI 	c #2055AE",
"`I 	c #1E52A8",
" J 	c #2054AA",
".J 	c #2257AD",
"+J 	c #2158B0",
"@J 	c #1D56AD",
"#J 	c #2756AE",
"$J 	c #2858B1",
"%J 	c #2756AF",
"&J 	c #2553AA",
"*J 	c #2C5AB3",
"=J 	c #2C56AD",
"-J 	c #2D57AD",
";J 	c #2E4DA1",
">J 	c #91698C",
",J 	c #F5AC8E",
"'J 	c #FAB683",
")J 	c #FAB682",
"!J 	c #EE9969",
"~J 	c #EF9E6E",
"{J 	c #F29E70",
"]J 	c #F39A6C",
"^J 	c #F19165",
"/J 	c #F19166",
"(J 	c #F09065",
"_J 	c #F59269",
":J 	c #F6926B",
"<J 	c #F18966",
"[J 	c #EE7F60",
"}J 	c #F3755C",
"|J 	c #E9423B",
"1J 	c #EA413D",
"2J 	c #ED4842",
"3J 	c #EF5048",
"4J 	c #EB4F46",
"5J 	c #F4B16B",
"6J 	c #F1A264",
"7J 	c #F5A564",
"8J 	c #F6A666",
"9J 	c #F3A163",
"0J 	c #F59E5E",
"aJ 	c #F7965C",
"bJ 	c #F58A58",
"cJ 	c #F47954",
"dJ 	c #EE654C",
"eJ 	c #EE5747",
"fJ 	c #EB4B3F",
"gJ 	c #E84239",
"hJ 	c #E93D36",
"iJ 	c #EE3C38",
"jJ 	c #E93937",
"kJ 	c #EA393A",
"lJ 	c #E83834",
"mJ 	c #E83534",
"nJ 	c #EB3638",
"oJ 	c #ED3A39",
"pJ 	c #F0423F",
"qJ 	c #EC433C",
"rJ 	c #F25346",
"sJ 	c #EC5443",
"tJ 	c #F15346",
"uJ 	c #EE4941",
"vJ 	c #EB423C",
"wJ 	c #EC403B",
"xJ 	c #E72C2E",
"yJ 	c #E3252D",
"zJ 	c #E11E2A",
"AJ 	c #E0192B",
"BJ 	c #DA1728",
"CJ 	c #D61122",
"DJ 	c #CF0921",
"EJ 	c #D5132C",
"FJ 	c #DA1324",
"GJ 	c #D81424",
"HJ 	c #C60720",
"IJ 	c #C70824",
"JJ 	c #C30221",
"KJ 	c #B40320",
"LJ 	c #C4001C",
"MJ 	c #CE021E",
"NJ 	c #CF011C",
"OJ 	c #DA0622",
"PJ 	c #D90C26",
"QJ 	c #AD021F",
"RJ 	c #99001E",
"SJ 	c #9D0021",
"TJ 	c #A10021",
"UJ 	c #A60020",
"VJ 	c #AC021F",
"WJ 	c #B40520",
"XJ 	c #B70622",
"YJ 	c #BD0B26",
"ZJ 	c #C20F28",
"`J 	c #C00D27",
" K 	c #BC0721",
".K 	c #C10725",
"+K 	c #BC0724",
"@K 	c #9E0D1F",
"#K 	c #700610",
"$K 	c #5E1A18",
"%K 	c #652D2A",
"&K 	c #6F3C3B",
"*K 	c #593234",
"=K 	c #797B71",
"-K 	c #C9E4D2",
";K 	c #D9FCEA",
">K 	c #D9FDF1",
",K 	c #E0FCF6",
"'K 	c #D3DEDE",
")K 	c #4F4C4D",
"!K 	c #2C1017",
"~K 	c #4B2228",
"{K 	c #584D4A",
"]K 	c #B5B3AD",
"^K 	c #827771",
"/K 	c #871A2A",
"(K 	c #C01735",
"_K 	c #D0132F",
":K 	c #D31531",
"<K 	c #CB112E",
"[K 	c #C10C2C",
"}K 	c #C00C29",
"|K 	c #C20D28",
"1K 	c #C7122C",
"2K 	c #C8192C",
"3K 	c #D43537",
"4K 	c #F4805B",
"5K 	c #F4825B",
"6K 	c #F2885C",
"7K 	c #F1865B",
"8K 	c #F68C61",
"9K 	c #EE8159",
"0K 	c #F2825C",
"aK 	c #F2875E",
"bK 	c #F59061",
"cK 	c #F09360",
"dK 	c #EF9F67",
"eK 	c #F9AB6F",
"fK 	c #F69B66",
"gK 	c #F49B64",
"hK 	c #F59D66",
"iK 	c #F8A067",
"jK 	c #F29B60",
"kK 	c #F59A64",
"lK 	c #F69265",
"mK 	c #F68964",
"nK 	c #F58761",
"oK 	c #F18462",
"pK 	c #B36F6F",
"qK 	c #3E3F92",
"rK 	c #27419A",
"sK 	c #28469F",
"tK 	c #2749A2",
"uK 	c #2550AA",
"vK 	c #1D4EA7",
"wK 	c #1C4EA7",
"xK 	c #1A50A8",
"yK 	c #1C50A9",
"zK 	c #2057AB",
"AK 	c #1B52A5",
"BK 	c #2256AD",
"CK 	c #2058AF",
"DK 	c #2B5AB2",
"EK 	c #2557AF",
"FK 	c #2C56AB",
"GK 	c #3351A4",
"HK 	c #90688E",
"IK 	c #F5A78D",
"JK 	c #F4AB7E",
"KK 	c #F8B282",
"LK 	c #ED9E70",
"MK 	c #F4A478",
"NK 	c #F6AB7C",
"OK 	c #F5A676",
"PK 	c #F49F70",
"QK 	c #F69A6B",
"RK 	c #F29469",
"SK 	c #F09165",
"TK 	c #F29066",
"UK 	c #F48E69",
"VK 	c #F48A6A",
"WK 	c #F28466",
"XK 	c #F1755A",
"YK 	c #EE604F",
"ZK 	c #EB4E42",
"`K 	c #EA433D",
" L 	c #F14C46",
".L 	c #EF4D46",
"+L 	c #EC4942",
"@L 	c #F15048",
"#L 	c #EE5047",
"$L 	c #FAB470",
"%L 	c #F5A368",
"&L 	c #F6A365",
"*L 	c #F2A162",
"=L 	c #F6A266",
"-L 	c #F89E61",
";L 	c #F6935C",
">L 	c #F68758",
",L 	c #F37754",
"'L 	c #EB6148",
")L 	c #F05948",
"!L 	c #ED4E40",
"~L 	c #E74338",
"{L 	c #E94038",
"]L 	c #ED3F3A",
"^L 	c #EC3E3D",
"/L 	c #EB3E38",
"(L 	c #E93836",
"_L 	c #EA3638",
":L 	c #EE3937",
"<L 	c #EB4039",
"[L 	c #EA413A",
"}L 	c #F04F44",
"|L 	c #ED4940",
"1L 	c #EB3A3A",
"2L 	c #E52B2C",
"3L 	c #E11D29",
"4L 	c #D10E1F",
"5L 	c #D51223",
"6L 	c #DD1A2B",
"7L 	c #D61223",
"8L 	c #CF0B22",
"9L 	c #DF1B30",
"0L 	c #D91428",
"aL 	c #D10C21",
"bL 	c #CA061E",
"cL 	c #C5051F",
"dL 	c #BE0521",
"eL 	c #C90724",
"fL 	c #BE0725",
"gL 	c #B50222",
"hL 	c #B20221",
"iL 	c #B50221",
"jL 	c #C4001D",
"kL 	c #CC001B",
"lL 	c #AD0320",
"mL 	c #98001F",
"nL 	c #9C0120",
"oL 	c #A00020",
"pL 	c #A40120",
"qL 	c #B30621",
"rL 	c #B70723",
"sL 	c #BC0B26",
"tL 	c #C00F27",
"uL 	c #BE0D25",
"vL 	c #C10E28",
"wL 	c #C10E29",
"xL 	c #B60D27",
"yL 	c #920416",
"zL 	c #600A0D",
"AL 	c #582120",
"BL 	c #632E2C",
"CL 	c #652E2E",
"DL 	c #51302E",
"EL 	c #76736E",
"FL 	c #CFE0D3",
"GL 	c #DBFDEC",
"HL 	c #D8FEF0",
"IL 	c #DEFDF5",
"JL 	c #E3F2F1",
"KL 	c #888588",
"LL 	c #371C24",
"ML 	c #4A2933",
"NL 	c #5E494B",
"OL 	c #BEB9B6",
"PL 	c #A49895",
"QL 	c #781C27",
"RL 	c #B51633",
"SL 	c #CC1332",
"TL 	c #D0142D",
"UL 	c #CE1630",
"VL 	c #CA112D",
"WL 	c #C00C2A",
"XL 	c #C40E2A",
"YL 	c #C91D2E",
"ZL 	c #DA3A3F",
"`L 	c #F46958",
" M 	c #F67B5A",
".M 	c #F37E5A",
"+M 	c #F3815C",
"@M 	c #F08259",
"#M 	c #F0845B",
"$M 	c #F68B5F",
"%M 	c #F28A5D",
"&M 	c #F0815A",
"*M 	c #F27E5A",
"=M 	c #F2815B",
"-M 	c #EF9260",
";M 	c #F3A36B",
">M 	c #FBAF72",
",M 	c #F19662",
"'M 	c #F29963",
")M 	c #F49D67",
"!M 	c #F39C64",
"~M 	c #F39C62",
"{M 	c #F69A65",
"]M 	c #FA9669",
"^M 	c #F78A64",
"/M 	c #F38560",
"(M 	c #F18461",
"_M 	c #AE6D6E",
":M 	c #3E3E93",
"<M 	c #2A449D",
"[M 	c #27459E",
"}M 	c #24479F",
"|M 	c #294DA5",
"1M 	c #2C4FA9",
"2M 	c #2A51AC",
"3M 	c #254FAA",
"4M 	c #2350A9",
"5M 	c #2351AA",
"6M 	c #214FA9",
"7M 	c #1E4FA9",
"8M 	c #1E4CA6",
"9M 	c #1C4FA9",
"0M 	c #1A4FA7",
"aM 	c #1C4FA8",
"bM 	c #1E52A7",
"cM 	c #1F54AD",
"dM 	c #1F56AD",
"eM 	c #2454AA",
"fM 	c #2757AE",
"gM 	c #2456AD",
"hM 	c #2957AC",
"iM 	c #2857AC",
"jM 	c #2757AC",
"kM 	c #2955AA",
"lM 	c #3350A5",
"mM 	c #8D6491",
"nM 	c #F39F8D",
"oM 	c #F29F75",
"pM 	c #F6AB80",
"qM 	c #F0A277",
"rM 	c #F6AA7D",
"sM 	c #F8B283",
"tM 	c #F8AD7C",
"uM 	c #F4A070",
"vM 	c #F59A6B",
"wM 	c #F19668",
"xM 	c #F99E72",
"yM 	c #EF9267",
"zM 	c #F6916A",
"AM 	c #F18663",
"BM 	c #F58666",
"CM 	c #F0755A",
"DM 	c #EF624E",
"EM 	c #E84C3E",
"FM 	c #E74138",
"GM 	c #F04E45",
"HM 	c #F05046",
"IM 	c #F04F47",
"JM 	c #F05249",
"KM 	c #F6AF6B",
"LM 	c #F3A166",
"MM 	c #F9A367",
"NM 	c #F4A064",
"OM 	c #FBA369",
"PM 	c #F99B62",
"QM 	c #EF8755",
"RM 	c #F28156",
"SM 	c #F27554",
"TM 	c #EC6149",
"UM 	c #EE5142",
"VM 	c #E8473B",
"WM 	c #E8443B",
"XM 	c #EB423D",
"YM 	c #EB403C",
"ZM 	c #ED403F",
"`M 	c #EB3A39",
" N 	c #EA3738",
".N 	c #EF3F3C",
"+N 	c #EE413C",
"@N 	c #EA3F38",
"#N 	c #E73F37",
"$N 	c #EF4C41",
"%N 	c #E84038",
"&N 	c #E93A39",
"*N 	c #E83132",
"=N 	c #E4292C",
"-N 	c #E2242C",
";N 	c #E01E2A",
">N 	c #D20F20",
",N 	c #DA1829",
"'N 	c #DC1A2B",
")N 	c #DC1B2B",
"!N 	c #D71526",
"~N 	c #CE0C22",
"{N 	c #CA0923",
"]N 	c #D6162D",
"^N 	c #E11D31",
"/N 	c #C5051E",
"(N 	c #BB011C",
"_N 	c #C90623",
":N 	c #CB0C2B",
"<N 	c #C6102E",
"[N 	c #B90727",
"}N 	c #B20222",
"|N 	c #B6011F",
"1N 	c #C2001D",
"2N 	c #C7001C",
"3N 	c #DB0B25",
"4N 	c #DB1029",
"5N 	c #AE0320",
"6N 	c #98001E",
"7N 	c #9B0020",
"8N 	c #9E0020",
"9N 	c #A30120",
"0N 	c #AC0220",
"aN 	c #B20621",
"bN 	c #B80A26",
"cN 	c #BD0D27",
"dN 	c #BF0E26",
"eN 	c #BE0C24",
"fN 	c #C20E2A",
"gN 	c #C20E2B",
"hN 	c #B20923",
"iN 	c #840816",
"jN 	c #5E100F",
"kN 	c #5F2722",
"lN 	c #682E31",
"mN 	c #64302F",
"nN 	c #4D2B26",
"oN 	c #6E7068",
"pN 	c #C7D8CE",
"qN 	c #E4FAF0",
"rN 	c #E0FEF5",
"sN 	c #E7FBF8",
"tN 	c #C6C7C9",
"uN 	c #523C41",
"vN 	c #522631",
"wN 	c #564245",
"xN 	c #B5B3AF",
"yN 	c #CEC3C2",
"zN 	c #70383D",
"AN 	c #AA1430",
"BN 	c #C41333",
"CN 	c #CF1132",
"DN 	c #CF142F",
"EN 	c #CF132F",
"FN 	c #CA102C",
"GN 	c #BF0A29",
"HN 	c #BF0B29",
"IN 	c #C50F2A",
"JN 	c #C91C2D",
"KN 	c #DB3B41",
"LN 	c #F26556",
"MN 	c #F67A5B",
"NN 	c #F47F5B",
"ON 	c #F2865C",
"PN 	c #F2875B",
"QN 	c #F68C60",
"RN 	c #F5895E",
"SN 	c #F78D61",
"TN 	c #F28A5E",
"UN 	c #EE7F5A",
"VN 	c #F4865F",
"WN 	c #F39866",
"XN 	c #F7A970",
"YN 	c #F19661",
"ZN 	c #F79667",
"`N 	c #F49865",
" O 	c #F59D68",
".O 	c #F5A26A",
"+O 	c #F39F67",
"@O 	c #F5A167",
"#O 	c #F99567",
"$O 	c #F28663",
"%O 	c #A9696C",
"&O 	c #3D4095",
"*O 	c #2C469E",
"=O 	c #22459D",
"-O 	c #2650AB",
";O 	c #2752AC",
">O 	c #244FA9",
",O 	c #1E53AC",
"'O 	c #2355AC",
")O 	c #2757AA",
"!O 	c #1F54AB",
"~O 	c #2A57AB",
"{O 	c #2A55AA",
"]O 	c #2C53A9",
"^O 	c #3350A7",
"/O 	c #80578C",
"(O 	c #E78F81",
"_O 	c #F2966E",
":O 	c #F5A67C",
"<O 	c #F4A57A",
"[O 	c #F3A678",
"}O 	c #F5B07F",
"|O 	c #F5AB79",
"1O 	c #F29C6C",
"2O 	c #F39869",
"3O 	c #F29B6B",
"4O 	c #F59F71",
"5O 	c #F7A173",
"6O 	c #F09468",
"7O 	c #F09267",
"8O 	c #F0855F",
"9O 	c #EF805D",
"0O 	c #F1775A",
"aO 	c #EF644E",
"bO 	c #EB4D40",
"cO 	c #E83F37",
"dO 	c #F04740",
"eO 	c #EE5146",
"fO 	c #ED4C43",
"gO 	c #EF5047",
"hO 	c #F4A665",
"iO 	c #F09B60",
"jO 	c #F89F67",
"kO 	c #F99D66",
"lO 	c #F6955F",
"mO 	c #EE8153",
"nO 	c #EE7C54",
"oO 	c #EE6F50",
"pO 	c #ED624B",
"qO 	c #EB5646",
"rO 	c #EA5040",
"sO 	c #EC4E3F",
"tO 	c #EA453E",
"uO 	c #E93F3A",
"vO 	c #ED3938",
"wO 	c #F0413D",
"xO 	c #EF423D",
"yO 	c #E83D36",
"zO 	c #E63F37",
"AO 	c #EC4A40",
"BO 	c #ED473F",
"CO 	c #EA3837",
"DO 	c #E73131",
"EO 	c #E8292F",
"FO 	c #E4232D",
"GO 	c #E01D2C",
"HO 	c #D61123",
"IO 	c #DF1C2D",
"JO 	c #D61526",
"KO 	c #D00F23",
"LO 	c #CC0A23",
"MO 	c #DF1E31",
"NO 	c #DC1A28",
"OO 	c #DE1926",
"PO 	c #DB1629",
"QO 	c #D41025",
"RO 	c #C70720",
"SO 	c #BD021C",
"TO 	c #CA0624",
"UO 	c #C80927",
"VO 	c #C40E2C",
"WO 	c #B50525",
"XO 	c #B30224",
"YO 	c #BC0020",
"ZO 	c #BF001E",
"`O 	c #C9011C",
" P 	c #CD031D",
".P 	c #CE031E",
"+P 	c #D50924",
"@P 	c #DB0F27",
"#P 	c #AF041C",
"$P 	c #97001E",
"%P 	c #9B0120",
"&P 	c #A40222",
"*P 	c #AC0423",
"=P 	c #AF0621",
"-P 	c #B70A24",
";P 	c #BA0E26",
">P 	c #BA0F26",
",P 	c #BC0B23",
"'P 	c #B90E26",
")P 	c #A40E22",
"!P 	c #730611",
"~P 	c #5A1415",
"{P 	c #612B28",
"]P 	c #63302C",
"^P 	c #512D2C",
"/P 	c #68665C",
"(P 	c #CAD6CA",
"_P 	c #E6F9EE",
":P 	c #E8FCF5",
"<P 	c #E8FDF6",
"[P 	c #EBFCF6",
"}P 	c #DBE1E1",
"|P 	c #6F5E65",
"1P 	c #4D272E",
"2P 	c #4C3332",
"3P 	c #A0A39C",
"4P 	c #DADAD9",
"5P 	c #7C6567",
"6P 	c #95162A",
"7P 	c #C50F2E",
"8P 	c #CE122D",
"9P 	c #D1112D",
"0P 	c #D01330",
"aP 	c #CD1330",
"bP 	c #C3102C",
"cP 	c #BE0A28",
"dP 	c #C60F2B",
"eP 	c #C9142D",
"fP 	c #C81B2D",
"gP 	c #DE3D41",
"hP 	c #F06254",
"iP 	c #F17E5A",
"jP 	c #F6885E",
"kP 	c #F68960",
"lP 	c #F07E5A",
"mP 	c #F47D5A",
"nP 	c #F3845E",
"oP 	c #FAA66F",
"pP 	c #FBA970",
"qP 	c #F59763",
"rP 	c #EF8859",
"sP 	c #F38F5F",
"tP 	c #F69866",
"uP 	c #F29763",
"vP 	c #F7A16C",
"wP 	c #F8A66E",
"xP 	c #FAA86E",
"yP 	c #FAA56D",
"zP 	c #F08966",
"AP 	c #A6686F",
"BP 	c #3E4295",
"CP 	c #2D47A0",
"DP 	c #25449C",
"EP 	c #20429B",
"FP 	c #2A4BA4",
"GP 	c #2E50A9",
"HP 	c #2A50A8",
"IP 	c #2B53AD",
"JP 	c #254DAB",
"KP 	c #2450AE",
"LP 	c #2150A8",
"MP 	c #2150A6",
"NP 	c #214CAB",
"OP 	c #1F4CAB",
"PP 	c #1B4FA8",
"QP 	c #1E4EA7",
"RP 	c #2051AB",
"SP 	c #2A58AE",
"TP 	c #2B59AA",
"UP 	c #2857A8",
"VP 	c #2656AA",
"WP 	c #2755B1",
"XP 	c #1E52A9",
"YP 	c #2A57AA",
"ZP 	c #2C55A8",
"`P 	c #2C55A7",
" Q 	c #3450A8",
".Q 	c #7A5692",
"+Q 	c #E58D84",
"@Q 	c #F3916C",
"#Q 	c #F39C76",
"$Q 	c #F5A57E",
"%Q 	c #F8B885",
"&Q 	c #F9B27E",
"*Q 	c #F6A171",
"=Q 	c #F6A674",
"-Q 	c #F8A572",
";Q 	c #F5A070",
">Q 	c #F89367",
",Q 	c #F48C63",
"'Q 	c #F0825C",
")Q 	c #F3795A",
"!Q 	c #F2644F",
"~Q 	c #F24641",
"{Q 	c #EC4F45",
"]Q 	c #E84B42",
"^Q 	c #F4A563",
"/Q 	c #F69B63",
"(Q 	c #F69761",
"_Q 	c #F4945E",
":Q 	c #F5945E",
"<Q 	c #F38758",
"[Q 	c #F4805A",
"}Q 	c #EF6D50",
"|Q 	c #EC5E49",
"1Q 	c #EA5445",
"2Q 	c #EA473E",
"3Q 	c #E53F39",
"4Q 	c #EC3937",
"5Q 	c #E93433",
"6Q 	c #E93E37",
"7Q 	c #F04941",
"8Q 	c #EA453D",
"9Q 	c #E7433A",
"0Q 	c #EF453E",
"aQ 	c #EB3838",
"bQ 	c #E8282F",
"cQ 	c #E3222D",
"dQ 	c #DF1B2B",
"eQ 	c #DB1628",
"fQ 	c #D51022",
"gQ 	c #D91527",
"hQ 	c #DD192B",
"iQ 	c #DE1A2C",
"jQ 	c #D81526",
"kQ 	c #D41324",
"lQ 	c #D01023",
"mQ 	c #CB0A22",
"nQ 	c #DE1D30",
"oQ 	c #DC1B29",
"pQ 	c #DD1928",
"qQ 	c #DA1629",
"rQ 	c #C90921",
"sQ 	c #C70925",
"tQ 	c #CB0624",
"uQ 	c #C40423",
"vQ 	c #BD0625",
"wQ 	c #B40223",
"xQ 	c #B20122",
"yQ 	c #B90322",
"zQ 	c #BF011E",
"AQ 	c #C1011C",
"BQ 	c #D80722",
"CQ 	c #D90E26",
"DQ 	c #AD031B",
"EQ 	c #98011F",
"FQ 	c #9B0121",
"GQ 	c #A30222",
"HQ 	c #AB0421",
"IQ 	c #AE0620",
"JQ 	c #B20A22",
"KQ 	c #B80D25",
"LQ 	c #B90D25",
"MQ 	c #B30D23",
"NQ 	c #960A1A",
"OQ 	c #6A080C",
"PQ 	c #551C17",
"QQ 	c #622C2A",
"RQ 	c #672F2F",
"SQ 	c #662D2B",
"TQ 	c #4F2B28",
"UQ 	c #625D54",
"VQ 	c #C2CBBC",
"WQ 	c #E7F7E9",
"XQ 	c #E7FCF1",
"YQ 	c #E3FCF3",
"ZQ 	c #E6FEF6",
"`Q 	c #EAEDEC",
" R 	c #938188",
".R 	c #4D2733",
"+R 	c #4C3034",
"@R 	c #969990",
"#R 	c #E2E9DD",
"$R 	c #A19796",
"%R 	c #71212B",
"&R 	c #B91B35",
"*R 	c #C80C29",
"=R 	c #CE132B",
"-R 	c #D0122C",
";R 	c #CF122E",
">R 	c #CC1430",
",R 	c #C10F2B",
"'R 	c #C8102D",
")R 	c #CA142D",
"!R 	c #CA1B2F",
"~R 	c #E34246",
"{R 	c #F36757",
"]R 	c #F47A59",
"^R 	c #F4825D",
"/R 	c #F1825A",
"(R 	c #F68E63",
"_R 	c #F18B5F",
":R 	c #F38B61",
"<R 	c #FA9068",
"[R 	c #F17E5B",
"}R 	c #F37D5B",
"|R 	c #F4855F",
"1R 	c #F08B60",
"2R 	c #ED935F",
"3R 	c #F69B67",
"4R 	c #F3905F",
"5R 	c #F99C69",
"6R 	c #F29864",
"7R 	c #F8A36D",
"8R 	c #F7A56D",
"9R 	c #FAA76E",
"0R 	c #F69D68",
"aR 	c #F39462",
"bR 	c #F58E63",
"cR 	c #F18E6A",
"dR 	c #A36A71",
"eR 	c #3B4397",
"fR 	c #25439C",
"gR 	c #20419A",
"hR 	c #2C4AA4",
"iR 	c #3050A9",
"jR 	c #2B50A9",
"kR 	c #294DAC",
"lR 	c #264FAA",
"mR 	c #224DAC",
"nR 	c #1F55AE",
"oR 	c #2155AB",
"pR 	c #2B5AAB",
"qR 	c #2858A8",
"rR 	c #2555A9",
"sR 	c #2655B1",
"tR 	c #2B57AA",
"uR 	c #2B54A7",
"vR 	c #2C54A7",
"wR 	c #3150A7",
"xR 	c #755790",
"yR 	c #EE9B8F",
"zR 	c #F09B70",
"AR 	c #F5AC80",
"BR 	c #F3AB7A",
"CR 	c #F8B684",
"DR 	c #FAB17E",
"ER 	c #F39E6E",
"FR 	c #F19A69",
"GR 	c #F8A06E",
"HR 	c #F69E6C",
"IR 	c #F2986A",
"JR 	c #EF9668",
"KR 	c #F29569",
"LR 	c #F8976B",
"MR 	c #F8956A",
"NR 	c #F26551",
"OR 	c #ED433C",
"PR 	c #F04842",
"QR 	c #F0544A",
"RR 	c #EF4F47",
"SR 	c #ED4B44",
"TR 	c #E74B41",
"UR 	c #F8A867",
"VR 	c #F49760",
"WR 	c #F4935C",
"XR 	c #F5925B",
"YR 	c #F4925C",
"ZR 	c #F4895B",
"`R 	c #F67E5A",
" S 	c #F06A50",
".S 	c #EE5C4A",
"+S 	c #EC5346",
"@S 	c #E94F42",
"#S 	c #F05348",
"$S 	c #E9493F",
"%S 	c #E8433D",
"&S 	c #EE4842",
"*S 	c #ED403D",
"=S 	c #EC3938",
"-S 	c #EA3534",
";S 	c #E83835",
">S 	c #EB3F39",
",S 	c #EC433B",
"'S 	c #EE443D",
")S 	c #EA3A35",
"!S 	c #EB3938",
"~S 	c #E42D30",
"{S 	c #E5252D",
"]S 	c #E01F2B",
"^S 	c #DB1A28",
"/S 	c #D81425",
"(S 	c #D41122",
"_S 	c #DA1A2B",
":S 	c #DB192A",
"<S 	c #D81627",
"[S 	c #CF0D22",
"}S 	c #D21228",
"|S 	c #DC1B2E",
"1S 	c #DA1828",
"2S 	c #D30F25",
"3S 	c #C80820",
"4S 	c #CB0A28",
"5S 	c #CC0524",
"6S 	c #C30322",
"7S 	c #BB0222",
"8S 	c #B20020",
"9S 	c #B70220",
"0S 	c #BB0524",
"aS 	c #B90121",
"bS 	c #C3041C",
"cS 	c #C7041E",
"dS 	c #CE0620",
"eS 	c #D70622",
"fS 	c #D90F26",
"gS 	c #AB031A",
"hS 	c #96001D",
"iS 	c #990221",
"jS 	c #9C0221",
"kS 	c #A40223",
"lS 	c #A80321",
"mS 	c #B40823",
"nS 	c #BC0826",
"oS 	c #B30A24",
"pS 	c #8A0917",
"qS 	c #610E0C",
"rS 	c #5D251E",
"sS 	c #602E2A",
"tS 	c #692D2F",
"uS 	c #642E2F",
"vS 	c #542724",
"wS 	c #615F55",
"xS 	c #B9C7B6",
"yS 	c #DCF1DD",
"zS 	c #E6FCED",
"AS 	c #E6FCF0",
"BS 	c #E5FCF3",
"CS 	c #E8F7F0",
"DS 	c #ADA4A5",
"ES 	c #552D39",
"FS 	c #472D34",
"GS 	c #7D8A82",
"HS 	c #DDEADF",
"IS 	c #C5BFB7",
"JS 	c #6E3636",
"KS 	c #A4142D",
"LS 	c #C61431",
"MS 	c #C90B27",
"NS 	c #CB1228",
"OS 	c #CB1832",
"PS 	c #BF102A",
"QS 	c #C20C2A",
"RS 	c #C60F2D",
"SS 	c #C9132E",
"TS 	c #E8464B",
"US 	c #F46957",
"VS 	c #F47A58",
"WS 	c #F57F5D",
"XS 	c #F4805C",
"YS 	c #F18058",
"ZS 	c #EF8058",
"`S 	c #F99267",
" T 	c #F88B64",
".T 	c #F4805D",
"+T 	c #F6835F",
"@T 	c #F4825E",
"#T 	c #F1835D",
"$T 	c #F2885F",
"%T 	c #ED8C5B",
"&T 	c #EE8F5F",
"*T 	c #EF895C",
"=T 	c #F89C69",
"-T 	c #F5A06A",
";T 	c #F4A26A",
">T 	c #F7A56B",
",T 	c #F7A36B",
"'T 	c #F49B66",
")T 	c #F28D62",
"!T 	c #F38A62",
"~T 	c #F3936E",
"{T 	c #A06C74",
"]T 	c #394499",
"^T 	c #2E47A1",
"/T 	c #24449E",
"(T 	c #2F4BA6",
"_T 	c #3351AB",
":T 	c #2C50A9",
"<T 	c #284EAC",
"[T 	c #274DAC",
"}T 	c #2651AA",
"|T 	c #2353A8",
"1T 	c #2253AA",
"2T 	c #2450AD",
"3T 	c #1D4FAC",
"4T 	c #1F53A9",
"5T 	c #2A59A9",
"6T 	c #2858A7",
"7T 	c #2B57AC",
"8T 	c #2B53A8",
"9T 	c #2C54A9",
"0T 	c #2F52A8",
"aT 	c #71578F",
"bT 	c #EB9C8E",
"cT 	c #F49C6D",
"dT 	c #F6A575",
"eT 	c #FCB485",
"fT 	c #F4AE7B",
"gT 	c #F3AA79",
"hT 	c #F0A372",
"iT 	c #F8A676",
"jT 	c #F09C6A",
"kT 	c #F39967",
"lT 	c #F69768",
"mT 	c #F7966B",
"nT 	c #F7996D",
"oT 	c #FB9A6F",
"pT 	c #F6976A",
"qT 	c #F38B63",
"rT 	c #EF7859",
"sT 	c #F36752",
"tT 	c #EB463E",
"uT 	c #ED4A42",
"vT 	c #EF5347",
"wT 	c #F35B4E",
"xT 	c #EC4B43",
"yT 	c #F49D63",
"zT 	c #F1945D",
"AT 	c #F3925B",
"BT 	c #F6955D",
"CT 	c #F18F59",
"DT 	c #F68D5E",
"ET 	c #EC5245",
"FT 	c #F05748",
"GT 	c #EE5447",
"HT 	c #E94A41",
"IT 	c #EA4840",
"JT 	c #EF4B45",
"KT 	c #EF4340",
"LT 	c #EE3B39",
"MT 	c #E83936",
"NT 	c #ED3E3B",
"OT 	c #EE413D",
"PT 	c #ED423B",
"QT 	c #EE453E",
"RT 	c #EA433B",
"ST 	c #EF423C",
"TT 	c #E93736",
"UT 	c #E22C2F",
"VT 	c #E2222C",
"WT 	c #DD1D29",
"XT 	c #D81826",
"YT 	c #DF2030",
"ZT 	c #DC1C2C",
"`T 	c #D51526",
" U 	c #CE0C24",
".U 	c #D81727",
"+U 	c #D91728",
"@U 	c #D10E23",
"#U 	c #C5061F",
"$U 	c #BF051E",
"%U 	c #CD0C29",
"&U 	c #CC0423",
"*U 	c #C50322",
"=U 	c #BB0121",
"-U 	c #B30221",
";U 	c #C6041F",
">U 	c #CA021C",
",U 	c #CF031D",
"'U 	c #D90823",
")U 	c #DA0F26",
"!U 	c #A80319",
"~U 	c #9D0423",
"{U 	c #9E0322",
"]U 	c #A40224",
"^U 	c #A80324",
"/U 	c #AF0825",
"(U 	c #B20925",
"_U 	c #AF0923",
":U 	c #860615",
"<U 	c #5D0E0C",
"[U 	c #612B24",
"}U 	c #68312C",
"|U 	c #662E2D",
"1U 	c #682D30",
"2U 	c #532B29",
"3U 	c #615B51",
"4U 	c #BBC9B8",
"5U 	c #D4EFD9",
"6U 	c #DDFAE4",
"7U 	c #DFFAE8",
"8U 	c #E1F8EB",
"9U 	c #E8F7F1",
"0U 	c #C5C3C2",
"aU 	c #543F44",
"bU 	c #462932",
"cU 	c #787A78",
"dU 	c #D2E4DB",
"eU 	c #D4D6D0",
"fU 	c #704A4A",
"gU 	c #900E1F",
"hU 	c #BF122D",
"iU 	c #C7112B",
"jU 	c #CA0A27",
"kU 	c #C70F27",
"lU 	c #CD1732",
"mU 	c #CA1933",
"nU 	c #BC0E28",
"oU 	c #BF0C29",
"pU 	c #C30B2A",
"qU 	c #C50D2C",
"rU 	c #C9132F",
"sU 	c #CB1A31",
"tU 	c #F36855",
"uU 	c #F57A58",
"vU 	c #F67E5C",
"wU 	c #F77F5D",
"xU 	c #F07D57",
"yU 	c #EE7F56",
"zU 	c #F89066",
"AU 	c #F27E5B",
"BU 	c #F5835F",
"CU 	c #EF805B",
"DU 	c #EE815B",
"EU 	c #F09162",
"FU 	c #EC875B",
"GU 	c #F48A5C",
"HU 	c #F69966",
"IU 	c #F89E6A",
"JU 	c #F49F69",
"KU 	c #F2A066",
"LU 	c #F39C66",
"MU 	c #F38C63",
"NU 	c #F3946F",
"OU 	c #9C6974",
"PU 	c #38439A",
"QU 	c #2C459F",
"RU 	c #2646A0",
"SU 	c #324AA6",
"TU 	c #3853AE",
"UU 	c #2851AB",
"VU 	c #274EAD",
"WU 	c #2354A9",
"XU 	c #2253A9",
"YU 	c #214FAA",
"ZU 	c #1D52AD",
"`U 	c #2958A9",
" V 	c #2757A6",
".V 	c #2353A9",
"+V 	c #2858B0",
"@V 	c #2957B1",
"#V 	c #2A56AB",
"$V 	c #2A52A7",
"%V 	c #2E51A7",
"&V 	c #735A92",
"*V 	c #EA9C8D",
"=V 	c #F79F70",
"-V 	c #F9A678",
";V 	c #F6A87B",
">V 	c #F4A877",
",V 	c #F2A172",
"'V 	c #F09C6E",
")V 	c #FBA979",
"!V 	c #F6A373",
"~V 	c #EF9667",
"{V 	c #FA926B",
"]V 	c #F79369",
"^V 	c #F39367",
"/V 	c #F29265",
"(V 	c #F9916A",
"_V 	c #F37D5D",
":V 	c #ED624D",
"<V 	c #F3574B",
"[V 	c #EC4D44",
"}V 	c #F2584B",
"|V 	c #F15B4E",
"1V 	c #EE534A",
"2V 	c #E84A41",
"3V 	c #F1554B",
"4V 	c #F3A161",
"5V 	c #F6A164",
"6V 	c #F39A60",
"7V 	c #F2965C",
"8V 	c #F29259",
"9V 	c #EE9059",
"0V 	c #F69261",
"aV 	c #EF7252",
"bV 	c #EE624C",
"cV 	c #F05749",
"dV 	c #EF5247",
"eV 	c #EF5447",
"fV 	c #EC5044",
"gV 	c #E8493E",
"hV 	c #F14C44",
"iV 	c #EE433D",
"jV 	c #ED3C3B",
"kV 	c #EB3737",
"lV 	c #F0453F",
"mV 	c #F04840",
"nV 	c #E8433B",
"oV 	c #EE403C",
"pV 	c #EC3B38",
"qV 	c #E73435",
"rV 	c #E52D31",
"sV 	c #E2222B",
"tV 	c #DE1D2A",
"uV 	c #D91829",
"vV 	c #E02131",
"wV 	c #DF202E",
"xV 	c #DC1C2B",
"yV 	c #DB1B2C",
"zV 	c #D61627",
"AV 	c #CE0B24",
"BV 	c #DC1C2D",
"CV 	c #DA1A2A",
"DV 	c #D21025",
"EV 	c #CF0C23",
"FV 	c #C1061E",
"GV 	c #BB0020",
"HV 	c #C9031D",
"IV 	c #CA021D",
"JV 	c #D1041F",
"KV 	c #D90E28",
"LV 	c #A7031A",
"MV 	c #94001D",
"NV 	c #9C0425",
"OV 	c #9B0322",
"PV 	c #A20122",
"QV 	c #A90427",
"RV 	c #AE0B2B",
"SV 	c #A50B27",
"TV 	c #7D0414",
"UV 	c #5A0F0F",
"VV 	c #632725",
"WV 	c #6A322F",
"XV 	c #6D2F2E",
"YV 	c #66302C",
"ZV 	c #562C29",
"`V 	c #5A5147",
" W 	c #B8C3B1",
".W 	c #D8EFDC",
"+W 	c #D6F5DF",
"@W 	c #DBF9E3",
"#W 	c #DEF6E4",
"$W 	c #E5F6EB",
"%W 	c #DBDDDB",
"&W 	c #6B5E5F",
"*W 	c #382327",
"=W 	c #707573",
"-W 	c #D1E0DC",
";W 	c #E0E8E3",
">W 	c #7A6E6E",
",W 	c #780D1F",
"'W 	c #B90C29",
")W 	c #C80D26",
"!W 	c #CA0828",
"~W 	c #C60C29",
"{W 	c #C7132C",
"]W 	c #C81832",
"^W 	c #BC0D29",
"/W 	c #C2092A",
"(W 	c #C40C2B",
"_W 	c #C4102B",
":W 	c #C8192D",
"<W 	c #E74549",
"[W 	c #F26855",
"}W 	c #F67959",
"|W 	c #F37B59",
"1W 	c #F37A5B",
"2W 	c #F67E5D",
"3W 	c #F07B56",
"4W 	c #EE865C",
"5W 	c #F1845A",
"6W 	c #F6835D",
"7W 	c #F37D5C",
"8W 	c #F17D59",
"9W 	c #EF7F5A",
"0W 	c #F38F62",
"aW 	c #F9996B",
"bW 	c #F59665",
"cW 	c #F39C68",
"dW 	c #F69E69",
"eW 	c #F7A26C",
"fW 	c #F3A268",
"gW 	c #EF9C63",
"hW 	c #F89F6B",
"iW 	c #F49467",
"jW 	c #F1906C",
"kW 	c #99636F",
"lW 	c #394395",
"mW 	c #2D459C",
"nW 	c #2C479F",
"oW 	c #304AA5",
"pW 	c #3753AE",
"qW 	c #274FAA",
"rW 	c #274FAD",
"sW 	c #244EA9",
"tW 	c #2552AC",
"uW 	c #2152A9",
"vW 	c #1C52AB",
"wW 	c #1E54AE",
"xW 	c #2958AB",
"yW 	c #2757A8",
"zW 	c #2456AE",
"AW 	c #2954AD",
"BW 	c #2952A8",
"CW 	c #2B52A8",
"DW 	c #2C4EA6",
"EW 	c #725992",
"FW 	c #F3A495",
"GW 	c #F7A073",
"HW 	c #F09D72",
"IW 	c #ED956B",
"JW 	c #EE9A6A",
"KW 	c #F09A6D",
"LW 	c #EF966A",
"MW 	c #F8A073",
"NW 	c #F59369",
"OW 	c #FA9069",
"PW 	c #F67F60",
"QW 	c #EB604A",
"RW 	c #EE5648",
"SW 	c #EA4C41",
"TW 	c #EF584A",
"UW 	c #F05A4C",
"VW 	c #EF554A",
"WW 	c #E7493F",
"XW 	c #F3564C",
"YW 	c #EB9A5B",
"ZW 	c #F09F61",
"`W 	c #F7A467",
" X 	c #F1945C",
".X 	c #F49962",
"+X 	c #F99967",
"@X 	c #EC7152",
"#X 	c #EF614D",
"$X 	c #EE5448",
"%X 	c #F05347",
"&X 	c #EC4E43",
"*X 	c #EC4B3E",
"=X 	c #F14D42",
"-X 	c #EF3B3A",
";X 	c #EF413E",
">X 	c #F04440",
",X 	c #F04A41",
"'X 	c #E73937",
")X 	c #E72F34",
"!X 	c #E12129",
"~X 	c #DE1B29",
"{X 	c #D81626",
"]X 	c #DE1C2D",
"^X 	c #E02231",
"/X 	c #E1202E",
"(X 	c #DF1F2C",
"_X 	c #DA192B",
":X 	c #D51426",
"<X 	c #D31225",
"[X 	c #D31426",
"}X 	c #DA1B2B",
"|X 	c #D51327",
"1X 	c #D30F26",
"2X 	c #D20E29",
"3X 	c #C30421",
"4X 	c #BC0422",
"5X 	c #B50220",
"6X 	c #B3021E",
"7X 	c #B3011F",
"8X 	c #C8001C",
"9X 	c #DA0826",
"0X 	c #D90F2A",
"aX 	c #A6031B",
"bX 	c #95001F",
"cX 	c #9C0527",
"dX 	c #990223",
"eX 	c #A00323",
"fX 	c #A50328",
"gX 	c #A30A28",
"hX 	c #710616",
"iX 	c #511211",
"jX 	c #5E2926",
"kX 	c #672B2B",
"lX 	c #6B2D2E",
"mX 	c #6B2D2C",
"nX 	c #5B2E28",
"oX 	c #4B4035",
"pX 	c #AEB8A6",
"qX 	c #DAECD9",
"rX 	c #E0F5E4",
"sX 	c #DFF7E4",
"tX 	c #E3F5E5",
"uX 	c #E3E8E0",
"vX 	c #8A8080",
"wX 	c #352728",
"xX 	c #717771",
"yX 	c #CBDED7",
"zX 	c #E3F6F3",
"AX 	c #A8ABAB",
"BX 	c #401A1F",
"CX 	c #980C26",
"DX 	c #C30929",
"EX 	c #C70725",
"FX 	c #C90B25",
"GX 	c #C90928",
"HX 	c #C80B29",
"IX 	c #C8112D",
"JX 	c #C91732",
"KX 	c #BF0C2A",
"LX 	c #BF0A2A",
"MX 	c #C2092B",
"NX 	c #C21028",
"OX 	c #C61A2B",
"PX 	c #E9494A",
"QX 	c #F46855",
"RX 	c #F67759",
"SX 	c #F37A58",
"TX 	c #F2785B",
"UX 	c #F1865F",
"VX 	c #F0885F",
"WX 	c #F7845E",
"XX 	c #F8976A",
"YX 	c #F29967",
"ZX 	c #FAA671",
"`X 	c #F49D68",
" Y 	c #F9A670",
".Y 	c #F8A76F",
"+Y 	c #F4A46A",
"@Y 	c #F29F67",
"#Y 	c #F6A06A",
"$Y 	c #F7A06C",
"%Y 	c #F08A67",
"&Y 	c #965B69",
"*Y 	c #394491",
"=Y 	c #2E479B",
"-Y 	c #2B469C",
";Y 	c #29479F",
">Y 	c #2F4BA5",
",Y 	c #3653AF",
"'Y 	c #274EA8",
")Y 	c #2450AA",
"!Y 	c #224FA9",
"~Y 	c #224DAA",
"{Y 	c #1A4FA9",
"]Y 	c #1C52A9",
"^Y 	c #1D54AA",
"/Y 	c #2157AF",
"(Y 	c #1E56B0",
"_Y 	c #2054AE",
":Y 	c #2452AB",
"<Y 	c #2856AB",
"[Y 	c #2850A7",
"}Y 	c #2F4FA8",
"|Y 	c #715893",
"1Y 	c #EC9D90",
"2Y 	c #F39A70",
"3Y 	c #F6A279",
"4Y 	c #F59E73",
"5Y 	c #EF9A69",
"6Y 	c #EE9A6E",
"7Y 	c #F0996B",
"8Y 	c #F1996B",
"9Y 	c #F79C6F",
"0Y 	c #FAAB7B",
"aY 	c #F28E69",
"bY 	c #F28863",
"cY 	c #F7936A",
"dY 	c #F7956C",
"eY 	c #F28D65",
"fY 	c #F58A64",
"gY 	c #F67E60",
"hY 	c #F06850",
"iY 	c #EF5C4C",
"jY 	c #EC5447",
"kY 	c #EF5449",
"lY 	c #EB5749",
"mY 	c #F15B4D",
"nY 	c #F05448",
"oY 	c #F2A666",
"pY 	c #F4A867",
"qY 	c #F9AB6C",
"rY 	c #F29E63",
"sY 	c #F2975D",
"tY 	c #F89D67",
"uY 	c #F79565",
"vY 	c #ED7152",
"wY 	c #F15549",
"xY 	c #EE5245",
"yY 	c #EE5145",
"zY 	c #EB4C3E",
"AY 	c #F25045",
"BY 	c #ED3D3B",
"CY 	c #E93735",
"DY 	c #ED3F3B",
"EY 	c #E9413A",
"FY 	c #ED463E",
"GY 	c #ED483F",
"HY 	c #E73F39",
"IY 	c #E83C38",
"JY 	c #E53635",
"KY 	c #E93637",
"LY 	c #E93136",
"MY 	c #E4232C",
"NY 	c #E21F30",
"OY 	c #E42432",
"PY 	c #E01F2C",
"QY 	c #DE1E2B",
"RY 	c #DC192B",
"SY 	c #D41327",
"TY 	c #DB1C2D",
"UY 	c #D91A2A",
"VY 	c #D81427",
"WY 	c #C6071D",
"XY 	c #CB0E25",
"YY 	c #BB0322",
"ZY 	c #B80523",
"`Y 	c #B4031F",
" Z 	c #B4001F",
".Z 	c #CC031F",
"+Z 	c #D8102A",
"@Z 	c #A4041B",
"#Z 	c #950120",
"$Z 	c #990324",
"%Z 	c #9A0123",
"&Z 	c #9C0325",
"*Z 	c #990726",
"=Z 	c #790318",
"-Z 	c #511414",
";Z 	c #5C2D29",
">Z 	c #65322F",
",Z 	c #682B2B",
"'Z 	c #6A2B2C",
")Z 	c #642B2A",
"!Z 	c #4A362C",
"~Z 	c #9AA995",
"{Z 	c #D2ECD5",
"]Z 	c #DCF3E0",
"^Z 	c #E5F7E8",
"/Z 	c #E2F6E7",
"(Z 	c #E0F4E6",
"_Z 	c #E3F1E5",
":Z 	c #A19A97",
"<Z 	c #3B3333",
"[Z 	c #747E7A",
"}Z 	c #C6DDD3",
"|Z 	c #DDFBF2",
"1Z 	c #E3FAF7",
"2Z 	c #CACACC",
"3Z 	c #5D3033",
"4Z 	c #A50723",
"5Z 	c #C40627",
"6Z 	c #C80725",
"7Z 	c #CA0926",
"8Z 	c #CA0C2A",
"9Z 	c #C80C2A",
"0Z 	c #C90F2B",
"aZ 	c #CB142D",
"bZ 	c #CB1732",
"cZ 	c #BB0927",
"dZ 	c #BC0627",
"eZ 	c #C20A29",
"fZ 	c #C61B2B",
"gZ 	c #EB4D4C",
"hZ 	c #F16653",
"iZ 	c #F47658",
"jZ 	c #F27958",
"kZ 	c #F07759",
"lZ 	c #F57E5D",
"mZ 	c #F2805A",
"nZ 	c #F0865E",
"oZ 	c #F2855B",
"pZ 	c #F6855F",
"qZ 	c #F88963",
"rZ 	c #F68C62",
"sZ 	c #F08A5F",
"tZ 	c #F08D5F",
"uZ 	c #EF9766",
"vZ 	c #F59E69",
"wZ 	c #F7A46E",
"xZ 	c #F6A56E",
"yZ 	c #F8A76D",
"zZ 	c #F7A66D",
"AZ 	c #F49C68",
"BZ 	c #F69867",
"CZ 	c #91596B",
"DZ 	c #394494",
"EZ 	c #3049A0",
"FZ 	c #2C489E",
"GZ 	c #29489F",
"HZ 	c #3553AF",
"IZ 	c #264EA8",
"JZ 	c #214DA9",
"KZ 	c #1D4DA9",
"LZ 	c #1E54AD",
"MZ 	c #1D54A9",
"NZ 	c #224FAB",
"OZ 	c #2850A8",
"PZ 	c #2C52AA",
"QZ 	c #314FA8",
"RZ 	c #705794",
"SZ 	c #E8938B",
"TZ 	c #F1916A",
"UZ 	c #FAA27C",
"VZ 	c #FDAB7F",
"WZ 	c #F1A06F",
"XZ 	c #F1A071",
"YZ 	c #F6A374",
"ZZ 	c #F89F71",
"`Z 	c #F69C6E",
" ` 	c #F2A070",
".` 	c #F9A97A",
"+` 	c #F58D68",
"@` 	c #F18E65",
"#` 	c #F48F66",
"$` 	c #F6946B",
"%` 	c #F58963",
"&` 	c #F57E5F",
"*` 	c #F06B52",
"=` 	c #F15C4E",
"-` 	c #F65F51",
";` 	c #ED5C4D",
">` 	c #F45F51",
",` 	c #EB5145",
"'` 	c #EE4F45",
")` 	c #F7AD6C",
"!` 	c #F8AE6D",
"~` 	c #F7AB6B",
"{` 	c #EF9C60",
"]` 	c #F49860",
"^` 	c #F79663",
"/` 	c #F4885C",
"(` 	c #EF6E52",
"_` 	c #F2604E",
":` 	c #F05548",
"<` 	c #EA4F43",
"[` 	c #ED5346",
"}` 	c #ED5345",
"|` 	c #F05446",
"1` 	c #EB4E40",
"2` 	c #F05044",
"3` 	c #E93C38",
"4` 	c #EF413D",
"5` 	c #EC413D",
"6` 	c #EA423D",
"7` 	c #EB4740",
"8` 	c #EA443E",
"9` 	c #E8403B",
"0` 	c #ED3E3C",
"a` 	c #EB383A",
"b` 	c #E93035",
"c` 	c #E2212A",
"d` 	c #DD1B29",
"e` 	c #D71426",
"f` 	c #E52433",
"g` 	c #E42733",
"h` 	c #E1212C",
"i` 	c #DB1B29",
"j` 	c #D51428",
"k` 	c #D10D25",
"l` 	c #D21126",
"m` 	c #D51224",
"n` 	c #CE0E21",
"o` 	c #C7091D",
"p` 	c #CF1024",
"q` 	c #D00F24",
"r` 	c #CC0720",
"s` 	c #BB0323",
"t` 	c #B30320",
"u` 	c #B70221",
"v` 	c #C5021E",
"w` 	c #C9011D",
"x` 	c #CB021E",
"y` 	c #D30621",
"z` 	c #D60D28",
"A` 	c #A10319",
"B` 	c #960121",
"C` 	c #990224",
"D` 	c #900525",
"E` 	c #75051B",
"F` 	c #501214",
"G` 	c #68282A",
"H` 	c #6D2D2F",
"I` 	c #692D2D",
"J` 	c #692A2B",
"K` 	c #662D2C",
"L` 	c #4F3229",
"M` 	c #86927C",
"N` 	c #CDE7CB",
"O` 	c #D2F0D5",
"P` 	c #DDF6E0",
"Q` 	c #E2F9E9",
"R` 	c #DFFAEA",
"S` 	c #E1F6EB",
"T` 	c #B9BFB9",
"U` 	c #40433E",
"V` 	c #6A7C73",
"W` 	c #CDE4DC",
"X` 	c #DCFCF2",
"Y` 	c #DFFEF6",
"Z` 	c #E6F8F5",
"`` 	c #BAB1B0",
"  .	c #6E1E25",
". .	c #B00A25",
"+ .	c #C40927",
"@ .	c #C90A27",
"# .	c #C90C2A",
"$ .	c #C90D2A",
"% .	c #CB102B",
"& .	c #BC0A28",
"* .	c #BA0525",
"= .	c #C00729",
"- .	c #C20B29",
"; .	c #C10F27",
"> .	c #C61D2B",
", .	c #EF5250",
"' .	c #F16853",
") .	c #F37557",
"! .	c #F07856",
"~ .	c #EF7658",
"{ .	c #F37C5B",
"] .	c #F37F59",
"^ .	c #F3805B",
"/ .	c #F2845E",
"( .	c #F1875F",
"_ .	c #F4885E",
": .	c #F68860",
"< .	c #F07F5A",
"[ .	c #FB9A6B",
"} .	c #F09765",
"| .	c #F69F6A",
"1 .	c #F5A26C",
"2 .	c #F3A46C",
"3 .	c #F7A870",
"4 .	c #F6A76E",
"5 .	c #F5A36C",
"6 .	c #F79968",
"7 .	c #F58E62",
"8 .	c #EE8665",
"9 .	c #8B576E",
"0 .	c #374598",
"a .	c #3049A2",
"b .	c #2D4AA1",
"c .	c #2A4AA0",
"d .	c #3552AE",
"e .	c #294EA8",
"f .	c #274EA9",
"g .	c #2450A9",
"h .	c #2250A8",
"i .	c #2050A8",
"j .	c #1B51A7",
"k .	c #1D55A9",
"l .	c #2355AD",
"m .	c #2959AC",
"n .	c #2757AB",
"o .	c #2C54AD",
"p .	c #2F55AF",
"q .	c #3251AA",
"r .	c #6C5592",
"s .	c #E38B85",
"t .	c #F08B65",
"u .	c #F49471",
"v .	c #F6A177",
"w .	c #F19F6E",
"x .	c #F2A170",
"y .	c #F6A475",
"z .	c #FBA677",
"A .	c #F9A274",
"B .	c #F19A6C",
"C .	c #EF9569",
"D .	c #EC8862",
"E .	c #F58F69",
"F .	c #F28D64",
"G .	c #F49168",
"H .	c #F19066",
"I .	c #F08C63",
"J .	c #F47F60",
"K .	c #F17056",
"L .	c #F16654",
"M .	c #ED5D4D",
"N .	c #F26051",
"O .	c #F25E50",
"P .	c #EF5146",
"Q .	c #F5AA6A",
"R .	c #F5AB6A",
"S .	c #F7AB6C",
"T .	c #F79860",
"U .	c #F78D5D",
"V .	c #F27C54",
"W .	c #F0684F",
"X .	c #ED5246",
"Y .	c #EB5146",
"Z .	c #F1584B",
"` .	c #F15545",
" ..	c #EF5144",
"...	c #EE433B",
"+..	c #EA3E39",
"@..	c #ED4540",
"#..	c #EB443E",
"$..	c #EC4741",
"%..	c #EC453F",
"&..	c #E52C32",
"*..	c #E3222B",
"=..	c #E52635",
"-..	c #E52B35",
";..	c #DF232D",
">..	c #DC1729",
",..	c #D91528",
"'..	c #CF0E24",
")..	c #D91A2D",
"!..	c #D71627",
"~..	c #CE0F21",
"{..	c #C70B1D",
"]..	c #D11124",
"^..	c #CD0820",
"/..	c #BB0223",
"(..	c #B60323",
"_..	c #B40322",
":..	c #B60525",
"<..	c #B50320",
"[..	c #CD031E",
"}..	c #D70623",
"|..	c #D50C27",
"1..	c #9F0219",
"2..	c #940020",
"3..	c #970122",
"4..	c #960124",
"5..	c #79041E",
"6..	c #4E0B11",
"7..	c #5A2928",
"8..	c #6B2D30",
"9..	c #6E2C30",
"0..	c #6D2B2F",
"a..	c #692C2C",
"b..	c #5A2B26",
"c..	c #6A6A59",
"d..	c #CBE2C6",
"e..	c #D8F0D3",
"f..	c #D9F2D5",
"g..	c #E0F5DD",
"h..	c #DEF9E4",
"i..	c #E1FCEC",
"j..	c #D2E1D9",
"k..	c #585A57",
"l..	c #63736B",
"m..	c #CDE2D8",
"n..	c #E3FDF6",
"o..	c #E2FDF6",
"p..	c #EAFBF8",
"q..	c #DBD9DA",
"r..	c #755252",
"s..	c #8C0A1F",
"t..	c #B90825",
"u..	c #C60925",
"v..	c #C70B26",
"w..	c #C70A27",
"x..	c #C50927",
"y..	c #C70A28",
"z..	c #C7102D",
"A..	c #BF0D2B",
"B..	c #BB0626",
"C..	c #C00728",
"D..	c #C8212E",
"E..	c #F05552",
"F..	c #F26954",
"G..	c #F47557",
"H..	c #F07756",
"I..	c #F0775A",
"J..	c #F07957",
"K..	c #F17E58",
"L..	c #FA8E64",
"M..	c #F68961",
"N..	c #F58360",
"O..	c #F48761",
"P..	c #F38B5F",
"Q..	c #F69062",
"R..	c #ED915F",
"S..	c #F49F6A",
"T..	c #F59F6A",
"U..	c #F9AA73",
"V..	c #F6A86F",
"W..	c #F5A76E",
"X..	c #FBAA73",
"Y..	c #FAA16D",
"Z..	c #F79866",
"`..	c #EC8463",
" +.	c #86556E",
".+.	c #36469C",
"++.	c #2E48A3",
"@+.	c #2B4AA1",
"#+.	c #294AA0",
"$+.	c #314DA8",
"%+.	c #3350AB",
"&+.	c #2850AA",
"*+.	c #2052A9",
"=+.	c #2252AB",
"-+.	c #2650AA",
";+.	c #2656AC",
">+.	c #2654A9",
",+.	c #2858AC",
"'+.	c #2156AF",
")+.	c #2E56AF",
"!+.	c #2F54B0",
"~+.	c #3052AA",
"{+.	c #685492",
"]+.	c #E38D88",
"^+.	c #F28C68",
"/+.	c #F28C6A",
"(+.	c #F0936C",
"_+.	c #EF9A6B",
":+.	c #F4A172",
"<+.	c #F6A474",
"[+.	c #EF9166",
"}+.	c #EE865F",
"|+.	c #F28965",
"1+.	c #F59169",
"2+.	c #F59168",
"3+.	c #F39368",
"4+.	c #EF8B62",
"5+.	c #F68363",
"6+.	c #F27559",
"7+.	c #F36C58",
"8+.	c #EB5E4D",
"9+.	c #F06151",
"0+.	c #EE6050",
"a+.	c #EE594B",
"b+.	c #EC4F43",
"c+.	c #F7AA6C",
"d+.	c #F8AB6C",
"e+.	c #F8A76A",
"f+.	c #F6925B",
"g+.	c #F48558",
"h+.	c #F07350",
"i+.	c #F05D4A",
"j+.	c #EB5345",
"k+.	c #F25A4D",
"l+.	c #F55D50",
"m+.	c #EE5647",
"n+.	c #F25948",
"o+.	c #ED4B40",
"p+.	c #ED443C",
"q+.	c #EE433C",
"r+.	c #ED4640",
"s+.	c #EC4640",
"t+.	c #EA3F3B",
"u+.	c #E42A2F",
"v+.	c #E5232D",
"w+.	c #DC1B28",
"x+.	c #D51523",
"y+.	c #E42934",
"z+.	c #E32A33",
"A+.	c #E0242E",
"B+.	c #DB1B28",
"C+.	c #DD192A",
"D+.	c #D10F29",
"E+.	c #CF0F25",
"F+.	c #D91C2E",
"G+.	c #DB1B2D",
"H+.	c #D51528",
"I+.	c #D10F24",
"J+.	c #CE1024",
"K+.	c #C80D20",
"L+.	c #D41627",
"M+.	c #D41124",
"N+.	c #CC081E",
"O+.	c #C1011E",
"P+.	c #BD0323",
"Q+.	c #B60122",
"R+.	c #B60425",
"S+.	c #B50224",
"T+.	c #B70320",
"U+.	c #C2011D",
"V+.	c #C7011F",
"W+.	c #CB031E",
"X+.	c #D30523",
"Y+.	c #D90A26",
"Z+.	c #D40E28",
"`+.	c #9F031D",
" @.	c #930122",
".@.	c #950224",
"+@.	c #840421",
"@@.	c #4F0811",
"#@.	c #522525",
"$@.	c #652C2C",
"%@.	c #6B2D2D",
"&@.	c #6F2B2E",
"*@.	c #6C2D2D",
"=@.	c #652F2B",
"-@.	c #5B4B3F",
";@.	c #C1CEB7",
">@.	c #DAF3D6",
",@.	c #DAF5D7",
"'@.	c #DBF3D9",
")@.	c #E0F7DE",
"!@.	c #E2F8E8",
"~@.	c #DFF2E7",
"{@.	c #818A84",
"]@.	c #646E68",
"^@.	c #C3DDD2",
"/@.	c #E2FCF4",
"(@.	c #E4FDF8",
"_@.	c #E4FDF5",
":@.	c #E0E4E2",
"<@.	c #8A7173",
"[@.	c #80121F",
"}@.	c #AA0824",
"|@.	c #BD0726",
"1@.	c #C40825",
"2@.	c #C50826",
"3@.	c #C90A29",
"4@.	c #CA0F2C",
"5@.	c #C5102D",
"6@.	c #BD0B29",
"7@.	c #C00828",
"8@.	c #C40D2C",
"9@.	c #C3112B",
"0@.	c #CA2331",
"a@.	c #EE5551",
"b@.	c #F06953",
"c@.	c #F47457",
"d@.	c #F07859",
"e@.	c #EF7856",
"f@.	c #EF7B56",
"g@.	c #F1845D",
"h@.	c #F68962",
"i@.	c #F98C65",
"j@.	c #F37F60",
"k@.	c #F58663",
"l@.	c #F69164",
"m@.	c #F1875A",
"n@.	c #EF8A5C",
"o@.	c #F49866",
"p@.	c #F29E67",
"q@.	c #F5A06B",
"r@.	c #FBA670",
"s@.	c #F9A972",
"t@.	c #F6AA71",
"u@.	c #F7AC72",
"v@.	c #FCAE76",
"w@.	c #FBA36E",
"x@.	c #F29163",
"y@.	c #F0875C",
"z@.	c #EC8566",
"A@.	c #825471",
"B@.	c #33479E",
"C@.	c #2C49A2",
"D@.	c #2949A1",
"E@.	c #2F4DA7",
"F@.	c #2E4FA9",
"G@.	c #284FA7",
"H@.	c #2851A9",
"I@.	c #254FA9",
"J@.	c #2254AF",
"K@.	c #1F55AC",
"L@.	c #1D54AB",
"M@.	c #1D56AF",
"N@.	c #2056AF",
"O@.	c #2958B0",
"P@.	c #2658AC",
"Q@.	c #2354AA",
"R@.	c #2051A7",
"S@.	c #2B58AD",
"T@.	c #2C56AC",
"U@.	c #2D51A7",
"V@.	c #675494",
"W@.	c #EB9D94",
"X@.	c #F79470",
"Y@.	c #F28D68",
"Z@.	c #F09069",
"`@.	c #F49D6F",
" #.	c #F39F71",
".#.	c #F68E67",
"+#.	c #F68F68",
"@#.	c #F08A62",
"##.	c #F78D66",
"$#.	c #F78665",
"%#.	c #F06E57",
"&#.	c #EC624F",
"*#.	c #F0614F",
"=#.	c #F06251",
"-#.	c #ED5548",
";#.	c #EB4E43",
">#.	c #F05149",
",#.	c #F7A96A",
"'#.	c #F4A566",
")#.	c #EE9B5C",
"!#.	c #F59C5D",
"~#.	c #F89961",
"{#.	c #F68A5D",
"]#.	c #ED6F4F",
"^#.	c #EF624D",
"/#.	c #EE5748",
"(#.	c #F15A4C",
"_#.	c #F66052",
":#.	c #ED5647",
"<#.	c #F45C4B",
"[#.	c #EE5545",
"}#.	c #ED443D",
"|#.	c #EF443D",
"1#.	c #E9423C",
"2#.	c #EF4641",
"3#.	c #EA3C39",
"4#.	c #E83636",
"5#.	c #EA3435",
"6#.	c #E52B30",
"7#.	c #D91926",
"8#.	c #D41623",
"9#.	c #E12631",
"0#.	c #E42B34",
"a#.	c #E32932",
"b#.	c #E0252F",
"c#.	c #DE1D2B",
"d#.	c #D8172E",
"e#.	c #D7152F",
"f#.	c #D4142A",
"g#.	c #DA1E30",
"h#.	c #DB1D2E",
"i#.	c #D31427",
"j#.	c #CF1124",
"k#.	c #CC1225",
"l#.	c #C60F20",
"m#.	c #D41526",
"n#.	c #D31024",
"o#.	c #C1021E",
"p#.	c #BC0323",
"q#.	c #B60426",
"r#.	c #B50324",
"s#.	c #B70323",
"t#.	c #B80321",
"u#.	c #C6001E",
"v#.	c #CC031E",
"w#.	c #CF051E",
"x#.	c #DB0D29",
"y#.	c #D40E2A",
"z#.	c #A10724",
"A#.	c #8F0124",
"B#.	c #870321",
"C#.	c #530510",
"D#.	c #4A201F",
"E#.	c #5F2C2D",
"F#.	c #672B2A",
"G#.	c #6C2C2C",
"H#.	c #6F2A2C",
"I#.	c #6D2E2F",
"J#.	c #58332B",
"K#.	c #949C8A",
"L#.	c #DBF0D5",
"M#.	c #D8F3D7",
"N#.	c #DDF8DF",
"O#.	c #DEF7E2",
"P#.	c #E4FAE7",
"Q#.	c #E6F5EA",
"R#.	c #A7B3AB",
"S#.	c #50645C",
"T#.	c #C6D9D3",
"U#.	c #E0FAF2",
"V#.	c #E3FDF7",
"W#.	c #E8F9F4",
"X#.	c #E9E9E6",
"Y#.	c #9D8284",
"Z#.	c #7B202C",
"`#.	c #AC132A",
" $.	c #B20523",
".$.	c #BB0624",
"+$.	c #C80928",
"@$.	c #CA0F2B",
"#$.	c #C10D2A",
"$$.	c #B90725",
"%$.	c #BD0827",
"&$.	c #C10B29",
"*$.	c #C50E2C",
"=$.	c #C3102B",
"-$.	c #CA2332",
";$.	c #EB534F",
">$.	c #F06853",
",$.	c #F57557",
"'$.	c #F47857",
")$.	c #F1795A",
"!$.	c #F57F5B",
"~$.	c #F07D58",
"{$.	c #EF835C",
"]$.	c #EF7A59",
"^$.	c #F27D5F",
"/$.	c #F38361",
"($.	c #F59365",
"_$.	c #F79A6A",
":$.	c #F18E5E",
"<$.	c #EB8858",
"[$.	c #F69C69",
"}$.	c #F3A169",
"|$.	c #F5A36B",
"1$.	c #FAA56E",
"2$.	c #F8A770",
"3$.	c #F4A870",
"4$.	c #F5AC72",
"5$.	c #F6A970",
"6$.	c #F6A16C",
"7$.	c #F19264",
"8$.	c #EE8669",
"9$.	c #805576",
"0$.	c #3147A0",
"a$.	c #2A4AA1",
"b$.	c #254AA0",
"c$.	c #2749A1",
"d$.	c #2D4EA8",
"e$.	c #2550A7",
"f$.	c #1D50A7",
"g$.	c #2052AD",
"h$.	c #1E54AA",
"i$.	c #1D55AE",
"j$.	c #2056AD",
"k$.	c #2051A6",
"l$.	c #2956AC",
"m$.	c #655395",
"n$.	c #F0A298",
"o$.	c #F6976F",
"p$.	c #F29269",
"q$.	c #FA9A70",
"r$.	c #F89970",
"s$.	c #F69B71",
"t$.	c #F49067",
"u$.	c #F18B63",
"v$.	c #F38A64",
"w$.	c #F68563",
"x$.	c #EF6D55",
"y$.	c #EE6451",
"z$.	c #F16251",
"A$.	c #F36252",
"B$.	c #EF5448",
"C$.	c #EE4B43",
"D$.	c #ED4F47",
"E$.	c #F3A364",
"F$.	c #EF9E5F",
"G$.	c #ED9759",
"H$.	c #F49B5C",
"I$.	c #F89E66",
"J$.	c #F58C60",
"K$.	c #ED6D4F",
"L$.	c #ED604C",
"M$.	c #EF5D4B",
"N$.	c #F25C4B",
"O$.	c #F15D4D",
"P$.	c #F15B4A",
"Q$.	c #F5604D",
"R$.	c #F14843",
"S$.	c #EE433E",
"T$.	c #E93B38",
"U$.	c #E7403A",
"V$.	c #EA3637",
"W$.	c #EA3335",
"X$.	c #E52A2F",
"Y$.	c #DE1D27",
"Z$.	c #D81724",
"`$.	c #D31623",
" %.	c #E52B34",
".%.	c #E32A32",
"+%.	c #DF1F2D",
"@%.	c #DF1B2C",
"#%.	c #DC192F",
"$%.	c #D9142F",
"%%.	c #D11227",
"&%.	c #DA2031",
"*%.	c #DE2131",
"=%.	c #D61728",
"-%.	c #CE1225",
";%.	c #C91123",
">%.	c #C91324",
",%.	c #D41527",
"'%.	c #D41024",
")%.	c #CD0920",
"!%.	c #C40621",
"~%.	c #BA0423",
"{%.	c #B30121",
"]%.	c #B70627",
"^%.	c #B70425",
"/%.	c #B80424",
"(%.	c #C20220",
"_%.	c #C2001E",
":%.	c #C9051E",
"<%.	c #CD031C",
"[%.	c #DB0E2B",
"}%.	c #D30F2C",
"|%.	c #9E0625",
"1%.	c #880224",
"2%.	c #71031A",
"3%.	c #451616",
"4%.	c #5D2D2D",
"5%.	c #652A2A",
"6%.	c #682A28",
"7%.	c #6C2C2B",
"8%.	c #6D2B2C",
"9%.	c #683230",
"0%.	c #695A4F",
"a%.	c #CEE0CC",
"b%.	c #DAF2D7",
"c%.	c #D8F5DA",
"d%.	c #DCF8E5",
"e%.	c #E2FCEC",
"f%.	c #E7F8EA",
"g%.	c #C5CCC8",
"h%.	c #5E6762",
"i%.	c #AECFC5",
"j%.	c #E0FBF3",
"k%.	c #E5FDF5",
"l%.	c #E7FAF3",
"m%.	c #E9EFE9",
"n%.	c #B09696",
"o%.	c #77212A",
"p%.	c #AE152E",
"q%.	c #C01129",
"r%.	c #B90321",
"s%.	c #C70827",
"t%.	c #CB0E2C",
"u%.	c #CA0E2A",
"v%.	c #C90E28",
"w%.	c #BD0925",
"x%.	c #BA0925",
"y%.	c #BC0926",
"z%.	c #C3102D",
"A%.	c #CB2534",
"B%.	c #EC5551",
"C%.	c #F26C56",
"D%.	c #F47657",
"E%.	c #F37959",
"F%.	c #F27B5C",
"G%.	c #F27D5C",
"H%.	c #F3815B",
"I%.	c #EE825B",
"J%.	c #F58861",
"K%.	c #F27E5C",
"L%.	c #F58061",
"M%.	c #F48260",
"N%.	c #F0825D",
"O%.	c #FBA874",
"P%.	c #EE905D",
"Q%.	c #F69E6A",
"R%.	c #F2A067",
"S%.	c #F59F67",
"T%.	c #F4A96F",
"U%.	c #F4AD72",
"V%.	c #F5A970",
"W%.	c #EF9A66",
"X%.	c #ED866A",
"Y%.	c #7C5277",
"Z%.	c #2F45A0",
"`%.	c #284AA1",
" &.	c #244A9F",
".&.	c #25499F",
"+&.	c #2B4CA5",
"@&.	c #254FA6",
"#&.	c #224FA6",
"$&.	c #224FA7",
"%&.	c #204FA8",
"&&.	c #1C4FA7",
"*&.	c #1E4FA8",
"=&.	c #1E56AB",
"-&.	c #2354AC",
";&.	c #1F53AA",
">&.	c #2256AE",
",&.	c #2656AD",
"'&.	c #2956AA",
")&.	c #2653A7",
"!&.	c #2258AF",
"~&.	c #2157AE",
"{&.	c #2455AA",
"]&.	c #3051A9",
"^&.	c #605098",
"/&.	c #E79890",
"(&.	c #F09469",
"_&.	c #EE8860",
":&.	c #F7936B",
"<&.	c #F5916C",
"[&.	c #F38E6A",
"}&.	c #F3906B",
"|&.	c #F18A62",
"1&.	c #F08C64",
"2&.	c #F8936B",
"3&.	c #F58E67",
"4&.	c #F58D66",
"5&.	c #F28761",
"6&.	c #F68462",
"7&.	c #F57C5C",
"8&.	c #EF6D54",
"9&.	c #F16855",
"0&.	c #F36756",
"a&.	c #F46153",
"b&.	c #EE5045",
"c&.	c #ED4B43",
"d&.	c #EA4C44",
"e&.	c #F3A262",
"f&.	c #F39F60",
"g&.	c #F39D5E",
"h&.	c #EF9456",
"i&.	c #F0935C",
"j&.	c #EE825A",
"k&.	c #EE684F",
"l&.	c #F06050",
"m&.	c #F1604E",
"n&.	c #F15F4C",
"o&.	c #F15E4B",
"p&.	c #F3614F",
"q&.	c #F05F4E",
"r&.	c #ED5848",
"s&.	c #F05B49",
"t&.	c #F4604D",
"u&.	c #ED5646",
"v&.	c #F34A45",
"w&.	c #EA3F3A",
"x&.	c #E8423C",
"y&.	c #EB3F3A",
"z&.	c #E73A36",
"A&.	c #E83A37",
"B&.	c #E63435",
"C&.	c #E63032",
"D&.	c #E2272C",
"E&.	c #DB1923",
"F&.	c #D51421",
"G&.	c #D41925",
"H&.	c #E52C33",
"I&.	c #E32A2F",
"J&.	c #E12632",
"K&.	c #E1212F",
"L&.	c #E01C2D",
"M&.	c #D71529",
"N&.	c #D40E27",
"O&.	c #CF1126",
"P&.	c #D91F30",
"Q&.	c #DD2130",
"R&.	c #D81C2A",
"S&.	c #CF1326",
"T&.	c #C90F22",
"U&.	c #CB1425",
"V&.	c #D31527",
"W&.	c #D30F23",
"X&.	c #B90222",
"Y&.	c #B00020",
"Z&.	c #B20223",
"`&.	c #B60324",
" *.	c #B90422",
".*.	c #C60321",
"+*.	c #CA0725",
"@*.	c #CB041E",
"#*.	c #D20820",
"$*.	c #DA0E2B",
"%*.	c #D20F2C",
"&*.	c #990220",
"**.	c #830624",
"=*.	c #500510",
"-*.	c #532A2A",
";*.	c #682F32",
">*.	c #6B2B2B",
",*.	c #6C2A28",
"'*.	c #6D2C2A",
")*.	c #6A2E2D",
"!*.	c #623F36",
"~*.	c #A8AA9B",
"{*.	c #D7ECD7",
"]*.	c #D6EFD7",
"^*.	c #D8F8DF",
"/*.	c #DFFBEA",
"(*.	c #E7FEF0",
"_*.	c #D1E0D5",
":*.	c #606863",
"<*.	c #ADBDB8",
"[*.	c #DBFAF2",
"}*.	c #E2FDF4",
"|*.	c #ECFAF3",
"1*.	c #ECF0EA",
"2*.	c #B6AAA6",
"3*.	c #68262A",
"4*.	c #9D0E25",
"5*.	c #C0112D",
"6*.	c #C50E27",
"7*.	c #B4021C",
"8*.	c #B80522",
"9*.	c #C60927",
"0*.	c #CB0E2D",
"a*.	c #CD112C",
"b*.	c #CB122A",
"c*.	c #BB0721",
"d*.	c #BB0B26",
"e*.	c #BE0C28",
"f*.	c #C00B28",
"g*.	c #C5102E",
"h*.	c #CE2937",
"i*.	c #ED5752",
"j*.	c #F46F59",
"k*.	c #F47759",
"l*.	c #F0845D",
"m*.	c #F78A62",
"n*.	c #F5815E",
"o*.	c #F27D5D",
"p*.	c #F07D5B",
"q*.	c #ED7F5B",
"r*.	c #FDAF7A",
"s*.	c #FAA971",
"t*.	c #F39B65",
"u*.	c #F8AE71",
"v*.	c #EF9E63",
"w*.	c #F09B61",
"x*.	c #F4A068",
"y*.	c #F7AA70",
"z*.	c #F8AF74",
"A*.	c #FCAD75",
"B*.	c #F19764",
"C*.	c #F6966A",
"D*.	c #EB896B",
"E*.	c #744D72",
"F*.	c #2B449D",
"G*.	c #29489E",
"H*.	c #24489C",
"I*.	c #25479D",
"J*.	c #264EA5",
"K*.	c #224EA5",
"L*.	c #214EA7",
"M*.	c #214EA6",
"N*.	c #204EA6",
"O*.	c #2050AA",
"P*.	c #2455B0",
"Q*.	c #1F57AB",
"R*.	c #2455AC",
"S*.	c #2258AE",
"T*.	c #2457AE",
"U*.	c #2454A9",
"V*.	c #224EA8",
"W*.	c #2650A7",
"X*.	c #264FA7",
"Y*.	c #2450AB",
"Z*.	c #2359AF",
"`*.	c #2056AB",
" =.	c #2357AB",
".=.	c #2455AB",
"+=.	c #2F55AD",
"@=.	c #3252AB",
"#=.	c #5C4D9A",
"$=.	c #DA8A86",
"%=.	c #F1936A",
"&=.	c #F69169",
"*=.	c #F18A66",
"==.	c #F08D66",
"-=.	c #F48B66",
";=.	c #FA916B",
">=.	c #F58A65",
",=.	c #F88D69",
"'=.	c #F58965",
")=.	c #F5845F",
"!=.	c #F47B5A",
"~=.	c #F37056",
"{=.	c #F26A56",
"]=.	c #F26858",
"^=.	c #F16051",
"/=.	c #EF5549",
"(=.	c #ED4D44",
"_=.	c #F5A361",
":=.	c #F5A05F",
"<=.	c #F39C5B",
"[=.	c #F6995A",
"}=.	c #F5925F",
"|=.	c #EF805A",
"1=.	c #F16751",
"2=.	c #F15E4F",
"3=.	c #F15F4E",
"4=.	c #F1604C",
"5=.	c #F46350",
"6=.	c #F36351",
"7=.	c #EC5948",
"8=.	c #EE5B48",
"9=.	c #F25F4C",
"0=.	c #F04D42",
"a=.	c #EE4440",
"b=.	c #ED423E",
"c=.	c #E9413C",
"d=.	c #E8433C",
"e=.	c #E9403B",
"f=.	c #EF423F",
"g=.	c #E83A39",
"h=.	c #E43131",
"i=.	c #DF252A",
"j=.	c #D91823",
"k=.	c #D31421",
"l=.	c #DB212C",
"m=.	c #E92F36",
"n=.	c #E42B30",
"o=.	c #E52B33",
"p=.	c #E22732",
"q=.	c #E32230",
"r=.	c #E01E2E",
"s=.	c #D81E2F",
"t=.	c #DD2030",
"u=.	c #D91D2B",
"v=.	c #D51928",
"w=.	c #D21427",
"x=.	c #C50B1E",
"y=.	c #CD1325",
"z=.	c #D51527",
"A=.	c #CE0B21",
"B=.	c #B30021",
"C=.	c #B10123",
"D=.	c #B40020",
"E=.	c #B60220",
"F=.	c #C2011E",
"G=.	c #C9061F",
"H=.	c #CA041D",
"I=.	c #DA0E29",
"J=.	c #D10F2B",
"K=.	c #98021B",
"L=.	c #78041D",
"M=.	c #441114",
"N=.	c #633034",
"O=.	c #6B2C33",
"P=.	c #6E2B2D",
"Q=.	c #702B2A",
"R=.	c #6D2E2B",
"S=.	c #633630",
"T=.	c #736C5C",
"U=.	c #D3E2CD",
"V=.	c #D7F2DD",
"W=.	c #D6F4DF",
"X=.	c #D9FBE7",
"Y=.	c #E0FDED",
"Z=.	c #EAFCF0",
"`=.	c #B3BFB6",
" -.	c #5D6A65",
".-.	c #D9EEE9",
"+-.	c #E1FBF6",
"@-.	c #E6FCF3",
"#-.	c #E9F1EA",
"$-.	c #B7AEA9",
"%-.	c #633637",
"&-.	c #880A1D",
"*-.	c #BA0A28",
"=-.	c #C80C2B",
"--.	c #C40A23",
";-.	c #B60320",
">-.	c #CA0D2A",
",-.	c #CA0D2B",
"'-.	c #CC122A",
")-.	c #B90520",
"!-.	c #B70824",
"~-.	c #BD0B28",
"{-.	c #C8102C",
"]-.	c #C5112E",
"^-.	c #D22F3C",
"/-.	c #F05B54",
"(-.	c #F5715A",
"_-.	c #F27658",
":-.	c #EF7A58",
"<-.	c #F17D5A",
"[-.	c #F1805B",
"}-.	c #F2865F",
"|-.	c #F2835A",
"1-.	c #F27C5A",
"2-.	c #F17D5C",
"3-.	c #FCAC79",
"4-.	c #F6A26A",
"5-.	c #FCB276",
"6-.	c #F4A569",
"7-.	c #F59E66",
"8-.	c #F9AB71",
"9-.	c #F9AE74",
"0-.	c #F9A770",
"a-.	c #EB9473",
"b-.	c #725075",
"c-.	c #2E459C",
"d-.	c #27499C",
"e-.	c #28479D",
"f-.	c #2F4EA7",
"g-.	c #2C4CA6",
"h-.	c #244EA7",
"i-.	c #234EA8",
"j-.	c #2356B0",
"k-.	c #2457B1",
"l-.	c #1E58AC",
"m-.	c #1E57AA",
"n-.	c #1F55AA",
"o-.	c #2657A9",
"p-.	c #2653A9",
"q-.	c #244FA7",
"r-.	c #244EA8",
"s-.	c #2156AC",
"t-.	c #2355AB",
"u-.	c #3053AC",
"v-.	c #3350AD",
"w-.	c #564C9A",
"x-.	c #DA8887",
"y-.	c #F5946E",
"z-.	c #F5936B",
"A-.	c #F49069",
"B-.	c #F9966D",
"C-.	c #F9956C",
"D-.	c #F8926C",
"E-.	c #F28D66",
"F-.	c #F1855D",
"G-.	c #EE815C",
"H-.	c #F38764",
"I-.	c #F48663",
"J-.	c #F08461",
"K-.	c #F3835E",
"L-.	c #F57258",
"M-.	c #F26B55",
"N-.	c #EE6554",
"O-.	c #EE5E4E",
"P-.	c #ED5648",
"Q-.	c #EC5347",
"R-.	c #EE4E45",
"S-.	c #F0544B",
"T-.	c #F3A15F",
"U-.	c #F7A260",
"V-.	c #EC9552",
"W-.	c #F39759",
"X-.	c #F16952",
"Y-.	c #F15D4F",
"Z-.	c #F05C4B",
"`-.	c #F05E4C",
" ;.	c #F1624D",
".;.	c #F36150",
"+;.	c #EB5141",
"@;.	c #EE4B41",
"#;.	c #EF4541",
"$;.	c #EA3B38",
"%;.	c #E9443C",
"&;.	c #E6403A",
"*;.	c #E73E39",
"=;.	c #EE413F",
"-;.	c #EA393C",
";;.	c #E42E31",
">;.	c #DE242C",
",;.	c #DC1926",
"';.	c #E02831",
");.	c #EA3036",
"!;.	c #E72D33",
"~;.	c #E62C33",
"{;.	c #E22831",
"];.	c #E12330",
"^;.	c #E02130",
"/;.	c #D51529",
"(;.	c #D41029",
"_;.	c #CF1025",
":;.	c #D71E2E",
"<;.	c #DA1E2D",
"[;.	c #D31727",
"};.	c #CE1324",
"|;.	c #C2081E",
"1;.	c #D21527",
"2;.	c #D41126",
"3;.	c #CD0C22",
"4;.	c #BA0222",
"5;.	c #B20121",
"6;.	c #AE0021",
"7;.	c #B00225",
"8;.	c #B40124",
"9;.	c #C7051F",
"0;.	c #CF0820",
"a;.	c #D40C21",
"b;.	c #DC0D28",
"c;.	c #D30F2A",
"d;.	c #940218",
"e;.	c #650315",
"f;.	c #501F23",
"g;.	c #682F36",
"h;.	c #6E2B34",
"i;.	c #702A2F",
"j;.	c #6F2B2C",
"k;.	c #652C29",
"l;.	c #5D4439",
"m;.	c #B7BDA9",
"n;.	c #DDEED7",
"o;.	c #DBF5E2",
"p;.	c #DBF9E9",
"q;.	c #DBFEED",
"r;.	c #E1FDEE",
"s;.	c #E8F8EE",
"t;.	c #AAB4AD",
"u;.	c #98ADA4",
"v;.	c #E0F9F4",
"w;.	c #E6FBF5",
"x;.	c #E3EBE4",
"y;.	c #B1A4A2",
"z;.	c #643639",
"A;.	c #7D061D",
"B;.	c #A70523",
"C;.	c #C00422",
"D;.	c #C30A24",
"E;.	c #B2011B",
"F;.	c #BE0420",
"G;.	c #C80A26",
"H;.	c #CB0D29",
"I;.	c #C90D29",
"J;.	c #CA0F29",
"K;.	c #CC1129",
"L;.	c #C20D2A",
"M;.	c #C5112D",
"N;.	c #D73440",
"O;.	c #F15C54",
"P;.	c #F4705A",
"Q;.	c #F07458",
"R;.	c #F27D5A",
"S;.	c #F38156",
"T;.	c #F6815F",
"U;.	c #F39067",
"V;.	c #F59A6C",
"W;.	c #EC9564",
"X;.	c #FAA470",
"Y;.	c #F19B63",
"Z;.	c #FAAA71",
"`;.	c #F59E68",
" >.	c #F9A971",
".>.	c #F3A16B",
"+>.	c #F89B6B",
"@>.	c #F2AE85",
"#>.	c #72597B",
"$>.	c #30469C",
"%>.	c #2C4CA0",
"&>.	c #29499C",
"*>.	c #304EA6",
"=>.	c #3051AA",
"->.	c #2950A7",
";>.	c #274FA7",
">>.	c #254FAC",
",>.	c #1C4AA4",
"'>.	c #1D57A9",
")>.	c #1F57AA",
"!>.	c #2154A9",
"~>.	c #2356A9",
"{>.	c #2357AA",
"]>.	c #1F58A9",
"^>.	c #1D56A7",
"/>.	c #2055AB",
"(>.	c #2252A6",
"_>.	c #2656A6",
":>.	c #2857A9",
"<>.	c #2754A8",
"[>.	c #2A58AD",
"}>.	c #3052AB",
"|>.	c #3450AF",
"1>.	c #534E9B",
"2>.	c #D98889",
"3>.	c #FA9573",
"4>.	c #F18B65",
"5>.	c #F08B63",
"6>.	c #F18E63",
"7>.	c #EF875F",
"8>.	c #F1805C",
"9>.	c #F28362",
"0>.	c #F28262",
"a>.	c #F08062",
"b>.	c #F58567",
"c>.	c #EE8160",
"d>.	c #F1825D",
"e>.	c #F37156",
"f>.	c #F36C57",
"g>.	c #EF6451",
"h>.	c #F05C4E",
"i>.	c #F2594E",
"j>.	c #EB4D44",
"k>.	c #EE544A",
"l>.	c #F39F5D",
"m>.	c #F49E5D",
"n>.	c #F29B5D",
"o>.	c #F38C5E",
"p>.	c #F17858",
"q>.	c #F06751",
"r>.	c #ED5D4B",
"s>.	c #EC5D48",
"t>.	c #ED604A",
"u>.	c #ED5C4B",
"v>.	c #ED5A49",
"w>.	c #F35F4C",
"x>.	c #F14441",
"y>.	c #F24643",
"z>.	c #EF4441",
"A>.	c #E74039",
"B>.	c #E73B37",
"C>.	c #EA3938",
"D>.	c #E83337",
"E>.	c #E52E32",
"F>.	c #E0242D",
"G>.	c #DD1A27",
"H>.	c #D51925",
"I>.	c #E52E36",
"J>.	c #EA2F36",
"K>.	c #E92E36",
"L>.	c #E22830",
"M>.	c #DF212E",
"N>.	c #DD1E2D",
"O>.	c #DA1C2B",
"P>.	c #CD0F24",
"Q>.	c #D11728",
"R>.	c #D91C2C",
"S>.	c #D21626",
"T>.	c #CC1124",
"U>.	c #C60E22",
"V>.	c #D41828",
"W>.	c #D7172A",
"X>.	c #D31126",
"Y>.	c #CF0F24",
"Z>.	c #C40924",
"`>.	c #AD0225",
" ,.	c #B40326",
".,.	c #B70223",
"+,.	c #B80322",
"@,.	c #C70520",
"#,.	c #CB051F",
"$,.	c #CC041F",
"%,.	c #D50C22",
"&,.	c #CD0E27",
"*,.	c #8B0317",
"=,.	c #4C050F",
"-,.	c #5C2D2D",
";,.	c #6A3034",
">,.	c #6E2E34",
",,.	c #712E32",
"',.	c #6E2D2D",
"),.	c #592F28",
"!,.	c #7B7B6C",
"~,.	c #DCE8D3",
"{,.	c #E0F1DB",
"],.	c #E0F8E6",
"^,.	c #DEFCEC",
"/,.	c #E0FEEE",
"(,.	c #E9FBEF",
"_,.	c #C3CDC4",
":,.	c #90A297",
"<,.	c #D4F1E4",
"[,.	c #E3FDF3",
"},.	c #E6EEEA",
"|,.	c #A39594",
"1,.	c #652A31",
"2,.	c #7B051F",
"3,.	c #9B0222",
"4,.	c #B10223",
"5,.	c #C00321",
"6,.	c #C00521",
"7,.	c #CA0B27",
"8,.	c #C90C28",
"9,.	c #C90D28",
"0,.	c #CB1028",
"a,.	c #BC0922",
"b,.	c #BA0B27",
"c,.	c #C20D29",
"d,.	c #C40E2B",
"e,.	c #C5122C",
"f,.	c #D8353F",
"g,.	c #EF5C53",
"h,.	c #F27058",
"i,.	c #F47B5C",
"j,.	c #F37C5A",
"k,.	c #F2805B",
"l,.	c #F1835C",
"m,.	c #F3845A",
"n,.	c #F27F59",
"o,.	c #F5805E",
"p,.	c #EF8C60",
"q,.	c #EA935E",
"r,.	c #F1A56C",
"s,.	c #F39D67",
"t,.	c #F4A36B",
"u,.	c #F6A66F",
"v,.	c #ECAE86",
"w,.	c #6B587C",
"x,.	c #2E469D",
"y,.	c #27499B",
"z,.	c #284A9C",
"A,.	c #3150A5",
"B,.	c #3656AE",
"C,.	c #2950A6",
"D,.	c #274FA6",
"E,.	c #1C4BA4",
"F,.	c #1E4FAA",
"G,.	c #1F58AD",
"H,.	c #2059AD",
"I,.	c #2058AC",
"J,.	c #2356AC",
"K,.	c #2255AA",
"L,.	c #1C54A7",
"M,.	c #1C55A7",
"N,.	c #2757A7",
"O,.	c #2756A9",
"P,.	c #2453A7",
"Q,.	c #2055AC",
"R,.	c #2458AE",
"S,.	c #2255AB",
"T,.	c #2953A9",
"U,.	c #2F52AA",
"V,.	c #3350AE",
"W,.	c #524E9B",
"X,.	c #D48287",
"Y,.	c #F58C6C",
"Z,.	c #F4936D",
"`,.	c #F08F69",
" '.	c #F08F66",
".'.	c #ED8A61",
"+'.	c #F18965",
"@'.	c #EC815D",
"#'.	c #F6845F",
"$'.	c #F48262",
"%'.	c #F38061",
"&'.	c #F27F62",
"*'.	c #F78466",
"='.	c #F18261",
"-'.	c #F48764",
";'.	c #F27D59",
">'.	c #F17255",
",'.	c #F26D56",
"''.	c #F06551",
")'.	c #ED5C4C",
"!'.	c #EF594B",
"~'.	c #EE5247",
"{'.	c #F2584D",
"]'.	c #F4A264",
"^'.	c #EF9D5D",
"/'.	c #F4A161",
"('.	c #F07356",
"_'.	c #EB5E49",
":'.	c #ED634A",
"<'.	c #EE664C",
"['.	c #F56E56",
"}'.	c #F46954",
"|'.	c #EA5A4A",
"1'.	c #F15E4C",
"2'.	c #ED4B41",
"3'.	c #F0433F",
"4'.	c #F03F3E",
"5'.	c #EF3F3F",
"6'.	c #EE403F",
"7'.	c #F04140",
"8'.	c #EB3939",
"9'.	c #ED3F3E",
"0'.	c #E83E38",
"a'.	c #EA403A",
"b'.	c #E83A38",
"c'.	c #ED3B3B",
"d'.	c #E93234",
"e'.	c #E72E34",
"f'.	c #E62C32",
"g'.	c #E2242E",
"h'.	c #D81E28",
"i'.	c #EA353B",
"j'.	c #EA3236",
"k'.	c #E82E35",
"l'.	c #E02430",
"m'.	c #DB1E2C",
"n'.	c #D71929",
"o'.	c #D7172B",
"p'.	c #D5112A",
"q'.	c #CB0D22",
"r'.	c #CA1021",
"s'.	c #D61929",
"t'.	c #D71B2A",
"u'.	c #D11526",
"v'.	c #C91124",
"w'.	c #C30B1F",
"x'.	c #D41727",
"y'.	c #D41729",
"z'.	c #CE0E24",
"A'.	c #C30822",
"B'.	c #A90120",
"C'.	c #AA0124",
"D'.	c #B30327",
"E'.	c #B70325",
"F'.	c #C4021D",
"G'.	c #CC061F",
"H'.	c #CD051F",
"I'.	c #D40A21",
"J'.	c #D80E28",
"K'.	c #C80E27",
"L'.	c #7F0315",
"M'.	c #3B0C0F",
"N'.	c #642F2F",
"O'.	c #6B3031",
"P'.	c #6D2F32",
"Q'.	c #722F35",
"R'.	c #68302F",
"S'.	c #58463B",
"T'.	c #C3CFBB",
"U'.	c #DFF1DC",
"V'.	c #E2F1DC",
"W'.	c #E0F7E7",
"X'.	c #E2FBED",
"Y'.	c #E6FAEE",
"Z'.	c #CAD3CB",
"`'.	c #8B968C",
" ).	c #D3EBDD",
".).	c #DCFBEC",
"+).	c #E2FAEC",
"@).	c #BCBCB6",
"#).	c #4A2424",
"$).	c #79061F",
"%).	c #940325",
"&).	c #A40125",
"*).	c #AE0321",
"=).	c #BC031F",
"-).	c #C60A26",
";).	c #C00C25",
">).	c #B80421",
",).	c #CB0A27",
"').	c #CD0D29",
")).	c #CA0D28",
"!).	c #BA0C27",
"~).	c #C4122A",
"{).	c #D93840",
"]).	c #F15E54",
"^).	c #F17057",
"/).	c #F17A59",
"().	c #F4865E",
"_).	c #F17F5A",
":).	c #EF7B5A",
"<).	c #F07C59",
"[).	c #EE8A5F",
"}).	c #F6A16D",
"|).	c #FAB079",
"1).	c #F09D6A",
"2).	c #F09966",
"3).	c #F8A46F",
"4).	c #F3A56D",
"5).	c #F6A76F",
"6).	c #F2A06A",
"7).	c #F28660",
"8).	c #EB8A61",
"9).	c #E4A482",
"0).	c #65577C",
"a).	c #2E479F",
"b).	c #264A9B",
"c).	c #24499A",
"d).	c #3150A3",
"e).	c #3757AC",
"f).	c #284FA4",
"g).	c #2750A6",
"h).	c #2751A8",
"i).	c #2450A8",
"j).	c #244CA7",
"k).	c #204DA8",
"l).	c #1B49A3",
"m).	c #2059AF",
"n).	c #215BAF",
"o).	c #2658AF",
"p).	c #2555A5",
"q).	c #2453A6",
"r).	c #2455A8",
"s).	c #2254AA",
"t).	c #2B54A9",
"u).	c #3054AA",
"v).	c #3151AB",
"w).	c #504F9D",
"x).	c #D18289",
"y).	c #F28868",
"z).	c #F79A72",
"A).	c #F89F76",
"B).	c #F4976D",
"C).	c #F38C68",
"D).	c #F28666",
"E).	c #F18362",
"F).	c #F68261",
"G).	c #F17B5D",
"H).	c #F27A5F",
"I).	c #F38162",
"J).	c #F36E56",
"K).	c #F0584A",
"L).	c #EE4D44",
"M).	c #F0574C",
"N).	c #F7A76A",
"O).	c #F2A061",
"P).	c #F4A363",
"Q).	c #F8A86C",
"R).	c #F58C62",
"S).	c #EF6F54",
"T).	c #EF634E",
"U).	c #EC614B",
"V).	c #F36F53",
"W).	c #F57159",
"X).	c #F56B56",
"Y).	c #EA5A49",
"Z).	c #EF5C4D",
"`).	c #EF5C4B",
" !.	c #ED5343",
".!.	c #EC3B3B",
"+!.	c #E83938",
"@!.	c #EF3E3E",
"#!.	c #EB3B3B",
"$!.	c #EB3536",
"%!.	c #E72D31",
"&!.	c #E62A31",
"*!.	c #E2232D",
"=!.	c #DE1A27",
"-!.	c #E02832",
";!.	c #EE3B3F",
">!.	c #E83436",
",!.	c #EB3437",
"'!.	c #EA3339",
")!.	c #E22A32",
"!!.	c #DA1E2C",
"~!.	c #D8172B",
"{!.	c #CB0C21",
"]!.	c #C80E1F",
"^!.	c #D31626",
"/!.	c #DB1F2F",
"(!.	c #D41829",
"_!.	c #C81125",
":!.	c #C81124",
"<!.	c #D6192A",
"[!.	c #D41429",
"}!.	c #CD0D22",
"|!.	c #C20621",
"1!.	c #A90123",
"2!.	c #B40428",
"3!.	c #B70225",
"4!.	c #C4041F",
"5!.	c #CD0720",
"6!.	c #CF081F",
"7!.	c #D40920",
"8!.	c #D60D27",
"9!.	c #C21026",
"0!.	c #720312",
"a!.	c #3C1719",
"b!.	c #693031",
"c!.	c #6B302F",
"d!.	c #6D3031",
"e!.	c #713035",
"f!.	c #5A2D28",
"g!.	c #89887A",
"h!.	c #D9EED8",
"i!.	c #E0F6E1",
"j!.	c #E4F2DF",
"k!.	c #E1F7E8",
"l!.	c #E2F7EB",
"m!.	c #C4CFC6",
"n!.	c #8A918A",
"o!.	c #CFDED1",
"p!.	c #DFFBEC",
"q!.	c #DEFCEB",
"r!.	c #DFF4E4",
"s!.	c #B2ABA5",
"t!.	c #550F16",
"u!.	c #8D0423",
"v!.	c #9C0226",
"w!.	c #A9021E",
"x!.	c #BA031F",
"y!.	c #C60C27",
"z!.	c #BE0B24",
"A!.	c #C30724",
"B!.	c #CA0826",
"C!.	c #CC0B28",
"D!.	c #C80926",
"E!.	c #CC0F29",
"F!.	c #BD0A27",
"G!.	c #BE0A26",
"H!.	c #C5112B",
"I!.	c #C41328",
"J!.	c #DE3D45",
"K!.	c #F26256",
"L!.	c #F06F56",
"M!.	c #F2765A",
"N!.	c #F37E5B",
"O!.	c #F1805A",
"P!.	c #F17B5B",
"Q!.	c #F27D5B",
"R!.	c #F2825D",
"S!.	c #FA8E68",
"T!.	c #EF8A60",
"U!.	c #FAA975",
"V!.	c #F3AE78",
"W!.	c #E89261",
"X!.	c #EA9462",
"Y!.	c #F8A872",
"Z!.	c #F5AA72",
"`!.	c #F6AA72",
" ~.	c #EAAA87",
".~.	c #62567D",
"+~.	c #2E449D",
"@~.	c #29489C",
"#~.	c #264A9C",
"$~.	c #23499A",
"%~.	c #2F4EA0",
"&~.	c #3153A5",
"*~.	c #254C9F",
"=~.	c #264FA3",
"-~.	c #2350A7",
";~.	c #224BA5",
">~.	c #224DA8",
",~.	c #1F4AA6",
"'~.	c #2058B0",
")~.	c #1B4FA9",
"!~.	c #2658B1",
"~~.	c #2554A7",
"{~.	c #2558AA",
"]~.	c #2053AE",
"^~.	c #2956AB",
"/~.	c #2F54A9",
"(~.	c #2F52AB",
"_~.	c #4E509D",
":~.	c #D0818B",
"<~.	c #F38869",
"[~.	c #F89D74",
"}~.	c #FBA77D",
"|~.	c #F58D6A",
"1~.	c #F58869",
"2~.	c #F38163",
"3~.	c #F37E5F",
"4~.	c #F48061",
"5~.	c #EF775A",
"6~.	c #ED7157",
"7~.	c #ED7258",
"8~.	c #EF815E",
"9~.	c #F0805B",
"0~.	c #F07657",
"a~.	c #F26F55",
"b~.	c #F16650",
"c~.	c #F0604F",
"d~.	c #F55C4E",
"e~.	c #F7A969",
"f~.	c #F6AA6E",
"g~.	c #F8A669",
"h~.	c #F0644E",
"i~.	c #F46F52",
"j~.	c #F47354",
"k~.	c #F57158",
"l~.	c #F36754",
"m~.	c #EE5D4D",
"n~.	c #EC5A49",
"o~.	c #EC5A48",
"p~.	c #EC5244",
"q~.	c #EE4C41",
"r~.	c #F04541",
"s~.	c #ED3D3C",
"t~.	c #EE3E3E",
"u~.	c #EA3939",
"v~.	c #EC3D39",
"w~.	c #E93635",
"x~.	c #E62C30",
"y~.	c #E3282F",
"z~.	c #DD1E29",
"A~.	c #D91927",
"B~.	c #E63037",
"C~.	c #EC393D",
"D~.	c #E53134",
"E~.	c #E93339",
"F~.	c #E02A32",
"G~.	c #DF2532",
"H~.	c #DB1D2C",
"I~.	c #DB1B2B",
"J~.	c #DA172A",
"K~.	c #D61228",
"L~.	c #CA0E20",
"M~.	c #CC1123",
"N~.	c #D91F2F",
"O~.	c #D31829",
"P~.	c #C81023",
"Q~.	c #CE1627",
"R~.	c #D41929",
"S~.	c #D7172C",
"T~.	c #BB0122",
"U~.	c #B30120",
"V~.	c #A90122",
"W~.	c #B30426",
"X~.	c #B80224",
"Y~.	c #CC051F",
"Z~.	c #D30921",
"`~.	c #D60C26",
" {.	c #C40D26",
".{.	c #64030F",
"+{.	c #46201F",
"@{.	c #6B2F2F",
"#{.	c #6C2F2B",
"${.	c #6C302E",
"%{.	c #6A3132",
"&{.	c #554439",
"*{.	c #C5D0BC",
"={.	c #DFF7DE",
"-{.	c #DFF4DF",
";{.	c #E4F5E0",
">{.	c #DFF2E3",
",{.	c #C3CAC4",
"'{.	c #89948B",
"){.	c #C8D8CD",
"!{.	c #E3F9EC",
"~{.	c #E0FDEF",
"{{.	c #E2FCED",
"]{.	c #D7E2D3",
"^{.	c #89736D",
"/{.	c #7D1323",
"({.	c #980926",
"_{.	c #9E0124",
":{.	c #AE0421",
"<{.	c #BA0522",
"[{.	c #C30C25",
"}{.	c #CC0E29",
"|{.	c #B80720",
"1{.	c #BC0927",
"2{.	c #C30E2B",
"3{.	c #C41427",
"4{.	c #DF4143",
"5{.	c #F46558",
"6{.	c #F27057",
"7{.	c #F3765A",
"8{.	c #F37B5D",
"9{.	c #F07959",
"0{.	c #F88D64",
"a{.	c #F68B62",
"b{.	c #F2815D",
"c{.	c #F17C5C",
"d{.	c #F6805F",
"e{.	c #F88663",
"f{.	c #FB9069",
"g{.	c #F19D6D",
"h{.	c #EE9E6B",
"i{.	c #F7A572",
"j{.	c #F09F69",
"k{.	c #F5A46D",
"l{.	c #F4A770",
"m{.	c #F6A56F",
"n{.	c #F39868",
"o{.	c #FAA376",
"p{.	c #E8AC89",
"q{.	c #635781",
"r{.	c #2C459E",
"s{.	c #264A9D",
"t{.	c #25489B",
"u{.	c #2E50A1",
"v{.	c #2C4FA0",
"w{.	c #254B9D",
"x{.	c #254DA4",
"y{.	c #2652A6",
"z{.	c #234CA6",
"A{.	c #224BA6",
"B{.	c #1D4AA5",
"C{.	c #1E55AB",
"D{.	c #1F56AE",
"E{.	c #2454A7",
"F{.	c #2557AB",
"G{.	c #2152B1",
"H{.	c #2153AA",
"I{.	c #2352A7",
"J{.	c #2754A9",
"K{.	c #2C55A9",
"L{.	c #2E53A9",
"M{.	c #2F51AA",
"N{.	c #4E509C",
"O{.	c #D18188",
"P{.	c #F79672",
"Q{.	c #F9A279",
"R{.	c #F68C69",
"S{.	c #F28363",
"T{.	c #F07E5F",
"U{.	c #ED7457",
"V{.	c #ED6F55",
"W{.	c #EC6E56",
"X{.	c #F17B5F",
"Y{.	c #F18460",
"Z{.	c #F0815C",
"`{.	c #EC7353",
" ].	c #F16F56",
".].	c #F05F4D",
"+].	c #F1584C",
"@].	c #F04E48",
"#].	c #F3504A",
"$].	c #F1554D",
"%].	c #F4A666",
"&].	c #FBB578",
"*].	c #F3A86A",
"=].	c #EF975E",
"-].	c #EE7955",
";].	c #EE6951",
">].	c #F0624E",
",].	c #F67055",
"'].	c #F47253",
")].	c #F16651",
"!].	c #F26050",
"~].	c #F25F4F",
"{].	c #EE5D4B",
"]].	c #EE5C49",
"^].	c #EA5142",
"/].	c #F24340",
"(].	c #ED3E3D",
"_].	c #EC3A3B",
":].	c #EA3537",
"<].	c #E93938",
"[].	c #E73333",
"}].	c #E83133",
"|].	c #E42A30",
"1].	c #E1262D",
"2].	c #D91A26",
"3].	c #DA1B29",
"4].	c #EA353A",
"5].	c #E63437",
"6].	c #E73337",
"7].	c #DE2930",
"8].	c #DD2330",
"9].	c #DD1F2E",
"0].	c #DD1C2C",
"a].	c #D9172A",
"b].	c #D61428",
"c].	c #D01123",
"d].	c #CD1023",
"e].	c #CB0F23",
"f].	c #D4182B",
"g].	c #CE1325",
"h].	c #CA0F22",
"i].	c #D51A2A",
"j].	c #D71A2A",
"k].	c #CA091F",
"l].	c #AC0123",
"m].	c #AC0424",
"n].	c #B30727",
"o].	c #C50420",
"p].	c #D10A22",
"q].	c #D50A23",
"r].	c #DB0F2A",
"s].	c #C50F27",
"t].	c #5B040D",
"u].	c #562A2A",
"v].	c #6C2D2E",
"w].	c #70302C",
"x].	c #6A312D",
"y].	c #60322D",
"z].	c #818372",
"A].	c #DCF0D6",
"B].	c #E4F4E1",
"C].	c #E0F0DD",
"D].	c #BAC2B7",
"E].	c #8E918B",
"F].	c #CDDBD0",
"G].	c #E0F6E9",
"H].	c #E4FAEE",
"I].	c #E2E3DC",
"J].	c #967E7C",
"K].	c #89212C",
"L].	c #B01C34",
"M].	c #A40623",
"N].	c #A40123",
"O].	c #AE0120",
"P].	c #C00824",
"Q].	c #C30926",
"R].	c #B4011C",
"S].	c #C80A29",
"T].	c #CC0D28",
"U].	c #CA0F27",
"V].	c #B90B26",
"W].	c #C31427",
"X].	c #E24748",
"Y].	c #F5665A",
"Z].	c #F4735A",
"`].	c #F1795C",
" ^.	c #EE7C56",
".^.	c #F1815A",
"+^.	c #F4835F",
"@^.	c #F07C5B",
"#^.	c #F1A472",
"$^.	c #EC9A69",
"%^.	c #F4A46D",
"&^.	c #F2A36B",
"*^.	c #F8A973",
"=^.	c #FAAC75",
"-^.	c #EF9464",
";^.	c #F49C71",
">^.	c #E8AC86",
",^.	c #5D537F",
"'^.	c #2E459D",
")^.	c #2B499E",
"!^.	c #294A9D",
"~^.	c #294B9D",
"{^.	c #3051A3",
"]^.	c #2B4EA0",
"^^.	c #274D9F",
"/^.	c #274DA5",
"(^.	c #2851A7",
"_^.	c #2450A5",
":^.	c #204AA6",
"<^.	c #1D49A5",
"[^.	c #2657A6",
"}^.	c #2555A8",
"|^.	c #2859AD",
"1^.	c #2254A9",
"2^.	c #2455A6",
"3^.	c #2654A8",
"4^.	c #2E58AC",
"5^.	c #2E54A9",
"6^.	c #2F50A8",
"7^.	c #4E509B",
"8^.	c #D28286",
"9^.	c #F48767",
"0^.	c #F3976F",
"a^.	c #F99B70",
"b^.	c #F38F67",
"c^.	c #F38A65",
"d^.	c #F68A68",
"e^.	c #F48564",
"f^.	c #F57F61",
"g^.	c #F1775B",
"h^.	c #F2745B",
"i^.	c #EF6F57",
"j^.	c #EF755B",
"k^.	c #F38062",
"l^.	c #F68665",
"m^.	c #EF7F5B",
"n^.	c #EE7655",
"o^.	c #F16E55",
"p^.	c #EF624F",
"q^.	c #EE5348",
"r^.	c #F2574D",
"s^.	c #F4A266",
"t^.	c #FAAD6E",
"u^.	c #F18F5E",
"v^.	c #EF7150",
"w^.	c #EF664F",
"x^.	c #F1644E",
"y^.	c #F1694E",
"z^.	c #F26F50",
"A^.	c #F47156",
"B^.	c #F36A54",
"C^.	c #EF5F4D",
"D^.	c #F05E4D",
"E^.	c #F3604D",
"F^.	c #ED5B47",
"G^.	c #EC5243",
"H^.	c #EC3E3C",
"I^.	c #E9393A",
"J^.	c #E9363A",
"K^.	c #E93037",
"L^.	c #EC3539",
"M^.	c #ED3C3D",
"N^.	c #EC383A",
"O^.	c #E93436",
"P^.	c #E62A32",
"Q^.	c #E52931",
"R^.	c #E1232C",
"S^.	c #D81825",
"T^.	c #DD1F2C",
"U^.	c #ED373C",
"V^.	c #E73437",
"W^.	c #E83538",
"X^.	c #E73338",
"Y^.	c #E02A31",
"Z^.	c #DE2330",
"`^.	c #DD212F",
" /.	c #D11225",
"./.	c #CE1226",
"+/.	c #CA0D23",
"@/.	c #D01328",
"#/.	c #CD1226",
"$/.	c #CE1326",
"%/.	c #DA1C2C",
"&/.	c #DB1A2A",
"*/.	c #D21127",
"=/.	c #C30520",
"-/.	c #B40221",
";/.	c #AD0224",
">/.	c #A90223",
",/.	c #B00325",
"'/.	c #B70224",
")/.	c #C30321",
"!/.	c #C5031E",
"~/.	c #C8051D",
"{/.	c #D20B23",
"]/.	c #D60C24",
"^/.	c #DD102C",
"//.	c #C3132A",
"(/.	c #54070D",
"_/.	c #612D2C",
":/.	c #6D2F2D",
"</.	c #70312C",
"[/.	c #50382F",
"}/.	c #BCCAB6",
"|/.	c #DFF7DD",
"1/.	c #E4EDDF",
"2/.	c #B8BCAF",
"3/.	c #8F948A",
"4/.	c #D0E0D2",
"5/.	c #E0F8E8",
"6/.	c #DCF8E7",
"7/.	c #EAF8EC",
"8/.	c #D7DFD3",
"9/.	c #917876",
"0/.	c #7C242F",
"a/.	c #BA2137",
"b/.	c #C31832",
"c/.	c #A9051F",
"d/.	c #A0011D",
"e/.	c #A40122",
"f/.	c #AD001F",
"g/.	c #B90425",
"h/.	c #C20827",
"i/.	c #C80A28",
"j/.	c #CE0D28",
"k/.	c #CD0C27",
"l/.	c #CF0F2A",
"m/.	c #CA0F28",
"n/.	c #C4102C",
"o/.	c #C11527",
"p/.	c #E74D4D",
"q/.	c #F26457",
"r/.	c #F27259",
"s/.	c #F1765A",
"t/.	c #F17A5C",
"u/.	c #F48060",
"v/.	c #F07E5B",
"w/.	c #ED7B56",
"x/.	c #EF7D58",
"y/.	c #F1825C",
"z/.	c #F1825F",
"A/.	c #F5815D",
"B/.	c #ED8558",
"C/.	c #FBC388",
"D/.	c #F0A46F",
"E/.	c #F09E6A",
"F/.	c #F3A56E",
"G/.	c #F3A46D",
"H/.	c #F5A66F",
"I/.	c #FBAC75",
"J/.	c #F7A570",
"K/.	c #F09565",
"L/.	c #F4986E",
"M/.	c #E2A17E",
"N/.	c #594E7D",
"O/.	c #2F469D",
"P/.	c #2D4A9F",
"Q/.	c #2A4B9D",
"R/.	c #2A4C9E",
"S/.	c #3152A5",
"T/.	c #2D50A2",
"U/.	c #284CA0",
"V/.	c #2C51A9",
"W/.	c #244DA8",
"X/.	c #1F4CA7",
"Y/.	c #2354AB",
"Z/.	c #2657A7",
"`/.	c #2557AA",
" (.	c #1C51A8",
".(.	c #2053A6",
"+(.	c #2255A6",
"@(.	c #2656A9",
"#(.	c #2756A8",
"$(.	c #2B58AA",
"%(.	c #2E57AC",
"&(.	c #4D509A",
"*(.	c #D28284",
"=(.	c #F78967",
"-(.	c #F8946C",
";(.	c #F08660",
">(.	c #EE825E",
",(.	c #F68766",
"'(.	c #F88968",
")(.	c #F0805E",
"!(.	c #F17E5E",
"~(.	c #F17D5F",
"{(.	c #F0745A",
"](.	c #F5755D",
"^(.	c #F5715B",
"/(.	c #F1755B",
"((.	c #F58063",
"_(.	c #FA8A69",
":(.	c #F3815F",
"<(.	c #F17756",
"[(.	c #EE6B50",
"}(.	c #ED604D",
"|(.	c #EF5D4C",
"1(.	c #E8473F",
"2(.	c #F55B50",
"3(.	c #F39A62",
"4(.	c #ED9F63",
"5(.	c #F5A367",
"6(.	c #F0855B",
"7(.	c #F06D4E",
"8(.	c #EE634D",
"9(.	c #EF604C",
"0(.	c #EF634D",
"a(.	c #EE654A",
"b(.	c #F37155",
"c(.	c #F36C53",
"d(.	c #ED5F4B",
"e(.	c #EE4C44",
"f(.	c #EA453F",
"g(.	c #E73839",
"h(.	c #E73439",
"i(.	c #EA3139",
"j(.	c #E83037",
"k(.	c #EB343A",
"l(.	c #ED393D",
"m(.	c #E83438",
"n(.	c #EB3439",
"o(.	c #E72D34",
"p(.	c #E52731",
"q(.	c #E62732",
"r(.	c #E3232E",
"s(.	c #D91826",
"t(.	c #E22431",
"u(.	c #EF383C",
"v(.	c #E63235",
"w(.	c #E83437",
"x(.	c #E42E34",
"y(.	c #DF2331",
"z(.	c #DD1E2E",
"A(.	c #D9192A",
"B(.	c #D01329",
"C(.	c #CC1027",
"D(.	c #D1152D",
"E(.	c #D11829",
"F(.	c #DB1E2D",
"G(.	c #DC1B2A",
"H(.	c #D21129",
"I(.	c #CC0A24",
"J(.	c #BD0421",
"K(.	c #A70223",
"L(.	c #AC0224",
"M(.	c #B60125",
"N(.	c #C40322",
"O(.	c #C8061E",
"P(.	c #D20B22",
"Q(.	c #D30C23",
"R(.	c #DA0F2B",
"S(.	c #BC1428",
"T(.	c #520F12",
"U(.	c #652E2D",
"V(.	c #6C302B",
"W(.	c #6E312B",
"X(.	c #59312B",
"Y(.	c #76796C",
"Z(.	c #D7EDDA",
"`(.	c #E4F3E4",
" _.	c #DFE7DA",
"._.	c #B3B3A9",
"+_.	c #8D9287",
"@_.	c #CDDDCE",
"#_.	c #DEF9E8",
"$_.	c #DEFBE9",
"%_.	c #E8F6E9",
"&_.	c #E1D6CF",
"*_.	c #88706B",
"=_.	c #752026",
"-_.	c #AF2836",
";_.	c #C62135",
">_.	c #C1172D",
",_.	c #A5061E",
"'_.	c #9E011D",
")_.	c #A50122",
"!_.	c #C40826",
"~_.	c #C40827",
"{_.	c #CC0B26",
"]_.	c #D0112C",
"^_.	c #B70521",
"/_.	c #B70825",
"(_.	c #BE0B2A",
"__.	c #C10B2A",
":_.	c #C4102D",
"<_.	c #C11929",
"[_.	c #E94F50",
"}_.	c #F06457",
"|_.	c #F17259",
"1_.	c #F1785B",
"2_.	c #EE785A",
"3_.	c #F47D5F",
"4_.	c #F47F61",
"5_.	c #F17F5B",
"6_.	c #F07D59",
"7_.	c #F18661",
"8_.	c #F2845F",
"9_.	c #F99C6C",
"0_.	c #EE895D",
"a_.	c #FDAD7C",
"b_.	c #FAC788",
"c_.	c #F5B078",
"d_.	c #F1A36D",
"e_.	c #F3A570",
"f_.	c #EFA069",
"g_.	c #F39E6A",
"h_.	c #F9936C",
"i_.	c #EF8D65",
"j_.	c #E09476",
"k_.	c #5B4C7D",
"l_.	c #2D479C",
"m_.	c #2D4A9E",
"n_.	c #294A9B",
"o_.	c #2C4D9E",
"p_.	c #3051A4",
"q_.	c #2D51A4",
"r_.	c #2A4EA3",
"s_.	c #2C4EA9",
"t_.	c #284EA9",
"u_.	c #204FA7",
"v_.	c #1F4DA5",
"w_.	c #1F50AA",
"x_.	c #2758AF",
"y_.	c #2656A8",
"z_.	c #2557A8",
"A_.	c #1F57AD",
"B_.	c #2253A7",
"C_.	c #2355A8",
"D_.	c #2D57AB",
"E_.	c #4C4F9C",
"F_.	c #D18085",
"G_.	c #F58B66",
"H_.	c #EE8863",
"I_.	c #F6906A",
"J_.	c #EE7F5C",
"K_.	c #F58565",
"L_.	c #F78866",
"M_.	c #F1775D",
"N_.	c #F3735D",
"O_.	c #F4715C",
"P_.	c #F06D55",
"Q_.	c #F0755B",
"R_.	c #F47F64",
"S_.	c #F78567",
"T_.	c #F17555",
"U_.	c #EB684D",
"V_.	c #ED604B",
"W_.	c #EA5244",
"X_.	c #EA4D41",
"Y_.	c #EF564A",
"Z_.	c #F1915D",
"`_.	c #F39F65",
" :.	c #F39D63",
".:.	c #F08059",
"+:.	c #ED6B4E",
"@:.	c #EE624D",
"#:.	c #F1614E",
"$:.	c #F2654F",
"%:.	c #F0674C",
"&:.	c #F16D4E",
"*:.	c #F27053",
"=:.	c #F16A52",
"-:.	c #EE614C",
";:.	c #F0604D",
">:.	c #F35E4A",
",:.	c #EF5646",
"':.	c #EE3F40",
"):.	c #EC3A40",
"!:.	c #E9333B",
"~:.	c #E73039",
"{:.	c #EB343B",
"]:.	c #EA363B",
"^:.	c #E73136",
"/:.	c #E73035",
"(:.	c #E42A32",
"_:.	c #E32530",
"::.	c #E42530",
"<:.	c #E52330",
"[:.	c #E62935",
"}:.	c #E93739",
"|:.	c #EA3739",
"1:.	c #E62933",
"2:.	c #E42735",
"3:.	c #DE212F",
"4:.	c #D7182B",
"5:.	c #D41529",
"6:.	c #D2142A",
"7:.	c #CB0D26",
"8:.	c #CB0D25",
"9:.	c #D51F2E",
"0:.	c #DA1B28",
"a:.	c #CC0B25",
"b:.	c #C60722",
"c:.	c #AD0324",
"d:.	c #AF0527",
"e:.	c #B60326",
"f:.	c #C00222",
"g:.	c #C50423",
"h:.	c #CC0721",
"i:.	c #CF0822",
"j:.	c #D20C22",
"k:.	c #B51325",
"l:.	c #56191E",
"m:.	c #6B3131",
"n:.	c #6B2F2B",
"o:.	c #6A302A",
"p:.	c #5C413A",
"q:.	c #B9C5B6",
"r:.	c #DCF3E4",
"s:.	c #E3E9E3",
"t:.	c #ABABA6",
"u:.	c #90948A",
"v:.	c #CFE3D2",
"w:.	c #DFF7E5",
"x:.	c #E4F9E8",
"y:.	c #E3F2E2",
"z:.	c #DAD0C8",
"A:.	c #896564",
"B:.	c #7A1C25",
"C:.	c #A91F2E",
"D:.	c #C31F2F",
"E:.	c #CA1D30",
"F:.	c #C1192E",
"G:.	c #A6051E",
"H:.	c #9F001E",
"I:.	c #A60123",
"J:.	c #AE001E",
"K:.	c #BA0322",
"L:.	c #C40A26",
"M:.	c #C50926",
"N:.	c #CA0B24",
"O:.	c #CC0C25",
"P:.	c #C80D29",
"Q:.	c #B4021F",
"R:.	c #B80826",
"S:.	c #BE0A29",
"T:.	c #C2102D",
"U:.	c #C11B2B",
"V:.	c #E54E4E",
"W:.	c #F26659",
"X:.	c #F1735A",
"Y:.	c #F07B5D",
"Z:.	c #F17C5E",
"`:.	c #F1805F",
" <.	c #F68461",
".<.	c #F38963",
"+<.	c #F29064",
"@<.	c #F99D6F",
"#<.	c #F79E71",
"$<.	c #F9BC7F",
"%<.	c #F4AF76",
"&<.	c #F8B47A",
"*<.	c #F4A871",
"=<.	c #F09F68",
"-<.	c #F89E6C",
";<.	c #EC855E",
"><.	c #E28E74",
",<.	c #5F4A7D",
"'<.	c #2B489C",
")<.	c #29499A",
"!<.	c #2D4EA0",
"~<.	c #2F51A5",
"{<.	c #2E51A4",
"]<.	c #2B4EA4",
"^<.	c #2B4EA9",
"/<.	c #2E4EA8",
"(<.	c #2B4EA8",
"_<.	c #284DA8",
":<.	c #1F4FA6",
"<<.	c #2A5BB3",
"[<.	c #2555A6",
"}<.	c #2656A7",
"|<.	c #2156A9",
"1<.	c #1F56AC",
"2<.	c #2159AD",
"3<.	c #2055A9",
"4<.	c #2453A8",
"5<.	c #2D5AAE",
"6<.	c #2F59AC",
"7<.	c #2D54A9",
"8<.	c #2E50AB",
"9<.	c #494E9F",
"0<.	c #CE7F85",
"a<.	c #F48D67",
"b<.	c #EE8662",
"c<.	c #F58E68",
"d<.	c #F5815F",
"e<.	c #F0795C",
"f<.	c #EF765A",
"g<.	c #F2735C",
"h<.	c #F2705A",
"i<.	c #EB6B52",
"j<.	c #F2775D",
"k<.	c #F48065",
"l<.	c #F48063",
"m<.	c #F27757",
"n<.	c #EE6D50",
"o<.	c #F36953",
"p<.	c #F26754",
"q<.	c #EB5848",
"r<.	c #F18D59",
"s<.	c #F99F65",
"t<.	c #F49F66",
"u<.	c #F26450",
"v<.	c #F66852",
"w<.	c #F1694D",
"x<.	c #EE674F",
"y<.	c #F0604A",
"z<.	c #F15C48",
"A<.	c #F15C47",
"B<.	c #ED5243",
"C<.	c #EB4842",
"D<.	c #EE4843",
"E<.	c #F24944",
"F<.	c #EE4040",
"G<.	c #ED3B40",
"H<.	c #E9343D",
"I<.	c #EA333A",
"J<.	c #EB3239",
"K<.	c #E93239",
"L<.	c #E93237",
"M<.	c #E52D34",
"N<.	c #E62A34",
"O<.	c #E62633",
"P<.	c #E42431",
"Q<.	c #E42330",
"R<.	c #DD1E2C",
"S<.	c #E93039",
"T<.	c #EA3538",
"U<.	c #EA3838",
"V<.	c #E72F35",
"W<.	c #E12331",
"X<.	c #D4142B",
"Y<.	c #CB0C25",
"Z<.	c #CC0F27",
"`<.	c #D71F2E",
" [.	c #D71629",
".[.	c #CD0B25",
"+[.	c #BE0320",
"@[.	c #AC0122",
"#[.	c #A80223",
"$[.	c #AC0223",
"%[.	c #B60224",
"&[.	c #BD001F",
"*[.	c #C20221",
"=[.	c #C40220",
"-[.	c #CD071E",
";[.	c #D6132B",
">[.	c #AC1224",
",[.	c #5D1F24",
"'[.	c #6E3132",
")[.	c #6F2F2D",
"![.	c #642D27",
"~[.	c #6C6B5F",
"{[.	c #DBE8D7",
"][.	c #E2EFE2",
"^[.	c #AEB3AB",
"/[.	c #92988E",
"([.	c #D3E7D7",
"_[.	c #DDF4E2",
":[.	c #E3F3E4",
"<[.	c #E7E8DC",
"[[.	c #C6B6AF",
"}[.	c #7A5251",
"|[.	c #831223",
"1[.	c #B01A2F",
"2[.	c #C0182C",
"3[.	c #CB192E",
"4[.	c #C3182E",
"5[.	c #A8051D",
"6[.	c #A50023",
"7[.	c #C40822",
"8[.	c #B6001C",
"9[.	c #C30725",
"0[.	c #C50825",
"a[.	c #CA0D29",
"b[.	c #CC0F28",
"c[.	c #B90726",
"d[.	c #BC0928",
"e[.	c #BF0D2A",
"f[.	c #C00F2B",
"g[.	c #C01C2C",
"h[.	c #E95152",
"i[.	c #F1665A",
"j[.	c #F47B5E",
"k[.	c #EE7E5D",
"l[.	c #EF8261",
"m[.	c #F48562",
"n[.	c #EE8661",
"o[.	c #F38B65",
"p[.	c #F28B62",
"q[.	c #F58D64",
"r[.	c #F69268",
"s[.	c #F0865F",
"t[.	c #FBB07A",
"u[.	c #F9AB77",
"v[.	c #F9AE76",
"w[.	c #F4A56D",
"x[.	c #F59F69",
"y[.	c #F98A65",
"z[.	c #EF845E",
"A[.	c #DD8670",
"B[.	c #624A7F",
"C[.	c #2C459D",
"D[.	c #2A469D",
"E[.	c #2A499B",
"F[.	c #2E50A2",
"G[.	c #2E51A3",
"H[.	c #294DA2",
"I[.	c #294DA7",
"J[.	c #274DA9",
"K[.	c #1F4EA6",
"L[.	c #2254AE",
"M[.	c #2557AC",
"N[.	c #2456AC",
"O[.	c #2858B2",
"P[.	c #2758A6",
"Q[.	c #2456A8",
"R[.	c #2056A8",
"S[.	c #2059AA",
"T[.	c #2056AA",
"U[.	c #2057AE",
"V[.	c #2253A8",
"W[.	c #2D5AAF",
"X[.	c #2F58AD",
"Y[.	c #2B55A8",
"Z[.	c #464DA0",
"`[.	c #CA7D84",
" }.	c #F58C66",
".}.	c #F0835E",
"+}.	c #F4805F",
"@}.	c #F27A5D",
"#}.	c #F2775C",
"$}.	c #EE6F58",
"%}.	c #F06E58",
"&}.	c #EF6C54",
"*}.	c #F3785E",
"=}.	c #F37E63",
"-}.	c #F78063",
";}.	c #F47A5C",
">}.	c #EE7352",
",}.	c #F27157",
"'}.	c #F6715A",
")}.	c #EE5D4C",
"!}.	c #F25C4E",
"~}.	c #F28755",
"{}.	c #F2975E",
"]}.	c #F8A46C",
"^}.	c #EF6B53",
"/}.	c #EF6550",
"(}.	c #F06450",
"_}.	c #F56A53",
":}.	c #F27051",
"<}.	c #F37154",
"[}.	c #EC654C",
"}}.	c #EF5D48",
"|}.	c #EF5946",
"1}.	c #EA4E40",
"2}.	c #EB3A3B",
"3}.	c #EA343A",
"4}.	c #E82F39",
"5}.	c #EA3039",
"6}.	c #E92F38",
"7}.	c #EB313A",
"8}.	c #EE343C",
"9}.	c #E52832",
"0}.	c #E62532",
"a}.	c #E22631",
"b}.	c #DD222D",
"c}.	c #DB202C",
"d}.	c #EE373F",
"e}.	c #EC383C",
"f}.	c #E83737",
"g}.	c #E52D33",
"h}.	c #E02630",
"i}.	c #DE2530",
"j}.	c #DC1F2C",
"k}.	c #D31329",
"l}.	c #CC0C26",
"m}.	c #C50920",
"n}.	c #CE1727",
"o}.	c #CD0C25",
"p}.	c #C50621",
"q}.	c #B60423",
"r}.	c #AD0223",
"s}.	c #A90424",
"t}.	c #AB0123",
"u}.	c #B50225",
"v}.	c #BE0020",
"w}.	c #CD081F",
"x}.	c #D6132C",
"y}.	c #A00E1F",
"z}.	c #5D2529",
"A}.	c #6C2F30",
"B}.	c #6F2D2B",
"C}.	c #593931",
"D}.	c #A5B5A3",
"E}.	c #E2EEDB",
"F}.	c #BFBFB3",
"G}.	c #8F988D",
"H}.	c #D5E3D6",
"I}.	c #E0F9E6",
"J}.	c #E4F7E6",
"K}.	c #E9E8DE",
"L}.	c #B39E9C",
"M}.	c #6D373C",
"N}.	c #841126",
"O}.	c #B1132D",
"P}.	c #BF162D",
"Q}.	c #C61529",
"R}.	c #CA192D",
"S}.	c #CD1C30",
"T}.	c #C4172E",
"U}.	c #AA061E",
"V}.	c #9F0120",
"W}.	c #A30022",
"X}.	c #AB011F",
"Y}.	c #B60321",
"Z}.	c #C30923",
"`}.	c #B7021D",
" |.	c #CB0E29",
".|.	c #CD0F28",
"+|.	c #C00823",
"@|.	c #BB0828",
"#|.	c #BE0B29",
"$|.	c #BF0F2A",
"%|.	c #C1202E",
"&|.	c #ED5655",
"*|.	c #F3665A",
"=|.	c #F7765E",
"-|.	c #F3785C",
";|.	c #F57E60",
">|.	c #EF8060",
",|.	c #F48461",
"'|.	c #F78A66",
")|.	c #F28D63",
"!|.	c #F08962",
"~|.	c #F17E5C",
"{|.	c #F49969",
"]|.	c #F39566",
"^|.	c #F09A6A",
"/|.	c #FAAE77",
"(|.	c #EE9260",
"_|.	c #FA8A66",
":|.	c #D8806A",
"<|.	c #60487F",
"[|.	c #2C46A0",
"}|.	c #2B47A0",
"||.	c #2B499C",
"1|.	c #2E4EA2",
"2|.	c #2E4DA2",
"3|.	c #274AA6",
"4|.	c #294CA6",
"5|.	c #2B4FA9",
"6|.	c #2353A7",
"7|.	c #2151AC",
"8|.	c #2258AB",
"9|.	c #2256A9",
"0|.	c #2657AB",
"a|.	c #2657AC",
"b|.	c #2858AA",
"c|.	c #2859A8",
"d|.	c #2356A6",
"e|.	c #2057A8",
"f|.	c #1F58AA",
"g|.	c #1E54A9",
"h|.	c #2157AA",
"i|.	c #2F57AE",
"j|.	c #2A4FA9",
"k|.	c #454C9F",
"l|.	c #C77D85",
"m|.	c #F19069",
"n|.	c #F28F63",
"o|.	c #F17A5B",
"p|.	c #F37A5E",
"q|.	c #EE7058",
"r|.	c #F16F58",
"s|.	c #EE6F55",
"t|.	c #F0785D",
"u|.	c #F58267",
"v|.	c #F48467",
"w|.	c #F38161",
"x|.	c #F7755D",
"y|.	c #F06250",
"z|.	c #F05E4E",
"A|.	c #F0594B",
"B|.	c #F08752",
"C|.	c #F1975E",
"D|.	c #FCA873",
"E|.	c #EF7B57",
"F|.	c #F16A51",
"G|.	c #ED624E",
"H|.	c #F26952",
"I|.	c #F06F52",
"J|.	c #EE674E",
"K|.	c #EF5D4A",
"L|.	c #EE4940",
"M|.	c #EF4741",
"N|.	c #EB403B",
"O|.	c #E72F36",
"P|.	c #E82835",
"Q|.	c #E92A36",
"R|.	c #E82D36",
"S|.	c #E92E37",
"T|.	c #ED3239",
"U|.	c #E82F36",
"V|.	c #E3252F",
"W|.	c #E4222F",
"X|.	c #E32732",
"Y|.	c #D9202A",
"Z|.	c #D8232B",
"`|.	c #ED3B3F",
" 1.	c #EC3C3D",
".1.	c #E73836",
"+1.	c #E42D32",
"@1.	c #E12931",
"#1.	c #DE2731",
"$1.	c #DA1E2B",
"%1.	c #D3132A",
"&1.	c #C4071F",
"*1.	c #C40D1F",
"=1.	c #D91E30",
"-1.	c #D7162A",
";1.	c #D10F26",
">1.	c #A80424",
",1.	c #AA0122",
"'1.	c #CC0823",
")1.	c #CD0921",
"!1.	c #D4152C",
"~1.	c #8D0C19",
"{1.	c #5E272C",
"]1.	c #6C2E30",
"^1.	c #67292B",
"/1.	c #655A53",
"(1.	c #CEDFCD",
"_1.	c #CBD3C1",
":1.	c #8D8B81",
"<1.	c #E2F3E5",
"[1.	c #E3F6E6",
"}1.	c #E5ECDE",
"|1.	c #AD9B96",
"11.	c #5F2F33",
"21.	c #7D162C",
"31.	c #96142C",
"41.	c #9E1024",
"51.	c #A61826",
"61.	c #B51928",
"71.	c #C41B2D",
"81.	c #CE1C32",
"91.	c #C4162E",
"01.	c #AB061F",
"a1.	c #A20020",
"b1.	c #B70423",
"c1.	c #B6021F",
"d1.	c #BE0826",
"e1.	c #CA0C26",
"f1.	c #CC1028",
"g1.	c #BD0621",
"h1.	c #BC0929",
"i1.	c #BD0A29",
"j1.	c #C2102B",
"k1.	c #C42430",
"l1.	c #ED5856",
"m1.	c #F36A5B",
"n1.	c #F4765C",
"o1.	c #F57F60",
"p1.	c #F47E5F",
"q1.	c #F18161",
"r1.	c #F38462",
"s1.	c #F68763",
"t1.	c #FA8D68",
"u1.	c #F28C62",
"v1.	c #F59165",
"w1.	c #F68864",
"x1.	c #F17B59",
"y1.	c #EE885E",
"z1.	c #F9A074",
"A1.	c #EA9767",
"B1.	c #F7A471",
"C1.	c #F9A570",
"D1.	c #FCA36F",
"E1.	c #F68A63",
"F1.	c #D9836D",
"G1.	c #5C457E",
"H1.	c #2C47A0",
"I1.	c #2B47A1",
"J1.	c #2B4A9E",
"K1.	c #2F4EA3",
"L1.	c #314FA6",
"M1.	c #2B4DA2",
"N1.	c #264AA2",
"O1.	c #254AA6",
"P1.	c #284CA6",
"Q1.	c #254EA9",
"R1.	c #2250A9",
"S1.	c #2452A8",
"T1.	c #2155A8",
"U1.	c #2455A9",
"V1.	c #2357AE",
"W1.	c #2357A7",
"X1.	c #2157A9",
"Y1.	c #1F57A9",
"Z1.	c #2357AC",
"`1.	c #2754AA",
" 2.	c #2E56AE",
".2.	c #464B9F",
"+2.	c #C7838B",
"@2.	c #F59C74",
"#2.	c #F7996C",
"$2.	c #F39068",
"%2.	c #F58D67",
"&2.	c #F28360",
"*2.	c #F88B68",
"=2.	c #F88A66",
"-2.	c #F17B5C",
";2.	c #F57D60",
">2.	c #F6775F",
",2.	c #EF7056",
"'2.	c #EF775C",
")2.	c #F58468",
"!2.	c #F18061",
"~2.	c #EF6F55",
"{2.	c #F1604F",
"]2.	c #F35C4D",
"^2.	c #F46051",
"/2.	c #F29057",
"(2.	c #F5A066",
"_2.	c #FAA36F",
":2.	c #F07653",
"<2.	c #F3684F",
"[2.	c #F2634F",
"}2.	c #EF614E",
"|2.	c #F36852",
"12.	c #EF6A4E",
"22.	c #F06F50",
"32.	c #F27255",
"42.	c #F26B52",
"52.	c #EE614D",
"62.	c #F25A49",
"72.	c #EC5444",
"82.	c #EC4E42",
"92.	c #F14B42",
"02.	c #F14943",
"a2.	c #EB3D3B",
"b2.	c #E73638",
"c2.	c #E73238",
"d2.	c #E22A36",
"e2.	c #E42E38",
"f2.	c #E8333B",
"g2.	c #E62D35",
"h2.	c #E31F2D",
"i2.	c #DF202D",
"j2.	c #D71D28",
"k2.	c #DF2B32",
"l2.	c #ED3D40",
"m2.	c #EC3F3D",
"n2.	c #E73936",
"o2.	c #E53133",
"p2.	c #E42D33",
"q2.	c #DE2932",
"r2.	c #E12A36",
"s2.	c #D91F2B",
"t2.	c #D2122A",
"u2.	c #CC0D26",
"v2.	c #CB0C26",
"w2.	c #C40C20",
"x2.	c #D71A2F",
"y2.	c #D9182B",
"z2.	c #D31229",
"A2.	c #A60322",
"B2.	c #A90222",
"C2.	c #B30324",
"D2.	c #CC0723",
"E2.	c #CF152C",
"F2.	c #7B0C15",
"G2.	c #65282E",
"H2.	c #6C2B2E",
"I2.	c #5D2A2F",
"J2.	c #888986",
"K2.	c #D5DFD4",
"L2.	c #919487",
"M2.	c #C6CFC3",
"N2.	c #E2F3E6",
"O2.	c #E6F3E6",
"P2.	c #E9EBE1",
"Q2.	c #B0A09A",
"R2.	c #602A2E",
"S2.	c #741628",
"T2.	c #7E172A",
"U2.	c #723535",
"V2.	c #896B5E",
"W2.	c #8F6056",
"X2.	c #841D1E",
"Y2.	c #B11422",
"Z2.	c #CB172D",
"`2.	c #C4182F",
" 3.	c #AE0820",
".3.	c #A10020",
"+3.	c #A50020",
"@3.	c #AD0021",
"#3.	c #B90325",
"$3.	c #C10726",
"%3.	c #BD0722",
"&3.	c #B4021D",
"*3.	c #BC0825",
"=3.	c #C50A26",
"-3.	c #BC0520",
";3.	c #BA0727",
">3.	c #BE0B28",
",3.	c #C2112A",
"'3.	c #C3242F",
")3.	c #EC5B56",
"!3.	c #F36E5D",
"~3.	c #F48361",
"{3.	c #F78968",
"]3.	c #F68564",
"^3.	c #F88965",
"/3.	c #F78A65",
"(3.	c #F58560",
"_3.	c #EE7F59",
":3.	c #F79F74",
"<3.	c #F79C6C",
"[3.	c #FDA270",
"}3.	c #FB9B6B",
"|3.	c #EF885C",
"13.	c #EF845F",
"23.	c #D3816C",
"33.	c #594380",
"43.	c #2C479E",
"53.	c #2B48A0",
"63.	c #2E4DA4",
"73.	c #3050A8",
"83.	c #284DA3",
"93.	c #2449A2",
"03.	c #2449A6",
"a3.	c #264AA6",
"b3.	c #224DA9",
"c3.	c #1E4CA7",
"d3.	c #2653AC",
"e3.	c #2454A8",
"f3.	c #2456AA",
"g3.	c #2153A8",
"h3.	c #2655A9",
"i3.	c #2157AC",
"j3.	c #2C58AD",
"k3.	c #2F57AC",
"l3.	c #2C56AA",
"m3.	c #2C4EA7",
"n3.	c #484A9E",
"o3.	c #CA8A90",
"p3.	c #F9A57E",
"q3.	c #FAA075",
"r3.	c #F69570",
"s3.	c #F5926E",
"t3.	c #F38C69",
"u3.	c #F58864",
"v3.	c #F88A65",
"w3.	c #F27D5E",
"x3.	c #F57C62",
"y3.	c #F2765C",
"z3.	c #F27F63",
"A3.	c #F37F61",
"B3.	c #F47E5B",
"C3.	c #EE6B51",
"D3.	c #F2614F",
"E3.	c #F35D4E",
"F3.	c #F36051",
"G3.	c #F8A970",
"H3.	c #EF7053",
"I3.	c #F1634F",
"J3.	c #F3654F",
"K3.	c #F36C52",
"L3.	c #EE6E4F",
"M3.	c #EF7353",
"N3.	c #F07555",
"O3.	c #F26D51",
"P3.	c #F05B4B",
"Q3.	c #F1584A",
"R3.	c #EB5245",
"S3.	c #EC4F44",
"T3.	c #F04D44",
"U3.	c #EF4943",
"V3.	c #E93B39",
"W3.	c #E63239",
"X3.	c #E02F37",
"Y3.	c #E3343B",
"Z3.	c #ED3D43",
"`3.	c #E32D34",
" 4.	c #E72F37",
".4.	c #E52732",
"+4.	c #E11E2D",
"@4.	c #DF1E2C",
"#4.	c #D61B24",
"$4.	c #E23232",
"%4.	c #EB3F3D",
"&4.	c #E73336",
"*4.	c #E52E34",
"=4.	c #E02932",
"-4.	c #E8303C",
";4.	c #DA212E",
">4.	c #D11029",
",4.	c #CB0F27",
"'4.	c #C90C26",
")4.	c #C50D27",
"!4.	c #DA1831",
"~4.	c #D8182E",
"{4.	c #D11529",
"]4.	c #C20721",
"^4.	c #B30321",
"/4.	c #A50423",
"(4.	c #A80423",
"_4.	c #B30425",
":4.	c #C10121",
"<4.	c #CD0922",
"[4.	c #CC1329",
"}4.	c #720D17",
"|4.	c #69292B",
"14.	c #6D282C",
"24.	c #55363C",
"34.	c #B6B8B7",
"44.	c #A3A09D",
"54.	c #A6AAA1",
"64.	c #E3F1E6",
"74.	c #E6F4E8",
"84.	c #E7EFE2",
"94.	c #BBB2AA",
"04.	c #5C3434",
"a4.	c #6F1422",
"b4.	c #6B1F27",
"c4.	c #7F615C",
"d4.	c #B8BCAB",
"e4.	c #D1DDC6",
"f4.	c #A09384",
"g4.	c #6A2323",
"h4.	c #AE1022",
"i4.	c #C21528",
"j4.	c #C41830",
"k4.	c #AF0820",
"l4.	c #A10120",
"m4.	c #A60120",
"n4.	c #B90122",
"o4.	c #C10625",
"p4.	c #BC0521",
"q4.	c #B1011C",
"r4.	c #B90624",
"s4.	c #C20923",
"t4.	c #CC0F26",
"u4.	c #CC102A",
"v4.	c #BA0420",
"w4.	c #B90323",
"x4.	c #BA0626",
"y4.	c #BE0928",
"z4.	c #C01029",
"A4.	c #C42930",
"B4.	c #EA6157",
"C4.	c #F1735B",
"D4.	c #F27C5C",
"E4.	c #F2835F",
"F4.	c #F38260",
"G4.	c #F17D5B",
"H4.	c #F3805F",
"I4.	c #F98866",
"J4.	c #F58661",
"K4.	c #F58962",
"L4.	c #F88C64",
"M4.	c #F98D65",
"N4.	c #F78964",
"O4.	c #ED7859",
"P4.	c #EC7C56",
"Q4.	c #F09064",
"R4.	c #F99B6C",
"S4.	c #F49565",
"T4.	c #F89567",
"U4.	c #F48C65",
"V4.	c #D1816B",
"W4.	c #554386",
"X4.	c #2A48A0",
"Y4.	c #324CA3",
"Z4.	c #324EA4",
"`4.	c #3050A5",
" 5.	c #274DA2",
".5.	c #244AA1",
"+5.	c #244AA4",
"@5.	c #244CA4",
"#5.	c #244FAA",
"$5.	c #2856AA",
"%5.	c #2058AE",
"&5.	c #2556AC",
"*5.	c #2251A7",
"=5.	c #2756AA",
"-5.	c #2355AA",
";5.	c #1E52AA",
">5.	c #2755A9",
",5.	c #3058AC",
"'5.	c #2E55A7",
")5.	c #2D4EA6",
"!5.	c #484C9B",
"~5.	c #C8888F",
"{5.	c #F4A27C",
"]5.	c #F79C74",
"^5.	c #F29570",
"/5.	c #F89774",
"(5.	c #F79571",
"_5.	c #F28661",
":5.	c #F3825E",
"<5.	c #F68163",
"[5.	c #F68064",
"}5.	c #F67A62",
"|5.	c #F5775E",
"15.	c #F47D62",
"25.	c #F28062",
"35.	c #F17F5F",
"45.	c #F07B5C",
"55.	c #EE6F53",
"65.	c #EB5F4B",
"75.	c #EF604E",
"85.	c #F25D4F",
"95.	c #FBA768",
"05.	c #FAAC73",
"a5.	c #F49167",
"b5.	c #ED6C4E",
"c5.	c #F26850",
"d5.	c #F1644F",
"e5.	c #F1654D",
"f5.	c #F36E52",
"g5.	c #F17352",
"h5.	c #F27856",
"i5.	c #F47B59",
"j5.	c #F67557",
"k5.	c #F15B4C",
"l5.	c #F1574B",
"m5.	c #ED5045",
"n5.	c #EF4D44",
"o5.	c #E9373A",
"p5.	c #E7333A",
"q5.	c #E43039",
"r5.	c #E6323B",
"s5.	c #EA373E",
"t5.	c #E22C34",
"u5.	c #E62834",
"v5.	c #E2202E",
"w5.	c #D71E25",
"x5.	c #E63835",
"y5.	c #E93D39",
"z5.	c #E93636",
"A5.	c #E63335",
"B5.	c #E52F34",
"C5.	c #E12A32",
"D5.	c #E62E39",
"E5.	c #D9212E",
"F5.	c #D6142C",
"G5.	c #CC0D27",
"H5.	c #C90D26",
"I5.	c #CE0F2B",
"J5.	c #D71631",
"K5.	c #D61A2E",
"L5.	c #CA0E24",
"M5.	c #BC021F",
"N5.	c #AA0323",
"O5.	c #A30422",
"P5.	c #A70423",
"Q5.	c #B40626",
"R5.	c #C50523",
"S5.	c #C80623",
"T5.	c #D50E22",
"U5.	c #C71227",
"V5.	c #6A1016",
"W5.	c #6A2D2D",
"X5.	c #6B282B",
"Y5.	c #5D464A",
"Z5.	c #AAA4A4",
"`5.	c #625353",
" 6.	c #AAA59F",
".6.	c #DBDBD4",
"+6.	c #E9E8E0",
"@6.	c #D2C7C0",
"#6.	c #694747",
"$6.	c #681423",
"%6.	c #938579",
"&6.	c #CFD0C0",
"*6.	c #DCE5D2",
"=6.	c #B9BBAA",
"-6.	c #693836",
";6.	c #951A30",
">6.	c #C5182F",
",6.	c #AC071F",
"'6.	c #A30423",
")6.	c #A60221",
"!6.	c #B90223",
"~6.	c #C20726",
"{6.	c #B1031D",
"]6.	c #BA0725",
"^6.	c #CD0F26",
"/6.	c #CF112A",
"(6.	c #CC0F2A",
"_6.	c #B80323",
":6.	c #BA0425",
"<6.	c #C00D29",
"[6.	c #C11029",
"}6.	c #C82F36",
"|6.	c #EC6559",
"16.	c #F1745A",
"26.	c #F17C5A",
"36.	c #EC7B56",
"46.	c #ED7C58",
"56.	c #F1805D",
"66.	c #F78863",
"76.	c #F1815D",
"86.	c #EF835B",
"96.	c #D5856F",
"06.	c #544488",
"a6.	c #2C47A2",
"b6.	c #2D4AA2",
"c6.	c #374FA7",
"d6.	c #3550A4",
"e6.	c #284EA3",
"f6.	c #254BA3",
"g6.	c #254EA6",
"h6.	c #244EA6",
"i6.	c #1F4FA3",
"j6.	c #2256AF",
"k6.	c #2259B0",
"l6.	c #2454A6",
"m6.	c #2757A9",
"n6.	c #2255A9",
"o6.	c #245AB2",
"p6.	c #2D56AA",
"q6.	c #2F54A8",
"r6.	c #2E4FA8",
"s6.	c #474C99",
"t6.	c #C28289",
"u6.	c #F49F7A",
"v6.	c #F49670",
"w6.	c #F59674",
"x6.	c #FB9976",
"y6.	c #F99A73",
"z6.	c #F8966C",
"A6.	c #F48161",
"B6.	c #F58163",
"C6.	c #F37C61",
"D6.	c #F47960",
"E6.	c #ED6A53",
"F6.	c #F4725B",
"G6.	c #F47B60",
"H6.	c #F58165",
"I6.	c #F0805C",
"J6.	c #F58463",
"K6.	c #F27759",
"L6.	c #ED634E",
"M6.	c #EB5C4B",
"N6.	c #F35E4E",
"O6.	c #F59F63",
"P6.	c #FBA872",
"Q6.	c #ED6D4B",
"R6.	c #F2694D",
"S6.	c #F2664F",
"T6.	c #F27252",
"U6.	c #EF7351",
"V6.	c #FB7B5C",
"W6.	c #EE594A",
"X6.	c #F0574A",
"Y6.	c #EB463F",
"Z6.	c #E9383A",
"`6.	c #E53138",
" 7.	c #E42C36",
".7.	c #E52C36",
"+7.	c #E72E37",
"@7.	c #E32931",
"#7.	c #E93038",
"$7.	c #E62B35",
"%7.	c #E0202E",
"&7.	c #DD202D",
"*7.	c #D82229",
"=7.	c #E73534",
"-7.	c #E52F33",
";7.	c #E12A30",
">7.	c #DD2630",
",7.	c #D9212D",
"'7.	c #D5132B",
")7.	c #CF1029",
"!7.	c #C90926",
"~7.	c #D51831",
"{7.	c #D6182F",
"]7.	c #D81B30",
"^7.	c #CC0F24",
"/7.	c #C1051F",
"(7.	c #BB0220",
"_7.	c #B40422",
":7.	c #AB0323",
"<7.	c #A60625",
"[7.	c #A70422",
"}7.	c #C80624",
"|7.	c #BE1127",
"17.	c #63141B",
"27.	c #6A2E32",
"37.	c #66282B",
"47.	c #5E484A",
"57.	c #735F62",
"67.	c #65373D",
"77.	c #4F3534",
"87.	c #796766",
"97.	c #9A8E89",
"07.	c #624D4C",
"a7.	c #621424",
"b7.	c #66222B",
"c7.	c #999387",
"d7.	c #D8E0CD",
"e7.	c #DEE9D5",
"f7.	c #DBE6CF",
"g7.	c #908C7D",
"h7.	c #611B21",
"i7.	c #A51B35",
"j7.	c #C61632",
"k7.	c #C6182C",
"l7.	c #C71730",
"m7.	c #AA0920",
"n7.	c #A50525",
"o7.	c #A70322",
"p7.	c #C20826",
"q7.	c #B90521",
"r7.	c #B1021D",
"s7.	c #C30B26",
"t7.	c #CA1028",
"u7.	c #D0132B",
"v7.	c #CB0F29",
"w7.	c #B8021E",
"x7.	c #B70222",
"y7.	c #BC0726",
"z7.	c #C00F28",
"A7.	c #CE353B",
"B7.	c #F0685D",
"C7.	c #F4785D",
"D7.	c #F78861",
"E7.	c #F78B63",
"F7.	c #EE805A",
"G7.	c #EC7C58",
"H7.	c #F68663",
"I7.	c #F88F66",
"J7.	c #F49365",
"K7.	c #F69565",
"L7.	c #F58F61",
"M7.	c #F58860",
"N7.	c #F78A63",
"O7.	c #F79068",
"P7.	c #DD8873",
"Q7.	c #534688",
"R7.	c #304BA2",
"S7.	c #3850A7",
"T7.	c #354FA3",
"U7.	c #2E4CA1",
"V7.	c #274DA1",
"W7.	c #234CA2",
"X7.	c #224CA3",
"Y7.	c #234FA6",
"Z7.	c #2651A9",
"`7.	c #2155AA",
" 8.	c #2559B1",
".8.	c #2258B0",
"+8.	c #255BB3",
"@8.	c #1B50A9",
"#8.	c #2B53A9",
"$8.	c #464B99",
"%8.	c #C27F87",
"&8.	c #F69A77",
"*8.	c #F6926D",
"=8.	c #F79372",
"-8.	c #F38F6C",
";8.	c #F6946C",
">8.	c #F58162",
",8.	c #F57C61",
"'8.	c #F2755C",
")8.	c #F16B55",
"!8.	c #ED6851",
"~8.	c #F48164",
"{8.	c #F0815D",
"]8.	c #F47B5B",
"^8.	c #EF6650",
"/8.	c #EC5B4A",
"(8.	c #F15C4D",
"_8.	c #F05D4F",
":8.	c #F1985F",
"<8.	c #FAA570",
"[8.	c #EF7E56",
"}8.	c #ED6E4D",
"|8.	c #F2674F",
"18.	c #F36E53",
"28.	c #F27857",
"38.	c #F07A55",
"48.	c #F47454",
"58.	c #EE604D",
"68.	c #EB5647",
"78.	c #F0564A",
"88.	c #E83639",
"98.	c #E73339",
"08.	c #E32B35",
"a8.	c #E32831",
"b8.	c #E62B34",
"c8.	c #E83038",
"d8.	c #E42933",
"e8.	c #D91D29",
"f8.	c #DB292E",
"g8.	c #E73533",
"h8.	c #E83535",
"i8.	c #E32D31",
"j8.	c #DB232D",
"k8.	c #D71C2A",
"l8.	c #CA0825",
"m8.	c #D0152D",
"n8.	c #D3172D",
"o8.	c #D7192E",
"p8.	c #CD0F25",
"q8.	c #AC0525",
"r8.	c #A60524",
"s8.	c #B40627",
"t8.	c #BA0524",
"u8.	c #CE0922",
"v8.	c #D50D24",
"w8.	c #9C0B20",
"x8.	c #531B21",
"y8.	c #6A2F35",
"z8.	c #62272A",
"A8.	c #3C2324",
"B8.	c #4E282C",
"C8.	c #6A353A",
"D8.	c #59282C",
"E8.	c #4E2125",
"F8.	c #37191A",
"G8.	c #29080A",
"H8.	c #4A101C",
"I8.	c #7B6C69",
"J8.	c #D2E4D2",
"K8.	c #E1E9D7",
"L8.	c #E0E5D2",
"M8.	c #DEE5CE",
"N8.	c #C4C8B2",
"O8.	c #716356",
"P8.	c #781824",
"Q8.	c #BC1630",
"R8.	c #C7192D",
"S8.	c #C81831",
"T8.	c #A00120",
"U8.	c #A50120",
"V8.	c #BF0725",
"W8.	c #BA0622",
"X8.	c #C20B26",
"Y8.	c #C40C26",
"Z8.	c #CD1228",
"`8.	c #CC112B",
" 9.	c #B9031F",
".9.	c #B60121",
"+9.	c #B90324",
"@9.	c #BB0725",
"#9.	c #C10F28",
"$9.	c #D3393F",
"%9.	c #F26A5E",
"&9.	c #F67960",
"*9.	c #F5805F",
"=9.	c #ED7D5A",
"-9.	c #F38F63",
";9.	c #FA9167",
">9.	c #F68F64",
",9.	c #F8936A",
"'9.	c #F18A63",
")9.	c #D9826E",
"!9.	c #524689",
"~9.	c #2D47A2",
"{9.	c #3149A1",
"]9.	c #384DA4",
"^9.	c #3951A5",
"/9.	c #3653A8",
"(9.	c #234DA2",
"_9.	c #224FA5",
":9.	c #2451A8",
"<9.	c #2551A8",
"[9.	c #2250A6",
"}9.	c #2354A7",
"|9.	c #214EA9",
"19.	c #1E57AD",
"29.	c #184FA9",
"39.	c #1C50AB",
"49.	c #2C4FA8",
"59.	c #484D9B",
"69.	c #C37E86",
"79.	c #F48F70",
"89.	c #F88E6C",
"99.	c #F08766",
"09.	c #F4916C",
"a9.	c #F5926D",
"b9.	c #F68162",
"c9.	c #F98265",
"d9.	c #F67D62",
"e9.	c #EF6E57",
"f9.	c #ED644F",
"g9.	c #F17359",
"h9.	c #F28061",
"i9.	c #F0674F",
"j9.	c #EA5847",
"k9.	c #EA5546",
"l9.	c #EC5B4C",
"m9.	c #F79E66",
"n9.	c #F9A06D",
"o9.	c #EF7853",
"p9.	c #EF6D4E",
"q9.	c #F16A50",
"r9.	c #EF684E",
"s9.	c #F67656",
"t9.	c #FC8662",
"u9.	c #F88961",
"v9.	c #FB8F66",
"w9.	c #F68661",
"x9.	c #EF7051",
"y9.	c #EE604C",
"z9.	c #ED5849",
"A9.	c #EC4B42",
"B9.	c #EC3D3C",
"C9.	c #E53436",
"D9.	c #E7333B",
"E9.	c #E32C36",
"F9.	c #E72B35",
"G9.	c #E82E38",
"H9.	c #DA1D2A",
"I9.	c #D51A26",
"J9.	c #DC2C30",
"K9.	c #E6423C",
"L9.	c #E9453E",
"M9.	c #ED443E",
"N9.	c #E83335",
"O9.	c #E32D32",
"P9.	c #DE262F",
"Q9.	c #DC232F",
"R9.	c #D71C2B",
"S9.	c #D6142B",
"T9.	c #CA0925",
"U9.	c #C50524",
"V9.	c #BE0620",
"W9.	c #D3162C",
"X9.	c #D3142A",
"Y9.	c #CB0E23",
"Z9.	c #C2051F",
"`9.	c #B20220",
" 0.	c #AE0727",
".0.	c #A80524",
"+0.	c #B50626",
"@0.	c #BB0724",
"#0.	c #BF0524",
"$0.	c #C30323",
"%0.	c #C70723",
"&0.	c #C70C21",
"*0.	c #65030C",
"=0.	c #472025",
"-0.	c #692D35",
";0.	c #63282B",
">0.	c #341111",
",0.	c #59272B",
"'0.	c #652D31",
")0.	c #632C30",
"!0.	c #5F2B2F",
"~0.	c #55272A",
"{0.	c #472123",
"]0.	c #2F1315",
"^0.	c #A8A8A0",
"/0.	c #DEE7D8",
"(0.	c #D9E5D2",
"_0.	c #DFE3D1",
":0.	c #E3E5CF",
"<0.	c #E5E7D2",
"[0.	c #C5C7B3",
"}0.	c #6D413C",
"|0.	c #AA152A",
"10.	c #C3152C",
"20.	c #C4152F",
"30.	c #A4061E",
"40.	c #A40020",
"50.	c #AE0121",
"60.	c #C00F2A",
"70.	c #B2041E",
"80.	c #C40C27",
"90.	c #C91129",
"00.	c #CC1127",
"a0.	c #CF142B",
"b0.	c #CD122B",
"c0.	c #C20F29",
"d0.	c #D83E44",
"e0.	c #F36B60",
"f0.	c #F4785F",
"g0.	c #F68C64",
"h0.	c #F68561",
"i0.	c #F2835C",
"j0.	c #F0865D",
"k0.	c #F28A61",
"l0.	c #F8946A",
"m0.	c #F69669",
"n0.	c #F89A69",
"o0.	c #F68E64",
"p0.	c #F39063",
"q0.	c #D17A68",
"r0.	c #4E4586",
"s0.	c #2E48A2",
"t0.	c #334AA2",
"u0.	c #394CA3",
"v0.	c #384FA5",
"w0.	c #3652A7",
"x0.	c #294DA3",
"y0.	c #244FA4",
"z0.	c #2452A7",
"A0.	c #2250A5",
"B0.	c #2253A6",
"C0.	c #2556AB",
"D0.	c #1F58AE",
"E0.	c #1A51AB",
"F0.	c #2857B0",
"G0.	c #2B4EA7",
"H0.	c #494F9D",
"I0.	c #C07984",
"J0.	c #F48A6C",
"K0.	c #F88A68",
"L0.	c #F28869",
"M0.	c #F58D6B",
"N0.	c #F5936D",
"O0.	c #F6936F",
"P0.	c #F48E68",
"Q0.	c #F38562",
"R0.	c #F17F5C",
"S0.	c #F37E5E",
"T0.	c #F68062",
"U0.	c #F67E61",
"V0.	c #F67A60",
"W0.	c #F06D57",
"X0.	c #EB604C",
"Y0.	c #EC624D",
"Z0.	c #EF7057",
"`0.	c #F37E62",
" a.	c #F07E5E",
".a.	c #F26C52",
"+a.	c #ED5C49",
"@a.	c #EB5747",
"#a.	c #ED5E4D",
"$a.	c #F6A468",
"%a.	c #EF724F",
"&a.	c #F46B4F",
"*a.	c #EF6C4F",
"=a.	c #FD8A65",
"-a.	c #F98C62",
";a.	c #F98A63",
">a.	c #F47D5B",
",a.	c #EE604E",
"'a.	c #EF594A",
")a.	c #F05649",
"!a.	c #EF4F44",
"~a.	c #EF4843",
"{a.	c #EA3F3D",
"]a.	c #E53334",
"^a.	c #E53238",
"/a.	c #E32E37",
"(a.	c #E22836",
"_a.	c #E72A34",
":a.	c #E82A35",
"<a.	c #E82936",
"[a.	c #E92B39",
"}a.	c #E12232",
"|a.	c #D7192A",
"1a.	c #D71C28",
"2a.	c #E03033",
"3a.	c #E84440",
"4a.	c #E9453B",
"5a.	c #EA3A3A",
"6a.	c #E32E33",
"7a.	c #E22A33",
"8a.	c #DC2430",
"9a.	c #D81C2C",
"0a.	c #D5152C",
"aa.	c #CF0F27",
"ba.	c #CE0E27",
"ca.	c #C90A26",
"da.	c #D5162D",
"ea.	c #D1152B",
"fa.	c #C80C22",
"ga.	c #C2041E",
"ha.	c #B00121",
"ia.	c #AB0526",
"ja.	c #A40626",
"ka.	c #A60324",
"la.	c #B80726",
"ma.	c #BE0629",
"na.	c #C50426",
"oa.	c #C60626",
"pa.	c #C50924",
"qa.	c #C90922",
"ra.	c #CF0B21",
"sa.	c #D40C24",
"ta.	c #B10C1E",
"ua.	c #420407",
"va.	c #472223",
"wa.	c #672E32",
"xa.	c #672C2D",
"ya.	c #5A2B2B",
"za.	c #612E2F",
"Aa.	c #652B2F",
"Ba.	c #672D2F",
"Ca.	c #652B2E",
"Da.	c #63292C",
"Ea.	c #612A2B",
"Fa.	c #462927",
"Ga.	c #C3C7BF",
"Ha.	c #DFE7D6",
"Ia.	c #DAE1CD",
"Ja.	c #DFE1CF",
"Ka.	c #E0E1CF",
"La.	c #E2E6D2",
"Ma.	c #E3E6D1",
"Na.	c #8E7F76",
"Oa.	c #8F1223",
"Pa.	c #C4132E",
"Qa.	c #C5142F",
"Ra.	c #A50520",
"Sa.	c #9F0022",
"Ta.	c #AD0123",
"Ua.	c #BE0828",
"Va.	c #BE112A",
"Wa.	c #B1031F",
"Xa.	c #B80423",
"Ya.	c #BE0723",
"Za.	c #C71027",
"`a.	c #C90F24",
" b.	c #CC1227",
".b.	c #BA041E",
"+b.	c #B60421",
"@b.	c #C4122D",
"#b.	c #DD4448",
"$b.	c #F26E5E",
"%b.	c #F1775E",
"&b.	c #EF7D5C",
"*b.	c #F1895B",
"=b.	c #F68F66",
"-b.	c #F78E66",
";b.	c #F3865B",
">b.	c #ED855C",
",b.	c #F08D61",
"'b.	c #F18C61",
")b.	c #F18860",
"!b.	c #FC9D72",
"~b.	c #FCA673",
"{b.	c #F59466",
"]b.	c #F68C66",
"^b.	c #F99067",
"/b.	c #F89167",
"(b.	c #F48E65",
"_b.	c #CC796C",
":b.	c #4D4884",
"<b.	c #304A9E",
"[b.	c #344AA0",
"}b.	c #394DA2",
"|b.	c #3750A5",
"1b.	c #3450A6",
"2b.	c #2A4EA4",
"3b.	c #2450A4",
"4b.	c #2553A7",
"5b.	c #2351A7",
"6b.	c #2250A7",
"7b.	c #214FA5",
"8b.	c #2150A4",
"9b.	c #2356AB",
"0b.	c #1C55AC",
"ab.	c #2853A9",
"bb.	c #2E52AB",
"cb.	c #454F9F",
"db.	c #BF7685",
"eb.	c #F28968",
"fb.	c #F28964",
"gb.	c #F5926B",
"hb.	c #F5926F",
"ib.	c #F5906A",
"jb.	c #F28260",
"kb.	c #F07357",
"lb.	c #F06754",
"mb.	c #EC5F4D",
"nb.	c #EC614E",
"ob.	c #F1745D",
"pb.	c #F98D69",
"qb.	c #F47154",
"rb.	c #F6A768",
"sb.	c #F3905E",
"tb.	c #F26F4E",
"ub.	c #F6694F",
"vb.	c #F36951",
"wb.	c #F07152",
"xb.	c #EF7854",
"yb.	c #F07C54",
"zb.	c #F37A57",
"Ab.	c #F57155",
"Bb.	c #F56C54",
"Cb.	c #EE4E43",
"Db.	c #EE4A43",
"Eb.	c #EB3E3D",
"Fb.	c #E83537",
"Gb.	c #E73438",
"Hb.	c #E12A37",
"Ib.	c #E52933",
"Jb.	c #E92A39",
"Kb.	c #E32433",
"Lb.	c #DC1D30",
"Mb.	c #E8393D",
"Nb.	c #EA4742",
"Ob.	c #E8463C",
"Pb.	c #F24B44",
"Qb.	c #E83638",
"Rb.	c #E53034",
"Sb.	c #E12932",
"Tb.	c #DA222E",
"Ub.	c #D21229",
"Vb.	c #BF0724",
"Wb.	c #C80C25",
"Xb.	c #D4162D",
"Yb.	c #C70B21",
"Zb.	c #B30223",
"`b.	c #A90325",
" c.	c #A40527",
".c.	c #A60325",
"+c.	c #B00723",
"@c.	c #AC0829",
"#c.	c #C3072C",
"$c.	c #CD0D26",
"%c.	c #CC0C22",
"&c.	c #D00D20",
"*c.	c #D40D25",
"=c.	c #910A16",
"-c.	c #401312",
";c.	c #4B2422",
">c.	c #672D2C",
",c.	c #692E2C",
"'c.	c #6A3231",
")c.	c #672E2E",
"!c.	c #682E2E",
"~c.	c #6C3030",
"{c.	c #69292A",
"]c.	c #682A29",
"^c.	c #54302D",
"/c.	c #C6C8C0",
"(c.	c #E0E3D5",
"_c.	c #DCDFCC",
":c.	c #E1E2CF",
"<c.	c #DDE0CE",
"[c.	c #DDE6D1",
"}c.	c #DCE9D2",
"|c.	c #B5B5A9",
"1c.	c #6E1E24",
"2c.	c #C0102E",
"3c.	c #C7112E",
"4c.	c #A80420",
"5c.	c #A00023",
"6c.	c #AB0124",
"7c.	c #B50326",
"8c.	c #B50622",
"9c.	c #C10A25",
"0c.	c #C71028",
"ac.	c #C60F25",
"bc.	c #C80F22",
"cc.	c #CD1427",
"dc.	c #CD1429",
"ec.	c #B60422",
"fc.	c #BB0926",
"gc.	c #C10E2B",
"hc.	c #C4132D",
"ic.	c #DF474A",
"jc.	c #F37960",
"kc.	c #F48C64",
"lc.	c #F59066",
"mc.	c #F89368",
"nc.	c #F0845C",
"oc.	c #F79569",
"pc.	c #EE895F",
"qc.	c #EC9264",
"rc.	c #F49564",
"sc.	c #F8926A",
"tc.	c #F78C67",
"uc.	c #F98F67",
"vc.	c #F89067",
"wc.	c #F38C62",
"xc.	c #CC7B70",
"yc.	c #4E4985",
"zc.	c #334FA3",
"Ac.	c #354CA2",
"Bc.	c #374EA1",
"Cc.	c #3751A6",
"Dc.	c #3550A6",
"Ec.	c #2E52A8",
"Fc.	c #2650A5",
"Gc.	c #2753A8",
"Hc.	c #204EA5",
"Ic.	c #1E4DA1",
"Jc.	c #214FA4",
"Kc.	c #1E56AE",
"Lc.	c #2458AC",
"Mc.	c #2258AD",
"Nc.	c #2358AD",
"Oc.	c #2858AE",
"Pc.	c #2552B0",
"Qc.	c #2F52AC",
"Rc.	c #404C9E",
"Sc.	c #BD7585",
"Tc.	c #F38B68",
"Uc.	c #F2916A",
"Vc.	c #F4966F",
"Wc.	c #FA946F",
"Xc.	c #F78664",
"Yc.	c #EE5E4D",
"Zc.	c #F6765F",
"`c.	c #F78A68",
" d.	c #FC926D",
".d.	c #F47356",
"+d.	c #F0644F",
"@d.	c #EE6550",
"#d.	c #F8A76B",
"$d.	c #ED8354",
"%d.	c #F56E4E",
"&d.	c #F5674F",
"*d.	c #ED7954",
"=d.	c #EB7650",
"-d.	c #F37153",
";d.	c #F86B55",
">d.	c #F56854",
",d.	c #EE4C42",
"'d.	c #ED433F",
")d.	c #EB373A",
"!d.	c #E12D35",
"~d.	c #E42D3A",
"{d.	c #E32731",
"]d.	c #E72736",
"^d.	c #E22231",
"/d.	c #DF1E32",
"(d.	c #DD2133",
"_d.	c #EB3B3E",
":d.	c #EB493F",
"<d.	c #E93F3B",
"[d.	c #E73938",
"}d.	c #E63236",
"|d.	c #E22B34",
"1d.	c #DB232F",
"2d.	c #D61A2A",
"3d.	c #CE0F28",
"4d.	c #C20926",
"5d.	c #C60C25",
"6d.	c #D3162D",
"7d.	c #CD1227",
"8d.	c #C90D24",
"9d.	c #C10320",
"0d.	c #AA0628",
"ad.	c #A80628",
"bd.	c #AA0226",
"cd.	c #B60428",
"dd.	c #A9031E",
"ed.	c #720514",
"fd.	c #B60A2A",
"gd.	c #C70724",
"hd.	c #CE0C21",
"id.	c #CF0E26",
"jd.	c #710810",
"kd.	c #532223",
"ld.	c #5F2929",
"md.	c #6A2F2B",
"nd.	c #682D29",
"od.	c #703030",
"pd.	c #6D2D2D",
"qd.	c #6A2C2A",
"rd.	c #682E29",
"sd.	c #52312B",
"td.	c #C4C4BE",
"ud.	c #DFE0D2",
"vd.	c #DEDECB",
"wd.	c #DFE0CE",
"xd.	c #DCE1D0",
"yd.	c #DFE6D4",
"zd.	c #D9E9D2",
"Ad.	c #CDD2C4",
"Bd.	c #5D3232",
"Cd.	c #B8102D",
"Dd.	c #AA0326",
"Ed.	c #B50529",
"Fd.	c #B80526",
"Gd.	c #B20420",
"Hd.	c #B90523",
"Id.	c #C20B25",
"Jd.	c #C81028",
"Kd.	c #C71024",
"Ld.	c #CA1123",
"Md.	c #D01829",
"Nd.	c #CF172B",
"Od.	c #BD0822",
"Pd.	c #B50423",
"Qd.	c #BA0926",
"Rd.	c #C00D2B",
"Sd.	c #C3142C",
"Td.	c #E04A4D",
"Ud.	c #F06E5D",
"Vd.	c #F27860",
"Wd.	c #EE875D",
"Xd.	c #F0855D",
"Yd.	c #F69066",
"Zd.	c #F7966A",
"`d.	c #F89469",
" e.	c #F08F61",
".e.	c #EF8B61",
"+e.	c #F99A6B",
"@e.	c #F68D65",
"#e.	c #F68965",
"$e.	c #F08762",
"%e.	c #CD7E72",
"&e.	c #504A87",
"*e.	c #3852A7",
"=e.	c #374EA4",
"-e.	c #3650A3",
";e.	c #3054A9",
">e.	c #2850A5",
",e.	c #2853A8",
"'e.	c #2451A7",
")e.	c #2652A9",
"!e.	c #1F4CA0",
"~e.	c #1F4DA2",
"{e.	c #2558AC",
"]e.	c #2258AC",
"^e.	c #2358AC",
"/e.	c #1D57AA",
"(e.	c #2651AB",
"_e.	c #2C57AC",
":e.	c #3154AD",
"<e.	c #404D9F",
"[e.	c #B87283",
"}e.	c #F58A62",
"|e.	c #F4966D",
"1e.	c #F4966E",
"2e.	c #F99C73",
"3e.	c #F9946E",
"4e.	c #F58564",
"5e.	c #F5735B",
"6e.	c #ED614D",
"7e.	c #F46253",
"8e.	c #F2715B",
"9e.	c #F28564",
"0e.	c #F38865",
"ae.	c #F37455",
"be.	c #ED6650",
"ce.	c #FBA16E",
"de.	c #EB784F",
"ee.	c #F56C4F",
"fe.	c #F2674D",
"ge.	c #F06B4E",
"he.	c #EE7653",
"ie.	c #F3895F",
"je.	c #EB7C54",
"ke.	c #F26F52",
"le.	c #F66A56",
"me.	c #F06350",
"ne.	c #ED5E4A",
"oe.	c #ED5044",
"pe.	c #ED3E3E",
"qe.	c #E93538",
"re.	c #E12C35",
"se.	c #E62C3A",
"te.	c #E32631",
"ue.	c #E92B36",
"ve.	c #DE1E2E",
"we.	c #DB1A2C",
"xe.	c #DD222F",
"ye.	c #ED3D41",
"ze.	c #ED4C46",
"Ae.	c #E6443B",
"Be.	c #EC4842",
"Ce.	c #EB3E3C",
"De.	c #E93839",
"Ee.	c #E63136",
"Fe.	c #E22B33",
"Ge.	c #DC2531",
"He.	c #D61D2A",
"Ie.	c #D21227",
"Je.	c #D3122A",
"Ke.	c #D3182E",
"Le.	c #CE1428",
"Me.	c #CB1027",
"Ne.	c #C30422",
"Oe.	c #BC0425",
"Pe.	c #AE0425",
"Qe.	c #A80929",
"Re.	c #A40727",
"Se.	c #A60526",
"Te.	c #B0052A",
"Ue.	c #A8082B",
"Ve.	c #450107",
"We.	c #91071F",
"Xe.	c #C80824",
"Ye.	c #CE0C25",
"Ze.	c #C60C28",
"`e.	c #5C0C11",
" f.	c #622E2E",
".f.	c #6A2E2E",
"+f.	c #6E322E",
"@f.	c #6B2F2C",
"#f.	c #682B2C",
"$f.	c #6B2E2F",
"%f.	c #6F3031",
"&f.	c #6E2F2F",
"*f.	c #6C2E2D",
"=f.	c #692F2B",
"-f.	c #53332E",
";f.	c #C6C9C1",
">f.	c #E1DCCA",
",f.	c #DDD2C2",
"'f.	c #D9CDC2",
")f.	c #E2DDCF",
"!f.	c #DDE6D2",
"~f.	c #D9DACF",
"{f.	c #644443",
"]f.	c #AE132A",
"^f.	c #C00F2C",
"/f.	c #A5031F",
"(f.	c #9D0224",
"_f.	c #A00024",
":f.	c #A80427",
"<f.	c #B20528",
"[f.	c #B2031F",
"}f.	c #C81128",
"|f.	c #C91225",
"1f.	c #CC1323",
"2f.	c #D11828",
"3f.	c #D0182A",
"4f.	c #B50424",
"5f.	c #BB0B29",
"6f.	c #C2152C",
"7f.	c #E55152",
"8f.	c #F16F5D",
"9f.	c #F2785F",
"0f.	c #F2875A",
"af.	c #F78C63",
"bf.	c #F69064",
"cf.	c #F59767",
"df.	c #F29060",
"ef.	c #FA966C",
"ff.	c #FB986E",
"gf.	c #FB986A",
"hf.	c #F68861",
"if.	c #F48362",
"jf.	c #F88E64",
"kf.	c #F18863",
"lf.	c #D08175",
"mf.	c #544B89",
"nf.	c #3A51A7",
"of.	c #364EA4",
"pf.	c #3351A2",
"qf.	c #344FA3",
"rf.	c #2D52A6",
"sf.	c #2950A5",
"tf.	c #2953A8",
"uf.	c #214EA5",
"vf.	c #1F4DA0",
"wf.	c #204DA2",
"xf.	c #214EA3",
"yf.	c #1F57B0",
"zf.	c #255AB0",
"Af.	c #2359AC",
"Bf.	c #2555A7",
"Cf.	c #1C56A9",
"Df.	c #4150A2",
"Ef.	c #B26D82",
"Ff.	c #F2896B",
"Gf.	c #FA9E75",
"Hf.	c #F49870",
"If.	c #F89570",
"Jf.	c #F68967",
"Kf.	c #EC7A59",
"Lf.	c #EF7C5D",
"Mf.	c #F0765A",
"Nf.	c #F2735B",
"Of.	c #F16050",
"Pf.	c #F46454",
"Qf.	c #F1725C",
"Rf.	c #F58265",
"Sf.	c #F48867",
"Tf.	c #F38D67",
"Uf.	c #F27253",
"Vf.	c #EE634C",
"Wf.	c #ED634D",
"Xf.	c #EE7150",
"Yf.	c #F56C51",
"Zf.	c #F16D50",
"`f.	c #F4865C",
" g.	c #F79264",
".g.	c #F0634F",
"+g.	c #EF5E4C",
"@g.	c #F05849",
"#g.	c #EE413E",
"$g.	c #EB3739",
"%g.	c #E83336",
"&g.	c #E62F34",
"*g.	c #E52C37",
"=g.	c #E42935",
"-g.	c #E62733",
";g.	c #E1202F",
">g.	c #DF242E",
",g.	c #EE3E40",
"'g.	c #F04D47",
")g.	c #EB4C42",
"!g.	c #EA483F",
"~g.	c #E7443C",
"{g.	c #F04944",
"]g.	c #F04240",
"^g.	c #E42F34",
"/g.	c #DF2732",
"(g.	c #DF2633",
"_g.	c #D81E2C",
":g.	c #D81C2D",
"<g.	c #D41329",
"[g.	c #CF1125",
"}g.	c #C90E25",
"|g.	c #D4172E",
"1g.	c #CF1428",
"2g.	c #CA0F24",
"3g.	c #BA0224",
"4g.	c #A90B27",
"5g.	c #940D26",
"6g.	c #80051B",
"7g.	c #82051B",
"8g.	c #87051F",
"9g.	c #8D0B29",
"0g.	c #390209",
"ag.	c #63030E",
"bg.	c #D2122B",
"cg.	c #B50C27",
"dg.	c #561619",
"eg.	c #662E2F",
"fg.	c #6C302C",
"gg.	c #6A2E2B",
"hg.	c #6A2C2C",
"ig.	c #6B2E30",
"jg.	c #6E3131",
"kg.	c #6E2F30",
"lg.	c #703031",
"mg.	c #682B28",
"ng.	c #543A35",
"og.	c #D0D3C9",
"pg.	c #DAC5B7",
"qg.	c #B27975",
"rg.	c #A86869",
"sg.	c #D1ACA7",
"tg.	c #E1DDCE",
"ug.	c #B1A9A1",
"vg.	c #582F2F",
"wg.	c #A80F26",
"xg.	c #BE0F2A",
"yg.	c #A1041E",
"zg.	c #9C0123",
"Ag.	c #9F0023",
"Bg.	c #A70325",
"Cg.	c #AF0426",
"Dg.	c #B60526",
"Eg.	c #B10220",
"Fg.	c #C81027",
"Gg.	c #CA1127",
"Hg.	c #CD1426",
"Ig.	c #D01728",
"Jg.	c #CD1529",
"Kg.	c #BB0E2A",
"Lg.	c #BE0F2C",
"Mg.	c #C2192D",
"Ng.	c #E55351",
"Og.	c #F2735E",
"Pg.	c #F1875C",
"Qg.	c #F49665",
"Rg.	c #F39463",
"Sg.	c #F79267",
"Tg.	c #F58F62",
"Ug.	c #F08961",
"Vg.	c #F59266",
"Wg.	c #F4845F",
"Xg.	c #F18260",
"Yg.	c #EF8963",
"Zg.	c #CF8177",
"`g.	c #564C8B",
" h.	c #354FA5",
".h.	c #3451A4",
"+h.	c #3350A6",
"@h.	c #334FA6",
"#h.	c #2C4FA5",
"$h.	c #2951A6",
"%h.	c #2851A8",
"&h.	c #2751AA",
"*h.	c #224CA4",
"=h.	c #234EA3",
"-h.	c #234FA5",
";h.	c #2350A6",
">h.	c #2457AC",
",h.	c #2456A9",
"'h.	c #2559AA",
")h.	c #2557A9",
"!h.	c #2554A8",
"~h.	c #1E53AA",
"{h.	c #2758AD",
"]h.	c #2B57AF",
"^h.	c #3054AC",
"/h.	c #434FA2",
"(h.	c #AD6A80",
"_h.	c #EF8A6C",
":h.	c #F08E65",
"<h.	c #F08E66",
"[h.	c #EF9069",
"}h.	c #F79772",
"|h.	c #F48B68",
"1h.	c #F38461",
"2h.	c #F68362",
"3h.	c #F37D60",
"4h.	c #F2795F",
"5h.	c #F0725B",
"6h.	c #F16854",
"7h.	c #F16151",
"8h.	c #F36857",
"9h.	c #F37861",
"0h.	c #F48466",
"ah.	c #FB9070",
"bh.	c #F88E6D",
"ch.	c #F6916C",
"dh.	c #F69168",
"eh.	c #F17154",
"fh.	c #F06E50",
"gh.	c #F46C52",
"hh.	c #F0694F",
"ih.	c #FA855F",
"jh.	c #F99364",
"kh.	c #FC9969",
"lh.	c #F18059",
"mh.	c #F36551",
"nh.	c #F0604E",
"oh.	c #F05A49",
"ph.	c #EE3B3B",
"qh.	c #E92F39",
"rh.	c #E62B36",
"sh.	c #E62A33",
"th.	c #E52A33",
"uh.	c #E42632",
"vh.	c #E2212E",
"wh.	c #DE1C2C",
"xh.	c #E22932",
"yh.	c #EA3C3E",
"zh.	c #E94C41",
"Ah.	c #E9483D",
"Bh.	c #ED4A43",
"Ch.	c #EE4943",
"Dh.	c #F1433F",
"Eh.	c #E02933",
"Fh.	c #DF2631",
"Gh.	c #D91E2E",
"Hh.	c #D61C2C",
"Ih.	c #D5162A",
"Jh.	c #D01325",
"Kh.	c #CA0F25",
"Lh.	c #C60B23",
"Mh.	c #C40A24",
"Nh.	c #D01228",
"Oh.	c #C60D22",
"Ph.	c #AF0321",
"Qh.	c #900820",
"Rh.	c #5F0914",
"Sh.	c #4F1719",
"Th.	c #50151A",
"Uh.	c #500F14",
"Vh.	c #4E0910",
"Wh.	c #220204",
"Xh.	c #3D0204",
"Yh.	c #AE0A21",
"Zh.	c #C80B22",
"`h.	c #980C1F",
" i.	c #581E1F",
".i.	c #692F2F",
"+i.	c #692B2B",
"@i.	c #692C29",
"#i.	c #692D2A",
"$i.	c #6C2E2E",
"%i.	c #6A2D2E",
"&i.	c #6F2F30",
"*i.	c #6E2E2F",
"=i.	c #6D2F2F",
"-i.	c #682E2A",
";i.	c #56443C",
">i.	c #D6D8CB",
",i.	c #E1D8CC",
"'i.	c #BE7C77",
")i.	c #A51921",
"!i.	c #A40C19",
"~i.	c #AA5254",
"{i.	c #DCBDB5",
"]i.	c #897F75",
"^i.	c #5E1E23",
"/i.	c #AD1029",
"(i.	c #BE0D29",
"_i.	c #A1041F",
":i.	c #9C0124",
"<i.	c #9E0123",
"[i.	c #A60121",
"}i.	c #B50627",
"|i.	c #AD011E",
"1i.	c #B80521",
"2i.	c #BE0721",
"3i.	c #CC1229",
"4i.	c #CF152A",
"5i.	c #CF162B",
"6i.	c #BD0923",
"7i.	c #B70524",
"8i.	c #B80E2A",
"9i.	c #BE112D",
"0i.	c #C2192E",
"ai.	c #E65753",
"bi.	c #F2745F",
"ci.	c #F57E61",
"di.	c #F2805D",
"ei.	c #F58E60",
"fi.	c #F48A5F",
"gi.	c #F2875F",
"hi.	c #F29261",
"ii.	c #F49362",
"ji.	c #FA946A",
"ki.	c #F0805D",
"li.	c #EF7F5C",
"mi.	c #F79163",
"ni.	c #EE825C",
"oi.	c #F28A62",
"pi.	c #EE7E59",
"qi.	c #CA7E74",
"ri.	c #554D8D",
"si.	c #3752A7",
"ti.	c #3754AA",
"ui.	c #3452A8",
"vi.	c #2852A9",
"wi.	c #264FA9",
"xi.	c #234CA4",
"yi.	c #2450A7",
"zi.	c #2358AE",
"Ai.	c #2457AD",
"Bi.	c #2557AD",
"Ci.	c #255AAD",
"Di.	c #2658AA",
"Ei.	c #2658A9",
"Fi.	c #1E56A9",
"Gi.	c #2D52AA",
"Hi.	c #2D52A8",
"Ii.	c #424EA0",
"Ji.	c #A86680",
"Ki.	c #F18D6F",
"Li.	c #EE865D",
"Mi.	c #EE9066",
"Ni.	c #FA9D74",
"Oi.	c #F48C67",
"Pi.	c #F48462",
"Qi.	c #F58361",
"Ri.	c #F17D5E",
"Si.	c #EE775B",
"Ti.	c #F47B62",
"Ui.	c #EF6753",
"Vi.	c #F16A56",
"Wi.	c #F37A62",
"Xi.	c #ED7F60",
"Yi.	c #F78E6E",
"Zi.	c #F98F6F",
"`i.	c #F27155",
" j.	c #ED644D",
".j.	c #F06451",
"+j.	c #F4815A",
"@j.	c #F06E52",
"#j.	c #F46C53",
"$j.	c #F16B50",
"%j.	c #F8835B",
"&j.	c #F18256",
"*j.	c #EE8556",
"=j.	c #F99867",
"-j.	c #F17153",
";j.	c #EF664E",
">j.	c #EC604A",
",j.	c #F05B4A",
"'j.	c #EF5548",
")j.	c #F04F45",
"!j.	c #EF4A42",
"~j.	c #EF3D3D",
"{j.	c #EA3539",
"]j.	c #E83237",
"^j.	c #EB313C",
"/j.	c #E32531",
"(j.	c #E3212E",
"_j.	c #E01E2D",
":j.	c #D71D29",
"<j.	c #E33036",
"[j.	c #E63B3B",
"}j.	c #EA4740",
"|j.	c #EA4C40",
"1j.	c #EB4B40",
"2j.	c #E53135",
"3j.	c #DC242F",
"4j.	c #DA202E",
"5j.	c #D21125",
"6j.	c #C90F23",
"7j.	c #C30924",
"8j.	c #D3162E",
"9j.	c #CF1227",
"0j.	c #C80F24",
"aj.	c #C70826",
"bj.	c #9A031B",
"cj.	c #470105",
"dj.	c #3E1214",
"ej.	c #5B3032",
"fj.	c #653136",
"gj.	c #652C31",
"hj.	c #582A2B",
"ij.	c #321819",
"jj.	c #2B0E0A",
"kj.	c #7E091A",
"lj.	c #BF0C24",
"mj.	c #C90B20",
"nj.	c #D21727",
"oj.	c #C91226",
"pj.	c #7C0817",
"qj.	c #5C2826",
"rj.	c #6B2F2E",
"sj.	c #6B2C2C",
"tj.	c #682B2A",
"uj.	c #6E3030",
"vj.	c #68302C",
"wj.	c #5D524A",
"xj.	c #D9DBCE",
"yj.	c #DBC1B7",
"zj.	c #AF3C3C",
"Aj.	c #C3020B",
"Bj.	c #C4010B",
"Cj.	c #A6171F",
"Dj.	c #BF8A8A",
"Ej.	c #B8A9A2",
"Fj.	c #5A2527",
"Gj.	c #B2152D",
"Hj.	c #A1031E",
"Ij.	c #9C0224",
"Jj.	c #9E0223",
"Kj.	c #A50021",
"Lj.	c #B10525",
"Mj.	c #A6031E",
"Nj.	c #A9011D",
"Oj.	c #B90723",
"Pj.	c #D0162A",
"Qj.	c #D0172C",
"Rj.	c #BE0A23",
"Sj.	c #BF122E",
"Tj.	c #C31B2E",
"Uj.	c #E85A55",
"Vj.	c #F1755D",
"Wj.	c #F18B5D",
"Xj.	c #F68E62",
"Yj.	c #F58E65",
"Zj.	c #F99168",
"`j.	c #F68F62",
" k.	c #F49060",
".k.	c #F99565",
"+k.	c #F78E65",
"@k.	c #F38561",
"#k.	c #F28B61",
"$k.	c #F48F65",
"%k.	c #F58E64",
"&k.	c #F6926A",
"*k.	c #C57971",
"=k.	c #534B8D",
"-k.	c #3950A8",
";k.	c #3853A8",
">k.	c #3856AC",
",k.	c #2F51A6",
"'k.	c #264FA8",
")k.	c #264FA6",
"!k.	c #2853AA",
"~k.	c #2255A8",
"{k.	c #1F56AA",
"]k.	c #2358AB",
"^k.	c #2556A8",
"/k.	c #2A5AAD",
"(k.	c #2057AA",
"_k.	c #1E56A7",
":k.	c #1F56A9",
"<k.	c #194FA6",
"[k.	c #2D52A4",
"}k.	c #3D4D9F",
"|k.	c #A46380",
"1k.	c #F18C6F",
"2k.	c #F88E68",
"3k.	c #F6A274",
"4k.	c #F9A77B",
"5k.	c #F59A71",
"6k.	c #F38C67",
"7k.	c #F17B5E",
"8k.	c #F27A60",
"9k.	c #EF725B",
"0k.	c #E8634E",
"ak.	c #EE6350",
"bk.	c #EF6B55",
"ck.	c #F68A6B",
"dk.	c #F38C6B",
"ek.	c #F6906E",
"fk.	c #F4946D",
"gk.	c #F6936A",
"hk.	c #ED7C57",
"ik.	c #F07054",
"jk.	c #EF6750",
"kk.	c #F56754",
"lk.	c #F46956",
"mk.	c #EF7955",
"nk.	c #F26E54",
"ok.	c #F17755",
"pk.	c #F4885A",
"qk.	c #FA996A",
"rk.	c #F27655",
"sk.	c #EE6B4E",
"tk.	c #ED644C",
"uk.	c #F15348",
"vk.	c #EA3338",
"wk.	c #EC323D",
"xk.	c #E72C37",
"yk.	c #E21F2B",
"zk.	c #E11F2C",
"Ak.	c #D81F2A",
"Bk.	c #E63539",
"Ck.	c #EE4241",
"Dk.	c #EF4C44",
"Ek.	c #EE5345",
"Fk.	c #EC5042",
"Gk.	c #EF5245",
"Hk.	c #EB423B",
"Ik.	c #E63A35",
"Jk.	c #E32F34",
"Kk.	c #DC252E",
"Lk.	c #DA202F",
"Mk.	c #D71D2C",
"Nk.	c #D61C2A",
"Ok.	c #D31628",
"Pk.	c #CC1327",
"Qk.	c #C70B25",
"Rk.	c #C20625",
"Sk.	c #C30925",
"Tk.	c #D2152C",
"Uk.	c #CE1125",
"Vk.	c #A50421",
"Wk.	c #6B071A",
"Xk.	c #470713",
"Yk.	c #370D12",
"Zk.	c #4D2124",
"`k.	c #6E2F34",
" l.	c #603234",
".l.	c #492C28",
"+l.	c #500A0F",
"@l.	c #B00E24",
"#l.	c #D2152B",
"$l.	c #C21227",
"%l.	c #660914",
"&l.	c #6D2D30",
"*l.	c #6C2C2F",
"=l.	c #692C2D",
"-l.	c #6A2F2E",
";l.	c #6E3031",
">l.	c #6D2D2E",
",l.	c #6D2F30",
"'l.	c #622E2A",
")l.	c #6D6B5F",
"!l.	c #DDDCCE",
"~l.	c #CA9C95",
"{l.	c #AC1C1E",
"]l.	c #C70206",
"^l.	c #C10108",
"/l.	c #8B140A",
"(l.	c #987068",
"_l.	c #D0C3BD",
":l.	c #583837",
"<l.	c #AB152C",
"[l.	c #A30520",
"}l.	c #9B0225",
"|l.	c #B00525",
"1l.	c #A5021C",
"2l.	c #A7021C",
"3l.	c #B90A25",
"4l.	c #C20C25",
"5l.	c #CA1129",
"6l.	c #CD1327",
"7l.	c #D01828",
"8l.	c #C0132E",
"9l.	c #C61F31",
"0l.	c #EC605B",
"al.	c #EF745B",
"bl.	c #F2885E",
"cl.	c #F48B5D",
"dl.	c #F89263",
"el.	c #F17C5D",
"fl.	c #F1815F",
"gl.	c #F79166",
"hl.	c #F38F64",
"il.	c #F79066",
"jl.	c #F68161",
"kl.	c #C3766E",
"ll.	c #524A8E",
"ml.	c #384FA8",
"nl.	c #3752A8",
"ol.	c #3654AA",
"pl.	c #3052A8",
"ql.	c #2D54AA",
"rl.	c #2952AA",
"sl.	c #2951A9",
"tl.	c #2951A8",
"ul.	c #284FAA",
"vl.	c #2954AB",
"wl.	c #2552A9",
"xl.	c #2858AB",
"yl.	c #1F56A8",
"zl.	c #2158AC",
"Al.	c #2E54A8",
"Bl.	c #2E53A2",
"Cl.	c #3A4E9D",
"Dl.	c #A06180",
"El.	c #EF896D",
"Fl.	c #ED805A",
"Gl.	c #ED845D",
"Hl.	c #FBA175",
"Il.	c #F59C70",
"Jl.	c #F3936A",
"Kl.	c #F48C66",
"Ll.	c #EE715A",
"Ml.	c #E96651",
"Nl.	c #ED6D53",
"Ol.	c #F38263",
"Pl.	c #FA8F6F",
"Ql.	c #F28E6C",
"Rl.	c #F59270",
"Sl.	c #F79972",
"Tl.	c #F8976E",
"Ul.	c #F27055",
"Vl.	c #F46C54",
"Wl.	c #F36955",
"Xl.	c #EF7753",
"Yl.	c #F36F56",
"Zl.	c #F57D5A",
"`l.	c #F78A5E",
" m.	c #F2895A",
".m.	c #EF8C5B",
"+m.	c #FAA46E",
"@m.	c #F08A5C",
"#m.	c #F07452",
"$m.	c #F57656",
"%m.	c #F1614F",
"&m.	c #F05247",
"*m.	c #ED4A41",
"=m.	c #EC3939",
"-m.	c #EB363A",
";m.	c #EA3237",
">m.	c #E72E38",
",m.	c #E82C35",
"'m.	c #E42631",
")m.	c #DF1E2A",
"!m.	c #DA232C",
"~m.	c #E8373A",
"{m.	c #EF4341",
"]m.	c #F45147",
"^m.	c #ED5344",
"/m.	c #EB5343",
"(m.	c #ED453E",
"_m.	c #E63535",
":m.	c #E43034",
"<m.	c #DE2332",
"[m.	c #D81D2D",
"}m.	c #D51A27",
"|m.	c #D11424",
"1m.	c #D11224",
"2m.	c #D01427",
"3m.	c #C80C26",
"4m.	c #CA0C25",
"5m.	c #C70927",
"6m.	c #B4082A",
"7m.	c #890C28",
"8m.	c #520716",
"9m.	c #32090D",
"0m.	c #4B1F20",
"am.	c #6C3234",
"bm.	c #5D3130",
"cm.	c #451012",
"dm.	c #A10D22",
"em.	c #CB142E",
"fm.	c #A40D21",
"gm.	c #500D12",
"hm.	c #632E33",
"im.	c #6F2D34",
"jm.	c #6E2F33",
"km.	c #6A3031",
"lm.	c #692C2E",
"mm.	c #6E2E30",
"nm.	c #6C2F2F",
"om.	c #5A2C27",
"pm.	c #84887D",
"qm.	c #DEDECF",
"rm.	c #B67C77",
"sm.	c #B60D12",
"tm.	c #CE0109",
"um.	c #AB060A",
"vm.	c #AD804E",
"wm.	c #998559",
"xm.	c #C9C6BB",
"ym.	c #68554F",
"zm.	c #A11226",
"Am.	c #C51430",
"Bm.	c #9E061F",
"Cm.	c #980123",
"Dm.	c #B00323",
"Em.	c #A7011D",
"Fm.	c #A8041E",
"Gm.	c #B80A25",
"Hm.	c #BF0922",
"Im.	c #C60E26",
"Jm.	c #D0162D",
"Km.	c #CD1328",
"Lm.	c #B60524",
"Mm.	c #B90E2A",
"Nm.	c #C2142F",
"Om.	c #C72031",
"Pm.	c #EC605A",
"Qm.	c #EF7459",
"Rm.	c #F27B5A",
"Sm.	c #F48A61",
"Tm.	c #F2845A",
"Um.	c #F2865A",
"Vm.	c #F38B5D",
"Wm.	c #EE845B",
"Xm.	c #C77971",
"Ym.	c #52498E",
"Zm.	c #394FA9",
"`m.	c #3852A8",
" n.	c #3252A8",
".n.	c #3055AB",
"+n.	c #2257AE",
"@n.	c #2657AA",
"#n.	c #2355A6",
"$n.	c #2857AB",
"%n.	c #2058AA",
"&n.	c #2259AF",
"*n.	c #2257B0",
"=n.	c #2F55A7",
"-n.	c #2F54A3",
";n.	c #3A509F",
">n.	c #9E607D",
",n.	c #EC856A",
"'n.	c #F28C66",
")n.	c #EF9368",
"!n.	c #F58F67",
"~n.	c #F48B65",
"{n.	c #F38A66",
"]n.	c #F58866",
"^n.	c #F27B5F",
"/n.	c #F57D63",
"(n.	c #F2765E",
"_n.	c #F16F59",
":n.	c #EF6952",
"<n.	c #EC6F53",
"[n.	c #F68C6C",
"}n.	c #F18E6C",
"|n.	c #F69971",
"1n.	c #F99A6F",
"2n.	c #F17055",
"3n.	c #EC654D",
"4n.	c #EE624E",
"5n.	c #F07352",
"6n.	c #F77757",
"7n.	c #F7865D",
"8n.	c #F78E5F",
"9n.	c #EA8252",
"0n.	c #EB8D5B",
"an.	c #F9A872",
"bn.	c #F67F58",
"cn.	c #F47756",
"dn.	c #EF5649",
"en.	c #F04B43",
"fn.	c #E93D37",
"gn.	c #E83635",
"hn.	c #EE383B",
"in.	c #E72E36",
"jn.	c #E72C35",
"kn.	c #E42731",
"ln.	c #DC1E2A",
"mn.	c #DA262F",
"nn.	c #EA3C3F",
"on.	c #F05043",
"pn.	c #EE5443",
"qn.	c #F05946",
"rn.	c #E63337",
"sn.	c #E12A31",
"tn.	c #DF2530",
"un.	c #D41827",
"vn.	c #CC1221",
"wn.	c #CC1125",
"xn.	c #C00524",
"yn.	c #C50B28",
"zn.	c #5F0715",
"An.	c #531A21",
"Bn.	c #5B2B30",
"Cn.	c #662F32",
"Dn.	c #682F2D",
"En.	c #6D2E2D",
"Fn.	c #6C3134",
"Gn.	c #633135",
"Hn.	c #471919",
"In.	c #970E21",
"Jn.	c #C91028",
"Kn.	c #BE1027",
"Ln.	c #9A1321",
"Mn.	c #6F2426",
"Nn.	c #401716",
"On.	c #672F32",
"Pn.	c #6C2F34",
"Qn.	c #6D3035",
"Rn.	c #692E32",
"Sn.	c #683033",
"Tn.	c #682E32",
"Un.	c #662C31",
"Vn.	c #692E31",
"Wn.	c #6B2F30",
"Xn.	c #692F2E",
"Yn.	c #513029",
"Zn.	c #A2A99E",
"`n.	c #DEDFCF",
" o.	c #AB645E",
".o.	c #C0060D",
"+o.	c #CD0109",
"@o.	c #9F2010",
"#o.	c #E1D070",
"$o.	c #C8C05C",
"%o.	c #C0BBB3",
"&o.	c #7B6E68",
"*o.	c #991226",
"=o.	c #B9122C",
"-o.	c #790311",
";o.	c #8C011C",
">o.	c #9E0222",
",o.	c #A4001F",
"'o.	c #AC0221",
")o.	c #B20424",
"!o.	c #A80220",
"~o.	c #B60A26",
"{o.	c #C10B23",
"]o.	c #C60E24",
"^o.	c #CF162C",
"/o.	c #D01627",
"(o.	c #BD0824",
"_o.	c #B50526",
":o.	c #BB0D2A",
"<o.	c #C92232",
"[o.	c #F0625B",
"}o.	c #F27B59",
"|o.	c #F2855D",
"1o.	c #F68D64",
"2o.	c #F28C5F",
"3o.	c #D0847B",
"4o.	c #574A8D",
"5o.	c #3A4EA8",
"6o.	c #3B51A9",
"7o.	c #3453A6",
"8o.	c #3252A7",
"9o.	c #3053AB",
"0o.	c #2458AB",
"ao.	c #2758A9",
"bo.	c #1F58A8",
"co.	c #2159AC",
"do.	c #2157B1",
"eo.	c #1B52A7",
"fo.	c #2C56B1",
"go.	c #2D56AD",
"ho.	c #3257AA",
"io.	c #3155A4",
"jo.	c #3B519E",
"ko.	c #9E6182",
"lo.	c #EB876B",
"mo.	c #F49369",
"no.	c #FAA176",
"oo.	c #F68664",
"po.	c #F27E64",
"qo.	c #F67C62",
"ro.	c #F27A61",
"so.	c #F47A63",
"to.	c #F87861",
"uo.	c #EF7757",
"vo.	c #F18C69",
"wo.	c #F08B66",
"xo.	c #F38F6A",
"yo.	c #F8956B",
"zo.	c #F07056",
"Ao.	c #EC654F",
"Bo.	c #EE6551",
"Co.	c #F36854",
"Do.	c #F98C61",
"Eo.	c #F59E6A",
"Fo.	c #FBB178",
"Go.	c #F6815B",
"Ho.	c #F58258",
"Io.	c #EE574A",
"Jo.	c #E83735",
"Ko.	c #ED383B",
"Lo.	c #E83136",
"Mo.	c #E62E36",
"No.	c #E82E36",
"Oo.	c #E32730",
"Po.	c #E2252F",
"Qo.	c #DB1E29",
"Ro.	c #DF3134",
"So.	c #F04B48",
"To.	c #EE5344",
"Uo.	c #ED5445",
"Vo.	c #E73A38",
"Wo.	c #E33335",
"Xo.	c #E02C32",
"Yo.	c #DF272F",
"Zo.	c #CF1524",
"`o.	c #CA0E25",
" p.	c #C20624",
".p.	c #D4192E",
"+p.	c #D4132A",
"@p.	c #C80F29",
"#p.	c #A50F22",
"$p.	c #5F0D14",
"%p.	c #5D272A",
"&p.	c #672E34",
"*p.	c #6A2E33",
"=p.	c #692D2B",
"-p.	c #7C4244",
";p.	c #723D42",
">p.	c #451E1F",
",p.	c #880E1E",
"'p.	c #BF142E",
")p.	c #7C1B1D",
"!p.	c #806E60",
"~p.	c #A1988A",
"{p.	c #3A2722",
"]p.	c #592C2A",
"^p.	c #5A2C29",
"/p.	c #592C29",
"(p.	c #4B2722",
"_p.	c #45231D",
":p.	c #44221C",
"<p.	c #43211B",
"[p.	c #46221D",
"}p.	c #512B26",
"|p.	c #5A2F2A",
"1p.	c #4D3A31",
"2p.	c #B8BFB2",
"3p.	c #DDD9CB",
"4p.	c #A1524D",
"5p.	c #C4040C",
"6p.	c #CA0309",
"7p.	c #9C3E20",
"8p.	c #F2EB6E",
"9p.	c #E9E75A",
"0p.	c #B4A98D",
"ap.	c #86756F",
"bp.	c #961426",
"cp.	c #A71128",
"dp.	c #4F0207",
"ep.	c #83031B",
"fp.	c #A3001F",
"gp.	c #AC0222",
"hp.	c #B40425",
"ip.	c #AA0220",
"jp.	c #AA0423",
"kp.	c #BA0D29",
"lp.	c #C90F28",
"mp.	c #CF132C",
"np.	c #CE142A",
"op.	c #CF1829",
"pp.	c #CB172C",
"qp.	c #BB0922",
"rp.	c #B60728",
"sp.	c #BB0D2B",
"tp.	c #C2132E",
"up.	c #C92433",
"vp.	c #EE6258",
"wp.	c #F48C60",
"xp.	c #F18A5C",
"yp.	c #F48660",
"zp.	c #F27F5F",
"Ap.	c #F68060",
"Bp.	c #F18D63",
"Cp.	c #F69567",
"Dp.	c #D2897E",
"Ep.	c #574B8C",
"Fp.	c #3A50A7",
"Gp.	c #3951A7",
"Hp.	c #3652A6",
"Ip.	c #3152A6",
"Jp.	c #2F53AA",
"Kp.	c #2B51A9",
"Lp.	c #2651A8",
"Mp.	c #2158AA",
"Np.	c #1E57A9",
"Op.	c #1C55A6",
"Pp.	c #2C55AD",
"Qp.	c #3357AC",
"Rp.	c #3357A7",
"Sp.	c #3B519F",
"Tp.	c #9F6286",
"Up.	c #F18C71",
"Vp.	c #FA9B73",
"Wp.	c #FC9E76",
"Xp.	c #F37F5D",
"Yp.	c #F48265",
"Zp.	c #F1765E",
"`p.	c #F17258",
" q.	c #F07860",
".q.	c #F57E64",
"+q.	c #F87F64",
"@q.	c #F97D60",
"#q.	c #F5946A",
"$q.	c #EE6850",
"%q.	c #EF6752",
"&q.	c #F47959",
"*q.	c #F0875A",
"=q.	c #F48E5E",
"-q.	c #F38C5B",
";q.	c #F99966",
">q.	c #F7A66E",
",q.	c #F9B57A",
"'q.	c #F59F6C",
")q.	c #F88D61",
"!q.	c #F48659",
"~q.	c #ED7750",
"{q.	c #EF6B4F",
"]q.	c #ED5949",
"^q.	c #ED5446",
"/q.	c #ED4E43",
"(q.	c #ED483E",
"_q.	c #EC3B3C",
":q.	c #EA373B",
"<q.	c #E42D34",
"[q.	c #E72D35",
"}q.	c #E32930",
"|q.	c #E4272F",
"1q.	c #E1212B",
"2q.	c #DA1F28",
"3q.	c #E43A3C",
"4q.	c #F0564C",
"5q.	c #EC5849",
"6q.	c #EF5947",
"7q.	c #ED5844",
"8q.	c #F15A49",
"9q.	c #EF5647",
"0q.	c #E8433A",
"aq.	c #E43C37",
"bq.	c #E53737",
"cq.	c #E43134",
"dq.	c #E0292E",
"eq.	c #DB202B",
"fq.	c #D91B2A",
"gq.	c #D61A28",
"hq.	c #D61B29",
"iq.	c #D11627",
"jq.	c #CB1025",
"kq.	c #D6142A",
"lq.	c #D50F29",
"mq.	c #BD0E28",
"nq.	c #750914",
"oq.	c #572422",
"pq.	c #672F31",
"qq.	c #692F31",
"rq.	c #682C2F",
"sq.	c #6A2A2D",
"tq.	c #682C2B",
"uq.	c #743A3C",
"vq.	c #72373C",
"wq.	c #4E2226",
"xq.	c #6F0D1A",
"yq.	c #9C1329",
"zq.	c #746959",
"Aq.	c #CDE1C7",
"Bq.	c #A3B29D",
"Cq.	c #393E2F",
"Dq.	c #434130",
"Eq.	c #464231",
"Fq.	c #565543",
"Gq.	c #5F6752",
"Hq.	c #6D7560",
"Iq.	c #7A816A",
"Jq.	c #828872",
"Kq.	c #757C66",
"Lq.	c #696B57",
"Mq.	c #4F4A39",
"Nq.	c #352517",
"Oq.	c #4B4239",
"Pq.	c #C9CDBF",
"Qq.	c #E2D7C8",
"Rq.	c #A44C48",
"Sq.	c #C4030C",
"Tq.	c #C40508",
"Uq.	c #A16639",
"Vq.	c #F6F570",
"Wq.	c #F4F45F",
"Xq.	c #B3A375",
"Yq.	c #8F7B75",
"Zq.	c #8C1426",
"`q.	c #940E25",
" r.	c #3B0306",
".r.	c #82021C",
"+r.	c #9B0221",
"@r.	c #AB0322",
"#r.	c #CC112C",
"$r.	c #CD152D",
"%r.	c #CD1A2C",
"&r.	c #CA192C",
"*r.	c #B80820",
"=r.	c #B10522",
"-r.	c #B5082A",
";r.	c #BB0D2C",
">r.	c #C1122E",
",r.	c #C92532",
"'r.	c #EE6658",
")r.	c #EF7B59",
"!r.	c #F3835D",
"~r.	c #F58D60",
"{r.	c #F59467",
"]r.	c #FA946B",
"^r.	c #FC976E",
"/r.	c #F58260",
"(r.	c #F79268",
"_r.	c #CE8B7B",
":r.	c #574E8B",
"<r.	c #3952A7",
"[r.	c #3850A6",
"}r.	c #3854A7",
"|r.	c #3454A6",
"1r.	c #2F51A4",
"2r.	c #2E53A8",
"3r.	c #2A52A9",
"4r.	c #2954A8",
"5r.	c #2751A7",
"6r.	c #2457AA",
"7r.	c #2255A7",
"8r.	c #2158A7",
"9r.	c #2257A9",
"0r.	c #2556AA",
"ar.	c #1F55AF",
"br.	c #1B53A7",
"cr.	c #1F52A9",
"dr.	c #2953AC",
"er.	c #3257AD",
"fr.	c #3356A9",
"gr.	c #3950A2",
"hr.	c #9D638A",
"ir.	c #F38C77",
"jr.	c #F78E69",
"kr.	c #F99570",
"lr.	c #F88163",
"mr.	c #F78868",
"nr.	c #FA8B6A",
"or.	c #F17C61",
"pr.	c #F2715A",
"qr.	c #F06E56",
"rr.	c #EF735A",
"sr.	c #F37C62",
"tr.	c #F37D62",
"ur.	c #F98365",
"vr.	c #F38362",
"wr.	c #F4926D",
"xr.	c #F4936B",
"yr.	c #ED7051",
"zr.	c #EF6D52",
"Ar.	c #ED6952",
"Br.	c #F57E5B",
"Cr.	c #F6865B",
"Dr.	c #F08C5C",
"Er.	c #EE8D59",
"Fr.	c #F4925E",
"Gr.	c #F89863",
"Hr.	c #EC955E",
"Ir.	c #F9A26F",
"Jr.	c #F48F60",
"Kr.	c #F68C5C",
"Lr.	c #F17C54",
"Mr.	c #F67556",
"Nr.	c #ED473D",
"Or.	c #F0443E",
"Pr.	c #ED3D3E",
"Qr.	c #EB3C3E",
"Rr.	c #E7353A",
"Sr.	c #E63038",
"Tr.	c #E93139",
"Ur.	c #E72E35",
"Vr.	c #E32A30",
"Wr.	c #E42930",
"Xr.	c #DA2128",
"Yr.	c #EA4140",
"Zr.	c #EF604F",
"`r.	c #EE5B49",
" s.	c #ED5947",
".s.	c #E54238",
"+s.	c #E7413B",
"@s.	c #E23933",
"#s.	c #E73738",
"$s.	c #DD242C",
"%s.	c #DA1C2A",
"&s.	c #D11726",
"*s.	c #C70B23",
"=s.	c #CD1129",
"-s.	c #950A1C",
";s.	c #622123",
">s.	c #643030",
",s.	c #692D31",
"'s.	c #6A2C2D",
")s.	c #6A2A2C",
"!s.	c #672E2D",
"~s.	c #662C2D",
"{s.	c #6A2E2F",
"]s.	c #5C282C",
"^s.	c #470B12",
"/s.	c #612A27",
"(s.	c #ABC6A9",
"_s.	c #DEF2D7",
":s.	c #CAD8BD",
"<s.	c #B9C8AA",
"[s.	c #BCCBAD",
"}s.	c #BECCAF",
"|s.	c #CAD8BB",
"1s.	c #D2E3C4",
"2s.	c #D8E6C8",
"3s.	c #DAE8C8",
"4s.	c #DCE8C8",
"5s.	c #D7E4C5",
"6s.	c #D1D9BD",
"7s.	c #C3C8B0",
"8s.	c #959683",
"9s.	c #5B594C",
"0s.	c #B4B5A7",
"as.	c #E3D3C6",
"bs.	c #A84744",
"cs.	c #C5020B",
"ds.	c #BB0A07",
"es.	c #B08949",
"fs.	c #F7FA6C",
"gs.	c #F7F860",
"hs.	c #B9A866",
"is.	c #938174",
"js.	c #7C1022",
"ks.	c #7B0E1E",
"ls.	c #3B0B0B",
"ms.	c #84051D",
"ns.	c #9A0221",
"os.	c #A2011F",
"ps.	c #AA0221",
"qs.	c #AA0422",
"rs.	c #AF0124",
"ss.	c #B40424",
"ts.	c #C00A26",
"us.	c #C0112A",
"vs.	c #BC182E",
"ws.	c #BC1B2E",
"xs.	c #C21F2E",
"ys.	c #C31B2D",
"zs.	c #B70923",
"As.	c #AF0526",
"Bs.	c #B5092C",
"Cs.	c #BB0D2D",
"Ds.	c #C31431",
"Es.	c #C82732",
"Fs.	c #F36E5C",
"Gs.	c #F28159",
"Hs.	c #F1835E",
"Is.	c #F1835F",
"Js.	c #F58C64",
"Ks.	c #FA9169",
"Ls.	c #CA8B7A",
"Ms.	c #554F89",
"Ns.	c #3954A6",
"Os.	c #3852A5",
"Ps.	c #3955A8",
"Qs.	c #3454A5",
"Rs.	c #3054A5",
"Ss.	c #2D53A7",
"Ts.	c #2A53A8",
"Us.	c #2853A6",
"Vs.	c #2957AA",
"Ws.	c #2551A7",
"Xs.	c #1F54AE",
"Ys.	c #2354A8",
"Zs.	c #2558A8",
"`s.	c #2159A5",
" t.	c #1E51A6",
".t.	c #1F54AF",
"+t.	c #1E53AE",
"@t.	c #1C55AA",
"#t.	c #3256AE",
"$t.	c #3355AA",
"%t.	c #3950A4",
"&t.	c #975F8A",
"*t.	c #ED8774",
"=t.	c #F68866",
"-t.	c #F58E6A",
";t.	c #F68065",
">t.	c #F58667",
",t.	c #EF785F",
"'t.	c #F06C53",
")t.	c #F47E63",
"!t.	c #F77F63",
"~t.	c #F5926C",
"{t.	c #F08F67",
"]t.	c #EF7654",
"^t.	c #F37355",
"/t.	c #F28157",
"(t.	c #F38858",
"_t.	c #E98C56",
":t.	c #F1935B",
"<t.	c #F79760",
"[t.	c #EF915A",
"}t.	c #F59664",
"|t.	c #EB8C5A",
"1t.	c #F9905F",
"2t.	c #F38257",
"3t.	c #F57757",
"4t.	c #ED5747",
"5t.	c #EE5244",
"6t.	c #EB3D3C",
"7t.	c #EC3D3E",
"8t.	c #E9383B",
"9t.	c #E93238",
"0t.	c #EA3239",
"at.	c #E02028",
"bt.	c #D92227",
"ct.	c #EB4542",
"dt.	c #ED5B48",
"et.	c #F15D4C",
"ft.	c #EC5446",
"gt.	c #E6433C",
"ht.	c #E8423D",
"it.	c #E23330",
"jt.	c #E33131",
"kt.	c #E73134",
"lt.	c #DF262D",
"mt.	c #D71B27",
"nt.	c #D61B27",
"ot.	c #D51B28",
"pt.	c #D01625",
"qt.	c #CD1224",
"rt.	c #C80C23",
"st.	c #C20723",
"tt.	c #C10A23",
"ut.	c #CF182A",
"vt.	c #B51022",
"wt.	c #61060B",
"xt.	c #471B1C",
"yt.	c #602E2F",
"zt.	c #652E2F",
"At.	c #6C292B",
"Bt.	c #6A2F2F",
"Ct.	c #602C2F",
"Dt.	c #240C0D",
"Et.	c #6D7161",
"Ft.	c #CEEFCE",
"Gt.	c #E1EFD4",
"Ht.	c #E0EED1",
"It.	c #E2F1D2",
"Jt.	c #E0F1D1",
"Kt.	c #DFF0D1",
"Lt.	c #E2F2D4",
"Mt.	c #E1EED0",
"Nt.	c #E2ECCF",
"Ot.	c #E1EBCE",
"Pt.	c #DFE8CC",
"Qt.	c #E3E8CE",
"Rt.	c #E4E7D0",
"St.	c #DDE1CB",
"Tt.	c #B4B4A1",
"Ut.	c #747262",
"Vt.	c #BAA497",
"Wt.	c #A54241",
"Xt.	c #C6030B",
"Yt.	c #B90F0A",
"Zt.	c #BEA059",
"`t.	c #FAFC67",
" u.	c #F9FA59",
".u.	c #BCAC58",
"+u.	c #90806C",
"@u.	c #610F1A",
"#u.	c #492321",
"$u.	c #8A0B20",
"%u.	c #9A0120",
"&u.	c #A00320",
"*u.	c #AA0322",
"=u.	c #AC0524",
"-u.	c #A60424",
";u.	c #AA0526",
">u.	c #B00F2B",
",u.	c #A70B20",
"'u.	c #8F121C",
")u.	c #812321",
"!u.	c #812E27",
"~u.	c #902A26",
"{u.	c #97151E",
"]u.	c #A20921",
"^u.	c #AA0828",
"/u.	c #B6092E",
"(u.	c #BC0D2D",
"_u.	c #C2132F",
":u.	c #C72932",
"<u.	c #F57360",
"[u.	c #F48C62",
"}u.	c #FA8C65",
"|u.	c #FB9066",
"1u.	c #F58960",
"2u.	c #F59468",
"3u.	c #EF865E",
"4u.	c #F2825E",
"5u.	c #F27C5B",
"6u.	c #F47D5D",
"7u.	c #F78362",
"8u.	c #F59065",
"9u.	c #F08D65",
"0u.	c #C88777",
"au.	c #55508A",
"bu.	c #3A53A6",
"cu.	c #3751A3",
"du.	c #3956A6",
"eu.	c #3555A5",
"fu.	c #3356A7",
"gu.	c #2D53A6",
"hu.	c #2851A4",
"iu.	c #2953A6",
"ju.	c #2652A4",
"ku.	c #2955A8",
"lu.	c #2652A8",
"mu.	c #2258A7",
"nu.	c #2257A8",
"ou.	c #2657AD",
"pu.	c #1C52AD",
"qu.	c #1D52AE",
"ru.	c #1C53AC",
"su.	c #1B53A8",
"tu.	c #3155AE",
"uu.	c #3254A9",
"vu.	c #3A52A5",
"wu.	c #905985",
"xu.	c #E97F6F",
"yu.	c #F48465",
"zu.	c #F48866",
"Au.	c #EF785C",
"Bu.	c #F27D61",
"Cu.	c #EF8161",
"Du.	c #F0795E",
"Eu.	c #F37159",
"Fu.	c #F26C55",
"Gu.	c #F4765E",
"Hu.	c #F57F62",
"Iu.	c #F88165",
"Ju.	c #F17D60",
"Ku.	c #F58969",
"Lu.	c #F8916C",
"Mu.	c #EF8962",
"Nu.	c #F78E67",
"Ou.	c #F07B58",
"Pu.	c #F27657",
"Qu.	c #F27357",
"Ru.	c #EC6B4F",
"Su.	c #F08555",
"Tu.	c #F5905B",
"Uu.	c #F49A62",
"Vu.	c #F29D64",
"Wu.	c #F39F62",
"Xu.	c #FAA367",
"Yu.	c #F59C63",
"Zu.	c #F9A76F",
"`u.	c #EE9661",
" v.	c #F2905C",
".v.	c #F68F5E",
"+v.	c #EC7F53",
"@v.	c #F47957",
"#v.	c #F2624E",
"$v.	c #EF5446",
"%v.	c #F14E44",
"&v.	c #EC3D3D",
"*v.	c #E83739",
"=v.	c #EA3137",
"-v.	c #E62D33",
";v.	c #E0252C",
">v.	c #DD2028",
",v.	c #D92328",
"'v.	c #EA4743",
")v.	c #F56453",
"!v.	c #EF654E",
"~v.	c #EF5F4B",
"{v.	c #ED5D48",
"]v.	c #EE5E49",
"^v.	c #E9473F",
"/v.	c #EE4743",
"(v.	c #E63933",
"_v.	c #E43332",
":v.	c #E52F32",
"<v.	c #DE232B",
"[v.	c #DA1F2A",
"}v.	c #D51B27",
"|v.	c #D21826",
"1v.	c #C90C22",
"2v.	c #C2071F",
"3v.	c #CB1628",
"4v.	c #900510",
"5v.	c #440303",
"6v.	c #330B0F",
"7v.	c #602A31",
"8v.	c #672E2F",
"9v.	c #6E2A2D",
"0v.	c #6B2C2D",
"av.	c #6B3030",
"bv.	c #6B302E",
"cv.	c #622F2F",
"dv.	c #28231E",
"ev.	c #ACBEAB",
"fv.	c #DCF0D4",
"gv.	c #DCE8CE",
"hv.	c #DCEACE",
"iv.	c #DFEDD0",
"jv.	c #DFEED0",
"kv.	c #DBEBCC",
"lv.	c #DCECCE",
"mv.	c #DCEACD",
"nv.	c #DEE9CE",
"ov.	c #DCE5CA",
"pv.	c #DBE4C9",
"qv.	c #E0E6CE",
"rv.	c #E1E5CE",
"sv.	c #E2E6D0",
"tv.	c #DDE0CA",
"uv.	c #BBBEA9",
"vv.	c #6E5F50",
"wv.	c #902F2C",
"xv.	c #C2050D",
"yv.	c #B6120C",
"zv.	c #C2A960",
"Av.	c #FAFC65",
"Bv.	c #FAFB56",
"Cv.	c #CABC56",
"Dv.	c #877B68",
"Ev.	c #361816",
"Fv.	c #7F7269",
"Gv.	c #5A3330",
"Hv.	c #900C23",
"Iv.	c #A10323",
"Jv.	c #AB0324",
"Kv.	c #A70324",
"Lv.	c #9F0322",
"Mv.	c #960C25",
"Nv.	c #7F1723",
"Ov.	c #794A40",
"Pv.	c #978F79",
"Qv.	c #ABB195",
"Rv.	c #B6C1A2",
"Sv.	c #ABAF93",
"Tv.	c #7C6E5B",
"Uv.	c #602420",
"Vv.	c #8D0A21",
"Wv.	c #B20C2F",
"Xv.	c #BB0E2C",
"Yv.	c #BF102C",
"Zv.	c #C42A31",
"`v.	c #F47964",
" w.	c #F78F67",
".w.	c #F68F65",
"+w.	c #F78C62",
"@w.	c #EF8B60",
"#w.	c #F3835F",
"$w.	c #F57E5E",
"%w.	c #F07F59",
"&w.	c #F1895F",
"*w.	c #ED865F",
"=w.	c #EF845D",
"-w.	c #F48664",
";w.	c #C68074",
">w.	c #524F88",
",w.	c #3A51A5",
"'w.	c #3750A2",
")w.	c #3854A5",
"!w.	c #3554A6",
"~w.	c #3155A7",
"{w.	c #2D53A4",
"]w.	c #2A52A3",
"^w.	c #2A53A6",
"/w.	c #2A54A8",
"(w.	c #2852A7",
"_w.	c #2653AA",
":w.	c #2558B1",
"<w.	c #2553A8",
"[w.	c #2357A9",
"}w.	c #1C51AB",
"|w.	c #1850A8",
"1w.	c #1C56AA",
"2w.	c #2F51A7",
"3w.	c #3952A4",
"4w.	c #8E5985",
"5w.	c #EB7F70",
"6w.	c #F17F62",
"7w.	c #F0795F",
"8w.	c #F17C5F",
"9w.	c #EC7D5D",
"0w.	c #F78768",
"aw.	c #F1795D",
"bw.	c #F26F57",
"cw.	c #F06B53",
"dw.	c #F47E62",
"ew.	c #F88B6C",
"fw.	c #FB9370",
"gw.	c #F28A65",
"hw.	c #F08864",
"iw.	c #F9926F",
"jw.	c #F8916D",
"kw.	c #F17557",
"lw.	c #ED6D50",
"mw.	c #F18A58",
"nw.	c #F99861",
"ow.	c #F7A267",
"pw.	c #FBB173",
"qw.	c #ED945D",
"rw.	c #F2AD72",
"sw.	c #FCB97D",
"tw.	c #F69C67",
"uw.	c #F79563",
"vw.	c #F0865A",
"ww.	c #EE5948",
"xw.	c #EF5547",
"yw.	c #F15045",
"zw.	c #EA413C",
"Aw.	c #F04340",
"Bw.	c #E8383A",
"Cw.	c #EB353A",
"Dw.	c #E93036",
"Ew.	c #E42B32",
"Fw.	c #E1262E",
"Gw.	c #DD222A",
"Hw.	c #D82328",
"Iw.	c #E94641",
"Jw.	c #F96958",
"Kw.	c #F26752",
"Lw.	c #EB5F48",
"Mw.	c #F1644C",
"Nw.	c #EC5C49",
"Ow.	c #E93C37",
"Pw.	c #E83736",
"Qw.	c #DD232B",
"Rw.	c #D51B29",
"Sw.	c #CF1425",
"Tw.	c #C80D23",
"Uw.	c #C30821",
"Vw.	c #CF1A2E",
"Ww.	c #AB1526",
"Xw.	c #69141D",
"Yw.	c #4C1C23",
"Zw.	c #672F39",
"`w.	c #672D30",
" x.	c #682C2C",
".x.	c #6B3032",
"+x.	c #6B302D",
"@x.	c #612F2D",
"#x.	c #454C44",
"$x.	c #CDE5D0",
"%x.	c #DCEBD2",
"&x.	c #D7E3CA",
"*x.	c #D9E4CA",
"=x.	c #DAE5CB",
"-x.	c #DDE9CD",
";x.	c #DCE9CD",
">x.	c #D8E5C9",
",x.	c #D7E6C7",
"'x.	c #D8E5C7",
")x.	c #DEE7CD",
"!x.	c #DAE2CA",
"~x.	c #DAE2C9",
"{x.	c #DEE3CA",
"]x.	c #DFE2CA",
"^x.	c #E2E6CE",
"/x.	c #DEE2CB",
"(x.	c #D9E1CA",
"_x.	c #B3B39D",
":x.	c #8C5244",
"<x.	c #AD1114",
"[x.	c #AC130F",
"}x.	c #C3AA60",
"|x.	c #FBFD63",
"1x.	c #FAFA58",
"2x.	c #C4B853",
"3x.	c #78726B",
"4x.	c #6A736A",
"5x.	c #B8BAAD",
"6x.	c #693736",
"7x.	c #970220",
"8x.	c #A50327",
"9x.	c #A80325",
"0x.	c #980722",
"ax.	c #7E071A",
"bx.	c #5E1519",
"cx.	c #827568",
"dx.	c #C3C9B2",
"ex.	c #D8EFD0",
"fx.	c #D8F4D3",
"gx.	c #D9EED1",
"hx.	c #DBEDD1",
"ix.	c #D4E0C7",
"jx.	c #95A08C",
"kx.	c #5C312E",
"lx.	c #990B27",
"mx.	c #BA0E2D",
"nx.	c #C1102F",
"ox.	c #C52B33",
"px.	c #F37D67",
"qx.	c #F3875D",
"rx.	c #F4875C",
"sx.	c #F88360",
"tx.	c #F67E5E",
"ux.	c #F07C5C",
"vx.	c #F79169",
"wx.	c #EC815C",
"xx.	c #F78D68",
"yx.	c #F9936B",
"zx.	c #F58E69",
"Ax.	c #ED8763",
"Bx.	c #C67E75",
"Cx.	c #524D88",
"Dx.	c #3850A4",
"Ex.	c #3750A4",
"Fx.	c #3652A5",
"Gx.	c #3655A6",
"Hx.	c #2F55A6",
"Ix.	c #2D55A5",
"Jx.	c #2A53A5",
"Kx.	c #2953A7",
"Lx.	c #2855A8",
"Mx.	c #2752A8",
"Nx.	c #2153A9",
"Ox.	c #2758AC",
"Px.	c #2350A8",
"Qx.	c #1951A6",
"Rx.	c #2F52A5",
"Sx.	c #8D5B88",
"Tx.	c #EA7E70",
"Ux.	c #F48366",
"Vx.	c #F38368",
"Wx.	c #EF7B61",
"Xx.	c #F07960",
"Yx.	c #F07B5F",
"Zx.	c #EC7C5D",
"`x.	c #F68868",
" y.	c #EF6E55",
".y.	c #F77E64",
"+y.	c #F27E61",
"@y.	c #F68B68",
"#y.	c #F38A67",
"$y.	c #EF7758",
"%y.	c #F68B5C",
"&y.	c #F6915E",
"*y.	c #F6955E",
"=y.	c #F69D63",
"-y.	c #EF9B63",
";y.	c #F1925E",
">y.	c #F2A169",
",y.	c #FAB77B",
"'y.	c #F99564",
")y.	c #ED5948",
"!y.	c #F15247",
"~y.	c #ED4440",
"{y.	c #F04341",
"]y.	c #EE3F3F",
"^y.	c #EB3B3D",
"/y.	c #EC363B",
"(y.	c #E0252E",
"_y.	c #DE232D",
":y.	c #D92229",
"<y.	c #E84340",
"[y.	c #F66655",
"}y.	c #F06A52",
"|y.	c #F16B52",
"1y.	c #EE664D",
"2y.	c #F46C51",
"3y.	c #ED5F49",
"4y.	c #F25D4B",
"5y.	c #ED4F42",
"6y.	c #EB4D42",
"7y.	c #E94039",
"8y.	c #E73838",
"9y.	c #D91F2A",
"0y.	c #D51B26",
"ay.	c #D61C28",
"by.	c #D41A27",
"cy.	c #CF1426",
"dy.	c #C80D24",
"ey.	c #D51F38",
"fy.	c #B51831",
"gy.	c #670D19",
"hy.	c #63272E",
"iy.	c #672F36",
"jy.	c #6C3132",
"ky.	c #6A302E",
"ly.	c #502E27",
"my.	c #7E8E7F",
"ny.	c #D8EDD7",
"oy.	c #DAE6CC",
"py.	c #D8E2C9",
"qy.	c #DAE3CB",
"ry.	c #DAE3CA",
"sy.	c #DCE6CD",
"ty.	c #D9E3C9",
"uy.	c #D7E3C7",
"vy.	c #D9E3C7",
"wy.	c #DDE5CC",
"xy.	c #D9DFC8",
"yy.	c #DCE2CA",
"zy.	c #DBDFC6",
"Ay.	c #DDDEC6",
"By.	c #E0E4CC",
"Cy.	c #DCE0CA",
"Dy.	c #DAE2CB",
"Ey.	c #DCDFC8",
"Fy.	c #B3A490",
"Gy.	c #7B2924",
"Hy.	c #931515",
"Iy.	c #C2A762",
"Jy.	c #FBFD67",
"Ky.	c #F9F85E",
"Ly.	c #928A3E",
"My.	c #575857",
"Ny.	c #DDE1D9",
"Oy.	c #C0B6AE",
"Py.	c #72242C",
"Qy.	c #A6142F",
"Ry.	c #8E0821",
"Sy.	c #930726",
"Ty.	c #860820",
"Uy.	c #630D14",
"Vy.	c #49231A",
"Wy.	c #6F6D5D",
"Xy.	c #D8DFC9",
"Yy.	c #DFEDD6",
"Zy.	c #D7F0D4",
"`y.	c #D7EED4",
" z.	c #D9E8D0",
".z.	c #D8E7CF",
"+z.	c #E0EDD6",
"@z.	c #E1EFD8",
"#z.	c #9A9F91",
"$z.	c #6A1120",
"%z.	c #B21431",
"&z.	c #C21332",
"*z.	c #C42B35",
"=z.	c #F37E67",
"-z.	c #F08359",
";z.	c #F3865E",
">z.	c #F8855F",
",z.	c #F9966C",
"'z.	c #EC855C",
")z.	c #F08B61",
"!z.	c #F08C62",
"~z.	c #F9986D",
"{z.	c #EF8A61",
"]z.	c #EC8962",
"^z.	c #C57B73",
"/z.	c #534C8A",
"(z.	c #3B4FA4",
"_z.	c #3850A2",
":z.	c #3552A2",
"<z.	c #3554A4",
"[z.	c #3054A4",
"}z.	c #2E54A7",
"|z.	c #2E55A6",
"1z.	c #2A51A4",
"2z.	c #2956A9",
"3z.	c #1E54A8",
"4z.	c #1C51A7",
"5z.	c #1B50A5",
"6z.	c #1D51A8",
"7z.	c #2557AE",
"8z.	c #2E54A5",
"9z.	c #3355A8",
"0z.	c #3852A6",
"az.	c #8B5A89",
"bz.	c #EB7B6D",
"cz.	c #F37D64",
"dz.	c #F48166",
"ez.	c #F07A60",
"fz.	c #F17B61",
"gz.	c #EE785B",
"hz.	c #F38665",
"iz.	c #F38364",
"jz.	c #ED7256",
"kz.	c #F2755A",
"lz.	c #F77E63",
"mz.	c #F77F65",
"nz.	c #F07A5C",
"oz.	c #EF795B",
"pz.	c #ED7F5E",
"qz.	c #EE805D",
"rz.	c #F48D6A",
"sz.	c #F38E69",
"tz.	c #F78360",
"uz.	c #F07556",
"vz.	c #F16F53",
"wz.	c #F58D5C",
"xz.	c #FB9964",
"yz.	c #ED905A",
"zz.	c #F49761",
"Az.	c #F5A068",
"Bz.	c #F6A46C",
"Cz.	c #F39562",
"Dz.	c #F29862",
"Ez.	c #ED8D5B",
"Fz.	c #F17D55",
"Gz.	c #EC5847",
"Hz.	c #EC5344",
"Iz.	c #F4584C",
"Jz.	c #EF4F46",
"Kz.	c #F14442",
"Lz.	c #EC3C3E",
"Mz.	c #ED393E",
"Nz.	c #E42C32",
"Oz.	c #E0262F",
"Pz.	c #DE212D",
"Qz.	c #DC212A",
"Rz.	c #EA413F",
"Sz.	c #F56555",
"Tz.	c #F16D54",
"Uz.	c #F46E53",
"Vz.	c #F77054",
"Wz.	c #EE684C",
"Xz.	c #F0624B",
"Yz.	c #EF5C48",
"Zz.	c #ED5544",
"`z.	c #E95142",
" A.	c #E7433B",
".A.	c #E43637",
"+A.	c #E42F32",
"@A.	c #D81E29",
"#A.	c #D61D27",
"$A.	c #D21825",
"%A.	c #D01527",
"&A.	c #C70B2A",
"*A.	c #C61934",
"=A.	c #6F0816",
"-A.	c #431C1B",
";A.	c #6A2F31",
">A.	c #6A2E30",
",A.	c #6A3030",
"'A.	c #6D3232",
")A.	c #682F2E",
"!A.	c #4C3F35",
"~A.	c #B6C9B1",
"{A.	c #DCE9D1",
"]A.	c #D6E4C6",
"^A.	c #DAE1C8",
"/A.	c #DBE2CB",
"(A.	c #DCE4CC",
"_A.	c #DDE5CD",
":A.	c #DBE3CB",
"<A.	c #DAE4CC",
"[A.	c #DEE3CD",
"}A.	c #D9DEC7",
"|A.	c #DCE1CA",
"1A.	c #DCDFC5",
"2A.	c #DCDEC4",
"3A.	c #DEE1C8",
"4A.	c #DBDEC7",
"5A.	c #DADEC9",
"6A.	c #DFE0CD",
"7A.	c #DAD9C6",
"8A.	c #7F7468",
"9A.	c #6B1B1A",
"0A.	c #A99758",
"aA.	c #F9FC6B",
"bA.	c #F6F35F",
"cA.	c #6D6729",
"dA.	c #373237",
"eA.	c #CBB7B8",
"fA.	c #7F5E5D",
"gA.	c #7A181F",
"hA.	c #9C182C",
"iA.	c #730E1C",
"jA.	c #711323",
"kA.	c #65413D",
"lA.	c #615145",
"mA.	c #727560",
"nA.	c #ADC1A5",
"oA.	c #DAEFD2",
"pA.	c #DBE8D4",
"qA.	c #D9E6CF",
"rA.	c #DAE7CF",
"sA.	c #DFEED5",
"tA.	c #E4F1D8",
"uA.	c #A5AC9C",
"vA.	c #3D0F13",
"wA.	c #941429",
"xA.	c #B91730",
"yA.	c #C52C36",
"zA.	c #F47A64",
"AA.	c #F38762",
"BA.	c #F1845F",
"CA.	c #FA9269",
"DA.	c #F7835C",
"EA.	c #F99D6C",
"FA.	c #EC8C60",
"GA.	c #ED8B60",
"HA.	c #ED865C",
"IA.	c #F09266",
"JA.	c #C37970",
"KA.	c #564B8C",
"LA.	c #3E4EA4",
"MA.	c #3951A0",
"NA.	c #35539F",
"OA.	c #3353A1",
"PA.	c #2F53A3",
"QA.	c #2D53A5",
"RA.	c #2B51A4",
"SA.	c #2952A7",
"TA.	c #2A58AA",
"UA.	c #1E50A6",
"VA.	c #204EA8",
"WA.	c #1C50A7",
"XA.	c #194FA2",
"YA.	c #194EA2",
"ZA.	c #2351A8",
"`A.	c #2954AC",
" B.	c #3056A7",
".B.	c #3455A8",
"+B.	c #3853A7",
"@B.	c #885788",
"#B.	c #EB776B",
"$B.	c #F57B65",
"%B.	c #F27D63",
"&B.	c #F17A5F",
"*B.	c #F37D61",
"=B.	c #F4795C",
"-B.	c #F98D6B",
";B.	c #F88F6C",
">B.	c #F07358",
",B.	c #F57A60",
"'B.	c #F67C64",
")B.	c #F37962",
"!B.	c #F17A5D",
"~B.	c #EC7859",
"{B.	c #F28462",
"]B.	c #EE7E5B",
"^B.	c #F28B68",
"/B.	c #F38D69",
"(B.	c #F87F5F",
"_B.	c #F06D51",
":B.	c #F48F5A",
"<B.	c #E88D56",
"[B.	c #F79E64",
"}B.	c #F6A36A",
"|B.	c #F4A06A",
"1B.	c #F29A69",
"2B.	c #EE9664",
"3B.	c #F48B5C",
"4B.	c #F9895D",
"5B.	c #F57E57",
"6B.	c #F77C5B",
"7B.	c #F66F56",
"8B.	c #EA5343",
"9B.	c #F05647",
"0B.	c #EE5046",
"aB.	c #EE4B45",
"bB.	c #EF4743",
"cB.	c #EC403E",
"dB.	c #ED3B3E",
"eB.	c #E52D32",
"fB.	c #E32B32",
"gB.	c #E12730",
"hB.	c #DC1F2A",
"iB.	c #DD1E2A",
"jB.	c #EA3E40",
"kB.	c #F86657",
"lB.	c #F16D53",
"mB.	c #F27152",
"nB.	c #F57254",
"oB.	c #F87155",
"pB.	c #EE6449",
"qB.	c #EF5D49",
"rB.	c #F25B49",
"sB.	c #F05947",
"tB.	c #EB5443",
"uB.	c #EB5244",
"vB.	c #E6473D",
"wB.	c #E53736",
"xB.	c #DC242B",
"yB.	c #DC222C",
"zB.	c #D92029",
"AB.	c #D61E27",
"BB.	c #D11924",
"CB.	c #D01423",
"DB.	c #C80F23",
"EB.	c #C60B28",
"FB.	c #B20C28",
"GB.	c #8D0D1F",
"HB.	c #390709",
"IB.	c #53302E",
"JB.	c #6C3033",
"KB.	c #682D2D",
"LB.	c #69302F",
"MB.	c #6A302F",
"NB.	c #6C322E",
"OB.	c #5D2F2D",
"PB.	c #656758",
"QB.	c #D3E6CB",
"RB.	c #DAE8CC",
"SB.	c #D5E0C6",
"TB.	c #DFE4CE",
"UB.	c #DCE1CB",
"VB.	c #D9E1C9",
"WB.	c #DDE3CB",
"XB.	c #DEE3CC",
"YB.	c #D9DDC7",
"ZB.	c #DBDEC9",
"`B.	c #DCDEC8",
" C.	c #DADDC4",
".C.	c #DBDDC5",
"+C.	c #DADCC6",
"@C.	c #DBDDC9",
"#C.	c #E0DFCD",
"$C.	c #E4DFD2",
"%C.	c #CCC5BC",
"&C.	c #5C403C",
"*C.	c #877B48",
"=C.	c #F7FA6E",
"-C.	c #F3F063",
";C.	c #615A24",
">C.	c #10080E",
",C.	c #552A30",
"'C.	c #521417",
")C.	c #662422",
"!C.	c #6B2927",
"~C.	c #776459",
"{C.	c #604A43",
"]C.	c #9FA395",
"^C.	c #87927E",
"/C.	c #B8CCAF",
"(C.	c #CDE7C5",
"_C.	c #D6E9D0",
":C.	c #D9E4D3",
"<C.	c #D8E0CE",
"[C.	c #DAE2CE",
"}C.	c #D8E6CF",
"|C.	c #DBE9CE",
"1C.	c #DFECD2",
"2C.	c #DFEDD4",
"3C.	c #646B5E",
"4C.	c #140909",
"5C.	c #54161F",
"6C.	c #A5162E",
"7C.	c #C22D36",
"8C.	c #F0725E",
"9C.	c #F0815B",
"0C.	c #F28558",
"aC.	c #EB7D5A",
"bC.	c #F0815E",
"cC.	c #F88863",
"dC.	c #F98D66",
"eC.	c #F69166",
"fC.	c #F78C5F",
"gC.	c #ED7655",
"hC.	c #FCA370",
"iC.	c #EF9064",
"jC.	c #F0875F",
"kC.	c #F8986C",
"lC.	c #F49768",
"mC.	c #C47A6E",
"nC.	c #564A8B",
"oC.	c #3C4EA7",
"pC.	c #3751A1",
"qC.	c #3553A0",
"rC.	c #3154A5",
"sC.	c #2F52A4",
"tC.	c #2E52A5",
"uC.	c #2950A3",
"vC.	c #2855A7",
"wC.	c #2052A7",
"xC.	c #2356AA",
"yC.	c #1F4FA8",
"zC.	c #1A52A4",
"AC.	c #1B50A3",
"BC.	c #2C56A9",
"CC.	c #3158A8",
"DC.	c #3254A5",
"EC.	c #885388",
"FC.	c #ED776D",
"GC.	c #F77C65",
"HC.	c #EF7860",
"IC.	c #F47C62",
"JC.	c #F17960",
"KC.	c #F47659",
"LC.	c #F18866",
"MC.	c #FA926F",
"NC.	c #F07858",
"OC.	c #EF7458",
"PC.	c #F2745C",
"QC.	c #F4785E",
"RC.	c #F0775B",
"SC.	c #F07C5D",
"TC.	c #FA8B69",
"UC.	c #F6805E",
"VC.	c #F27F60",
"WC.	c #F3805E",
"XC.	c #F77D5E",
"YC.	c #ED6B51",
"ZC.	c #F5915B",
"`C.	c #EB8C54",
" D.	c #E99057",
".D.	c #F49F64",
"+D.	c #F6A168",
"@D.	c #EF9461",
"#D.	c #F39A68",
"$D.	c #EF9966",
"%D.	c #F39A65",
"&D.	c #EF8E59",
"*D.	c #F79461",
"=D.	c #F47F57",
"-D.	c #EE5F4B",
";D.	c #ED4340",
">D.	c #EF4040",
",D.	c #EC3E3F",
"'D.	c #E62E34",
")D.	c #E1272F",
"!D.	c #DD1D2A",
"~D.	c #E63A3D",
"{D.	c #F46355",
"]D.	c #F77758",
"^D.	c #F57455",
"/D.	c #EF694C",
"(D.	c #F05846",
"_D.	c #E85142",
":D.	c #E94B42",
"<D.	c #E23634",
"[D.	c #E33034",
"}D.	c #DF282E",
"|D.	c #DA2129",
"1D.	c #D81F27",
"2D.	c #D61925",
"3D.	c #CF1323",
"4D.	c #AC0E25",
"5D.	c #740917",
"6D.	c #541419",
"7D.	c #361514",
"8D.	c #603333",
"9D.	c #6C2F31",
"0D.	c #682E2D",
"aD.	c #693130",
"bD.	c #6E2E2D",
"cD.	c #4C302B",
"dD.	c #A2AA98",
"eD.	c #DBECD0",
"fD.	c #DAE7CB",
"gD.	c #D6E0C7",
"hD.	c #DBE0CA",
"iD.	c #DADFC9",
"jD.	c #D5DCC4",
"kD.	c #D6DEC6",
"lD.	c #D9E0C8",
"mD.	c #E0E5CE",
"nD.	c #DEE2CC",
"oD.	c #DEE1CC",
"pD.	c #DCDFC9",
"qD.	c #DADEC7",
"rD.	c #DADDC7",
"sD.	c #DEDDCB",
"tD.	c #DDD8CA",
"uD.	c #C5BCB0",
"vD.	c #AA9E96",
"wD.	c #9C8D89",
"xD.	c #605750",
"yD.	c #615A37",
"zD.	c #F5F278",
"AD.	c #F3F06D",
"BD.	c #615B27",
"CD.	c #0B040A",
"DD.	c #371D1F",
"ED.	c #543B36",
"FD.	c #8B796D",
"GD.	c #7A7162",
"HD.	c #7D8073",
"ID.	c #A9B6A5",
"JD.	c #ACBAA4",
"KD.	c #DAEBCF",
"LD.	c #D8EBCE",
"MD.	c #DAE7D0",
"ND.	c #D9E2D2",
"OD.	c #D6DFCD",
"PD.	c #D6DFCB",
"QD.	c #D8E3CE",
"RD.	c #DAE7CD",
"SD.	c #DBE7D0",
"TD.	c #D9E2CF",
"UD.	c #40433D",
"VD.	c #22292C",
"WD.	c #626F72",
"XD.	c #65222F",
"YD.	c #B42533",
"ZD.	c #E96E5B",
"`D.	c #F3825D",
" E.	c #EF8055",
".E.	c #F08154",
"+E.	c #EE8059",
"@E.	c #E87A58",
"#E.	c #EC7C59",
"$E.	c #FB9F72",
"%E.	c #EF8C62",
"&E.	c #F2986B",
"*E.	c #F39C6C",
"=E.	c #FA9D70",
"-E.	c #F09264",
";E.	c #F89A6D",
">E.	c #C98374",
",E.	c #564D8C",
"'E.	c #3651A1",
")E.	c #3053A5",
"!E.	c #2E52A4",
"~E.	c #2B52A5",
"{E.	c #2653A6",
"]E.	c #1F51A9",
"^E.	c #2256A6",
"/E.	c #2356A7",
"(E.	c #2054A8",
"_E.	c #1C52A6",
":E.	c #2051A8",
"<E.	c #3057A8",
"[E.	c #3B51A8",
"}E.	c #885387",
"|E.	c #EA756D",
"1E.	c #F57B62",
"2E.	c #ED755C",
"3E.	c #F07259",
"4E.	c #F37457",
"5E.	c #ED8260",
"6E.	c #F7926E",
"7E.	c #F37659",
"8E.	c #F17058",
"9E.	c #F1725B",
"0E.	c #EE7059",
"aE.	c #EA6D53",
"bE.	c #F37B5E",
"cE.	c #F57D5E",
"dE.	c #F4795D",
"eE.	c #F9916E",
"fE.	c #F4785A",
"gE.	c #EF6D51",
"hE.	c #EE6C52",
"iE.	c #F99960",
"jE.	c #F79D62",
"kE.	c #EF9A5E",
"lE.	c #F99D6A",
"mE.	c #F09860",
"nE.	c #F0935B",
"oE.	c #F99D68",
"pE.	c #F89362",
"qE.	c #EF7E53",
"rE.	c #F47E59",
"sE.	c #F17254",
"tE.	c #EF654F",
"uE.	c #F15548",
"vE.	c #F25147",
"wE.	c #F14D45",
"xE.	c #EE4240",
"yE.	c #EF4343",
"zE.	c #EB3338",
"AE.	c #E1282F",
"BE.	c #DC1F2B",
"CE.	c #DA1B27",
"DE.	c #DE3134",
"EE.	c #F05F52",
"FE.	c #F77B5A",
"GE.	c #F27353",
"HE.	c #EB684A",
"IE.	c #EC6347",
"JE.	c #EB5944",
"KE.	c #ED5643",
"LE.	c #EF5A46",
"ME.	c #F4604E",
"NE.	c #E13733",
"OE.	c #E23233",
"PE.	c #E32F32",
"QE.	c #DC252B",
"RE.	c #D72029",
"SE.	c #D71927",
"TE.	c #B81328",
"UE.	c #770815",
"VE.	c #562023",
"WE.	c #4B2529",
"XE.	c #4A2827",
"YE.	c #6B3433",
"ZE.	c #633030",
"`E.	c #554E45",
" F.	c #CCD8C2",
".F.	c #DCE9CB",
"+F.	c #D7E3C6",
"@F.	c #D7DFC7",
"#F.	c #DADFC8",
"$F.	c #DBDFCA",
"%F.	c #DDE0CB",
"&F.	c #DBE0C9",
"*F.	c #DFE4CD",
"=F.	c #DDE2CB",
"-F.	c #DCDEC9",
";F.	c #DCDECA",
">F.	c #DBDBC9",
",F.	c #CAC5B7",
"'F.	c #918B81",
")F.	c #4E443D",
"!F.	c #4D3D39",
"~F.	c #92817E",
"{F.	c #B8BDB2",
"]F.	c #8D8C7A",
"^F.	c #E3DB76",
"/F.	c #F3F073",
"(F.	c #646029",
"_F.	c #090B0D",
":F.	c #788078",
"<F.	c #7C8377",
"[F.	c #A9AA9B",
"}F.	c #939E8B",
"|F.	c #D0DBC9",
"1F.	c #949186",
"2F.	c #9AA392",
"3F.	c #C3D0B9",
"4F.	c #D9E6CD",
"5F.	c #DDE4CF",
"6F.	c #DAE0D1",
"7F.	c #D8DFCD",
"8F.	c #D5DDC8",
"9F.	c #D5E0CB",
"0F.	c #D8E4CC",
"aF.	c #DBE5D1",
"bF.	c #D3D7CA",
"cF.	c #2D2F2C",
"dF.	c #2C3940",
"eF.	c #98BDC4",
"fF.	c #60646B",
"gF.	c #8E232F",
"hF.	c #E77362",
"iF.	c #F78361",
"jF.	c #F4815E",
"kF.	c #F4835A",
"lF.	c #EC7B5B",
"mF.	c #F37B5C",
"nF.	c #EF8159",
"oF.	c #FA976D",
"pF.	c #F3976C",
"qF.	c #F9A373",
"rF.	c #F59A68",
"sF.	c #EA895C",
"tF.	c #EF8E62",
"uF.	c #F79D6F",
"vF.	c #F09465",
"wF.	c #F69A6C",
"xF.	c #CB8779",
"yF.	c #554E8A",
"zF.	c #3852A2",
"AF.	c #3654A1",
"BF.	c #2D50A3",
"CF.	c #2D51A3",
"DF.	c #2852A6",
"EF.	c #2150A5",
"FF.	c #2356A5",
"GF.	c #2457A6",
"HF.	c #2151A6",
"IF.	c #1C53A7",
"JF.	c #1B4FA7",
"KF.	c #3056A8",
"LF.	c #3356A6",
"MF.	c #3B52A8",
"NF.	c #875487",
"OF.	c #E47269",
"PF.	c #F27960",
"QF.	c #EF775E",
"RF.	c #ED745B",
"SF.	c #F2735A",
"TF.	c #F58A68",
"UF.	c #FA9470",
"VF.	c #F58764",
"WF.	c #EF7957",
"XF.	c #F46E59",
"YF.	c #F06A57",
"ZF.	c #EB6552",
"`F.	c #EB6550",
" G.	c #EB6A54",
".G.	c #F0745B",
"+G.	c #F87C60",
"@G.	c #F38867",
"#G.	c #F48765",
"$G.	c #F17456",
"%G.	c #F16E53",
"&G.	c #EF6D53",
"*G.	c #F5975C",
"=G.	c #F89F62",
"-G.	c #F29E60",
";G.	c #F8A76E",
">G.	c #F39962",
",G.	c #FA9B68",
"'G.	c #F0945D",
")G.	c #F4915F",
"!G.	c #F38659",
"~G.	c #F48058",
"{G.	c #F67B5B",
"]G.	c #F76F59",
"^G.	c #EF5B49",
"/G.	c #EE5646",
"(G.	c #F05547",
"_G.	c #EB423E",
":G.	c #EE4141",
"<G.	c #EA393B",
"[G.	c #EC3538",
"}G.	c #DF222D",
"|G.	c #DB1B27",
"1G.	c #DC2F32",
"2G.	c #ED5C4F",
"3G.	c #EF7155",
"4G.	c #F57958",
"5G.	c #F37253",
"6G.	c #EB5E48",
"7G.	c #EB5643",
"8G.	c #EE5A46",
"9G.	c #EE4F46",
"0G.	c #E33A35",
"aG.	c #E23532",
"bG.	c #E23030",
"cG.	c #E02A2D",
"dG.	c #DA222B",
"eG.	c #D8222D",
"fG.	c #D21C2C",
"gG.	c #BA1829",
"hG.	c #7E0A14",
"iG.	c #581A1C",
"jG.	c #5F2F35",
"kG.	c #461D22",
"lG.	c #5D3233",
"mG.	c #6D322F",
"nG.	c #692E2E",
"oG.	c #672F2E",
"pG.	c #682E2F",
"qG.	c #4F2D29",
"rG.	c #888F7F",
"sG.	c #D9E4CD",
"tG.	c #D7E2C6",
"uG.	c #DCDFCA",
"vG.	c #D8DDC6",
"wG.	c #E0E2CD",
"xG.	c #E0DECB",
"yG.	c #DBD9C9",
"zG.	c #B9B5A7",
"AG.	c #767264",
"BG.	c #68685C",
"CG.	c #848677",
"DG.	c #817E73",
"EG.	c #746D65",
"FG.	c #B9BCB1",
"GG.	c #C9C4B7",
"HG.	c #B3A75E",
"IG.	c #F1EF7C",
"JG.	c #6E6A33",
"KG.	c #242824",
"LG.	c #B1C5B8",
"MG.	c #829282",
"NG.	c #A8AD9E",
"OG.	c #ACB7A5",
"PG.	c #C6D0BD",
"QG.	c #9EA594",
"RG.	c #99A18E",
"SG.	c #C6D2BB",
"TG.	c #D5E2CA",
"UG.	c #DAE3CC",
"VG.	c #DBE1CE",
"WG.	c #D9E0CE",
"XG.	c #D6DFC9",
"YG.	c #D9E3CC",
"ZG.	c #DEE5D4",
"`G.	c #CBCBBF",
" H.	c #252424",
".H.	c #222C37",
"+H.	c #9BC3D2",
"@H.	c #91B3BC",
"#H.	c #56373C",
"$H.	c #DA6F61",
"%H.	c #F37C5D",
"&H.	c #F47F5E",
"*H.	c #EE7C5D",
"=H.	c #F38960",
"-H.	c #EF7B58",
";H.	c #F8996B",
">H.	c #F49764",
",H.	c #F09063",
"'H.	c #F29266",
")H.	c #EB8A5A",
"!H.	c #C98476",
"~H.	c #554D89",
"{H.	c #3B53A7",
"]H.	c #3A55A4",
"^H.	c #3654A2",
"/H.	c #3255A6",
"(H.	c #2C4FA2",
"_H.	c #2C52A5",
":H.	c #2852A5",
"<H.	c #2451A4",
"[H.	c #1F50A5",
"}H.	c #2051A4",
"|H.	c #2758AB",
"1H.	c #2053A7",
"2H.	c #1E57AE",
"3H.	c #1D56AC",
"4H.	c #1B52A8",
"5H.	c #2459AE",
"6H.	c #2F55A9",
"7H.	c #3952A6",
"8H.	c #845385",
"9H.	c #E4736B",
"0H.	c #F37A61",
"aH.	c #F37B62",
"bH.	c #F1765B",
"cH.	c #F27A5B",
"dH.	c #F46857",
"eH.	c #EF6051",
"fH.	c #EA5B4C",
"gH.	c #ED5F4F",
"hH.	c #F26956",
"iH.	c #F7735E",
"jH.	c #F0725A",
"kH.	c #F67B5E",
"lH.	c #F57B5C",
"mH.	c #F07455",
"nH.	c #F18E55",
"oH.	c #F5985D",
"pH.	c #F49C5F",
"qH.	c #F8A46B",
"rH.	c #F39760",
"sH.	c #F59361",
"tH.	c #F79661",
"uH.	c #F99C64",
"vH.	c #F49B60",
"wH.	c #F69E62",
"xH.	c #F68A5C",
"yH.	c #F27F56",
"zH.	c #F77E5C",
"AH.	c #F87259",
"BH.	c #F15848",
"CH.	c #F25348",
"DH.	c #EC393B",
"EH.	c #E93135",
"FH.	c #E4292F",
"GH.	c #E2242F",
"HH.	c #DB1D27",
"IH.	c #DC3232",
"JH.	c #EE5F50",
"KH.	c #F27256",
"LH.	c #F57C5A",
"MH.	c #EF7050",
"NH.	c #EF6E4E",
"OH.	c #ED654B",
"PH.	c #F25B4B",
"QH.	c #E83D37",
"RH.	c #E63A36",
"SH.	c #E23031",
"TH.	c #E02A30",
"UH.	c #DD252F",
"VH.	c #D62131",
"WH.	c #C0192D",
"XH.	c #7C0C15",
"YH.	c #591916",
"ZH.	c #62312E",
"`H.	c #5C2D31",
" I.	c #431920",
".I.	c #633234",
"+I.	c #6A2F2C",
"@I.	c #6D2E2E",
"#I.	c #68302E",
"$I.	c #672F2D",
"%I.	c #622F2D",
"&I.	c #484238",
"*I.	c #C3D6BE",
"=I.	c #DFEAD1",
"-I.	c #DBE3CA",
";I.	c #DBDFC8",
">I.	c #DEE1CB",
",I.	c #DBDFC7",
"'I.	c #DEE2CA",
")I.	c #DBDFC9",
"!I.	c #DAE0C9",
"~I.	c #D8DDC5",
"{I.	c #E0E1CD",
"]I.	c #E1D9CA",
"^I.	c #B4ABA0",
"/I.	c #837F72",
"(I.	c #B8B7A4",
"_I.	c #D2D4BF",
":I.	c #D9DEC6",
"<I.	c #D4D8C2",
"[I.	c #B5B5A2",
"}I.	c #797566",
"|I.	c #BEB5AB",
"1I.	c #A3977A",
"2I.	c #CFCA73",
"3I.	c #736E43",
"4I.	c #4F524A",
"5I.	c #C6D6C7",
"6I.	c #919A8A",
"7I.	c #A4A998",
"8I.	c #BBC5B3",
"9I.	c #C2C8B6",
"0I.	c #ADB6A0",
"aI.	c #B9C0AA",
"bI.	c #CAD4BD",
"cI.	c #D5E1C8",
"dI.	c #D9E0CA",
"eI.	c #DCE0CC",
"fI.	c #DBDFCE",
"gI.	c #D5DDC9",
"hI.	c #D5DFC7",
"iI.	c #D7E1CB",
"jI.	c #E1E7D6",
"kI.	c #C0C1B4",
"lI.	c #1E1D1D",
"mI.	c #161C29",
"nI.	c #87A7BB",
"oI.	c #A5D2DD",
"pI.	c #5F7677",
"qI.	c #B3584E",
"rI.	c #EF7B60",
"sI.	c #F89668",
"tI.	c #ED7957",
"uI.	c #EE7C5A",
"vI.	c #ED825D",
"wI.	c #EF855D",
"xI.	c #FA9C6E",
"yI.	c #EF9164",
"zI.	c #EF8C5E",
"AI.	c #C47F73",
"BI.	c #554D8B",
"CI.	c #3C54A9",
"DI.	c #3A54A4",
"EI.	c #3454A2",
"FI.	c #3355A7",
"GI.	c #2E52A3",
"HI.	c #2A50A2",
"II.	c #2952A6",
"JI.	c #2551A5",
"KI.	c #2254A8",
"LI.	c #2052A5",
"MI.	c #2556A9",
"NI.	c #2452A9",
"OI.	c #1C56AC",
"PI.	c #1E57AC",
"QI.	c #1C53A9",
"RI.	c #1A52A8",
"SI.	c #2951AB",
"TI.	c #2C53A7",
"UI.	c #3752A4",
"VI.	c #845585",
"WI.	c #E6776F",
"XI.	c #F57E63",
"YI.	c #F37B61",
"ZI.	c #EF765C",
"`I.	c #F77F62",
" J.	c #F88464",
".J.	c #F38563",
"+J.	c #EF5C50",
"@J.	c #F1554C",
"#J.	c #ED5148",
"$J.	c #EA5448",
"%J.	c #F16352",
"&J.	c #F66E5B",
"*J.	c #F17357",
"=J.	c #F27B5D",
"-J.	c #F67F5D",
";J.	c #F37A59",
">J.	c #EE7153",
",J.	c #EE6D53",
"'J.	c #F38C55",
")J.	c #F8935B",
"!J.	c #F2955A",
"~J.	c #F89E64",
"{J.	c #EC8C5A",
"]J.	c #F49164",
"^J.	c #F5945F",
"/J.	c #F89860",
"(J.	c #F3955C",
"_J.	c #F2965E",
":J.	c #F49461",
"<J.	c #F58A5B",
"[J.	c #EB7A4F",
"}J.	c #F37B55",
"|J.	c #F16C4F",
"1J.	c #F15547",
"2J.	c #F04F42",
"3J.	c #F0463F",
"4J.	c #E83034",
"5J.	c #E2252E",
"6J.	c #DA1E24",
"7J.	c #DC3532",
"8J.	c #F57558",
"9J.	c #F27A58",
"0J.	c #F47958",
"aJ.	c #ED704F",
"bJ.	c #F17351",
"cJ.	c #F1654E",
"dJ.	c #EC5542",
"eJ.	c #E73A33",
"fJ.	c #E43638",
"gJ.	c #E02732",
"hJ.	c #DE2734",
"iJ.	c #C12131",
"jJ.	c #830D1B",
"kJ.	c #5A1A19",
"lJ.	c #662E2B",
"mJ.	c #67302D",
"nJ.	c #4E2627",
"oJ.	c #4B2227",
"pJ.	c #653032",
"qJ.	c #652E2C",
"rJ.	c #683130",
"sJ.	c #68312F",
"tJ.	c #66302E",
"uJ.	c #582E29",
"vJ.	c #737D6C",
"wJ.	c #D6EED1",
"xJ.	c #E2EDD3",
"yJ.	c #DBE2CA",
"zJ.	c #DDE1CA",
"AJ.	c #DCE0C8",
"BJ.	c #DEE2C9",
"CJ.	c #DCE1C5",
"DJ.	c #DADEC5",
"EJ.	c #D9DDC8",
"FJ.	c #D9DDC6",
"GJ.	c #D9DFC6",
"HJ.	c #D9DEC8",
"IJ.	c #DEDBC9",
"JJ.	c #B9ADA1",
"KJ.	c #8A7F76",
"LJ.	c #C8C6B9",
"MJ.	c #DBDEC8",
"NJ.	c #DDDFC5",
"OJ.	c #DEE2C5",
"PJ.	c #DADDC2",
"QJ.	c #DFDEC5",
"RJ.	c #BAB6A3",
"SJ.	c #777169",
"TJ.	c #C4BCAF",
"UJ.	c #908A62",
"VJ.	c #6D6954",
"WJ.	c #7B7F74",
"XJ.	c #CAD5C4",
"YJ.	c #929785",
"ZJ.	c #A2A995",
"`J.	c #BBC4B2",
" K.	c #CAD4C0",
".K.	c #C5CFB8",
"+K.	c #D4DFC6",
"@K.	c #D3DDC4",
"#K.	c #D8DFC7",
"$K.	c #E0E0CC",
"%K.	c #DDE0CD",
"&K.	c #D7DEC9",
"*K.	c #D4DFC5",
"=K.	c #D5E0C9",
"-K.	c #E1E6D4",
";K.	c #BBBBB0",
">K.	c #1A191A",
",K.	c #0A0E1D",
"'K.	c #72889C",
")K.	c #A6D1E1",
"!K.	c #8FB9BB",
"~K.	c #7D4746",
"{K.	c #E87964",
"]K.	c #F68260",
"^K.	c #EE765A",
"/K.	c #F0785A",
"(K.	c #F27F5C",
"_K.	c #F98D62",
":K.	c #F69464",
"<K.	c #F39563",
"[K.	c #F99969",
"}K.	c #F48B60",
"|K.	c #EF7D59",
"1K.	c #F3855D",
"2K.	c #F98E64",
"3K.	c #F3805D",
"4K.	c #F99467",
"5K.	c #F69366",
"6K.	c #EE8E62",
"7K.	c #F7996B",
"8K.	c #FA9C70",
"9K.	c #CA887B",
"0K.	c #564D8D",
"aK.	c #3953A2",
"bK.	c #3554A3",
"cK.	c #3253A4",
"dK.	c #2D51A2",
"eK.	c #2952A1",
"fK.	c #2155A7",
"gK.	c #2055A7",
"hK.	c #2353A4",
"iK.	c #2455A7",
"jK.	c #1E52A6",
"kK.	c #1A53A9",
"lK.	c #1D56AB",
"mK.	c #2656AF",
"nK.	c #2C52A7",
"oK.	c #3053A8",
"pK.	c #845885",
"qK.	c #E77D72",
"rK.	c #F48165",
"sK.	c #F27E62",
"tK.	c #F1775C",
"uK.	c #F78062",
"vK.	c #F88362",
"wK.	c #F0745C",
"xK.	c #EF6755",
"yK.	c #EA5148",
"zK.	c #EC4743",
"AK.	c #E94D43",
"BK.	c #ED594B",
"CK.	c #F6745C",
"DK.	c #EF7256",
"EK.	c #EB6C51",
"FK.	c #F57F5F",
"GK.	c #F27956",
"HK.	c #ED6D52",
"IK.	c #F17257",
"JK.	c #FA985F",
"KK.	c #F4955B",
"LK.	c #F79A62",
"MK.	c #CA6C42",
"NK.	c #CE6C52",
"OK.	c #F3915C",
"PK.	c #F18956",
"QK.	c #F28D5A",
"RK.	c #F2945E",
"SK.	c #F49863",
"TK.	c #F28B59",
"UK.	c #EA7A4E",
"VK.	c #F17B54",
"WK.	c #ED694B",
"XK.	c #EF6049",
"YK.	c #F05D49",
"ZK.	c #F35D4A",
"`K.	c #E93837",
" L.	c #E52C31",
".L.	c #E0242A",
"+L.	c #DE2129",
"@L.	c #DB1F25",
"#L.	c #DF3935",
"$L.	c #F36654",
"%L.	c #F67859",
"&L.	c #F47E5A",
"*L.	c #F27A57",
"=L.	c #EF7552",
"-L.	c #F27653",
";L.	c #F27052",
">L.	c #EC5E47",
",L.	c #ED5845",
"'L.	c #E53A34",
")L.	c #E12834",
"!L.	c #C62531",
"~L.	c #7C1116",
"{L.	c #591F1C",
"]L.	c #62312F",
"^L.	c #68322F",
"/L.	c #64302C",
"(L.	c #401C1B",
"_L.	c #5A2E30",
":L.	c #6A312E",
"<L.	c #6B2E2E",
"[L.	c #6A3130",
"}L.	c #65312E",
"|L.	c #642E2D",
"1L.	c #642E2E",
"2L.	c #492D27",
"3L.	c #ADC0A8",
"4L.	c #DEF0D3",
"5L.	c #E1EAD0",
"6L.	c #DAE1CA",
"7L.	c #D7DCC5",
"8L.	c #DCE0C7",
"9L.	c #DDE1C7",
"0L.	c #DADEC2",
"aL.	c #C6C1B0",
"bL.	c #857C70",
"cL.	c #C8C3B7",
"dL.	c #DDDECD",
"eL.	c #DFDEC6",
"fL.	c #DBDCC1",
"gL.	c #DBDFC4",
"hL.	c #DBDDC4",
"iL.	c #E1DFCA",
"jL.	c #DCD9C6",
"kL.	c #9D9B8E",
"lL.	c #99948F",
"mL.	c #C9C3B8",
"nL.	c #C0BFB3",
"oL.	c #A5A99A",
"pL.	c #D3D9C4",
"qL.	c #9FA38F",
"rL.	c #BDC2AC",
"sL.	c #C7CFBC",
"tL.	c #D7E2CD",
"uL.	c #D7E1C8",
"vL.	c #D9DFC7",
"wL.	c #CCC8B5",
"xL.	c #D5D2C1",
"yL.	c #DCE0CE",
"zL.	c #DFE1D2",
"AL.	c #DAE0CB",
"BL.	c #D4DEC5",
"CL.	c #D4E0C9",
"DL.	c #DDE2D1",
"EL.	c #BBBDB1",
"FL.	c #1A1A1A",
"GL.	c #050616",
"HL.	c #536476",
"IL.	c #ACCFE6",
"JL.	c #A5D3DF",
"KL.	c #7E7683",
"LL.	c #C76158",
"ML.	c #F0795A",
"NL.	c #F47D5C",
"OL.	c #F79767",
"PL.	c #F88862",
"QL.	c #FA9268",
"RL.	c #CF8A7D",
"SL.	c #574D8D",
"TL.	c #3B53A8",
"UL.	c #3954A3",
"VL.	c #3654A0",
"WL.	c #3555A4",
"XL.	c #3151A3",
"YL.	c #2B50A0",
"ZL.	c #2154A6",
"`L.	c #2052A6",
" M.	c #2050A7",
".M.	c #2354A4",
"+M.	c #1F53A5",
"@M.	c #1F54A7",
"#M.	c #2257AB",
"$M.	c #1F59AD",
"%M.	c #1D53A8",
"&M.	c #1951A5",
"*M.	c #1750A6",
"=M.	c #2952A9",
"-M.	c #2C52A9",
";M.	c #324FA3",
">M.	c #855A87",
",M.	c #E88377",
"'M.	c #F18364",
")M.	c #F07B5E",
"!M.	c #F1795E",
"~M.	c #F07656",
"{M.	c #F27A5E",
"]M.	c #F67B61",
"^M.	c #F16857",
"/M.	c #E54942",
"(M.	c #E43F3A",
"_M.	c #E7423C",
":M.	c #E94941",
"<M.	c #EE5649",
"[M.	c #F36352",
"}M.	c #F47058",
"|M.	c #F17156",
"1M.	c #EA6B50",
"2M.	c #F3785B",
"3M.	c #F07655",
"4M.	c #F27355",
"5M.	c #F27558",
"6M.	c #F6965C",
"7M.	c #FD9F64",
"8M.	c #F8995F",
"9M.	c #F69861",
"0M.	c #CE744C",
"aM.	c #AC5143",
"bM.	c #F7946B",
"cM.	c #F08958",
"dM.	c #F18254",
"eM.	c #F78B5C",
"fM.	c #F7925F",
"gM.	c #F69A64",
"hM.	c #F58F5C",
"iM.	c #EC7D4F",
"jM.	c #EC6C4B",
"kM.	c #EC6246",
"lM.	c #ED6147",
"mM.	c #F4664E",
"nM.	c #F2634C",
"oM.	c #ED543F",
"pM.	c #EB493C",
"qM.	c #EE393B",
"rM.	c #E1252C",
"sM.	c #DF2329",
"tM.	c #DC2126",
"uM.	c #E03A34",
"vM.	c #F26753",
"wM.	c #F58059",
"xM.	c #ED7650",
"yM.	c #EF7652",
"zM.	c #F17353",
"AM.	c #ED624A",
"BM.	c #ED5444",
"CM.	c #EA483D",
"DM.	c #E33D36",
"EM.	c #ED3A3B",
"FM.	c #EB323A",
"GM.	c #D52E3A",
"HM.	c #861119",
"IM.	c #5B201D",
"JM.	c #5F322D",
"KM.	c #643431",
"LM.	c #67302F",
"MM.	c #5C2B26",
"NM.	c #421F1B",
"OM.	c #633335",
"PM.	c #6C3233",
"QM.	c #6A332F",
"RM.	c #6B3130",
"SM.	c #65302D",
"TM.	c #662E2E",
"UM.	c #602F31",
"VM.	c #4C463B",
"WM.	c #CEE4C6",
"XM.	c #DFECD0",
"YM.	c #DEE6CD",
"ZM.	c #D8E0C8",
"`M.	c #D7DDC5",
" N.	c #D8DCC4",
".N.	c #DBDFC5",
"+N.	c #DCE0C5",
"@N.	c #D8DDC0",
"#N.	c #DCDFC6",
"$N.	c #DCDCC7",
"%N.	c #DADCC7",
"&N.	c #DEDFCA",
"*N.	c #DFDCC8",
"=N.	c #C7C5B2",
"-N.	c #898475",
";N.	c #C4C0B2",
">N.	c #DBD9CC",
",N.	c #DFDCCD",
"'N.	c #DBD2BD",
")N.	c #D1CDB4",
"!N.	c #DBDCC4",
"~N.	c #DFDCC7",
"{N.	c #E2DDCA",
"]N.	c #DFDDCB",
"^N.	c #D2D3C1",
"/N.	c #76766B",
"(N.	c #C1BBBA",
"_N.	c #E0DFD5",
":N.	c #CFD2C1",
"<N.	c #DEE0CB",
"[N.	c #D2D6BF",
"}N.	c #D6DBC3",
"|N.	c #D6DDC8",
"1N.	c #D9E1CB",
"2N.	c #DBE4CB",
"3N.	c #DAE3C9",
"4N.	c #DCE3CB",
"5N.	c #D8DCC6",
"6N.	c #9C9885",
"7N.	c #8D8779",
"8N.	c #A3A297",
"9N.	c #DDDAD0",
"0N.	c #DFE1D0",
"aN.	c #D8E3C9",
"bN.	c #D5E1CA",
"cN.	c #C3C6B9",
"dN.	c #20201E",
"eN.	c #02020E",
"fN.	c #333C4C",
"gN.	c #A6BEDC",
"hN.	c #B2D9F2",
"iN.	c #909CB0",
"jN.	c #9F4D49",
"kN.	c #F07D5A",
"lN.	c #EF7959",
"mN.	c #F7805D",
"nN.	c #EE7A58",
"oN.	c #F68761",
"pN.	c #F5865F",
"qN.	c #F49063",
"rN.	c #F09164",
"sN.	c #3A53A8",
"tN.	c #3A54A3",
"uN.	c #36539F",
"vN.	c #3453A2",
"wN.	c #2F50A1",
"xN.	c #2A4F9F",
"yN.	c #2950A1",
"zN.	c #1E54A7",
"AN.	c #1F55A8",
"BN.	c #2456A2",
"CN.	c #1F54A4",
"DN.	c #2056A6",
"EN.	c #2256A8",
"FN.	c #225CB0",
"GN.	c #215BB0",
"HN.	c #1B54A9",
"IN.	c #1953A6",
"JN.	c #1450A0",
"KN.	c #12509F",
"LN.	c #184FA5",
"MN.	c #2E51A8",
"NN.	c #2F4CA1",
"ON.	c #835985",
"PN.	c #E88979",
"QN.	c #EF8362",
"RN.	c #EF7C5F",
"SN.	c #F4795A",
"TN.	c #F37859",
"UN.	c #F3765D",
"VN.	c #F06755",
"WN.	c #E64942",
"XN.	c #E53E3B",
"YN.	c #E84840",
"ZN.	c #EC5448",
"`N.	c #F06A54",
" O.	c #EA7554",
".O.	c #EB7352",
"+O.	c #F7945B",
"@O.	c #F49A5E",
"#O.	c #F4985E",
"$O.	c #F4995F",
"%O.	c #DE8357",
"&O.	c #943F31",
"*O.	c #F18C65",
"=O.	c #EF8357",
"-O.	c #EF7D53",
";O.	c #F6875A",
">O.	c #F48A59",
",O.	c #F4955F",
"'O.	c #F68F5C",
")O.	c #EF8152",
"!O.	c #F37F55",
"~O.	c #ED6F4C",
"{O.	c #EE674A",
"]O.	c #F46C50",
"^O.	c #F1684D",
"/O.	c #F1624A",
"(O.	c #EF5841",
"_O.	c #EA4A3B",
":O.	c #E92F34",
"<O.	c #E1252B",
"[O.	c #E43E38",
"}O.	c #F97D5B",
"|O.	c #F68259",
"1O.	c #F07C53",
"2O.	c #F27D57",
"3O.	c #F57959",
"4O.	c #F16F52",
"5O.	c #EF674F",
"6O.	c #E8493D",
"7O.	c #E8443A",
"8O.	c #D7363D",
"9O.	c #911D20",
"0O.	c #601C1D",
"aO.	c #663031",
"bO.	c #673230",
"cO.	c #663330",
"dO.	c #65302F",
"eO.	c #552420",
"fO.	c #4C2B25",
"gO.	c #683434",
"hO.	c #6C3332",
"iO.	c #693430",
"jO.	c #6A312F",
"kO.	c #69312F",
"lO.	c #562E2F",
"mO.	c #707466",
"nO.	c #DAECCE",
"oO.	c #DDE7CB",
"pO.	c #DBE3C9",
"qO.	c #D9E0C9",
"rO.	c #DADEC6",
"sO.	c #DBE0C2",
"tO.	c #D9DFC2",
"uO.	c #DCDEC5",
"vO.	c #DDDBC7",
"wO.	c #DDDAC7",
"xO.	c #D0C6B5",
"yO.	c #8B8677",
"zO.	c #B8B6A7",
"AO.	c #E0DED0",
"BO.	c #E0DBCF",
"CO.	c #C2BBAF",
"DO.	c #9C8F7F",
"EO.	c #BEB6A1",
"FO.	c #DCD9C4",
"GO.	c #C4BAAA",
"HO.	c #CEC5B6",
"IO.	c #DAD9C9",
"JO.	c #D7DBC8",
"KO.	c #BBBBAC",
"LO.	c #898681",
"MO.	c #D4D2CA",
"NO.	c #DADACB",
"OO.	c #DEE0CC",
"PO.	c #DCE0C9",
"QO.	c #D7DCC2",
"RO.	c #D8DDC7",
"SO.	c #DDE1CD",
"TO.	c #DCE1C9",
"UO.	c #DBE1C9",
"VO.	c #CECDB8",
"WO.	c #BFB9AC",
"XO.	c #77726C",
"YO.	c #9E9492",
"ZO.	c #DFDCD1",
"`O.	c #DDE6CD",
" P.	c #D6E2CB",
".P.	c #DDE4D2",
"+P.	c #CBCFC2",
"@P.	c #242622",
"#P.	c #030408",
"$P.	c #0F1321",
"%P.	c #687997",
"&P.	c #AFC9EA",
"*P.	c #6B7D93",
"=P.	c #834038",
"-P.	c #ED7E60",
";P.	c #F07C5A",
">P.	c #F9835F",
",P.	c #F3845C",
"'P.	c #F88C61",
")P.	c #FA9B69",
"!P.	c #F09061",
"~P.	c #F28A5F",
"{P.	c #EC8457",
"]P.	c #F69668",
"^P.	c #F79C6E",
"/P.	c #EE8E60",
"(P.	c #F18F64",
"_P.	c #C57E73",
":P.	c #564C8C",
"<P.	c #3653A0",
"[P.	c #3352A1",
"}P.	c #2F4FA1",
"|P.	c #2C51A1",
"1P.	c #284FA1",
"2P.	c #2850A9",
"3P.	c #2352A6",
"4P.	c #1E51A5",
"5P.	c #1D55A6",
"6P.	c #1D56A8",
"7P.	c #2155A6",
"8P.	c #2557A2",
"9P.	c #2257A4",
"0P.	c #1F55A5",
"aP.	c #2058A6",
"bP.	c #2156A8",
"cP.	c #1F51A7",
"dP.	c #1A54A8",
"eP.	c #1C55AB",
"fP.	c #1255A2",
"gP.	c #10579E",
"hP.	c #11599E",
"iP.	c #1553A1",
"jP.	c #174FA3",
"kP.	c #2D4FA8",
"lP.	c #2F4BA1",
"mP.	c #855B87",
"nP.	c #F09080",
"oP.	c #F38566",
"pP.	c #F18062",
"qP.	c #EE7759",
"rP.	c #F07758",
"sP.	c #EF7059",
"tP.	c #EE6352",
"uP.	c #E94B45",
"vP.	c #E7413D",
"wP.	c #E7473F",
"xP.	c #EB5547",
"yP.	c #EE6650",
"zP.	c #EE6B52",
"AP.	c #F27257",
"BP.	c #EB7655",
"CP.	c #F58060",
"DP.	c #EE6F52",
"EP.	c #F07456",
"FP.	c #F08F56",
"GP.	c #F39860",
"HP.	c #F5985F",
"IP.	c #E38657",
"JP.	c #873725",
"KP.	c #EE8764",
"LP.	c #F07C51",
"MP.	c #F48355",
"NP.	c #F28A57",
"OP.	c #F48E58",
"PP.	c #F8875B",
"QP.	c #EE6C4B",
"RP.	c #F16D4C",
"SP.	c #F06A49",
"TP.	c #EE6447",
"UP.	c #EE5F43",
"VP.	c #EC503D",
"WP.	c #ED473E",
"XP.	c #E63D38",
"YP.	c #E73736",
"ZP.	c #E62E30",
"`P.	c #E4282E",
" Q.	c #DD2027",
".Q.	c #D92025",
"+Q.	c #EA443F",
"@Q.	c #F17F57",
"#Q.	c #ED7D52",
"$Q.	c #F48158",
"%Q.	c #F38059",
"&Q.	c #F98460",
"*Q.	c #F17657",
"=Q.	c #ED6A50",
"-Q.	c #F4614E",
";Q.	c #F04E44",
">Q.	c #E23F40",
",Q.	c #9F1F24",
"'Q.	c #651513",
")Q.	c #692F2C",
"!Q.	c #6A3232",
"~Q.	c #693131",
"{Q.	c #6A3431",
"]Q.	c #5D2A27",
"^Q.	c #60332E",
"/Q.	c #693231",
"(Q.	c #693330",
"_Q.	c #6A3131",
":Q.	c #4F2D2B",
"<Q.	c #8D9484",
"[Q.	c #DDE9CE",
"}Q.	c #DEE4CB",
"|Q.	c #DAE0C8",
"1Q.	c #DCE2CB",
"2Q.	c #DBE0C7",
"3Q.	c #D9DBC5",
"4Q.	c #D9DBC6",
"5Q.	c #D1CFBD",
"6Q.	c #97917F",
"7Q.	c #B8B8A6",
"8Q.	c #DDDCCC",
"9Q.	c #DEDBCF",
"0Q.	c #B3A79F",
"aQ.	c #877D74",
"bQ.	c #B5AC9E",
"cQ.	c #D6D4C1",
"dQ.	c #D6DAC4",
"eQ.	c #9E998B",
"fQ.	c #787267",
"gQ.	c #AFAFA2",
"hQ.	c #D8D9CB",
"iQ.	c #D5D5CC",
"jQ.	c #807E7A",
"kQ.	c #C6C7BF",
"lQ.	c #D9DACE",
"mQ.	c #DDDECB",
"nQ.	c #DEE1CA",
"oQ.	c #D6DDC3",
"pQ.	c #DBDDCA",
"qQ.	c #DCE1CC",
"rQ.	c #D9DEC5",
"sQ.	c #DBDCC6",
"tQ.	c #D8DCC7",
"uQ.	c #E0E1CE",
"vQ.	c #E4DDCF",
"wQ.	c #72635F",
"xQ.	c #4B2D2D",
"yQ.	c #B7ACA3",
"zQ.	c #DEE1CE",
"AQ.	c #D5E0CC",
"BQ.	c #DEE2D1",
"CQ.	c #D6D9CA",
"DQ.	c #31322C",
"EQ.	c #010307",
"FQ.	c #02030D",
"GQ.	c #1B2238",
"HQ.	c #646D8B",
"IQ.	c #30374B",
"JQ.	c #7B3B2F",
"KQ.	c #EB7F5E",
"LQ.	c #F6835E",
"MQ.	c #F68C5E",
"NQ.	c #F18A5B",
"OQ.	c #F69160",
"PQ.	c #F49662",
"QQ.	c #EF7F59",
"RQ.	c #F58D61",
"SQ.	c #F38E5E",
"TQ.	c #F18D5D",
"UQ.	c #F08D5D",
"VQ.	c #EE8C5B",
"WQ.	c #FA9E72",
"XQ.	c #CB8176",
"YQ.	c #594D8C",
"ZQ.	c #3D50A8",
"`Q.	c #3853A0",
" R.	c #32529F",
".R.	c #3253A2",
"+R.	c #3252A2",
"@R.	c #2D51A1",
"#R.	c #2951A2",
"$R.	c #2952AB",
"%R.	c #2554A6",
"&R.	c #1E50A5",
"*R.	c #2154A7",
"=R.	c #1C51A4",
"-R.	c #1E55A9",
";R.	c #1E55A6",
">R.	c #2258A4",
",R.	c #1E55A4",
"'R.	c #1E56A5",
")R.	c #2157A7",
"!R.	c #1F52A6",
"~R.	c #2458AD",
"{R.	c #1B54A8",
"]R.	c #1C54A8",
"^R.	c #1B54A7",
"/R.	c #1653A0",
"(R.	c #18659F",
"_R.	c #3597BE",
":R.	c #2F99BE",
"<R.	c #10639D",
"[R.	c #1553A2",
"}R.	c #1A55A7",
"|R.	c #2153A7",
"1R.	c #2752A7",
"2R.	c #2D50A8",
"3R.	c #334DA4",
"4R.	c #875A89",
"5R.	c #F28F81",
"6R.	c #FA8F6C",
"7R.	c #F08061",
"8R.	c #F48363",
"9R.	c #EF795A",
"0R.	c #EC6A55",
"aR.	c #EA5A4B",
"bR.	c #E84940",
"cR.	c #E83F3A",
"dR.	c #EA4A42",
"eR.	c #EF6651",
"fR.	c #F17458",
"gR.	c #F0795B",
"hR.	c #EE7D5D",
"iR.	c #F98769",
"jR.	c #F47757",
"kR.	c #F6985E",
"lR.	c #F89960",
"mR.	c #F5965F",
"nR.	c #F2955C",
"oR.	c #E9905C",
"pR.	c #863926",
"qR.	c #E88465",
"rR.	c #F27E52",
"sR.	c #F08052",
"tR.	c #F58E5B",
"uR.	c #F18453",
"vR.	c #F58A5C",
"wR.	c #F77E58",
"xR.	c #EF6D4C",
"yR.	c #EF6B4D",
"zR.	c #F06B4A",
"AR.	c #F16949",
"BR.	c #F06648",
"CR.	c #EF6245",
"DR.	c #EE5541",
"ER.	c #E73031",
"FR.	c #E1282C",
"GR.	c #DB1F26",
"HR.	c #D71E22",
"IR.	c #E94540",
"JR.	c #EF7958",
"KR.	c #EE8156",
"LR.	c #F28359",
"MR.	c #F6845E",
"NR.	c #F06D52",
"OR.	c #F46652",
"PR.	c #F3524A",
"QR.	c #E84845",
"RR.	c #AA2427",
"SR.	c #671515",
"TR.	c #6A2929",
"UR.	c #683030",
"VR.	c #6B3431",
"WR.	c #66322F",
"XR.	c #693432",
"YR.	c #68312E",
"ZR.	c #673030",
"`R.	c #693030",
" S.	c #4F302D",
".S.	c #A6AD9D",
"+S.	c #DEE8CF",
"@S.	c #DEE4CA",
"#S.	c #DADFC6",
"$S.	c #D9DDC5",
"%S.	c #D9DCC6",
"&S.	c #D8D9C5",
"*S.	c #D3D2BC",
"=S.	c #C7C4AC",
"-S.	c #D9DBC4",
";S.	c #DCDDCA",
">S.	c #BBB6AC",
",S.	c #928D83",
"'S.	c #CDCEC0",
")S.	c #DBDBCC",
"!S.	c #DDDBCB",
"~S.	c #E0DFCE",
"{S.	c #D7D3C7",
"]S.	c #B5B4AA",
"^S.	c #79776F",
"/S.	c #B9B9B2",
"(S.	c #D9DDD4",
"_S.	c #A4A7A2",
":S.	c #A0A29C",
"<S.	c #D6D8D0",
"[S.	c #DADDCC",
"}S.	c #DDE0C9",
"|S.	c #D8E0C6",
"1S.	c #D8DBC4",
"2S.	c #DCDBC4",
"3S.	c #DADBC7",
"4S.	c #D5E1CF",
"5S.	c #E2E3D3",
"6S.	c #BAABA1",
"7S.	c #672C30",
"8S.	c #7B1726",
"9S.	c #6A4A47",
"0S.	c #D8DDD2",
"aS.	c #DEE0D3",
"bS.	c #DBE3CF",
"cS.	c #50544A",
"dS.	c #030407",
"eS.	c #050109",
"fS.	c #050111",
"gS.	c #0B081B",
"hS.	c #100311",
"iS.	c #7D3B2C",
"jS.	c #E8805C",
"kS.	c #EF825D",
"lS.	c #F99463",
"mS.	c #F89665",
"nS.	c #F49360",
"oS.	c #F2935E",
"pS.	c #F68D60",
"qS.	c #F99566",
"rS.	c #F79966",
"sS.	c #ED9661",
"tS.	c #F09763",
"uS.	c #F29965",
"vS.	c #F59769",
"wS.	c #F8986D",
"xS.	c #ED855D",
"yS.	c #CF8478",
"zS.	c #5C4E8D",
"AS.	c #3D4FA8",
"BS.	c #3854A0",
"CS.	c #32529E",
"DS.	c #3455A2",
"ES.	c #3252A1",
"FS.	c #2B4F9F",
"GS.	c #2B53A4",
"HS.	c #2351A5",
"IS.	c #2454A4",
"JS.	c #2055A8",
"KS.	c #1D53A6",
"LS.	c #1F55A7",
"MS.	c #2256A7",
"NS.	c #2057A9",
"OS.	c #1E56A6",
"PS.	c #1F57A4",
"QS.	c #1E58A7",
"RS.	c #1C56A5",
"SS.	c #2558AF",
"TS.	c #1A54A6",
"US.	c #18589C",
"VS.	c #4FACC9",
"WS.	c #6FEFF9",
"XS.	c #60EDF6",
"YS.	c #32A9C2",
"ZS.	c #135FA3",
"`S.	c #1A57A6",
" T.	c #1F52A5",
".T.	c #2C4FA6",
"+T.	c #334DA5",
"@T.	c #855789",
"#T.	c #E88376",
"$T.	c #EE815D",
"%T.	c #F17B57",
"&T.	c #EC6F55",
"*T.	c #EB6450",
"=T.	c #E8483D",
"-T.	c #E93E38",
";T.	c #EA403B",
">T.	c #EC4E46",
",T.	c #F06150",
"'T.	c #F5795B",
")T.	c #EF7E5C",
"!T.	c #F28161",
"~T.	c #EE7558",
"{T.	c #F57858",
"]T.	c #F37656",
"^T.	c #F89E62",
"/T.	c #EB8952",
"(T.	c #EF9056",
"_T.	c #F89E63",
":T.	c #EF9B62",
"<T.	c #88432C",
"[T.	c #D4795E",
"}T.	c #F5845E",
"|T.	c #F38155",
"1T.	c #EE7E51",
"2T.	c #F58D59",
"3T.	c #F49059",
"4T.	c #F9925B",
"5T.	c #F48855",
"6T.	c #F06C4C",
"7T.	c #EC694A",
"8T.	c #F26D4C",
"9T.	c #F26B4A",
"0T.	c #F1684A",
"aT.	c #F15A44",
"bT.	c #F24441",
"cT.	c #EE3F3D",
"dT.	c #E52F30",
"eT.	c #DE2229",
"fT.	c #D81F24",
"gT.	c #E6463F",
"hT.	c #F06552",
"iT.	c #F07A57",
"jT.	c #EE8458",
"kT.	c #F5845B",
"lT.	c #F2674E",
"mT.	c #F25350",
"nT.	c #B73234",
"oT.	c #691817",
"pT.	c #632E2E",
"qT.	c #6A3332",
"rT.	c #6A3230",
"sT.	c #663430",
"tT.	c #6B3232",
"uT.	c #68312D",
"vT.	c #4F3330",
"wT.	c #B7BCAC",
"xT.	c #DBE5CC",
"yT.	c #DEE4C9",
"zT.	c #D8DCC1",
"AT.	c #D8DCC5",
"BT.	c #D7DAC4",
"CT.	c #D9DAC6",
"DT.	c #D6D6C2",
"ET.	c #D9D9C0",
"FT.	c #DCDBC0",
"GT.	c #DEE0C8",
"HT.	c #D9D6C5",
"IT.	c #958F86",
"JT.	c #CFCDC3",
"KT.	c #DFDBD0",
"LT.	c #DCD0C6",
"MT.	c #CFBCB2",
"NT.	c #CCB3AE",
"OT.	c #C7B1AD",
"PT.	c #CDBDB7",
"QT.	c #B2A09D",
"RT.	c #6E6764",
"ST.	c #CED0C9",
"TT.	c #C9CEC8",
"UT.	c #7B7E78",
"VT.	c #C7CAC3",
"WT.	c #DBDDD0",
"XT.	c #D9DCCA",
"YT.	c #DADCC8",
"ZT.	c #DBDCC9",
"`T.	c #DEDAC6",
" U.	c #DCDBC9",
".U.	c #DBE2D5",
"+U.	c #D0C4BB",
"@U.	c #6D4241",
"#U.	c #921228",
"$U.	c #B11730",
"%U.	c #821320",
"&U.	c #836A67",
"*U.	c #CCC1BF",
"=U.	c #DDDAD3",
"-U.	c #DFE5DA",
";U.	c #838883",
">U.	c #040807",
",U.	c #020206",
"'U.	c #040208",
")U.	c #030108",
"!U.	c #15040A",
"~U.	c #8E4835",
"{U.	c #E9825C",
"]U.	c #F18A61",
"^U.	c #EE845C",
"/U.	c #F5855F",
"(U.	c #F99866",
"_U.	c #EF905B",
":U.	c #F88E62",
"<U.	c #F9A16C",
"[U.	c #FAAD75",
"}U.	c #F3A76E",
"|U.	c #F8A871",
"1U.	c #F7A16D",
"2U.	c #F7956A",
"3U.	c #EB855B",
"4U.	c #CD7F76",
"5U.	c #5A4C8C",
"6U.	c #3C50A7",
"7U.	c #38549F",
"8U.	c #33529D",
"9U.	c #304F9F",
"0U.	c #2C50A0",
"aU.	c #2B53A3",
"bU.	c #254EA4",
"cU.	c #2750A8",
"dU.	c #2351A4",
"eU.	c #2453A3",
"fU.	c #2056A9",
"gU.	c #1E55A7",
"hU.	c #1F57A8",
"iU.	c #2158A8",
"jU.	c #1E56A4",
"kU.	c #1E5AA7",
"lU.	c #1B57A5",
"mU.	c #1F56A6",
"nU.	c #2158AE",
"oU.	c #2058AB",
"pU.	c #1E57A8",
"qU.	c #1854A4",
"rU.	c #2971A5",
"sU.	c #74EAF0",
"tU.	c #6FFDF9",
"uU.	c #61FEFA",
"vU.	c #51E2EC",
"wU.	c #1874A7",
"xU.	c #1B59A6",
"yU.	c #1D55A8",
"zU.	c #1E53A8",
"AU.	c #2254A7",
"BU.	c #2053A4",
"CU.	c #2954AA",
"DU.	c #2A4EA5",
"EU.	c #324DA4",
"FU.	c #825589",
"GU.	c #E37C71",
"HU.	c #ED7F5C",
"IU.	c #F6825B",
"JU.	c #EF6350",
"KU.	c #EB5545",
"LU.	c #EA493E",
"MU.	c #EC5147",
"NU.	c #ED5B4C",
"OU.	c #F17356",
"PU.	c #EA7A5A",
"QU.	c #F39D60",
"RU.	c #E98951",
"SU.	c #F0975C",
"TU.	c #FAA46A",
"UU.	c #925338",
"VU.	c #B76A50",
"WU.	c #F58458",
"XU.	c #F18355",
"YU.	c #F28B56",
"ZU.	c #F38F57",
"`U.	c #F68F56",
" V.	c #F48753",
".V.	c #FA8F5E",
"+V.	c #F47952",
"@V.	c #ED6A4A",
"#V.	c #ED6B4B",
"$V.	c #F2714F",
"%V.	c #F06B4B",
"&V.	c #F15C46",
"*V.	c #EF403D",
"=V.	c #E93C39",
"-V.	c #E53030",
";V.	c #E74942",
">V.	c #F06652",
",V.	c #EB7452",
"'V.	c #F18357",
")V.	c #F37B57",
"!V.	c #F2664C",
"~V.	c #C94543",
"{V.	c #5E0F11",
"]V.	c #572A23",
"^V.	c #6B3530",
"/V.	c #6A3331",
"(V.	c #6B312E",
"_V.	c #683331",
":V.	c #6C3433",
"<V.	c #6B3230",
"[V.	c #67322E",
"}V.	c #673130",
"|V.	c #513532",
"1V.	c #C5CABA",
"2V.	c #DDE2C8",
"3V.	c #DCDEC7",
"4V.	c #D9DCC4",
"5V.	c #DADBC6",
"6V.	c #D6D5C1",
"7V.	c #D9D8C3",
"8V.	c #DADCC5",
"9V.	c #DFDCCC",
"0V.	c #B3A59E",
"aV.	c #C4AEAC",
"bV.	c #C9B1AF",
"cV.	c #9B7B7A",
"dV.	c #785050",
"eV.	c #6B3537",
"fV.	c #6E2A31",
"gV.	c #6D2A30",
"hV.	c #70373A",
"iV.	c #79484B",
"jV.	c #533033",
"kV.	c #8B8480",
"lV.	c #D6D9D3",
"mV.	c #A1A29A",
"nV.	c #83837B",
"oV.	c #D3D2C9",
"pV.	c #DBDCD0",
"qV.	c #D8DECC",
"rV.	c #D9DCCB",
"sV.	c #DADFCE",
"tV.	c #DEE1D3",
"uV.	c #DEDDCE",
"vV.	c #E1DDD1",
"wV.	c #CBC1BC",
"xV.	c #7D5757",
"yV.	c #860B25",
"zV.	c #B7122D",
"AV.	c #B4122A",
"BV.	c #891222",
"CV.	c #7D464B",
"DV.	c #A07D7F",
"EV.	c #BA9FA2",
"FV.	c #917E80",
"GV.	c #150809",
"HV.	c #020107",
"IV.	c #010209",
"JV.	c #29100C",
"KV.	c #BA6B53",
"LV.	c #F28A60",
"MV.	c #ED875B",
"NV.	c #F39362",
"OV.	c #F29661",
"PV.	c #F0905B",
"QV.	c #F59560",
"RV.	c #F99666",
"SV.	c #F68B60",
"TV.	c #F18B59",
"UV.	c #F19660",
"VV.	c #EE9B65",
"WV.	c #F9AE75",
"XV.	c #FA9D71",
"YV.	c #F39668",
"ZV.	c #EC8A5D",
"`V.	c #CD7B74",
" W.	c #594A8A",
".W.	c #38559F",
"+W.	c #30509A",
"@W.	c #33549F",
"#W.	c #30509F",
"$W.	c #2E52A2",
"%W.	c #2851A0",
"&W.	c #2753A9",
"*W.	c #2451A3",
"=W.	c #2554A2",
"-W.	c #2056A7",
";W.	c #1E54A6",
">W.	c #1F57A5",
",W.	c #2058A5",
"'W.	c #1D57A5",
")W.	c #1B55A4",
"!W.	c #1F54A5",
"~W.	c #1F53A6",
"{W.	c #2054A7",
"]W.	c #1D51A4",
"^W.	c #1F54A8",
"/W.	c #2158AD",
"(W.	c #1A56A6",
"_W.	c #1351A0",
":W.	c #4295BB",
"<W.	c #79F7F7",
"[W.	c #6DFDFB",
"}W.	c #61FDFB",
"|W.	c #5DF5FA",
"1W.	c #258FB4",
"2W.	c #1A5BA4",
"3W.	c #1D55A7",
"4W.	c #2255A5",
"5W.	c #2353A5",
"6W.	c #274EA4",
"7W.	c #284DA2",
"8W.	c #304CA3",
"9W.	c #83558A",
"0W.	c #E9857A",
"aW.	c #ED815D",
"bW.	c #F08761",
"cW.	c #F78C64",
"dW.	c #F9865F",
"eW.	c #F26651",
"fW.	c #EA5543",
"gW.	c #E84B3D",
"hW.	c #EE594C",
"iW.	c #ED604F",
"jW.	c #EA634E",
"kW.	c #EE7455",
"lW.	c #F7815F",
"mW.	c #ED7D5C",
"nW.	c #F17E5D",
"oW.	c #F47656",
"pW.	c #ED955B",
"qW.	c #F09E64",
"rW.	c #EF9C66",
"sW.	c #9E5F43",
"tW.	c #945139",
"uW.	c #F6865A",
"vW.	c #F7895A",
"wW.	c #F48E59",
"xW.	c #F6935B",
"yW.	c #F38D55",
"zW.	c #F08450",
"AW.	c #F68657",
"BW.	c #F1734F",
"CW.	c #F06E4F",
"DW.	c #F57552",
"EW.	c #F57452",
"FW.	c #F47150",
"GW.	c #F06A4A",
"HW.	c #F05E46",
"IW.	c #EF483F",
"JW.	c #E12B2D",
"KW.	c #DD2328",
"LW.	c #D92125",
"MW.	c #EA4D45",
"NW.	c #F26652",
"OW.	c #EC7654",
"PW.	c #F18158",
"QW.	c #F17953",
"RW.	c #F46A4E",
"SW.	c #DE5641",
"TW.	c #7D1C16",
"UW.	c #300706",
"VW.	c #582F28",
"WW.	c #6B322C",
"XW.	c #6C312F",
"YW.	c #6A302B",
"ZW.	c #6A332D",
"`W.	c #6C3532",
" X.	c #6D3433",
".X.	c #6D3534",
"+X.	c #693230",
"@X.	c #662F2D",
"#X.	c #6C3331",
"$X.	c #6A3330",
"%X.	c #66312D",
"&X.	c #682F2F",
"*X.	c #513633",
"=X.	c #C3C9B8",
"-X.	c #D6E2C7",
";X.	c #DBDCC7",
">X.	c #DCDDC7",
",X.	c #D7D9C4",
"'X.	c #D5D5C0",
")X.	c #DBDBC8",
"!X.	c #DFE3D0",
"~X.	c #D3CEC3",
"{X.	c #836D6D",
"]X.	c #977376",
"^X.	c #6A343B",
"/X.	c #690F22",
"(X.	c #750922",
"_X.	c #7F0B25",
":X.	c #8B102A",
"<X.	c #8E0E28",
"[X.	c #8A0922",
"}X.	c #83071D",
"|X.	c #6B091A",
"1X.	c #4A292A",
"2X.	c #ACA7A4",
"3X.	c #D8D6CD",
"4X.	c #8B887B",
"5X.	c #A4A09A",
"6X.	c #DDDCD5",
"7X.	c #DDE0D2",
"8X.	c #DADDD0",
"9X.	c #DDE1D4",
"0X.	c #DFE1D7",
"aX.	c #E2DDD5",
"bX.	c #D1C0BB",
"cX.	c #7B5F5F",
"dX.	c #760E25",
"eX.	c #AA082F",
"fX.	c #C51128",
"gX.	c #C60F2A",
"hX.	c #B7122B",
"iX.	c #9A1127",
"jX.	c #8B1527",
"kX.	c #7C1D2C",
"lX.	c #6D1E2B",
"mX.	c #3E030E",
"nX.	c #100107",
"oX.	c #010109",
"pX.	c #070104",
"qX.	c #53281D",
"rX.	c #DC8264",
"sX.	c #F1885F",
"tX.	c #F6815D",
"uX.	c #EE7C58",
"vX.	c #F1935F",
"wX.	c #F59561",
"xX.	c #F2835B",
"yX.	c #F1885C",
"zX.	c #F08F59",
"AX.	c #F19F68",
"BX.	c #F4A26B",
"CX.	c #F19561",
"DX.	c #F6A06C",
"EX.	c #F49A6D",
"FX.	c #F79E70",
"GX.	c #F7A070",
"HX.	c #EF8560",
"IX.	c #CC7872",
"JX.	c #5B4B8A",
"KX.	c #3A4FA6",
"LX.	c #36549D",
"MX.	c #31519A",
"NX.	c #3254A0",
"OX.	c #3051A1",
"PX.	c #2A53A2",
"QX.	c #2851A6",
"RX.	c #2650A8",
"SX.	c #2453A4",
"TX.	c #2555A3",
"UX.	c #2054A6",
"VX.	c #2154A5",
"WX.	c #2054A5",
"XX.	c #2053A5",
"YX.	c #1E56A3",
"ZX.	c #2058A4",
"`X.	c #1F57A6",
" Y.	c #2055A5",
".Y.	c #1E53A6",
"+Y.	c #2259AE",
"@Y.	c #1954A5",
"#Y.	c #11519D",
"$Y.	c #5AB7D6",
"%Y.	c #73F9F9",
"&Y.	c #6BFDFD",
"*Y.	c #63FDFA",
"=Y.	c #62FBFB",
"-Y.	c #34AEC5",
";Y.	c #185CA4",
">Y.	c #1F57A7",
",Y.	c #2456A7",
"'Y.	c #2652A7",
")Y.	c #2B55AA",
"!Y.	c #2A50A7",
"~Y.	c #2A50A5",
"{Y.	c #314EA5",
"]Y.	c #85598C",
"^Y.	c #F39185",
"/Y.	c #F88E6B",
"(Y.	c #F08460",
"_Y.	c #EE8561",
":Y.	c #F78D67",
"<Y.	c #F6745A",
"[Y.	c #F46853",
"}Y.	c #EA5041",
"|Y.	c #EB4F43",
"1Y.	c #F0594C",
"2Y.	c #F16152",
"3Y.	c #EE6452",
"4Y.	c #EC6952",
"5Y.	c #EE6D52",
"6Y.	c #F78461",
"7Y.	c #F78661",
"8Y.	c #F4815F",
"9Y.	c #F6A165",
"0Y.	c #F4AA6D",
"aY.	c #F4A868",
"bY.	c #ED975D",
"cY.	c #EE9562",
"dY.	c #AD6849",
"eY.	c #763829",
"fY.	c #ED8362",
"gY.	c #F58C5A",
"hY.	c #F4965D",
"iY.	c #F18A55",
"jY.	c #F36E50",
"kY.	c #F26E52",
"lY.	c #F37352",
"mY.	c #F47452",
"nY.	c #F1704C",
"oY.	c #F06046",
"pY.	c #EF4C3F",
"qY.	c #ED3F3D",
"rY.	c #E63432",
"sY.	c #E02A2B",
"tY.	c #DC2224",
"uY.	c #D92224",
"vY.	c #EC4E44",
"wY.	c #F5875A",
"xY.	c #F48157",
"yY.	c #F67F57",
"zY.	c #F66B4F",
"AY.	c #D8533E",
"BY.	c #842826",
"CY.	c #471518",
"DY.	c #61302E",
"EY.	c #6A312C",
"FY.	c #6B312D",
"GY.	c #6D3530",
"HY.	c #6B3331",
"IY.	c #6C3231",
"JY.	c #6E3433",
"KY.	c #67302E",
"LY.	c #6B3330",
"MY.	c #6A3233",
"NY.	c #65312F",
"OY.	c #67322F",
"PY.	c #67312F",
"QY.	c #503331",
"RY.	c #B8BCAE",
"SY.	c #D6DEC7",
"TY.	c #D7DDC8",
"UY.	c #D9DAC3",
"VY.	c #D6DBC4",
"WY.	c #D7DBC4",
"XY.	c #D9DDC4",
"YY.	c #D7DAC3",
"ZY.	c #D6D8C4",
"`Y.	c #D7D6C1",
" Z.	c #E0DDCD",
".Z.	c #E2DDD1",
"+Z.	c #968783",
"@Z.	c #451E23",
"#Z.	c #5B0F1F",
"$Z.	c #7A0F28",
"%Z.	c #901231",
"&Z.	c #990B2E",
"*Z.	c #9A0B2C",
"=Z.	c #9B0E2C",
"-Z.	c #9D0C2B",
";Z.	c #A10A2A",
">Z.	c #A40A28",
",Z.	c #9B1129",
"'Z.	c #7B1022",
")Z.	c #6A4D4D",
"!Z.	c #D6CAC0",
"~Z.	c #DBD2C7",
"{Z.	c #7E7571",
"]Z.	c #A8A09C",
"^Z.	c #D8CAC3",
"/Z.	c #DDD0C8",
"(Z.	c #D9CBC4",
"_Z.	c #CAB6B2",
":Z.	c #B19495",
"<Z.	c #7B4B50",
"[Z.	c #6E0C21",
"}Z.	c #99082E",
"|Z.	c #B5062F",
"1Z.	c #C61228",
"2Z.	c #C60F26",
"3Z.	c #C1122B",
"4Z.	c #BF1630",
"5Z.	c #BD1A34",
"6Z.	c #AF102D",
"7Z.	c #A41031",
"8Z.	c #87102B",
"9Z.	c #3F030F",
"0Z.	c #170103",
"aZ.	c #280505",
"bZ.	c #9A4D42",
"cZ.	c #EA8262",
"dZ.	c #F3875F",
"eZ.	c #F88460",
"fZ.	c #FA9A6B",
"gZ.	c #F1885D",
"hZ.	c #F2825B",
"iZ.	c #F28758",
"jZ.	c #F48D5A",
"kZ.	c #F69C64",
"lZ.	c #F79A66",
"mZ.	c #EE8D62",
"nZ.	c #CB7B72",
"oZ.	c #5C4B88",
"pZ.	c #34519A",
"qZ.	c #31519C",
"rZ.	c #3557A5",
"sZ.	c #3154A4",
"tZ.	c #2D54A3",
"uZ.	c #2A53A3",
"vZ.	c #2651A4",
"wZ.	c #2354A3",
"xZ.	c #2153A6",
"yZ.	c #2356A8",
"zZ.	c #245AA8",
"AZ.	c #2159A4",
"BZ.	c #1F56A2",
"CZ.	c #2157A5",
"DZ.	c #2359AE",
"EZ.	c #2359AB",
"FZ.	c #1D56A6",
"GZ.	c #1757A2",
"HZ.	c #63CCE1",
"IZ.	c #6CFCFC",
"JZ.	c #6BFEFE",
"KZ.	c #68FEFD",
"LZ.	c #66FCFB",
"MZ.	c #42C5D5",
"NZ.	c #1961A6",
"OZ.	c #2059A6",
"PZ.	c #1E57A7",
"QZ.	c #2552A5",
"RZ.	c #2B51A7",
"SZ.	c #334DA7",
"TZ.	c #84598A",
"UZ.	c #F69786",
"VZ.	c #FB9570",
"WZ.	c #F18561",
"XZ.	c #ED835F",
"YZ.	c #EE8762",
"ZZ.	c #EE7B59",
"`Z.	c #ED7556",
" `.	c #EF785A",
".`.	c #F47359",
"+`.	c #EC5748",
"@`.	c #F26653",
"#`.	c #F06854",
"$`.	c #ED6953",
"%`.	c #F07055",
"&`.	c #F5855E",
"*`.	c #F58261",
"=`.	c #F27859",
"-`.	c #F0945B",
";`.	c #F8B878",
">`.	c #F0AB68",
",`.	c #F1965B",
"'`.	c #F2905F",
")`.	c #B46A49",
"!`.	c #5E261F",
"~`.	c #EA8468",
"{`.	c #F18E59",
"]`.	c #F4945A",
"^`.	c #F39C5F",
"/`.	c #F3975D",
"(`.	c #F28253",
"_`.	c #F26D50",
":`.	c #EF6D4F",
"<`.	c #F37B53",
"[`.	c #F37951",
"}`.	c #EF6647",
"|`.	c #EB503F",
"1`.	c #E83A36",
"2`.	c #E63332",
"3`.	c #E0292B",
"4`.	c #DD1F22",
"5`.	c #D92223",
"6`.	c #F28056",
"7`.	c #F37F57",
"8`.	c #F27D55",
"9`.	c #FA7958",
"0`.	c #F86A51",
"a`.	c #EF6351",
"b`.	c #A03C38",
"c`.	c #642326",
"d`.	c #6B312C",
"e`.	c #6E3430",
"f`.	c #6F3631",
"g`.	c #6D3630",
"h`.	c #6C3632",
"i`.	c #6D3332",
"j`.	c #6C3131",
"k`.	c #662E33",
"l`.	c #622F30",
"m`.	c #512F2D",
"n`.	c #A1A197",
"o`.	c #D5DBCA",
"p`.	c #D5DECA",
"q`.	c #D7DCC3",
"r`.	c #D5DAC2",
"s`.	c #DADDC5",
"t`.	c #D7DBC2",
"u`.	c #D9DCC3",
"v`.	c #D7D9C3",
"w`.	c #D8D9C8",
"x`.	c #DBD8C9",
"y`.	c #E4E0D4",
"z`.	c #C6B6B4",
"A`.	c #583438",
"B`.	c #660C23",
"C`.	c #810C2A",
"D`.	c #910C2D",
"E`.	c #9B0D2E",
"F`.	c #A20B2B",
"G`.	c #A10A29",
"H`.	c #A10D29",
"I`.	c #A20A27",
"J`.	c #A90A29",
"K`.	c #AA0E29",
"L`.	c #A3122A",
"M`.	c #781420",
"N`.	c #886764",
"O`.	c #CDAEAD",
"P`.	c #A48386",
"Q`.	c #572F31",
"R`.	c #825052",
"S`.	c #8E585B",
"T`.	c #834E50",
"U`.	c #733136",
"V`.	c #6C1720",
"W`.	c #79041A",
"X`.	c #970525",
"Y`.	c #A90329",
"Z`.	c #BC0428",
"``.	c #C20E25",
"  +	c #C71228",
". +	c #C50F26",
"+ +	c #C41128",
"@ +	c #C8152C",
"# +	c #C8152E",
"$ +	c #B90927",
"% +	c #B7092E",
"& +	c #B10F33",
"* +	c #92122A",
"= +	c #6E111D",
"- +	c #812128",
"; +	c #DB685C",
"> +	c #EF7F58",
", +	c #F1895D",
"' +	c #FC9E6B",
") +	c #EE835A",
"! +	c #F28F5D",
"~ +	c #EE8D5C",
"{ +	c #FCA770",
"] +	c #F08F64",
"^ +	c #F38C66",
"/ +	c #ED835E",
"( +	c #EA805A",
"_ +	c #CE7C73",
": +	c #5C4B87",
"< +	c #3B4FA5",
"[ +	c #36519C",
"} +	c #33529E",
"| +	c #3557A6",
"1 +	c #2C53A2",
"2 +	c #2954A2",
"3 +	c #2452A4",
"4 +	c #2454A3",
"5 +	c #2054A4",
"6 +	c #265CAB",
"7 +	c #2359A7",
"8 +	c #2056A4",
"9 +	c #2256A5",
"0 +	c #2057A4",
"a +	c #1D54A3",
"b +	c #1F56A7",
"c +	c #1E56A8",
"d +	c #2359AD",
"e +	c #2559AC",
"f +	c #2258A8",
"g +	c #1F56A4",
"h +	c #1D5EA4",
"i +	c #66D8E9",
"j +	c #6AFDFC",
"k +	c #6DFEFF",
"l +	c #6CFEFE",
"m +	c #6AFDFE",
"n +	c #47D1DD",
"o +	c #1766A5",
"p +	c #1E57A5",
"q +	c #2C54A8",
"r +	c #2B50A7",
"s +	c #334DA6",
"t +	c #875B8A",
"u +	c #F29181",
"v +	c #F8906C",
"w +	c #F38463",
"x +	c #EE7658",
"y +	c #EC5D4C",
"z +	c #EF6250",
"A +	c #F16652",
"B +	c #F06E54",
"C +	c #F88763",
"D +	c #F0805A",
"E +	c #F18157",
"F +	c #F07B57",
"G +	c #ED8E58",
"H +	c #F6B675",
"I +	c #F1AA65",
"J +	c #F29559",
"K +	c #B96C4B",
"L +	c #481713",
"M +	c #D97C62",
"N +	c #F09759",
"O +	c #F7A164",
"P +	c #F1A061",
"Q +	c #ED985A",
"R +	c #EE8E54",
"S +	c #F18352",
"T +	c #EE704E",
"U +	c #F16D51",
"V +	c #EF6C50",
"W +	c #F17A54",
"X +	c #F08255",
"Y +	c #EF7F51",
"Z +	c #EE6A49",
"` +	c #E83C36",
" .+	c #E53331",
"..+	c #E2282B",
"+.+	c #DE1F23",
"@.+	c #D82524",
"#.+	c #EE5442",
"$.+	c #F48559",
"%.+	c #F07E59",
"&.+	c #ED7752",
"*.+	c #F57356",
"=.+	c #DC584A",
"-.+	c #7A201C",
";.+	c #6F2D2D",
">.+	c #6E322F",
",.+	c #6E342E",
"'.+	c #6F3531",
").+	c #6C352F",
"!.+	c #6C3631",
"~.+	c #6F3433",
"{.+	c #6D3030",
"].+	c #6D3134",
"^.+	c #5C272D",
"/.+	c #56292B",
"(.+	c #64302E",
"_.+	c #652F2D",
":.+	c #65302E",
"<.+	c #572D2E",
"[.+	c #78756F",
"}.+	c #D4D8CE",
"|.+	c #D5DECB",
"1.+	c #D7DDC3",
"2.+	c #D5DCC3",
"3.+	c #DADDC6",
"4.+	c #D7DAC2",
"5.+	c #D9DDC3",
"6.+	c #D6D8C5",
"7.+	c #D8DACC",
"8.+	c #DDDDD0",
"9.+	c #D4CDC5",
"0.+	c #70595B",
"a.+	c #5F1123",
"b.+	c #84122E",
"c.+	c #910E2F",
"d.+	c #960829",
"e.+	c #9B0B29",
"f.+	c #A00D2A",
"g.+	c #A10D28",
"h.+	c #A60D27",
"i.+	c #A70925",
"j.+	c #AA0B27",
"k.+	c #A80825",
"l.+	c #AB0D27",
"m.+	c #AB0C25",
"n.+	c #A60D25",
"o.+	c #7F0E1F",
"p.+	c #7B2731",
"q.+	c #7A202D",
"r.+	c #871125",
"s.+	c #9C1428",
"t.+	c #A2122A",
"u.+	c #9E1027",
"v.+	c #8C081D",
"w.+	c #8E0A21",
"x.+	c #95021F",
"y.+	c #A50223",
"z.+	c #AE0326",
"A.+	c #BA0624",
"B.+	c #C20D24",
"C.+	c #C71128",
"D.+	c #C51027",
"E.+	c #C31328",
"F.+	c #C6162A",
"G.+	c #B90D24",
"H.+	c #B60726",
"I.+	c #BB0B2E",
"J.+	c #BE1131",
"K.+	c #BA1C35",
"L.+	c #C22A3A",
"M.+	c #EA6558",
"N.+	c #F07C56",
"O.+	c #EF7C5A",
"P.+	c #FA9968",
"Q.+	c #F27E58",
"R.+	c #F99665",
"S.+	c #F5A16A",
"T.+	c #F29865",
"U.+	c #ED815B",
"V.+	c #D07D72",
"W.+	c #5D4B87",
"X.+	c #3C4FA7",
"Y.+	c #3451A0",
"Z.+	c #3152A3",
"`.+	c #2D52A2",
" ++	c #2C54A3",
".++	c #2954A3",
"+++	c #2451A2",
"@++	c #2455A3",
"#++	c #2455A4",
"$++	c #2252A4",
"%++	c #2155A4",
"&++	c #2357A8",
"*++	c #2358A9",
"=++	c #2458A6",
"-++	c #1D55A4",
";++	c #1D54A6",
">++	c #275AAB",
",++	c #2558A9",
"'++	c #2558A6",
")++	c #2258A3",
"!++	c #2264A7",
"~++	c #69DFEF",
"{++	c #6AFEFB",
"]++	c #6EFEFF",
"^++	c #4EDBE4",
"/++	c #1668A4",
"(++	c #1E58A8",
"_++	c #2B54A8",
":++	c #2B52A6",
"<++	c #344EA5",
"[++	c #895B8B",
"}++	c #EC8879",
"|++	c #F58867",
"1++	c #F58668",
"2++	c #F17F61",
"3++	c #F17157",
"4++	c #F16C54",
"5++	c #EE624F",
"6++	c #EC604B",
"7++	c #E95B46",
"8++	c #EF6950",
"9++	c #F27959",
"0++	c #F18057",
"a++	c #F27C58",
"b++	c #F39560",
"c++	c #F4AC6D",
"d++	c #F3A15E",
"e++	c #EF9355",
"f++	c #F69B68",
"g++	c #C67A57",
"h++	c #3C120C",
"i++	c #C57054",
"j++	c #F29863",
"k++	c #EA9456",
"l++	c #EF9B5C",
"m++	c #EC9B5A",
"n++	c #EF9155",
"o++	c #F68B58",
"p++	c #EB6F4D",
"q++	c #F26951",
"r++	c #ED6B50",
"s++	c #F48159",
"t++	c #F28A5A",
"u++	c #F28958",
"v++	c #F27650",
"w++	c #F3684E",
"x++	c #F05144",
"y++	c #E93E36",
"z++	c #E53231",
"A++	c #E2262A",
"B++	c #DC1F23",
"C++	c #D62824",
"D++	c #EF5944",
"E++	c #F17450",
"F++	c #F28459",
"G++	c #F6825D",
"H++	c #EA5F4E",
"I++	c #A9372E",
"J++	c #621D1C",
"K++	c #70352F",
"L++	c #6B342F",
"M++	c #6D3432",
"N++	c #6F3434",
"O++	c #6D3131",
"P++	c #6B3233",
"Q++	c #542528",
"R++	c #4D2927",
"S++	c #642E2C",
"T++	c #603032",
"U++	c #504642",
"V++	c #CDD0C8",
"W++	c #D5DDCA",
"X++	c #D8DDC3",
"Y++	c #D9DFC5",
"Z++	c #DCDFC7",
"`++	c #D8DCC2",
" @+	c #D9DDC2",
".@+	c #D6DDC2",
"+@+	c #D4DAC6",
"@@+	c #DADBCF",
"#@+	c #DDD4CB",
"$@+	c #90807C",
"%@+	c #55111F",
"&@+	c #7E102B",
"*@+	c #900E30",
"=@+	c #930B2E",
"-@+	c #990828",
";@+	c #9D0B28",
">@+	c #9D0B27",
",@+	c #A00C27",
"'@+	c #A40923",
")@+	c #A80925",
"!@+	c #AA0925",
"~@+	c #AA0723",
"{@+	c #AB0B24",
"]@+	c #AE0A22",
"^@+	c #B10C24",
"/@+	c #A70F29",
"(@+	c #A11029",
"_@+	c #A61228",
":@+	c #B01429",
"<@+	c #BC172A",
"[@+	c #BE162B",
"}@+	c #BC152C",
"|@+	c #A50622",
"1@+	c #A30624",
"2@+	c #B10225",
"3@+	c #C51228",
"4@+	c #C7152B",
"5@+	c #C7162A",
"6@+	c #C51528",
"7@+	c #BE0F24",
"8@+	c #B60523",
"9@+	c #BB0B2B",
"0@+	c #BD0D2E",
"a@+	c #C51335",
"b@+	c #C82137",
"c@+	c #EB6358",
"d@+	c #F07C57",
"e@+	c #ED7F59",
"f@+	c #F0855A",
"g@+	c #F68460",
"h@+	c #F4815C",
"i@+	c #F5875F",
"j@+	c #EE8658",
"k@+	c #EF9661",
"l@+	c #F59866",
"m@+	c #EE8560",
"n@+	c #D07B70",
"o@+	c #5D4B86",
"p@+	c #3B4EA7",
"q@+	c #3852A1",
"r@+	c #3450A2",
"s@+	c #3050A2",
"t@+	c #2E54A4",
"u@+	c #2C56A4",
"v@+	c #2C55A4",
"w@+	c #2550A1",
"x@+	c #2453A5",
"y@+	c #2253A2",
"z@+	c #1F4FA1",
"A@+	c #2151A3",
"B@+	c #1E51A4",
"C@+	c #2156A4",
"D@+	c #1E54A4",
"E@+	c #1E57AB",
"F@+	c #2259AC",
"G@+	c #2859AA",
"H@+	c #2657A8",
"I@+	c #2859A5",
"J@+	c #2559A2",
"K@+	c #2566A6",
"L@+	c #6FE3F1",
"M@+	c #6AFEFC",
"N@+	c #6DFFFF",
"O@+	c #6AFEFE",
"P@+	c #53DFE5",
"Q@+	c #1668A1",
"R@+	c #1D57A7",
"S@+	c #1E4BA3",
"T@+	c #2450A6",
"U@+	c #2C52A6",
"V@+	c #344DA3",
"W@+	c #895889",
"X@+	c #EB8173",
"Y@+	c #F28364",
"Z@+	c #F38468",
"`@+	c #F68469",
" #+	c #EE7E61",
".#+	c #EF775D",
"+#+	c #F07359",
"@#+	c #F06F54",
"##+	c #F26C54",
"$#+	c #EE6952",
"%#+	c #EB5845",
"&#+	c #EE664E",
"*#+	c #FA8965",
"=#+	c #F77C5E",
"-#+	c #F6A065",
";#+	c #F09D62",
">#+	c #F3995D",
",#+	c #ED995C",
"'#+	c #F7A16B",
")#+	c #CD8761",
"!#+	c #39140E",
"~#+	c #B1634A",
"{#+	c #F19A63",
"]#+	c #F3A063",
"^#+	c #F9A766",
"/#+	c #EC9859",
"(#+	c #F5995E",
"_#+	c #EC744D",
":#+	c #EA6C4D",
"<#+	c #F4915D",
"[#+	c #F17E54",
"}#+	c #F67254",
"|#+	c #EA443A",
"1#+	c #E3322F",
"2#+	c #E12429",
"3#+	c #DD1E24",
"4#+	c #D62B27",
"5#+	c #F25F4B",
"6#+	c #EC8A5B",
"7#+	c #F6835C",
"8#+	c #E1614D",
"9#+	c #7B211A",
"0#+	c #652C2B",
"a#+	c #6D342D",
"b#+	c #6E3431",
"c#+	c #6F3532",
"d#+	c #6D3532",
"e#+	c #6C3531",
"f#+	c #6E3534",
"g#+	c #703333",
"h#+	c #6B3231",
"i#+	c #532829",
"j#+	c #482725",
"k#+	c #662F2C",
"l#+	c #653031",
"m#+	c #4A2F2E",
"n#+	c #D9DFCE",
"o#+	c #DCE1C7",
"p#+	c #D6DCC2",
"q#+	c #D5DEC3",
"r#+	c #D6DEC8",
"s#+	c #DED5CE",
"t#+	c #A9948E",
"u#+	c #542326",
"v#+	c #7A0D26",
"w#+	c #8C0E2B",
"x#+	c #960E2D",
"y#+	c #960B2B",
"z#+	c #9D0929",
"A#+	c #9F0A2A",
"B#+	c #9E0927",
"C#+	c #A10B26",
"D#+	c #A20923",
"E#+	c #A70824",
"F#+	c #AB0926",
"G#+	c #AD0926",
"H#+	c #AD0824",
"I#+	c #AF0924",
"J#+	c #B20A24",
"K#+	c #B40D26",
"L#+	c #B50F28",
"M#+	c #B71128",
"N#+	c #B91427",
"O#+	c #C11625",
"P#+	c #C31425",
"Q#+	c #C21329",
"R#+	c #AE0420",
"S#+	c #AB0422",
"T#+	c #A7011E",
"U#+	c #B30322",
"V#+	c #B90622",
"W#+	c #C00B23",
"X#+	c #C31026",
"Y#+	c #C31227",
"Z#+	c #C7172C",
"`#+	c #C8182D",
" $+	c #C31429",
".$+	c #BB0F25",
"+$+	c #AD051F",
"@$+	c #B80D2A",
"#$+	c #C21433",
"$$+	c #C32033",
"%$+	c #EE655D",
"&$+	c #F77F60",
"*$+	c #F37B5B",
"=$+	c #F78460",
"-$+	c #F27F5A",
";$+	c #EF7C58",
">$+	c #F4815B",
",$+	c #FA9465",
"'$+	c #ED8B59",
")$+	c #EB8A57",
"!$+	c #F1955E",
"~$+	c #FBA06E",
"{$+	c #F19267",
"]$+	c #FB9A6E",
"^$+	c #EF8861",
"/$+	c #D07B6F",
"($+	c #5E4B88",
"_$+	c #3B4EA3",
":$+	c #34509F",
"<$+	c #3150A2",
"[$+	c #2D55A1",
"}$+	c #2C54A2",
"|$+	c #2850A0",
"1$+	c #2753A3",
"2$+	c #2352A5",
"3$+	c #2252A2",
"4$+	c #275AB1",
"5$+	c #2559AE",
"6$+	c #2659AC",
"7$+	c #285AA9",
"8$+	c #2659A2",
"9$+	c #2468A6",
"0$+	c #6FE4F2",
"a$+	c #6CFEFC",
"b$+	c #6DFFFE",
"c$+	c #68FDFE",
"d$+	c #53DDE3",
"e$+	c #1567A0",
"f$+	c #1B56A5",
"g$+	c #1A53A4",
"h$+	c #2152A7",
"i$+	c #204EA3",
"j$+	c #204CA2",
"k$+	c #2951A1",
"l$+	c #2B51A2",
"m$+	c #8D5787",
"n$+	c #EB7B6C",
"o$+	c #F37C5F",
"p$+	c #F07D5F",
"q$+	c #F38065",
"r$+	c #F17D61",
"s$+	c #F1785C",
"t$+	c #F17559",
"u$+	c #F06B55",
"v$+	c #F06550",
"w$+	c #EB6650",
"x$+	c #ED6852",
"y$+	c #F05F4C",
"z$+	c #EB5543",
"A$+	c #F47456",
"B$+	c #F47858",
"C$+	c #F47A5A",
"D$+	c #EF7456",
"E$+	c #F59D64",
"F$+	c #F79F66",
"G$+	c #F69965",
"H$+	c #D48761",
"I$+	c #3C1610",
"J$+	c #96543D",
"K$+	c #EF9864",
"L$+	c #F8A569",
"M$+	c #F9A365",
"N$+	c #F7A062",
"O$+	c #F0985B",
"P$+	c #F99C63",
"Q$+	c #F48D58",
"R$+	c #F17A52",
"S$+	c #EB6F4F",
"T$+	c #F89764",
"U$+	c #EF6F50",
"V$+	c #EC5945",
"W$+	c #EA473B",
"X$+	c #E43430",
"Y$+	c #E12529",
"Z$+	c #DE1F25",
"`$+	c #DB302B",
" %+	c #F4654E",
".%+	c #F57E59",
"+%+	c #F79463",
"@%+	c #F08E5E",
"#%+	c #F47D58",
"$%+	c #F47C57",
"%%+	c #EF7750",
"&%+	c #C65041",
"*%+	c #6F201B",
"=%+	c #6D3331",
"-%+	c #6B342D",
";%+	c #6E352E",
">%+	c #6E3432",
",%+	c #703634",
"'%+	c #6F3432",
")%+	c #6D3231",
"!%+	c #6E3333",
"~%+	c #6F3333",
"{%+	c #6B3332",
"]%+	c #683432",
"^%+	c #57282D",
"/%+	c #432422",
"(%+	c #673131",
"_%+	c #502C2D",
":%+	c #737671",
"<%+	c #CED3C4",
"[%+	c #D8DAC5",
"}%+	c #DDDFCA",
"|%+	c #D8DAC6",
"1%+	c #DCDCC8",
"2%+	c #B69999",
"3%+	c #753237",
"4%+	c #750B1D",
"5%+	c #880F2A",
"6%+	c #910E2C",
"7%+	c #960E2B",
"8%+	c #960A29",
"9%+	c #9A0726",
"0%+	c #9D0928",
"a%+	c #9D0826",
"b%+	c #A00A25",
"c%+	c #A30A23",
"d%+	c #AC0B27",
"e%+	c #AE0A28",
"f%+	c #AC0624",
"g%+	c #AE0725",
"h%+	c #B40B26",
"i%+	c #B60D26",
"j%+	c #B50C26",
"k%+	c #B81027",
"l%+	c #BA1225",
"m%+	c #C01624",
"n%+	c #C21223",
"o%+	c #C11026",
"p%+	c #AD031D",
"q%+	c #AC0420",
"r%+	c #A1011A",
"s%+	c #B20320",
"t%+	c #C41228",
"u%+	c #C6162B",
"v%+	c #C8182E",
"w%+	c #C5162C",
"x%+	c #BB0F26",
"y%+	c #AB061E",
"z%+	c #B40B28",
"A%+	c #BA0E2C",
"B%+	c #C01330",
"C%+	c #C21F32",
"D%+	c #EA625B",
"E%+	c #F57C5E",
"F%+	c #F37F5C",
"G%+	c #F37B5A",
"H%+	c #F98661",
"I%+	c #F39061",
"J%+	c #ED815C",
"K%+	c #F68360",
"L%+	c #EE7D59",
"M%+	c #F28B5C",
"N%+	c #F99D69",
"O%+	c #EC925D",
"P%+	c #F0945F",
"Q%+	c #F9A16D",
"R%+	c #F3996B",
"S%+	c #F5966B",
"T%+	c #F38B60",
"U%+	c #CF7C70",
"V%+	c #5D4B89",
"W%+	c #3B4FA2",
"X%+	c #3651A2",
"Y%+	c #34519E",
"Z%+	c #3251A3",
"`%+	c #2E55A1",
" &+	c #2C52A0",
".&+	c #28509F",
"+&+	c #2655A7",
"@&+	c #2352A4",
"#&+	c #2253A3",
"$&+	c #1F51A6",
"%&+	c #1E51A2",
"&&+	c #1F52A3",
"*&+	c #295BB2",
"=&+	c #275AAF",
"-&+	c #265AAE",
";&+	c #275AA8",
">&+	c #2559A3",
",&+	c #2866A6",
"'&+	c #75E3F1",
")&+	c #6FFDFD",
"!&+	c #6BFEFB",
"~&+	c #67FFFC",
"{&+	c #63FEFB",
"]&+	c #4FDBE4",
"^&+	c #1568A2",
"/&+	c #1955A5",
"(&+	c #2150A7",
"_&+	c #2251A4",
":&+	c #234FA4",
"<&+	c #2953A5",
"[&+	c #3752A5",
"}&+	c #E87669",
"|&+	c #EF7B5C",
"1&+	c #EC795E",
"2&+	c #F17E62",
"3&+	c #F37B5F",
"4&+	c #F2775B",
"5&+	c #ED6850",
"6&+	c #EC6851",
"7&+	c #EB6651",
"8&+	c #E95241",
"9&+	c #EB5844",
"0&+	c #F68865",
"a&+	c #F88F67",
"b&+	c #ED7955",
"c&+	c #ED7352",
"d&+	c #F37758",
"e&+	c #EF7355",
"f&+	c #F69F68",
"g&+	c #F8A36B",
"h&+	c #ED8756",
"i&+	c #D67B57",
"j&+	c #481B14",
"k&+	c #7B3E2E",
"l&+	c #EC8B60",
"m&+	c #F69C62",
"n&+	c #F49A5F",
"o&+	c #F4985F",
"p&+	c #F5975F",
"q&+	c #F58C59",
"r&+	c #F17455",
"s&+	c #EF825A",
"t&+	c #F69264",
"u&+	c #F17152",
"v&+	c #E95943",
"w&+	c #E74639",
"x&+	c #E63632",
"y&+	c #E1272A",
"z&+	c #DE2127",
"A&+	c #DE342E",
"B&+	c #F96E54",
"C&+	c #F08658",
"D&+	c #F18F5D",
"E&+	c #F4865A",
"F&+	c #F47C55",
"G&+	c #F47750",
"H&+	c #EF6F56",
"I&+	c #99332B",
"J&+	c #6F2C28",
"K&+	c #713633",
"L&+	c #6D352E",
"M&+	c #6F362F",
"N&+	c #703730",
"O&+	c #6E3231",
"P&+	c #6D3130",
"Q&+	c #6C3130",
"R&+	c #693331",
"S&+	c #623231",
"T&+	c #582A2E",
"U&+	c #3D211F",
"V&+	c #663032",
"W&+	c #652D2B",
"X&+	c #652F2F",
"Y&+	c #512B2C",
"Z&+	c #42423B",
"`&+	c #858B7F",
" *+	c #ADB2A0",
".*+	c #D9DCC9",
"+*+	c #DEDDCD",
"@*+	c #DBDACA",
"#*+	c #DCD9C9",
"$*+	c #E3E0CF",
"%*+	c #E2DECC",
"&*+	c #D5CFC0",
"**+	c #B0968E",
"=*+	c #813438",
"-*+	c #AC2236",
";*+	c #970F25",
">*+	c #8A0C27",
",*+	c #920F2D",
"'*+	c #940C2B",
")*+	c #960C29",
"!*+	c #9C0927",
"~*+	c #9E0A27",
"{*+	c #9F0925",
"]*+	c #A30924",
"^*+	c #A70825",
"/*+	c #AC0A27",
"(*+	c #AD0927",
"_*+	c #AD0624",
":*+	c #B30A26",
"<*+	c #B50B25",
"[*+	c #B40A24",
"}*+	c #BB1125",
"|*+	c #C01525",
"1*+	c #C21325",
"2*+	c #C21327",
"3*+	c #AE031C",
"4*+	c #AC031F",
"5*+	c #A8011D",
"6*+	c #B20120",
"7*+	c #C5152A",
"8*+	c #C6172D",
"9*+	c #B90E25",
"0*+	c #AE0720",
"a*+	c #B80E2B",
"b*+	c #BC122E",
"c*+	c #BD1D2E",
"d*+	c #E45B55",
"e*+	c #F1795B",
"f*+	c #F5835E",
"g*+	c #ED805C",
"h*+	c #EC8656",
"i*+	c #FBAE76",
"j*+	c #F09A63",
"k*+	c #EE9862",
"l*+	c #F8A070",
"m*+	c #ED865B",
"n*+	c #F0895E",
"o*+	c #F08B62",
"p*+	c #D07F72",
"q*+	c #5D4C89",
"r*+	c #3A50A2",
"s*+	c #3652A2",
"t*+	c #34529E",
"u*+	c #2F56A3",
"v*+	c #27509F",
"w*+	c #2653A2",
"x*+	c #2353A2",
"y*+	c #1F53A3",
"z*+	c #2759B0",
"A*+	c #2659AD",
"B*+	c #2558AD",
"C*+	c #2659A5",
"D*+	c #255AA6",
"E*+	c #2E62A5",
"F*+	c #7EE0ED",
"G*+	c #74FDFB",
"H*+	c #6FFDF8",
"I*+	c #67FCFC",
"J*+	c #62FCFB",
"K*+	c #4EDDE8",
"L*+	c #1669A5",
"M*+	c #2058A9",
"N*+	c #2159A9",
"O*+	c #204FA2",
"P*+	c #2952A4",
"Q*+	c #2C53A3",
"R*+	c #2E53A3",
"S*+	c #895987",
"T*+	c #EC7B6F",
"U*+	c #F28063",
"V*+	c #F0785B",
"W*+	c #F4785B",
"X*+	c #EF7257",
"Y*+	c #EF7055",
"Z*+	c #F57359",
"`*+	c #EF6C56",
" =+	c #F16A54",
".=+	c #EE5E4B",
"+=+	c #EF5F4F",
"@=+	c #F98967",
"#=+	c #F99269",
"$=+	c #F37658",
"%=+	c #F09963",
"&=+	c #F6A06B",
"*=+	c #EC7F51",
"==+	c #DF7F5A",
"-=+	c #56221A",
";=+	c #662B22",
">=+	c #E37C56",
",=+	c #F99460",
"'=+	c #FA9F67",
")=+	c #F99F67",
"!=+	c #F49660",
"~=+	c #F48957",
"{=+	c #F47A55",
"]=+	c #F17551",
"^=+	c #F17550",
"/=+	c #F28058",
"(=+	c #FB9167",
"_=+	c #F47455",
":=+	c #EE5C46",
"<=+	c #EB4A3D",
"[=+	c #E73832",
"}=+	c #E32A2B",
"|=+	c #DE2428",
"1=+	c #E03830",
"2=+	c #EF8456",
"3=+	c #F08D59",
"4=+	c #F1915C",
"5=+	c #F38558",
"6=+	c #F27851",
"7=+	c #F1754F",
"8=+	c #F77352",
"9=+	c #DB614D",
"0=+	c #71211F",
"a=+	c #6A322E",
"b=+	c #733934",
"c=+	c #703332",
"d=+	c #4F2321",
"e=+	c #4B2A2C",
"f=+	c #391E1E",
"g=+	c #642F32",
"h=+	c #652B2C",
"i=+	c #642C2A",
"j=+	c #4E2D29",
"k=+	c #6B7565",
"l=+	c #343D30",
"m=+	c #656A5E",
"n=+	c #D1D0C4",
"o=+	c #E0DBD0",
"p=+	c #D8D2C7",
"q=+	c #A6A195",
"r=+	c #BFB3A9",
"s=+	c #B79792",
"t=+	c #936662",
"u=+	c #822428",
"v=+	c #AE1926",
"w=+	c #CE2737",
"x=+	c #A00C1F",
"y=+	c #8E0A25",
"z=+	c #910C2A",
"A=+	c #940B2B",
"B=+	c #980C29",
"C=+	c #9F0C29",
"D=+	c #A00C28",
"E=+	c #9E0926",
"F=+	c #A00A28",
"G=+	c #A40926",
"H=+	c #A80625",
"I=+	c #AB0827",
"J=+	c #AD0A27",
"K=+	c #AD0725",
"L=+	c #B20926",
"M=+	c #B60C26",
"N=+	c #B40B24",
"O=+	c #B91129",
"P=+	c #BD1126",
"Q=+	c #C11324",
"R=+	c #C3162A",
"S=+	c #B2071F",
"T=+	c #AD031F",
"U=+	c #A6011D",
"V=+	c #AA011E",
"W=+	c #C61128",
"X=+	c #C6142B",
"Y=+	c #C7162D",
"Z=+	c #BB1026",
"`=+	c #AD0720",
" -+	c #B10925",
".-+	c #B70E2B",
"+-+	c #BB122E",
"@-+	c #BB1D2E",
"#-+	c #E35A53",
"$-+	c #F5795E",
"%-+	c #F17758",
"&-+	c #F4825F",
"*-+	c #EE7D57",
"=-+	c #F18B5E",
"--+	c #F69060",
";-+	c #EF865A",
">-+	c #F18859",
",-+	c #F79D68",
"'-+	c #FAB074",
")-+	c #F2A166",
"!-+	c #E89259",
"~-+	c #F9A06F",
"{-+	c #F19265",
"]-+	c #EE8B5F",
"^-+	c #F08D60",
"/-+	c #EE8960",
"(-+	c #D38375",
"_-+	c #5B4D89",
":-+	c #3951A3",
"<-+	c #3653A3",
"[-+	c #3554A0",
"}-+	c #3255A7",
"|-+	c #3056A5",
"1-+	c #2D52A1",
"2-+	c #2652A2",
"3-+	c #2857A7",
"4-+	c #2455A2",
"5-+	c #2055A6",
"6-+	c #2559AD",
"7-+	c #2156A6",
"8-+	c #2558A7",
"9-+	c #2459A8",
"0-+	c #355C9E",
"a-+	c #97D4D7",
"b-+	c #95F9E7",
"c-+	c #7CFEEC",
"d-+	c #65FEF8",
"e-+	c #5AFEFA",
"f-+	c #4FDEE9",
"g-+	c #186AA6",
"h-+	c #1F52A4",
"i-+	c #1D4FA1",
"j-+	c #2750A3",
"k-+	c #2B52A2",
"l-+	c #324FA1",
"m-+	c #845A84",
"n-+	c #F08476",
"o-+	c #F38264",
"p-+	c #F48868",
"q-+	c #ED805F",
"r-+	c #EE7C5C",
"s-+	c #F57B5E",
"t-+	c #F77D60",
"u-+	c #F67C5F",
"v-+	c #F06F58",
"w-+	c #F17059",
"x-+	c #F16551",
"y-+	c #EA5245",
"z-+	c #F6725C",
"A-+	c #F98664",
"B-+	c #EE7555",
"C-+	c #F4775A",
"D-+	c #F9A36D",
"E-+	c #F0905F",
"F-+	c #EE9662",
"G-+	c #F79B68",
"H-+	c #ED8052",
"I-+	c #E2835A",
"J-+	c #5E251C",
"K-+	c #581F1A",
"L-+	c #D97855",
"M-+	c #F7965F",
"N-+	c #F59B62",
"O-+	c #F8A268",
"P-+	c #F49861",
"Q-+	c #F28F5A",
"R-+	c #F48656",
"S-+	c #F07550",
"T-+	c #F27453",
"U-+	c #F0754F",
"V-+	c #EF7852",
"W-+	c #EE7452",
"X-+	c #EA5541",
"Y-+	c #E8473A",
"Z-+	c #E63631",
"`-+	c #E52C2C",
" ;+	c #DD2529",
".;+	c #E23D33",
"+;+	c #F77354",
"@;+	c #F5895A",
"#;+	c #F38F5B",
"$;+	c #F3925E",
"%;+	c #F08254",
"&;+	c #F0724C",
"*;+	c #F67358",
"=;+	c #AE473A",
"-;+	c #430C09",
";;+	c #5B2D29",
">;+	c #713531",
",;+	c #6E362F",
"';+	c #6E352F",
");+	c #6E3230",
"!;+	c #6D312F",
"~;+	c #6E302F",
"{;+	c #703231",
"];+	c #653330",
"^;+	c #4A1F1D",
"/;+	c #2F1B1A",
"(;+	c #361B1B",
"_;+	c #612C31",
":;+	c #642A2A",
"<;+	c #652929",
"[;+	c #632F2E",
"};+	c #4B362B",
"|;+	c #B1C2AA",
"1;+	c #6F7C6B",
"2;+	c #6F7669",
"3;+	c #918F86",
"4;+	c #C9C0B7",
"5;+	c #CFC4BC",
"6;+	c #695F5A",
"7;+	c #49342F",
"8;+	c #771B26",
"9;+	c #A51128",
"0;+	c #BF182D",
"a;+	c #D11E28",
"b;+	c #D9242C",
"c;+	c #AA0D1F",
"d;+	c #900824",
"e;+	c #900A29",
"f;+	c #940C2C",
"g;+	c #960B27",
"h;+	c #9D0C28",
"i;+	c #9F0C28",
"j;+	c #A20C2A",
"k;+	c #A50A26",
"l;+	c #AA0726",
"m;+	c #AC0926",
"n;+	c #AE0827",
"o;+	c #AD0626",
"p;+	c #B10926",
"q;+	c #B60B27",
"r;+	c #BE1228",
"s;+	c #C01325",
"t;+	c #C31426",
"u;+	c #C41629",
"v;+	c #B70B22",
"w;+	c #AD031E",
"x;+	c #B20021",
"y;+	c #BD0727",
"z;+	c #C50D26",
"A;+	c #C61329",
"B;+	c #C6162D",
"C;+	c #BC1128",
"D;+	c #AC061F",
"E;+	c #B10A26",
"F;+	c #B50C2A",
"G;+	c #BA122E",
"H;+	c #BD1F31",
"I;+	c #E25852",
"J;+	c #EE795B",
"K;+	c #F58F60",
"L;+	c #F4895E",
"M;+	c #F08A5B",
"N;+	c #F18C5D",
"O;+	c #F18B5B",
"P;+	c #F0A367",
"Q;+	c #F7AF6F",
"R;+	c #F7AA6B",
"S;+	c #F18D61",
"T;+	c #D18476",
"U;+	c #5B4E8B",
"V;+	c #3851A4",
"W;+	c #3553A3",
"X;+	c #3454A1",
"Y;+	c #3252A4",
"Z;+	c #2955A3",
"`;+	c #2857A6",
" >+	c #2354A2",
".>+	c #2455A5",
"+>+	c #2556A7",
"@>+	c #2454A5",
"#>+	c #2155A5",
"$>+	c #1C51A5",
"%>+	c #295CB0",
"&>+	c #2458A4",
"*>+	c #2257A6",
"=>+	c #405897",
"->+	c #AFBDB1",
";>+	c #B2E0B4",
">>+	c #9AF1D0",
",>+	c #86FCED",
"'>+	c #6FFBF1",
")>+	c #56DEE6",
"!>+	c #1A6AA5",
"~>+	c #1E57A3",
"{>+	c #2257A7",
"]>+	c #2153A5",
"^>+	c #1E52A4",
"/>+	c #1E52A2",
"(>+	c #1C4EA0",
"_>+	c #2351A6",
":>+	c #284FA3",
"<>+	c #2B51A1",
"[>+	c #324DA0",
"}>+	c #855D87",
"|>+	c #F28B7D",
"1>+	c #F88D6D",
"2>+	c #EF8866",
"3>+	c #F48D6B",
"4>+	c #F7906E",
"5>+	c #F08362",
"6>+	c #F38664",
"7>+	c #F38363",
"8>+	c #F67D5F",
"9>+	c #FA8364",
"0>+	c #ED7657",
"a>+	c #EE7158",
"b>+	c #F16953",
"c>+	c #EA5243",
"d>+	c #ED7253",
"e>+	c #F37559",
"f>+	c #EC8A58",
"g>+	c #F89B68",
"h>+	c #F18354",
"i>+	c #E9855A",
"j>+	c #64281E",
"k>+	c #4F1917",
"l>+	c #D17859",
"m>+	c #F99660",
"n>+	c #F6A068",
"o>+	c #F59962",
"p>+	c #F6935F",
"q>+	c #F48153",
"r>+	c #F0734E",
"s>+	c #F27251",
"t>+	c #F17753",
"u>+	c #F9835D",
"v>+	c #F27954",
"w>+	c #F17051",
"x>+	c #F0664C",
"y>+	c #ED5644",
"z>+	c #E8463B",
"A>+	c #E53631",
"B>+	c #E52D2C",
"C>+	c #DD2528",
"D>+	c #E44135",
"E>+	c #F87354",
"F>+	c #F38456",
"G>+	c #F38658",
"H>+	c #F07650",
"I>+	c #F06F5A",
"J>+	c #74241E",
"K>+	c #370A09",
"L>+	c #5F3130",
"M>+	c #703533",
"N>+	c #6E3530",
"O>+	c #6F3430",
"P>+	c #6D322E",
"Q>+	c #6E332F",
"R>+	c #6C312D",
"S>+	c #5E2E2D",
"T>+	c #251112",
"U>+	c #321618",
"V>+	c #5F2E2F",
"W>+	c #672A2B",
"X>+	c #662A2C",
"Y>+	c #602E2C",
"Z>+	c #524B3D",
"`>+	c #D1E5C9",
" ,+	c #CDD9C0",
".,+	c #CCD0BE",
"+,+	c #838475",
"@,+	c #6E645B",
"#,+	c #83706D",
"$,+	c #594142",
"%,+	c #3D1214",
"&,+	c #A4192A",
"*,+	c #D8192C",
"=,+	c #D91C28",
"-,+	c #D82128",
";,+	c #B00D20",
">,+	c #900625",
",,+	c #8F0A29",
"',+	c #920A29",
"),+	c #950A25",
"!,+	c #990A26",
"~,+	c #9E0A26",
"{,+	c #A20C27",
"],+	c #A70D27",
"^,+	c #A80724",
"/,+	c #AC0828",
"(,+	c #AE0626",
"_,+	c #B00825",
":,+	c #B60C27",
"<,+	c #B71027",
"[,+	c #B71127",
"},+	c #BC1528",
"|,+	c #BE1325",
"1,+	c #C01324",
"2,+	c #BC0F22",
"3,+	c #AE051B",
"4,+	c #A5011A",
"5,+	c #B10122",
"6,+	c #BC0625",
"7,+	c #C41127",
"8,+	c #C6132A",
"9,+	c #C7172E",
"0,+	c #BC1129",
"a,+	c #AB051F",
"b,+	c #B20A28",
"c,+	c #B40C2A",
"d,+	c #B8102E",
"e,+	c #BD1D30",
"f,+	c #DF554E",
"g,+	c #F3775E",
"h,+	c #F4755A",
"i,+	c #EE7D5B",
"j,+	c #F58D63",
"k,+	c #F2885A",
"l,+	c #F08559",
"m,+	c #ED8B5C",
"n,+	c #F09060",
"o,+	c #F69A63",
"p,+	c #EF9C62",
"q,+	c #F7AE6E",
"r,+	c #F0A462",
"s,+	c #F09D61",
"t,+	c #F49966",
"u,+	c #F69769",
"v,+	c #CE8677",
"w,+	c #594F8A",
"x,+	c #3950A7",
"y,+	c #3452A3",
"z,+	c #3353A2",
"A,+	c #3152A4",
"B,+	c #3354A4",
"C,+	c #3053A4",
"D,+	c #2A52A1",
"E,+	c #2953A2",
"F,+	c #2653A1",
"G,+	c #2553A2",
"H,+	c #2252A1",
"I,+	c #2255A4",
"J,+	c #1F52A1",
"K,+	c #1D52A2",
"L,+	c #1E55A8",
"M,+	c #1D51A5",
"N,+	c #2759AE",
"O,+	c #285AAF",
"P,+	c #2156A5",
"Q,+	c #2054A2",
"R,+	c #1F52A2",
"S,+	c #2459B1",
"T,+	c #2459A7",
"U,+	c #2358A4",
"V,+	c #2357A5",
"W,+	c #2156A7",
"X,+	c #475691",
"Y,+	c #BEB59B",
"Z,+	c #CDCC89",
"`,+	c #BCD6A2",
" '+	c #B9F4CF",
".'+	c #9AECC6",
"+'+	c #73D4CF",
"@'+	c #2068A0",
"#'+	c #2156A0",
"$'+	c #2354A5",
"%'+	c #2052A2",
"&'+	c #1C4F9E",
"*'+	c #1B4E9D",
"='+	c #1D4D9F",
"-'+	c #2854A9",
";'+	c #2A50A1",
">'+	c #314C9E",
",'+	c #845A85",
"''+	c #F18E81",
")'+	c #F6926F",
"!'+	c #EC8866",
"~'+	c #F18968",
"{'+	c #F78C6A",
"]'+	c #F18763",
"^'+	c #ED7759",
"/'+	c #F07457",
"('+	c #F26E55",
"_'+	c #EB5A45",
":'+	c #EA5145",
"<'+	c #F27B58",
"['+	c #F07755",
"}'+	c #EB6D4E",
"|'+	c #EF6F52",
"1'+	c #EF8A5A",
"2'+	c #F89866",
"3'+	c #F69262",
"4'+	c #F6855A",
"5'+	c #6F2E23",
"6'+	c #501B1C",
"7'+	c #B9684E",
"8'+	c #EE8F5D",
"9'+	c #EB8C58",
"0'+	c #ED8D5A",
"a'+	c #F8915F",
"b'+	c #F47F53",
"c'+	c #EF704D",
"d'+	c #EE7351",
"e'+	c #EE7951",
"f'+	c #EE764F",
"g'+	c #EF744F",
"h'+	c #EF644A",
"i'+	c #F45D4A",
"j'+	c #E42D2B",
"k'+	c #E1282A",
"l'+	c #E74537",
"m'+	c #F67152",
"n'+	c #EB734B",
"o'+	c #ED7C50",
"p'+	c #F78F60",
"q'+	c #FA9866",
"r'+	c #F88C5F",
"s'+	c #F57653",
"t'+	c #CF5A44",
"u'+	c #6A1F1C",
"v'+	c #612225",
"w'+	c #6C3335",
"x'+	c #72322F",
"y'+	c #70312F",
"z'+	c #6F312E",
"A'+	c #703531",
"B'+	c #6C312C",
"C'+	c #301717",
"D'+	c #2D1518",
"E'+	c #5F2E30",
"F'+	c #672B2C",
"G'+	c #5E302D",
"H'+	c #6A6858",
"I'+	c #D9E6C9",
"J'+	c #DEE5C9",
"K'+	c #D0CEBB",
"L'+	c #77685F",
"M'+	c #5C3A3A",
"N'+	c #5A373A",
"O'+	c #4B0F13",
"P'+	c #BA1B2A",
"Q'+	c #DD1A2A",
"R'+	c #DC1D27",
"S'+	c #B40D1F",
"T'+	c #920723",
"U'+	c #910827",
"V'+	c #930927",
"W'+	c #940B25",
"X'+	c #980B27",
"Y'+	c #9E0D29",
"Z'+	c #A00C29",
"`'+	c #A10B27",
" )+	c #A80E2A",
".)+	c #A70827",
"+)+	c #A60624",
"@)+	c #A70625",
"#)+	c #A90625",
"$)+	c #AE0728",
"%)+	c #B40B25",
"&)+	c #B70E25",
"*)+	c #B91128",
"=)+	c #BB1327",
"-)+	c #BC0E22",
";)+	c #AF061B",
">)+	c #A50119",
",)+	c #A5001C",
"')+	c #AF0121",
"))+	c #C40E26",
"!)+	c #C81229",
"~)+	c #C51328",
"{)+	c #C7182F",
"])+	c #B20B28",
"^)+	c #B40C2B",
"/)+	c #B7102D",
"()+	c #BE1E31",
"_)+	c #DF554D",
":)+	c #F3755D",
"<)+	c #ED7557",
"[)+	c #F18559",
"})+	c #EE8558",
"|)+	c #EF8E5E",
"1)+	c #FDA56D",
"2)+	c #F39E64",
"3)+	c #EF9F63",
"4)+	c #EE9F61",
"5)+	c #F1A065",
"6)+	c #EF9261",
"7)+	c #F8A979",
"8)+	c #CD8376",
"9)+	c #594E8B",
"0)+	c #31519E",
"a)+	c #3255A3",
"b)+	c #2B52A1",
"c)+	c #27519F",
"d)+	c #23519E",
"e)+	c #2453A1",
"f)+	c #2355A4",
"g)+	c #1E53A3",
"h)+	c #2658AD",
"i)+	c #2358B0",
"j)+	c #2259A5",
"k)+	c #2359A6",
"l)+	c #505792",
"m)+	c #C8B096",
"n)+	c #DEC378",
"o)+	c #DACF8F",
"p)+	c #DEE3AA",
"q)+	c #C6CB90",
"r)+	c #8CB7A1",
"s)+	c #296292",
"t)+	c #2354A0",
"u)+	c #1D4D9D",
"v)+	c #194999",
"w)+	c #2553A6",
"x)+	c #2854A7",
"y)+	c #2D55A9",
"z)+	c #2B4EA1",
"A)+	c #314C9F",
"B)+	c #805784",
"C)+	c #F19385",
"D)+	c #F2936F",
"E)+	c #EE8866",
"F)+	c #F18665",
"G)+	c #F28764",
"H)+	c #ED8761",
"I)+	c #F6956D",
"J)+	c #F9966F",
"K)+	c #EB835E",
"L)+	c #F37E60",
"M)+	c #F16E54",
"N)+	c #E75441",
"O)+	c #EA4E42",
"P)+	c #F07954",
"Q)+	c #F07955",
"R)+	c #EE7252",
"S)+	c #EF6E51",
"T)+	c #F89060",
"U)+	c #F6895B",
"V)+	c #EE7F53",
"W)+	c #F37E57",
"X)+	c #7A3426",
"Y)+	c #521E1F",
"Z)+	c #9E5544",
"`)+	c #E88C60",
" !+	c #EE8F5C",
".!+	c #FB9D6A",
"+!+	c #F18E5C",
"@!+	c #F88F60",
"#!+	c #F48054",
"$!+	c #EE6F4B",
"%!+	c #ED6E4C",
"&!+	c #F7815C",
"*!+	c #F07D52",
"=!+	c #F88056",
"-!+	c #F17251",
";!+	c #F26D4F",
">!+	c #ED6248",
",!+	c #F45D4B",
"'!+	c #EF4D42",
")!+	c #E73932",
"!!+	c #E52C2A",
"~!+	c #E02928",
"{!+	c #ED4E3D",
"]!+	c #F77755",
"^!+	c #EF794F",
"/!+	c #EF7E51",
"(!+	c #F79060",
"_!+	c #F59362",
":!+	c #EE754C",
"<!+	c #F37650",
"[!+	c #CC5639",
"}!+	c #AD4A43",
"|!+	c #76272B",
"1!+	c #6E3034",
"2!+	c #6E3633",
"3!+	c #71312E",
"4!+	c #70312E",
"5!+	c #6B302B",
"6!+	c #422120",
"7!+	c #2C1515",
"8!+	c #5F2E2E",
"9!+	c #692C2B",
"0!+	c #5C332E",
"a!+	c #8A8B7B",
"b!+	c #DBE3C7",
"c!+	c #DFE0C5",
"d!+	c #DFDEC7",
"e!+	c #D7D3C0",
"f!+	c #725F56",
"g!+	c #613435",
"h!+	c #562F32",
"i!+	c #56090E",
"j!+	c #C41A28",
"k!+	c #DB1B2A",
"l!+	c #DB1A26",
"m!+	c #B70E1F",
"n!+	c #930521",
"o!+	c #940827",
"p!+	c #960A28",
"q!+	c #960D27",
"r!+	c #9B0C28",
"s!+	c #9F0C2A",
"t!+	c #A20D2B",
"u!+	c #A00B27",
"v!+	c #A50D2A",
"w!+	c #A60827",
"x!+	c #A60825",
"y!+	c #A70725",
"z!+	c #A90726",
"A!+	c #AC0727",
"B!+	c #B20A27",
"C!+	c #B60A22",
"D!+	c #B80E25",
"E!+	c #B91026",
"F!+	c #BE1226",
"G!+	c #C31327",
"H!+	c #C7172B",
"I!+	c #BD1125",
"J!+	c #AD041A",
"K!+	c #A40019",
"L!+	c #B10222",
"M!+	c #C40D25",
"N!+	c #CA132A",
"O!+	c #C7152A",
"P!+	c #C5142B",
"Q!+	c #C6172E",
"R!+	c #B10C28",
"S!+	c #B40D2B",
"T!+	c #DE544C",
"U!+	c #F5745A",
"V!+	c #F68C63",
"W!+	c #F0875B",
"X!+	c #ED8D5D",
"Y!+	c #F8A36A",
"Z!+	c #F4A165",
"`!+	c #F3A16E",
" ~+	c #F5A675",
".~+	c #C97F73",
"+~+	c #594F8F",
"@~+	c #30509B",
"#~+	c #31529F",
"$~+	c #3155A2",
"%~+	c #2D52A0",
"&~+	c #2752A0",
"*~+	c #22529E",
"=~+	c #2454A2",
"-~+	c #2053A2",
";~+	c #285BAE",
">~+	c #2458AA",
",~+	c #2155A2",
"'~+	c #2053A3",
")~+	c #2156AB",
"!~+	c #2358A5",
"~~+	c #2359A8",
"{~+	c #525993",
"]~+	c #C8B199",
"^~+	c #E0BF75",
"/~+	c #E4D092",
"(~+	c #E4D59A",
"_~+	c #DCBF7A",
":~+	c #9EAC83",
"<~+	c #2C6087",
"[~+	c #20549E",
"}~+	c #2252A3",
"|~+	c #2151A2",
"1~+	c #1E4D9D",
"2~+	c #1C4B9B",
"3~+	c #1C4B9C",
"4~+	c #2552A4",
"5~+	c #254FA3",
"6~+	c #284FA2",
"7~+	c #284DA0",
"8~+	c #2B4EA3",
"9~+	c #304A9F",
"0~+	c #7B5381",
"a~+	c #ED9183",
"b~+	c #F69774",
"c~+	c #F48C69",
"d~+	c #F89E74",
"e~+	c #F89B72",
"f~+	c #F09068",
"g~+	c #F18864",
"h~+	c #F08060",
"i~+	c #F77F61",
"j~+	c #F0765B",
"k~+	c #EB7056",
"l~+	c #E85342",
"m~+	c #EB4D47",
"n~+	c #EE5F4E",
"o~+	c #F37256",
"p~+	c #F27957",
"q~+	c #F37255",
"r~+	c #F28457",
"s~+	c #F67E54",
"t~+	c #F07B50",
"u~+	c #F07A51",
"v~+	c #EF7752",
"w~+	c #863A2A",
"x~+	c #542222",
"y~+	c #8A4B3C",
"z~+	c #EE956D",
"A~+	c #F3965F",
"B~+	c #F99863",
"C~+	c #F89460",
"D~+	c #F68E5F",
"E~+	c #EB714A",
"F~+	c #FB8C61",
"G~+	c #F38255",
"H~+	c #F98156",
"I~+	c #F6744F",
"J~+	c #F06D4D",
"K~+	c #E95E45",
"L~+	c #EA483C",
"M~+	c #E93B33",
"N~+	c #E32C29",
"O~+	c #DE2A26",
"P~+	c #F05742",
"Q~+	c #F68557",
"R~+	c #F38554",
"S~+	c #F5935F",
"T~+	c #F38857",
"U~+	c #ED7A4E",
"V~+	c #F47B52",
"W~+	c #D75F51",
"X~+	c #671E22",
"Y~+	c #4F1B1D",
"Z~+	c #6C3431",
"`~+	c #6D322D",
" {+	c #6D312E",
".{+	c #6B302C",
"+{+	c #662D2D",
"@{+	c #692E30",
"#{+	c #522827",
"${+	c #301413",
"%{+	c #5F2F2E",
"&{+	c #56342E",
"*{+	c #AAAF9B",
"={+	c #DEE3CB",
"-{+	c #E1DDC7",
";{+	c #E0DBC7",
">{+	c #D8D1BF",
",{+	c #614B42",
"'{+	c #643133",
"){+	c #4F2527",
"!{+	c #690913",
"~{+	c #CA1526",
"{{+	c #D91625",
"]{+	c #DB1927",
"^{+	c #D71724",
"/{+	c #D81A26",
"({+	c #B9101E",
"_{+	c #94041E",
":{+	c #970826",
"<{+	c #9A0A29",
"[{+	c #9A0C27",
"}{+	c #9F0D2A",
"|{+	c #A00C2B",
"1{+	c #A20D2C",
"2{+	c #A30D2B",
"3{+	c #A60928",
"4{+	c #A70826",
"5{+	c #A90928",
"6{+	c #AB0626",
"7{+	c #B10B27",
"8{+	c #B70922",
"9{+	c #B70B23",
"0{+	c #BF1227",
"a{+	c #C41227",
"b{+	c #C9182C",
"c{+	c #C11427",
"d{+	c #AC0219",
"e{+	c #CB1129",
"f{+	c #CA142A",
"g{+	c #C9142B",
"h{+	c #C7152D",
"i{+	c #BD1229",
"j{+	c #B00B28",
"k{+	c #B30C2A",
"l{+	c #B8122E",
"m{+	c #DC524A",
"n{+	c #F6755A",
"o{+	c #F67F5F",
"p{+	c #F1885E",
"q{+	c #F6825F",
"r{+	c #F39461",
"s{+	c #F7A369",
"t{+	c #F8A86B",
"u{+	c #F29B62",
"v{+	c #F49967",
"w{+	c #ED9460",
"x{+	c #F09466",
"y{+	c #C87E71",
"z{+	c #554F8E",
"A{+	c #3451A6",
"B{+	c #3252A0",
"C{+	c #31529B",
"D{+	c #30529B",
"E{+	c #3056A1",
"F{+	c #2A53A1",
"G{+	c #26519F",
"H{+	c #23539F",
"I{+	c #2456A3",
"J{+	c #2556A5",
"K{+	c #2555A4",
"L{+	c #2254A3",
"M{+	c #1E53A2",
"N{+	c #1C53A6",
"O{+	c #1F52A7",
"P{+	c #2558AB",
"Q{+	c #275AAD",
"R{+	c #2155A3",
"S{+	c #1D56AA",
"T{+	c #2358AF",
"U{+	c #2253A5",
"V{+	c #2556A6",
"W{+	c #2758AA",
"X{+	c #505A94",
"Y{+	c #C6B2A2",
"Z{+	c #DEC388",
"`{+	c #E5D49D",
" ]+	c #DDCE90",
".]+	c #DBC075",
"+]+	c #A3B17E",
"@]+	c #305E82",
"#]+	c #20539F",
"$]+	c #2050A2",
"%]+	c #1F4FA0",
"&]+	c #2052A1",
"*]+	c #1F509F",
"=]+	c #1C4A9A",
"-]+	c #2551A2",
";]+	c #254FA1",
">]+	c #2750A2",
",]+	c #2D50A6",
"']+	c #304BA0",
")]+	c #785180",
"!]+	c #E78B80",
"~]+	c #F99876",
"{]+	c #F6946F",
"]]+	c #F79A70",
"^]+	c #FDA379",
"/]+	c #FAA67A",
"(]+	c #F19B70",
"_]+	c #F2976E",
":]+	c #F18F67",
"<]+	c #F08865",
"[]+	c #F68D6A",
"}]+	c #F07C60",
"|]+	c #ED7559",
"1]+	c #EC5645",
"2]+	c #E84741",
"3]+	c #EA4946",
"4]+	c #EF6150",
"5]+	c #F5765A",
"6]+	c #F37B58",
"7]+	c #EF7C50",
"8]+	c #F3754E",
"9]+	c #F2764F",
"0]+	c #F07A52",
"a]+	c #EC7450",
"b]+	c #ED7857",
"c]+	c #964533",
"d]+	c #582A28",
"e]+	c #733B30",
"f]+	c #EC946C",
"g]+	c #EF8B55",
"h]+	c #F18655",
"i]+	c #EE8052",
"j]+	c #F27F53",
"k]+	c #EE744B",
"l]+	c #ED754B",
"m]+	c #F07F51",
"n]+	c #F77C52",
"o]+	c #F87453",
"p]+	c #EB6145",
"q]+	c #EB453B",
"r]+	c #EC3D36",
"s]+	c #E52F2C",
"t]+	c #E02D2A",
"u]+	c #F05C45",
"v]+	c #F17850",
"w]+	c #F18554",
"x]+	c #EE8955",
"y]+	c #F0905A",
"z]+	c #EF8955",
"A]+	c #F58456",
"B]+	c #F57C53",
"C]+	c #F7724E",
"D]+	c #BA483F",
"E]+	c #470C10",
"F]+	c #3A0E0F",
"G]+	c #69332F",
"H]+	c #6D332D",
"I]+	c #6D312D",
"J]+	c #69302E",
"K]+	c #5D2C2A",
"L]+	c #3C1B18",
"M]+	c #6A2E2A",
"N]+	c #682D28",
"O]+	c #6B2D2A",
"P]+	c #563B33",
"Q]+	c #C4CCB7",
"R]+	c #DFE5CE",
"S]+	c #E2DEC9",
"T]+	c #DFDDC8",
"U]+	c #D5C9B9",
"V]+	c #573C34",
"W]+	c #461B1C",
"X]+	c #7E0D1A",
"Y]+	c #CD1122",
"Z]+	c #DA1221",
"`]+	c #DC1626",
" ^+	c #D91623",
".^+	c #D71B26",
"+^+	c #C41526",
"@^+	c #97051F",
"#^+	c #9A0828",
"$^+	c #9B0A27",
"%^+	c #990B26",
"&^+	c #A00C2A",
"*^+	c #A10C2B",
"=^+	c #A00928",
"-^+	c #A50E2C",
";^+	c #A70D2C",
">^+	c #A70D29",
",^+	c #AA0C28",
"'^+	c #AA0926",
")^+	c #B10927",
"!^+	c #B70C26",
"~^+	c #B90C25",
"{^+	c #BA0C26",
"]^+	c #BD1027",
"^^+	c #C11327",
"/^+	c #C61429",
"(^+	c #CA1A2E",
"_^+	c #C4182B",
":^+	c #AE031B",
"<^+	c #C20727",
"[^+	c #C70A25",
"}^+	c #CA0E27",
"|^+	c #C91228",
"1^+	c #C9142A",
"2^+	c #C8162C",
"3^+	c #BD1028",
"4^+	c #AB031E",
"5^+	c #B00A27",
"6^+	c #B20B2B",
"7^+	c #B8132F",
"8^+	c #BF2032",
"9^+	c #DD524A",
"0^+	c #F5755C",
"a^+	c #F7755A",
"b^+	c #F5785C",
"c^+	c #EE855A",
"d^+	c #EC7C52",
"e^+	c #F4A065",
"f^+	c #FCAD70",
"g^+	c #F0935E",
"h^+	c #FA9B6B",
"i^+	c #CA8070",
"j^+	c #504F8F",
"k^+	c #3351A5",
"l^+	c #3556A2",
"m^+	c #33559E",
"n^+	c #30539B",
"o^+	c #2E549D",
"p^+	c #25519E",
"q^+	c #23529F",
"r^+	c #2556A2",
"s^+	c #2656A3",
"t^+	c #2456A5",
"u^+	c #2154A3",
"v^+	c #1F55A9",
"w^+	c #2258A6",
"x^+	c #2357A4",
"y^+	c #1F55A4",
"z^+	c #2159AA",
"A^+	c #215BAD",
"B^+	c #225AAC",
"C^+	c #2554A5",
"D^+	c #2655A5",
"E^+	c #2655A6",
"F^+	c #2957A5",
"G^+	c #536096",
"H^+	c #A79797",
"I^+	c #C3AE8B",
"J^+	c #DFD4AA",
"K^+	c #DACE95",
"L^+	c #E0C47A",
"M^+	c #AEB686",
"N^+	c #345F84",
"O^+	c #1F519C",
"P^+	c #2152A3",
"Q^+	c #1D4DA0",
"R^+	c #1E4FA0",
"S^+	c #1F529F",
"T^+	c #1E4E9E",
"U^+	c #2452A2",
"V^+	c #2652A3",
"W^+	c #2751A1",
"X^+	c #2951A4",
"Y^+	c #2D51A5",
"Z^+	c #304DA0",
"`^+	c #775284",
" /+	c #E88980",
"./+	c #F5906E",
"+/+	c #EF9169",
"@/+	c #F0976D",
"#/+	c #F59C72",
"$/+	c #F8A176",
"%/+	c #F49E73",
"&/+	c #EB976A",
"*/+	c #F49B70",
"=/+	c #F5986E",
"-/+	c #FC9872",
";/+	c #ED8060",
">/+	c #F08264",
",/+	c #F78065",
"'/+	c #EC5547",
")/+	c #E74540",
"!/+	c #EA4945",
"~/+	c #F26454",
"{/+	c #F07557",
"]/+	c #EF7C59",
"^/+	c #F47C5B",
"//+	c #F17757",
"(/+	c #F07254",
"_/+	c #F4704B",
":/+	c #F4744F",
"</+	c #EC7751",
"[/+	c #A6523D",
"}/+	c #5F312E",
"|/+	c #652F25",
"1/+	c #E68D64",
"2/+	c #F08D55",
"3/+	c #ED8451",
"4/+	c #ED7C4F",
"5/+	c #EE7B4E",
"6/+	c #F57D53",
"7/+	c #F88359",
"8/+	c #F07E54",
"9/+	c #F17B4E",
"0/+	c #F77851",
"a/+	c #F87152",
"b/+	c #E95E43",
"c/+	c #EB5C42",
"d/+	c #F26148",
"e/+	c #EA4E3D",
"f/+	c #EB4239",
"g/+	c #E62F2C",
"h/+	c #E32E2C",
"i/+	c #F25E48",
"j/+	c #ED734C",
"k/+	c #F37E53",
"l/+	c #EF8051",
"m/+	c #F08C58",
"n/+	c #EE8F59",
"o/+	c #EF8C58",
"p/+	c #F67B53",
"q/+	c #EF6F4E",
"r/+	c #872820",
"s/+	c #531418",
"t/+	c #4A1818",
"u/+	c #6F342F",
"v/+	c #6D322C",
"w/+	c #6B302A",
"x/+	c #6A2E2C",
"y/+	c #662C2B",
"z/+	c #61322D",
"A/+	c #42221E",
"B/+	c #60302C",
"C/+	c #6A2D28",
"D/+	c #682F2A",
"E/+	c #692D28",
"F/+	c #5A483F",
"G/+	c #D1DDC7",
"H/+	c #DDE5CE",
"I/+	c #E0DFCA",
"J/+	c #E0DEC9",
"K/+	c #C7BBAB",
"L/+	c #52312A",
"M/+	c #461618",
"N/+	c #8F0D1E",
"O/+	c #D00E1E",
"P/+	c #D8101E",
"Q/+	c #D91B27",
"R/+	c #D11E2F",
"S/+	c #99061F",
"T/+	c #9B0B27",
"U/+	c #A00B29",
"V/+	c #A60D2B",
"W/+	c #A80F2D",
"X/+	c #A80F2C",
"Y/+	c #AC0F2B",
"Z/+	c #AA0A28",
"`/+	c #AC0728",
" (+	c #B10A28",
".(+	c #B30823",
"+(+	c #B70C25",
"@(+	c #BA0D27",
"#(+	c #BE1028",
"$(+	c #C5132A",
"%(+	c #C4182D",
"&(+	c #AD021B",
"*(+	c #C10828",
"=(+	c #CA1329",
"-(+	c #C8152B",
";(+	c #BD0F27",
">(+	c #AA021D",
",(+	c #AF0926",
"'(+	c #B20A2C",
")(+	c #B9132F",
"!(+	c #BF2033",
"~(+	c #DD524B",
"{(+	c #F5745B",
"](+	c #F7755B",
"^(+	c #EC8059",
"/(+	c #EC8559",
"((+	c #F5805C",
"_(+	c #EF915E",
":(+	c #ED955D",
"<(+	c #F9A569",
"[(+	c #F6A067",
"}(+	c #F29460",
"|(+	c #F49165",
"1(+	c #CA7F6E",
"2(+	c #4E5090",
"3(+	c #33549E",
"4(+	c #32549D",
"5(+	c #32549C",
"6(+	c #2D56A1",
"7(+	c #2A54A2",
"8(+	c #24509E",
"9(+	c #2453A2",
"0(+	c #2557A6",
"a(+	c #2358A6",
"b(+	c #2458A5",
"c(+	c #2255A3",
"d(+	c #1F55A3",
"e(+	c #2059AE",
"f(+	c #215AAC",
"g(+	c #31599A",
"h(+	c #5F749D",
"i(+	c #777787",
"j(+	c #817D78",
"k(+	c #B2B5A3",
"l(+	c #C0BC99",
"m(+	c #D7BD88",
"n(+	c #AAB192",
"o(+	c #36608D",
"p(+	c #20529E",
"q(+	c #2050A4",
"r(+	c #1D4DA1",
"s(+	c #1F50A1",
"t(+	c #2053A1",
"u(+	c #1D509E",
"v(+	c #1C4E9D",
"w(+	c #2553A3",
"x(+	c #254FA0",
"y(+	c #314EA0",
"z(+	c #7B5687",
"A(+	c #EC8D84",
"B(+	c #F0956A",
"C(+	c #F3A073",
"D(+	c #F5A174",
"E(+	c #F29D70",
"F(+	c #EE986B",
"G(+	c #F3A072",
"H(+	c #F6A073",
"I(+	c #F99D73",
"J(+	c #EF8863",
"K(+	c #F78C6C",
"L(+	c #F98266",
"M(+	c #EB5346",
"N(+	c #EA4741",
"O(+	c #EF4E4A",
"P(+	c #F36455",
"Q(+	c #EF7857",
"R(+	c #EF7154",
"S(+	c #EA6F50",
"T(+	c #F27950",
"U(+	c #F26B49",
"V(+	c #F5714F",
"W(+	c #F57E56",
"X(+	c #F4825C",
"Y(+	c #B0573F",
"Z(+	c #622D2A",
"`(+	c #60261E",
" _+	c #DD8159",
"._+	c #F28957",
"+_+	c #EE8152",
"@_+	c #F27D52",
"#_+	c #F2774F",
"$_+	c #FA855C",
"%_+	c #F37D56",
"&_+	c #F57A50",
"*_+	c #F5704D",
"=_+	c #F3684C",
"-_+	c #EA5A42",
";_+	c #EE5B44",
">_+	c #F45E48",
",_+	c #EA3E36",
"'_+	c #E93832",
")_+	c #E12F2B",
"!_+	c #F15D48",
"~_+	c #EE724D",
"{_+	c #F37751",
"]_+	c #EE7D50",
"^_+	c #F4945F",
"/_+	c #F29760",
"(_+	c #F2925C",
"__+	c #F18454",
":_+	c #F47A52",
"<_+	c #EF7452",
"[_+	c #963626",
"}_+	c #913C37",
"|_+	c #622622",
"1_+	c #723A38",
"2_+	c #703532",
"3_+	c #6E332D",
"4_+	c #6C312B",
"5_+	c #6A2F2A",
"6_+	c #662B2B",
"7_+	c #704D45",
"8_+	c #553F39",
"9_+	c #692E28",
"0_+	c #69302A",
"a_+	c #652F2A",
"b_+	c #696457",
"c_+	c #D7E6CE",
"d_+	c #DCE5CD",
"e_+	c #DFDFCA",
"f_+	c #B4A79A",
"g_+	c #552F28",
"h_+	c #481013",
"i_+	c #9F0F22",
"j_+	c #CD0D1E",
"k_+	c #D7121E",
"l_+	c #D91425",
"m_+	c #DA1723",
"n_+	c #D92333",
"o_+	c #A1071E",
"p_+	c #9B0A28",
"q_+	c #9A0B27",
"r_+	c #A20B2A",
"s_+	c #A40C2B",
"t_+	c #A70E2B",
"u_+	c #A70E2C",
"v_+	c #AC102D",
"w_+	c #AA0B29",
"x_+	c #AC0929",
"y_+	c #B20B29",
"z_+	c #B30924",
"A_+	c #B80E28",
"B_+	c #BA0E27",
"C_+	c #BF1229",
"D_+	c #C51229",
"E_+	c #CA1830",
"F_+	c #C51630",
"G_+	c #AE021D",
"H_+	c #A4011A",
"I_+	c #B10120",
"J_+	c #BD0525",
"K_+	c #C50A25",
"L_+	c #C81228",
"M_+	c #C91329",
"N_+	c #C9152B",
"O_+	c #BC0E25",
"P_+	c #AE0825",
"Q_+	c #B8122F",
"R_+	c #BC1F31",
"S_+	c #DC514A",
"T_+	c #F3735A",
"U_+	c #F5755A",
"V_+	c #F89969",
"W_+	c #F17C57",
"X_+	c #F7805E",
"Y_+	c #FA9467",
"Z_+	c #F39763",
"`_+	c #F0955E",
" :+	c #F39B62",
".:+	c #F39864",
"+:+	c #C97E6C",
"@:+	c #4F4F90",
"#:+	c #32539C",
"$:+	c #33569D",
"%:+	c #30569F",
"&:+	c #2C55A0",
"*:+	c #2753A1",
"=:+	c #2154A0",
"-:+	c #2151A4",
";:+	c #2057AC",
">:+	c #28549F",
",:+	c #48699B",
"':+	c #667E9B",
"):+	c #697C8C",
"!:+	c #667C87",
"~:+	c #8CA6AD",
"{:+	c #7E8B83",
"]:+	c #9A8C78",
"^:+	c #869292",
"/:+	c #325C93",
"(:+	c #1F51A1",
"_:+	c #234FA0",
"::+	c #274F9F",
"<:+	c #294FA1",
"[:+	c #314D9F",
"}:+	c #815886",
"|:+	c #F39286",
"1:+	c #F8946F",
"2:+	c #F7A978",
"3:+	c #F6A775",
"4:+	c #F4A373",
"5:+	c #F09E6F",
"6:+	c #F3A273",
"7:+	c #F39D6E",
"8:+	c #F19368",
"9:+	c #FA8D6B",
"0:+	c #F78C6B",
"a:+	c #F16754",
"b:+	c #EC5144",
"c:+	c #ED4E49",
"d:+	c #EF7457",
"e:+	c #F3825F",
"f:+	c #EF7255",
"g:+	c #EC7053",
"h:+	c #F27750",
"i:+	c #EF6947",
"j:+	c #EF6D4B",
"k:+	c #F58058",
"l:+	c #F08157",
"m:+	c #BE6045",
"n:+	c #612823",
"o:+	c #5E241E",
"p:+	c #C16849",
"q:+	c #EF8053",
"r:+	c #F07D51",
"s:+	c #F37C51",
"t:+	c #EF704A",
"u:+	c #F2734E",
"v:+	c #F47B55",
"w:+	c #F07752",
"x:+	c #F67A54",
"y:+	c #EF6949",
"z:+	c #F16249",
"A:+	c #EF5B44",
"B:+	c #F05843",
"C:+	c #F05641",
"D:+	c #ED4739",
"E:+	c #E8342F",
"F:+	c #E62D2B",
"G:+	c #E3322D",
"H:+	c #F15B48",
"I:+	c #EE704F",
"J:+	c #F47754",
"K:+	c #F59A63",
"L:+	c #EF8252",
"M:+	c #EF754D",
"N:+	c #F97B57",
"O:+	c #E76C56",
"P:+	c #AE4D42",
"Q:+	c #6C2C26",
"R:+	c #763F3A",
"S:+	c #6F342E",
"T:+	c #692E2A",
"U:+	c #692D2C",
"V:+	c #6C302F",
"W:+	c #682D2B",
"X:+	c #652E2B",
"Y:+	c #62302D",
"Z:+	c #9D877C",
"`:+	c #75655D",
" <+	c #692F29",
".<+	c #6A322B",
"+<+	c #858B7B",
"@<+	c #DBEBD3",
"#<+	c #DCD8C6",
"$<+	c #96877C",
"%<+	c #5B2F2A",
"&<+	c #4A0B0F",
"*<+	c #AB1326",
"=<+	c #CA1320",
"-<+	c #D6131F",
";<+	c #D71423",
"><+	c #D91622",
",<+	c #DB1C27",
"'<+	c #DF2432",
")<+	c #AD0C1E",
"!<+	c #9C0822",
"~<+	c #9A0A25",
"{<+	c #9B0B26",
"]<+	c #A20C29",
"^<+	c #A50E2B",
"/<+	c #A70E2A",
"(<+	c #A60D29",
"_<+	c #AB112F",
":<+	c #AB0C2C",
"<<+	c #A90727",
"[<+	c #AF0A27",
"}<+	c #B50E28",
"|<+	c #B90F2A",
"1<+	c #BB1028",
"2<+	c #C0122A",
"3<+	c #C41428",
"4<+	c #C9162D",
"5<+	c #C71630",
"6<+	c #AF031E",
"7<+	c #A3011A",
"8<+	c #B00120",
"9<+	c #C60C26",
"0<+	c #C9132A",
"a<+	c #CA152B",
"b<+	c #CB162C",
"c<+	c #BD0E25",
"d<+	c #AA031D",
"e<+	c #B40C2D",
"f<+	c #B7112D",
"g<+	c #F06F57",
"h<+	c #F27056",
"i<+	c #FDA06F",
"j<+	c #FCA06E",
"k<+	c #F17B58",
"l<+	c #EE7A56",
"m<+	c #FA9966",
"n<+	c #F69661",
"o<+	c #F29660",
"p<+	c #F8A06B",
"q<+	c #F59368",
"r<+	c #C77C6D",
"s<+	c #3250A4",
"t<+	c #2E4D99",
"u<+	c #31519B",
"v<+	c #34559D",
"w<+	c #30569E",
"x<+	c #2B54A0",
"y<+	c #22539E",
"z<+	c #2357A3",
"A<+	c #1D54A7",
"B<+	c #2056A5",
"C<+	c #2457A7",
"D<+	c #2654A3",
"E<+	c #33589D",
"F<+	c #5E77A1",
"G<+	c #6A8399",
"H<+	c #647F8B",
"I<+	c #618290",
"J<+	c #87AFBE",
"K<+	c #5E7B84",
"L<+	c #73757B",
"M<+	c #63778C",
"N<+	c #2D5995",
"O<+	c #2153A2",
"P<+	c #2252A5",
"Q<+	c #2152A4",
"R<+	c #1C4F9F",
"S<+	c #2751A5",
"T<+	c #284F9F",
"U<+	c #284F9E",
"V<+	c #324D9F",
"W<+	c #815882",
"X<+	c #F08E80",
"Y<+	c #F6926C",
"Z<+	c #F8A275",
"`<+	c #F7A879",
" [+	c #F4A576",
".[+	c #F1A171",
"+[+	c #F29C6F",
"@[+	c #F5A173",
"#[+	c #F3A172",
"$[+	c #F3A475",
"%[+	c #F19F71",
"&[+	c #F48F68",
"*[+	c #F08562",
"=[+	c #EF7258",
"-[+	c #EA4C46",
";[+	c #F26554",
">[+	c #F88866",
",[+	c #F37258",
"'[+	c #F27953",
")[+	c #F16B4A",
"![+	c #ED6E4B",
"~[+	c #F17D54",
"{[+	c #F07F56",
"][+	c #CB6A4C",
"^[+	c #61251D",
"/[+	c #5E251F",
"([+	c #A5513D",
"_[+	c #F08155",
":[+	c #EF6C48",
"<[+	c #F16D49",
"[[+	c #EF7651",
"}[+	c #F26C4D",
"|[+	c #F05F47",
"1[+	c #F45C49",
"2[+	c #F55A48",
"3[+	c #EC4D3B",
"4[+	c #EE4439",
"5[+	c #ED3B36",
"6[+	c #E93530",
"7[+	c #E62B2B",
"8[+	c #E63834",
"9[+	c #F57A57",
"0[+	c #EF8557",
"a[+	c #F5A56B",
"b[+	c #F7AC6F",
"c[+	c #F6A268",
"d[+	c #E97048",
"e[+	c #EF714E",
"f[+	c #F16A57",
"g[+	c #983C31",
"h[+	c #6F3731",
"i[+	c #70342F",
"j[+	c #692C2A",
"k[+	c #6C2F2E",
"l[+	c #6B2F2D",
"m[+	c #632D29",
"n[+	c #6C463E",
"o[+	c #CDBFB0",
"p[+	c #7F7169",
"q[+	c #5C2E2A",
"r[+	c #6A312B",
"s[+	c #6B332D",
"t[+	c #5B3430",
"u[+	c #9CA794",
"v[+	c #E0EFD6",
"w[+	c #DDDEC9",
"x[+	c #DBD4C3",
"y[+	c #7D6A61",
"z[+	c #B51227",
"A[+	c #CB111F",
"B[+	c #D4121F",
"C[+	c #D81524",
"D[+	c #DD1E27",
"E[+	c #E12531",
"F[+	c #BB1623",
"G[+	c #9B061B",
"H[+	c #9C0B24",
"I[+	c #9E0D28",
"J[+	c #A10C28",
"K[+	c #A30D29",
"L[+	c #A8112D",
"M[+	c #AA122F",
"N[+	c #A90F2D",
"O[+	c #AA0D2C",
"P[+	c #AA0A29",
"Q[+	c #B80F2A",
"R[+	c #BB1127",
"S[+	c #C01229",
"T[+	c #C5162A",
"U[+	c #CA182D",
"V[+	c #C8172F",
"W[+	c #B0041E",
"X[+	c #A10119",
"Y[+	c #A5011B",
"Z[+	c #BB0625",
"`[+	c #CA162C",
" }+	c #C51327",
".}+	c #CD172D",
"+}+	c #CE192F",
"@}+	c #AB041E",
"#}+	c #B30C2D",
"$}+	c #DE514B",
"%}+	c #EE6E56",
"&}+	c #EF875E",
"*}+	c #F1885A",
"=}+	c #F9925F",
"-}+	c #F6925F",
";}+	c #F0925E",
">}+	c #F8A16D",
",}+	c #F88B61",
"'}+	c #EF895F",
")}+	c #F39364",
"!}+	c #C67E70",
"~}+	c #505090",
"{}+	c #3350A4",
"]}+	c #2E4C99",
"^}+	c #314F9B",
"/}+	c #35559E",
"(}+	c #30559F",
"_}+	c #2B54A1",
":}+	c #25529F",
"<}+	c #2455A0",
"[}+	c #2257A3",
"}}+	c #2655A8",
"|}+	c #2355A5",
"1}+	c #27559C",
"2}+	c #44679C",
"3}+	c #697F99",
"4}+	c #6C8592",
"5}+	c #637D8E",
"6}+	c #678899",
"7}+	c #87B0C0",
"8}+	c #507581",
"9}+	c #647283",
"0}+	c #57718D",
"a}+	c #2B5892",
"b}+	c #1B4E9F",
"c}+	c #1C509E",
"d}+	c #29509D",
"e}+	c #334FA0",
"f}+	c #845A81",
"g}+	c #EB8878",
"h}+	c #F9A97C",
"i}+	c #F3A376",
"j}+	c #EE9D70",
"k}+	c #F5A074",
"l}+	c #F6A175",
"m}+	c #F7A577",
"n}+	c #FBAC7D",
"o}+	c #F6A77A",
"p}+	c #F0976E",
"q}+	c #F29068",
"r}+	c #ED6D54",
"s}+	c #E85947",
"t}+	c #E7403C",
"u}+	c #F06353",
"v}+	c #F2775A",
"w}+	c #F28160",
"x}+	c #F57C5F",
"y}+	c #F16F54",
"z}+	c #F67259",
"A}+	c #EF6B4A",
"B}+	c #F27451",
"C}+	c #F07953",
"D}+	c #EC7652",
"E}+	c #D67153",
"F}+	c #62261B",
"G}+	c #602920",
"H}+	c #853930",
"I}+	c #F28464",
"J}+	c #F28154",
"K}+	c #F0764D",
"L}+	c #F16B47",
"M}+	c #EE6746",
"N}+	c #EE6C49",
"O}+	c #EE704B",
"P}+	c #EE724A",
"Q}+	c #F6704F",
"R}+	c #F25445",
"S}+	c #E94538",
"T}+	c #ED3A35",
"U}+	c #EA3131",
"V}+	c #E72C2D",
"W}+	c #E6403B",
"X}+	c #F17050",
"Y}+	c #F47B53",
"Z}+	c #F08755",
"`}+	c #F7A169",
" |+	c #F5AD6F",
".|+	c #F7A96E",
"+|+	c #ED754C",
"@|+	c #EF6F4D",
"#|+	c #EA634C",
"$|+	c #872C24",
"%|+	c #6F312C",
"&|+	c #6E342D",
"*|+	c #682D2A",
"=|+	c #6A2D2C",
"-|+	c #6A3029",
";|+	c #6A2F27",
">|+	c #622F27",
",|+	c #917869",
"'|+	c #DFDAC6",
")|+	c #7E7067",
"!|+	c #5E2F2A",
"~|+	c #583835",
"{|+	c #B3C2AB",
"]|+	c #DFF0D5",
"^|+	c #DAD1C4",
"/|+	c #6B534E",
"(|+	c #673031",
"_|+	c #5F2B28",
":|+	c #540910",
"<|+	c #B71226",
"[|+	c #C80C1C",
"}|+	c #CF0F1F",
"||+	c #D51322",
"1|+	c #DB1822",
"2|+	c #DD1C26",
"3|+	c #DE232E",
"4|+	c #C81E28",
"5|+	c #9E0516",
"6|+	c #9E0B22",
"7|+	c #A20E27",
"8|+	c #A30C24",
"9|+	c #A60E26",
"0|+	c #A9112A",
"a|+	c #A9102B",
"b|+	c #A70F28",
"c|+	c #A9112D",
"d|+	c #AC1533",
"e|+	c #A40D2A",
"f|+	c #A80E2B",
"g|+	c #AD0E2A",
"h|+	c #B00D28",
"i|+	c #B40E28",
"j|+	c #C01329",
"k|+	c #C5182C",
"l|+	c #C81A2D",
"m|+	c #CC1D30",
"n|+	c #CB1B2F",
"o|+	c #B1051C",
"p|+	c #A20019",
"q|+	c #A7011C",
"r|+	c #B1011F",
"s|+	c #C10E25",
"t|+	c #C9162C",
"u|+	c #C41327",
"v|+	c #C9172C",
"w|+	c #C9172D",
"x|+	c #BA0D24",
"y|+	c #A9041E",
"z|+	c #AE0B27",
"A|+	c #B10E2B",
"B|+	c #B7122F",
"C|+	c #BF1F32",
"D|+	c #DE514C",
"E|+	c #EE6E59",
"F|+	c #F1735C",
"G|+	c #EF785D",
"H|+	c #EC805B",
"I|+	c #EF855A",
"J|+	c #F5865C",
"K|+	c #F48F5E",
"L|+	c #F58C5E",
"M|+	c #F79164",
"N|+	c #F38B5A",
"O|+	c #F1915F",
"P|+	c #F09166",
"Q|+	c #C08072",
"R|+	c #524F8B",
"S|+	c #354F9E",
"T|+	c #334D9F",
"U|+	c #344FA0",
"V|+	c #2F54A2",
"W|+	c #2954A4",
"X|+	c #2255A1",
"Y|+	c #2152A5",
"Z|+	c #2355A7",
"`|+	c #2353A3",
" 1+	c #2256A4",
".1+	c #1D53A5",
"+1+	c #2153A0",
"@1+	c #2455A1",
"#1+	c #2356A4",
"$1+	c #315C9B",
"%1+	c #567499",
"&1+	c #6A8194",
"*1+	c #6D8392",
"=1+	c #657E8E",
"-1+	c #7B9DAF",
";1+	c #87B2C4",
">1+	c #4E7182",
",1+	c #5B7189",
"'1+	c #56728E",
")1+	c #2D5B96",
"!1+	c #1C4FA1",
"~1+	c #1E51A0",
"{1+	c #2554A4",
"]1+	c #2651A3",
"^1+	c #284F9A",
"/1+	c #33509E",
"(1+	c #8C5E85",
"_1+	c #EC8576",
":1+	c #F09770",
"<1+	c #F7A37B",
"[1+	c #F7A77B",
"}1+	c #F5A175",
"|1+	c #F39F75",
"11+	c #F3A176",
"21+	c #FBAC80",
"31+	c #F6A97C",
"41+	c #F29B72",
"51+	c #EF8C61",
"61+	c #F46F58",
"71+	c #E95646",
"81+	c #E8453D",
"91+	c #EE4F47",
"01+	c #F27458",
"a1+	c #F67057",
"b1+	c #EF6B49",
"c1+	c #F17452",
"d1+	c #EF7451",
"e1+	c #EB7251",
"f1+	c #F07754",
"g1+	c #E07B5C",
"h1+	c #612519",
"i1+	c #672E23",
"j1+	c #702C24",
"k1+	c #EE8265",
"l1+	c #EA7447",
"m1+	c #F0744C",
"n1+	c #F26D4A",
"o1+	c #ED6645",
"p1+	c #EE6A48",
"q1+	c #F3754D",
"r1+	c #F76F4C",
"s1+	c #F26048",
"t1+	c #E8483B",
"u1+	c #E74136",
"v1+	c #EA3C35",
"w1+	c #EB3632",
"x1+	c #E93130",
"y1+	c #E62F2F",
"z1+	c #F46850",
"A1+	c #F27151",
"B1+	c #F57B54",
"C1+	c #F18556",
"D1+	c #F09761",
"E1+	c #F79662",
"F1+	c #F17B52",
"G1+	c #F47151",
"H1+	c #E5604A",
"I1+	c #79261E",
"J1+	c #6F322D",
"K1+	c #6F352F",
"L1+	c #6A2D2A",
"M1+	c #682F28",
"N1+	c #652F26",
"O1+	c #664136",
"P1+	c #C4B3A1",
"Q1+	c #E2E2CC",
"R1+	c #7B7066",
"S1+	c #5F2F2B",
"T1+	c #56423D",
"U1+	c #C2D7BE",
"V1+	c #DCEFD3",
"W1+	c #DEE6CF",
"X1+	c #E1DFCE",
"Y1+	c #D7CDC1",
"Z1+	c #5F4540",
"`1+	c #693232",
" 2+	c #592826",
".2+	c #5E0912",
"+2+	c #C60A1C",
"@2+	c #CB0D1E",
"#2+	c #CD0F1D",
"$2+	c #D81823",
"%2+	c #DC1B26",
"&2+	c #DD212C",
"*2+	c #D2232D",
"=2+	c #A00617",
"-2+	c #9D0A20",
";2+	c #A10C25",
">2+	c #A81128",
",2+	c #AA122A",
"'2+	c #AA122C",
")2+	c #A9102C",
"!2+	c #A9112F",
"~2+	c #A60E2C",
"{2+	c #A80D29",
"]2+	c #AE0F2A",
"^2+	c #AF0C28",
"/2+	c #B50E29",
"(2+	c #BA112A",
"_2+	c #C2152A",
":2+	c #C71B2E",
"<2+	c #C91C2E",
"[2+	c #CD2031",
"}2+	c #CC1C30",
"|2+	c #B3061C",
"12+	c #A30019",
"22+	c #B0011F",
"32+	c #C20F26",
"42+	c #CA182E",
"52+	c #C9162B",
"62+	c #B80C23",
"72+	c #AA051F",
"82+	c #AD0B27",
"92+	c #B20E2C",
"02+	c #B81430",
"a2+	c #C02134",
"b2+	c #DF524D",
"c2+	c #F3725C",
"d2+	c #F1785E",
"e2+	c #F79065",
"f2+	c #F78762",
"g2+	c #F79261",
"h2+	c #FB9866",
"i2+	c #F68F60",
"j2+	c #F18356",
"k2+	c #F28D5B",
"l2+	c #F79F69",
"m2+	c #F19462",
"n2+	c #EF8559",
"o2+	c #F08358",
"p2+	c #ED8159",
"q2+	c #FB966A",
"r2+	c #EF905C",
"s2+	c #BE8272",
"t2+	c #514F8A",
"u2+	c #36509F",
"v2+	c #354FA2",
"w2+	c #3450A1",
"x2+	c #2F53A2",
"y2+	c #2854A3",
"z2+	c #2452A0",
"A2+	c #2454A1",
"B2+	c #2152A2",
"C2+	c #1C52A3",
"D2+	c #1F53A2",
"E2+	c #2656A5",
"F2+	c #28579F",
"G2+	c #476D9F",
"H2+	c #617F99",
"I2+	c #69808F",
"J2+	c #697E90",
"K2+	c #667D8F",
"L2+	c #8AB0C0",
"M2+	c #7CAAB9",
"N2+	c #507184",
"O2+	c #5A7087",
"P2+	c #597590",
"Q2+	c #34609B",
"R2+	c #2052A4",
"S2+	c #204FA4",
"T2+	c #1E51A1",
"U2+	c #2450A2",
"V2+	c #25509E",
"W2+	c #274F9A",
"X2+	c #334F9C",
"Y2+	c #8F5F85",
"Z2+	c #EF8878",
"`2+	c #F0946C",
" 3+	c #F29871",
".3+	c #F9A47A",
"+3+	c #F39F74",
"@3+	c #F4A177",
"#3+	c #F4A378",
"$3+	c #FCAB80",
"%3+	c #FAAC7E",
"&3+	c #F7A377",
"*3+	c #F5966A",
"=3+	c #F6725B",
"-3+	c #EF6450",
";3+	c #F36F55",
">3+	c #F47451",
",3+	c #EF6847",
"'3+	c #ED6D4C",
")3+	c #F1724F",
"!3+	c #F47F59",
"~3+	c #E77F5D",
"{3+	c #64221A",
"]3+	c #6C2F26",
"^3+	c #64251E",
"/3+	c #E47D61",
"(3+	c #F28152",
"_3+	c #E96F46",
":3+	c #F1724C",
"<3+	c #F46E4D",
"[3+	c #F3714E",
"}3+	c #F77852",
"|3+	c #F5754D",
"13+	c #F36847",
"23+	c #E64339",
"33+	c #EA3834",
"43+	c #EB3431",
"53+	c #E83130",
"63+	c #E3302E",
"73+	c #F26B51",
"83+	c #F37853",
"93+	c #F07E52",
"03+	c #EB8B59",
"a3+	c #FCAE77",
"b3+	c #FAAA73",
"c3+	c #DC5F4B",
"d3+	c #71231D",
"e3+	c #703530",
"f3+	c #6D302D",
"g3+	c #6E312E",
"h3+	c #673129",
"i3+	c #613427",
"j3+	c #897565",
"k3+	c #DBD5BD",
"l3+	c #E2E5CE",
"m3+	c #7A6F66",
"n3+	c #612F2C",
"o3+	c #673231",
"p3+	c #60534C",
"q3+	c #CAE1C9",
"r3+	c #DBECD1",
"s3+	c #DDE4CD",
"t3+	c #E3E1CF",
"u3+	c #C7B9AF",
"v3+	c #552525",
"w3+	c #6A0A16",
"x3+	c #C21129",
"y3+	c #C40A1D",
"z3+	c #C80E20",
"A3+	c #C90F1E",
"B3+	c #D41924",
"C3+	c #DE212B",
"D3+	c #D82730",
"E3+	c #A60B18",
"F3+	c #9C081C",
"G3+	c #9E0A23",
"H3+	c #AB132A",
"I3+	c #AC132B",
"J3+	c #AC132E",
"K3+	c #AC132D",
"L3+	c #AA112E",
"M3+	c #A8102D",
"N3+	c #A90F2C",
"O3+	c #AF0F2B",
"P3+	c #B10E29",
"Q3+	c #B80F29",
"R3+	c #C71C2F",
"S3+	c #C71C2E",
"T3+	c #CA1E2F",
"U3+	c #CE2231",
"V3+	c #CC1D2F",
"W3+	c #B6081E",
"X3+	c #A6011A",
"Y3+	c #BC0725",
"Z3+	c #C8152A",
"`3+	c #CA172C",
" 4+	c #C71429",
".4+	c #B60921",
"+4+	c #AC0A26",
"@4+	c #B3102D",
"#4+	c #B91431",
"$4+	c #E0534E",
"%4+	c #F4735C",
"&4+	c #F0735B",
"*4+	c #F2775E",
"=4+	c #F68361",
"-4+	c #F78761",
";4+	c #F68660",
">4+	c #F79262",
",4+	c #F99563",
"'4+	c #F38B5C",
")4+	c #F08458",
"!4+	c #FAA36D",
"~4+	c #EF905F",
"{4+	c #EF875A",
"]4+	c #FC9D6D",
"^4+	c #F99B68",
"/4+	c #F69C6A",
"(4+	c #C38876",
"_4+	c #3650A0",
":4+	c #3452A2",
"<4+	c #3054A3",
"[4+	c #2A55A5",
"}4+	c #2353A1",
"|4+	c #2254A1",
"14+	c #2051A0",
"24+	c #1F54A2",
"34+	c #1E55A5",
"44+	c #1D50A2",
"54+	c #1D50A1",
"64+	c #1F54A1",
"74+	c #2355A3",
"84+	c #2352A2",
"94+	c #27559F",
"04+	c #345B98",
"a4+	c #5D7D9D",
"b4+	c #668290",
"c4+	c #6A808E",
"d4+	c #687E91",
"e4+	c #677D90",
"f4+	c #98C0CF",
"g4+	c #719EAB",
"h4+	c #557387",
"i4+	c #5D7288",
"j4+	c #5D7890",
"k4+	c #38639C",
"l4+	c #2151A5",
"m4+	c #26509E",
"n4+	c #28529C",
"o4+	c #946185",
"p4+	c #F58E7C",
"q4+	c #FA9971",
"r4+	c #F79B74",
"s4+	c #EF956D",
"t4+	c #EC946A",
"u4+	c #EC976B",
"v4+	c #F5A076",
"w4+	c #F9A57C",
"x4+	c #F5A278",
"y4+	c #F7A275",
"z4+	c #F6996D",
"A4+	c #F06E55",
"B4+	c #ED7858",
"C4+	c #F0825F",
"D4+	c #F16F55",
"E4+	c #F56F4E",
"F4+	c #EF6344",
"G4+	c #EB6745",
"H4+	c #F26D49",
"I4+	c #EE724C",
"J4+	c #E77F57",
"K4+	c #6A211A",
"L4+	c #6F2D27",
"M4+	c #60211B",
"N4+	c #D7725A",
"O4+	c #EE7B50",
"P4+	c #EF714C",
"Q4+	c #EE6D4A",
"R4+	c #F2704E",
"S4+	c #F3734F",
"T4+	c #F0734D",
"U4+	c #F87653",
"V4+	c #F26548",
"W4+	c #EF5645",
"X4+	c #EB4C43",
"Y4+	c #EA443D",
"Z4+	c #EE3533",
"`4+	c #F35B4D",
" 5+	c #EF7052",
".5+	c #F0734F",
"+5+	c #EE774E",
"@5+	c #EC8456",
"#5+	c #FAA471",
"$5+	c #FAA571",
"%5+	c #F17654",
"&5+	c #D15E49",
"*5+	c #6C2622",
"=5+	c #703632",
"-5+	c #703431",
";5+	c #713530",
">5+	c #6B2E2B",
",5+	c #663229",
"'5+	c #6D4F41",
")5+	c #BEB9A2",
"!5+	c #DFE3C8",
"~5+	c #E4E8D0",
"{5+	c #7A6D63",
"]5+	c #6C332F",
"^5+	c #663432",
"/5+	c #6B665E",
"(5+	c #D4E6D0",
"_5+	c #D9E8CD",
":5+	c #DAD5C5",
"<5+	c #7B6F67",
"[5+	c #4F2826",
"}5+	c #501D20",
"|5+	c #780C1C",
"15+	c #C40E28",
"25+	c #BE0B1C",
"35+	c #C20A1E",
"45+	c #C91121",
"55+	c #CF1622",
"65+	c #DB1C28",
"75+	c #DF222A",
"85+	c #DA252E",
"95+	c #AE101D",
"05+	c #9B071A",
"a5+	c #A00B25",
"b5+	c #A60F27",
"c5+	c #A91128",
"d5+	c #AD142F",
"e5+	c #AC142D",
"f5+	c #A9102D",
"g5+	c #AB112E",
"h5+	c #A90E2A",
"i5+	c #AB0C28",
"j5+	c #AE0E2A",
"k5+	c #B70E27",
"l5+	c #BE132A",
"m5+	c #C61B2E",
"n5+	c #C61B2D",
"o5+	c #CB202F",
"p5+	c #D22735",
"q5+	c #CC2030",
"r5+	c #BA0B21",
"s5+	c #A9031D",
"t5+	c #AF001E",
"u5+	c #C71329",
"v5+	c #C81329",
"w5+	c #CC162D",
"x5+	c #CB152B",
"y5+	c #B70A22",
"z5+	c #B91430",
"A5+	c #C12134",
"B5+	c #E1534F",
"C5+	c #EE6F59",
"D5+	c #F2725B",
"E5+	c #F08058",
"F5+	c #F38D5E",
"G5+	c #F48D5D",
"H5+	c #F59160",
"I5+	c #F49763",
"J5+	c #F49964",
"K5+	c #F69868",
"L5+	c #C48B76",
"M5+	c #504E89",
"N5+	c #37509F",
"O5+	c #3453A3",
"P5+	c #3353A3",
"Q5+	c #3052A1",
"R5+	c #3055A3",
"S5+	c #2A51A2",
"T5+	c #2754A3",
"U5+	c #21509E",
"V5+	c #2255A0",
"W5+	c #21529F",
"X5+	c #1E53A1",
"Y5+	c #2B5FB1",
"Z5+	c #1D57A1",
"`5+	c #1F55A1",
" 6+	c #2256A3",
".6+	c #2153A1",
"+6+	c #285599",
"@6+	c #47699B",
"#6+	c #658097",
"$6+	c #667F8B",
"%6+	c #6C8191",
"&6+	c #697F91",
"*6+	c #6A8296",
"=6+	c #A3CBD8",
"-6+	c #6893A0",
";6+	c #5A758B",
">6+	c #627488",
",6+	c #627B8D",
"'6+	c #3F699B",
")6+	c #2153A4",
"!6+	c #2051A5",
"~6+	c #2350A0",
"{6+	c #28539E",
"]6+	c #33509B",
"^6+	c #936183",
"/6+	c #F28F79",
"(6+	c #F99F74",
"_6+	c #FBA57C",
":6+	c #F19C70",
"<6+	c #F19C71",
"[6+	c #F8A37B",
"}6+	c #F9A47C",
"|6+	c #EF966E",
"16+	c #EC9169",
"26+	c #F1986C",
"36+	c #F89D6E",
"46+	c #F4946A",
"56+	c #EB5B49",
"66+	c #E8483F",
"76+	c #E9433C",
"86+	c #F66C4F",
"96+	c #EF6244",
"06+	c #F06645",
"a6+	c #F06944",
"b6+	c #F9895B",
"c6+	c #EC8056",
"d6+	c #70241B",
"e6+	c #742D2A",
"f6+	c #5F201C",
"g6+	c #C36150",
"h6+	c #EE7953",
"i6+	c #F2714E",
"j6+	c #EE6948",
"k6+	c #EF6D4A",
"l6+	c #EF714D",
"m6+	c #F67052",
"n6+	c #EF5F47",
"o6+	c #EC4440",
"p6+	c #E43633",
"q6+	c #F37057",
"r6+	c #EF7151",
"s6+	c #F17451",
"t6+	c #F0744F",
"u6+	c #ED7E53",
"v6+	c #F08E60",
"w6+	c #F99A6A",
"x6+	c #F1785A",
"y6+	c #C05040",
"z6+	c #6A2824",
"A6+	c #723634",
"B6+	c #6B2D2B",
"C6+	c #67302B",
"D6+	c #69322C",
"E6+	c #6B3D32",
"F6+	c #A1907A",
"G6+	c #D9DCC1",
"H6+	c #E1E6CA",
"I6+	c #E5E7CF",
"J6+	c #75685E",
"K6+	c #642F2D",
"L6+	c #653735",
"M6+	c #7B7C73",
"N6+	c #D8E5D0",
"O6+	c #DEE0CD",
"P6+	c #C0B6AA",
"Q6+	c #3C2E29",
"R6+	c #562B28",
"S6+	c #4B191E",
"T6+	c #850B1F",
"U6+	c #C70D28",
"V6+	c #BF091D",
"W6+	c #BF061B",
"X6+	c #C80F20",
"Y6+	c #CF1523",
"Z6+	c #D91B28",
"`6+	c #DC2129",
" 7+	c #DB2930",
".7+	c #B61822",
"+7+	c #9D0818",
"@7+	c #A10F25",
"#7+	c #A71028",
"$7+	c #A81228",
"%7+	c #AE162F",
"&7+	c #AE152D",
"*7+	c #AB142D",
"=7+	c #AF1530",
"-7+	c #AD0F2B",
";7+	c #B10D28",
">7+	c #B70D28",
",7+	c #BB0E28",
"'7+	c #C1142A",
")7+	c #C5192C",
"!7+	c #C71E2D",
"~7+	c #CD242F",
"{7+	c #D32B36",
"]7+	c #CD2131",
"^7+	c #BC0C21",
"/7+	c #AD041E",
"(7+	c #C71029",
"_7+	c #CB142B",
":7+	c #CC152C",
"<7+	c #CC152A",
"[7+	c #B90B23",
"}7+	c #A8021D",
"|7+	c #AA0725",
"17+	c #B10C2B",
"27+	c #BA1432",
"37+	c #C32336",
"47+	c #E15350",
"57+	c #EF6E5A",
"67+	c #F0725C",
"77+	c #FA9165",
"87+	c #EE8058",
"97+	c #F2895B",
"07+	c #EF825B",
"a7+	c #F28D5E",
"b7+	c #FA9D6D",
"c7+	c #F89C65",
"d7+	c #F1965D",
"e7+	c #C78C75",
"f7+	c #524E89",
"g7+	c #3850A0",
"h7+	c #3554A1",
"i7+	c #3154A0",
"j7+	c #2D519E",
"k7+	c #2951A0",
"l7+	c #2552A0",
"m7+	c #2552A2",
"n7+	c #22509F",
"o7+	c #2253A1",
"p7+	c #2251A0",
"q7+	c #2251A2",
"r7+	c #2057A5",
"s7+	c #2354A6",
"t7+	c #1E53A4",
"u7+	c #2457A8",
"v7+	c #285AAE",
"w7+	c #1E56A0",
"x7+	c #2055A0",
"y7+	c #2054A1",
"z7+	c #2254A5",
"A7+	c #335A98",
"B7+	c #5C7BA1",
"C7+	c #678093",
"D7+	c #667F8C",
"E7+	c #697F90",
"F7+	c #677E90",
"G7+	c #718C9F",
"H7+	c #A2CDDB",
"I7+	c #638D9C",
"J7+	c #5D778E",
"K7+	c #627688",
"L7+	c #657C8C",
"M7+	c #487197",
"N7+	c #2152A6",
"O7+	c #1D51A2",
"P7+	c #2251A5",
"Q7+	c #2650A0",
"R7+	c #2852A2",
"S7+	c #34519D",
"T7+	c #946383",
"U7+	c #F19379",
"V7+	c #F3976D",
"W7+	c #FAA67C",
"X7+	c #F8A67B",
"Y7+	c #FAA97C",
"Z7+	c #F8A478",
"`7+	c #F69F76",
" 8+	c #F29970",
".8+	c #F3926C",
"+8+	c #F4956B",
"@8+	c #F99D71",
"#8+	c #F79A6D",
"$8+	c #F6755D",
"%8+	c #EF5E4D",
"&8+	c #E9483F",
"*8+	c #F06452",
"=8+	c #F3745A",
"-8+	c #F48965",
";8+	c #FC906C",
">8+	c #F27758",
",8+	c #EE6144",
"'8+	c #F06545",
")8+	c #F16A46",
"!8+	c #F47651",
"~8+	c #F88559",
"{8+	c #ED7F54",
"]8+	c #74281B",
"^8+	c #752D2B",
"/8+	c #642622",
"(8+	c #A1493B",
"_8+	c #ED7856",
":8+	c #EC6646",
"<8+	c #F26E4E",
"[8+	c #F57554",
"}8+	c #F0674B",
"|8+	c #EB5943",
"18+	c #EB3836",
"28+	c #E83131",
"38+	c #FB6E5B",
"48+	c #F57357",
"58+	c #F57654",
"68+	c #F07551",
"78+	c #EE7A54",
"88+	c #E76E4A",
"98+	c #B6443A",
"08+	c #692B28",
"a8+	c #743333",
"b8+	c #67302A",
"c8+	c #69372D",
"d8+	c #816453",
"e8+	c #D4CFB5",
"f8+	c #DEE6C8",
"g8+	c #E2E6CA",
"h8+	c #E1E3CA",
"i8+	c #706259",
"j8+	c #63302D",
"k8+	c #713635",
"l8+	c #5F3432",
"m8+	c #949C91",
"n8+	c #DBE8D1",
"o8+	c #DFDECE",
"p8+	c #82766E",
"q8+	c #271211",
"r8+	c #5F302E",
"s8+	c #6A3032",
"t8+	c #461519",
"u8+	c #8E091E",
"v8+	c #C4081F",
"w8+	c #C1051B",
"x8+	c #CB0E21",
"y8+	c #DC2127",
"z8+	c #DD2F31",
"A8+	c #BF1C23",
"B8+	c #A20818",
"C8+	c #A10E23",
"D8+	c #A61427",
"E8+	c #A81327",
"F8+	c #AD152A",
"G8+	c #AF152A",
"H8+	c #AC172B",
"I8+	c #B1152C",
"J8+	c #AE0E27",
"K8+	c #AF0E26",
"L8+	c #B00F27",
"M8+	c #B30F26",
"N8+	c #C11728",
"O8+	c #C71D2C",
"P8+	c #CA242E",
"Q8+	c #D12931",
"R8+	c #D42D35",
"S8+	c #CF2431",
"T8+	c #BE0D22",
"U8+	c #B0031F",
"V8+	c #C70F28",
"W8+	c #CC142B",
"X8+	c #CD152A",
"Y8+	c #CD162A",
"Z8+	c #CC162B",
"`8+	c #C9152C",
" 9+	c #BD0F29",
".9+	c #A90420",
"+9+	c #B00B2B",
"@9+	c #BB1432",
"#9+	c #C42437",
"$9+	c #E15351",
"%9+	c #F06E5C",
"&9+	c #F17159",
"*9+	c #FA976A",
"=9+	c #F38E64",
"-9+	c #F09364",
";9+	c #F49965",
">9+	c #F1915B",
",9+	c #F09662",
"'9+	c #CA8D73",
")9+	c #544F86",
"!9+	c #3A509E",
"~9+	c #3755A0",
"{9+	c #3054A0",
"]9+	c #2F54A0",
"^9+	c #2F54A1",
"/9+	c #29519F",
"(9+	c #2250A0",
"_9+	c #2554A3",
":9+	c #2352A3",
"<9+	c #2152A1",
"[9+	c #245BA8",
"}9+	c #1D54A4",
"|9+	c #1B54A3",
"19+	c #2058A7",
"29+	c #1D54A1",
"39+	c #29559E",
"49+	c #4B6E9E",
"59+	c #65839E",
"69+	c #667F90",
"79+	c #667F8F",
"89+	c #657F8E",
"99+	c #647C8F",
"09+	c #7F9DB0",
"a9+	c #A3D4E2",
"b9+	c #60899A",
"c9+	c #5F788F",
"d9+	c #63798A",
"e9+	c #657E8B",
"f9+	c #4F7895",
"g9+	c #2656A0",
"h9+	c #2353A6",
"i9+	c #1F51A5",
"j9+	c #1D52A3",
"k9+	c #2A52A5",
"l9+	c #37519F",
"m9+	c #9C6A8A",
"n9+	c #F2977D",
"o9+	c #F2956A",
"p9+	c #F7A277",
"q9+	c #F6A378",
"r9+	c #F8A778",
"s9+	c #F7A477",
"t9+	c #F29B70",
"u9+	c #F59B70",
"v9+	c #F6986E",
"w9+	c #F8946E",
"x9+	c #F18D65",
"y9+	c #EE8C61",
"z9+	c #F17358",
"A9+	c #EE5E4C",
"B9+	c #E94A3F",
"C9+	c #F06654",
"D9+	c #F57A5F",
"E9+	c #F58C67",
"F9+	c #FB916C",
"G9+	c #F78966",
"H9+	c #EF7657",
"I9+	c #EE5D50",
"J9+	c #EE6045",
"K9+	c #F06845",
"L9+	c #F26B47",
"M9+	c #F2744E",
"N9+	c #F58155",
"O9+	c #EE7F54",
"P9+	c #7E3021",
"Q9+	c #712C28",
"R9+	c #692824",
"S9+	c #813429",
"T9+	c #EA7757",
"U9+	c #F4754F",
"V9+	c #F26E4B",
"W9+	c #EB6547",
"X9+	c #F26B4D",
"Y9+	c #F87558",
"Z9+	c #F26C51",
"`9+	c #ED5842",
" 0+	c #E72E2F",
".0+	c #EE463E",
"+0+	c #FB705B",
"@0+	c #F67756",
"#0+	c #F87958",
"$0+	c #F07252",
"%0+	c #F57B59",
"&0+	c #F27C56",
"*0+	c #EA6948",
"=0+	c #AA3A33",
"-0+	c #733134",
";0+	c #642D2C",
">0+	c #6A342D",
",0+	c #6C332C",
"'0+	c #6B322D",
")0+	c #6A352E",
"!0+	c #735041",
"~0+	c #B09F89",
"{0+	c #DFE5C7",
"]0+	c #DFEBCB",
"^0+	c #E1E8CB",
"/0+	c #685950",
"(0+	c #63322D",
"_0+	c #703334",
":0+	c #552F2E",
"<0+	c #ADBAAB",
"[0+	c #DDEBD3",
"}0+	c #DFE3CB",
"|0+	c #D9D2C6",
"10+	c #4E3F3B",
"20+	c #2B1011",
"30+	c #64312F",
"40+	c #672F30",
"50+	c #970A20",
"60+	c #C60920",
"70+	c #CF0F23",
"80+	c #D11323",
"90+	c #DF2026",
"00+	c #E12D31",
"a0+	c #CB1F28",
"b0+	c #A3081D",
"c0+	c #9C1127",
"d0+	c #9B1A2E",
"e0+	c #9A1F2D",
"f0+	c #9C1A2A",
"g0+	c #A31B2B",
"h0+	c #A41A2D",
"i0+	c #A71E30",
"j0+	c #B0162B",
"k0+	c #B10D24",
"l0+	c #B40E24",
"m0+	c #B71328",
"n0+	c #BB1429",
"o0+	c #BF1027",
"p0+	c #C31329",
"q0+	c #C71C2A",
"r0+	c #CC252F",
"s0+	c #D12D33",
"t0+	c #D12B30",
"u0+	c #D52F34",
"v0+	c #CF262F",
"w0+	c #C00D21",
"x0+	c #BE0726",
"y0+	c #C70D27",
"z0+	c #D0152B",
"A0+	c #CF182C",
"B0+	c #CC172C",
"C0+	c #A90423",
"D0+	c #A80726",
"E0+	c #B10D2C",
"F0+	c #BA1433",
"G0+	c #C42438",
"H0+	c #E25453",
"I0+	c #F1715B",
"J0+	c #EF715B",
"K0+	c #F1755E",
"L0+	c #EF775B",
"M0+	c #F0835B",
"N0+	c #F48E62",
"O0+	c #F1865C",
"P0+	c #F98962",
"Q0+	c #FA9368",
"R0+	c #F18E60",
"S0+	c #F07E58",
"T0+	c #EC8D60",
"U0+	c #F19968",
"V0+	c #F39861",
"W0+	c #F18F5C",
"X0+	c #CF9073",
"Y0+	c #575083",
"Z0+	c #3A509B",
"`0+	c #37549F",
" a+	c #3256A3",
".a+	c #3156A3",
"+a+	c #28529F",
"@a+	c #23529E",
"#a+	c #2352A0",
"$a+	c #2655A4",
"%a+	c #2857A5",
"&a+	c #2557A7",
"*a+	c #255CAA",
"=a+	c #1B55A3",
"-a+	c #1C57A5",
";a+	c #215BAA",
">a+	c #215CAB",
",a+	c #2155A1",
"'a+	c #375F9D",
")a+	c #5C7B9B",
"!a+	c #638090",
"~a+	c #647C8B",
"{a+	c #667D8D",
"]a+	c #657E8F",
"^a+	c #637D90",
"/a+	c #92B4C6",
"(a+	c #A0D5E3",
"_a+	c #5F8598",
":a+	c #637A91",
"<a+	c #657D8C",
"[a+	c #65808B",
"}a+	c #578095",
"|a+	c #29599A",
"1a+	c #2253A0",
"2a+	c #1E50A4",
"3a+	c #2650A3",
"4a+	c #384F9E",
"5a+	c #A46F91",
"6a+	c #F3987C",
"7a+	c #F3A171",
"8a+	c #F8A775",
"9a+	c #F5A073",
"0a+	c #F89C70",
"aa+	c #F4936A",
"ba+	c #FC9A70",
"ca+	c #EC885E",
"da+	c #ED614A",
"ea+	c #E94E3F",
"fa+	c #EA5747",
"ga+	c #EC6651",
"ha+	c #F3795E",
"ia+	c #F58967",
"ja+	c #F9926D",
"ka+	c #F8906B",
"la+	c #EC7656",
"ma+	c #DA4F48",
"na+	c #EE6047",
"oa+	c #F06844",
"pa+	c #EF6743",
"qa+	c #EB6C46",
"ra+	c #F47F54",
"sa+	c #F38356",
"ta+	c #8B3A27",
"ua+	c #6D2722",
"va+	c #6C2624",
"wa+	c #66221A",
"xa+	c #E87155",
"ya+	c #F5724D",
"za+	c #F46B4A",
"Aa+	c #EF6547",
"Ba+	c #ED6447",
"Ca+	c #EE6049",
"Da+	c #EC553F",
"Ea+	c #E84138",
"Fa+	c #E92C2E",
"Ga+	c #E5302F",
"Ha+	c #F24F42",
"Ia+	c #F56E54",
"Ja+	c #F57456",
"Ka+	c #F47353",
"La+	c #EE6E4E",
"Ma+	c #EE7050",
"Na+	c #F27651",
"Oa+	c #EC6848",
"Pa+	c #EE5F48",
"Qa+	c #9A2F28",
"Ra+	c #652D2F",
"Sa+	c #6C2B30",
"Ta+	c #431514",
"Ua+	c #64322B",
"Va+	c #6B332C",
"Wa+	c #6B312B",
"Xa+	c #6E4035",
"Ya+	c #A18A76",
"Za+	c #D5CFB4",
"`a+	c #DFE8C8",
" b+	c #DCEAC9",
".b+	c #E1ECCD",
"+b+	c #D9D8C5",
"@b+	c #64524B",
"#b+	c #64322D",
"$b+	c #523532",
"%b+	c #BCCEB8",
"&b+	c #DBEBD1",
"*b+	c #DFE2CC",
"=b+	c #B7A59E",
"-b+	c #3C191A",
";b+	c #37181B",
">b+	c #682E30",
",b+	c #430A0E",
"'b+	c #A00E22",
")b+	c #C70920",
"!b+	c #C90A21",
"~b+	c #CC0E21",
"{b+	c #CF1423",
"]b+	c #D51924",
"^b+	c #E01F29",
"/b+	c #E5282F",
"(b+	c #CF1F2A",
"_b+	c #9A1A2C",
":b+	c #994658",
"<b+	c #9F616E",
"[b+	c #A76E78",
"}b+	c #9E626B",
"|b+	c #9D5C64",
"1b+	c #99515B",
"2b+	c #9B4752",
"3b+	c #A22639",
"4b+	c #A9132C",
"5b+	c #AE122C",
"6b+	c #B41932",
"7b+	c #B9122D",
"8b+	c #C3142F",
"9b+	c #CA1D2F",
"0b+	c #CC2630",
"ab+	c #D13034",
"bb+	c #D33033",
"cb+	c #D73035",
"db+	c #CE242D",
"eb+	c #C51125",
"fb+	c #B90824",
"gb+	c #B60522",
"hb+	c #D0162C",
"ib+	c #CE192C",
"jb+	c #C9162A",
"kb+	c #BF122B",
"lb+	c #A90324",
"mb+	c #AA0929",
"nb+	c #B10E2D",
"ob+	c #BA1533",
"pb+	c #C42339",
"qb+	c #E25354",
"rb+	c #F06E5E",
"sb+	c #F0715B",
"tb+	c #F0715E",
"ub+	c #F07560",
"vb+	c #EF765D",
"wb+	c #EE875B",
"xb+	c #F88B63",
"yb+	c #F0895C",
"zb+	c #F07F57",
"Ab+	c #F88B5F",
"Bb+	c #F68D62",
"Cb+	c #ED9163",
"Db+	c #F79D65",
"Eb+	c #F89E67",
"Fb+	c #D09371",
"Gb+	c #585182",
"Hb+	c #3C509C",
"Ib+	c #36549E",
"Jb+	c #3258A5",
"Kb+	c #2654A0",
"Lb+	c #23549F",
"Mb+	c #2454A0",
"Nb+	c #235AA7",
"Ob+	c #2351A0",
"Pb+	c #2257A5",
"Qb+	c #1D56A5",
"Rb+	c #1D58A6",
"Sb+	c #245DAE",
"Tb+	c #235CAD",
"Ub+	c #2258AA",
"Vb+	c #2253A4",
"Wb+	c #25549B",
"Xb+	c #5173A2",
"Yb+	c #658098",
"Zb+	c #627B8B",
"`b+	c #647B8C",
" c+	c #677F92",
".c+	c #658195",
"+c+	c #A0C6D8",
"@c+	c #8EC3D1",
"#c+	c #608297",
"$c+	c #677B93",
"%c+	c #688291",
"&c+	c #68828D",
"*c+	c #618599",
"=c+	c #2D5D96",
"-c+	c #22539F",
";c+	c #1D50A3",
">c+	c #1D51A3",
",c+	c #354E9D",
"'c+	c #A26E8F",
")c+	c #F59C7F",
"!c+	c #FB9C72",
"~c+	c #F29D6F",
"{c+	c #F7A676",
"]c+	c #F8A876",
"^c+	c #EF996B",
"/c+	c #F3946A",
"(c+	c #FC9069",
"_c+	c #F77E5E",
":c+	c #EF644C",
"<c+	c #EC5141",
"[c+	c #EB5C49",
"}c+	c #EA644D",
"|c+	c #F68869",
"1c+	c #F68464",
"2c+	c #B13430",
"3c+	c #EE634B",
"4c+	c #EF6945",
"5c+	c #EC6D48",
"6c+	c #F58457",
"7c+	c #96442B",
"8c+	c #6A261F",
"9c+	c #6D2623",
"0c+	c #5A1914",
"ac+	c #E16850",
"bc+	c #F56F4C",
"cc+	c #F26648",
"dc+	c #F26446",
"ec+	c #F36D4D",
"fc+	c #F56C4E",
"gc+	c #EE5F47",
"hc+	c #EE553F",
"ic+	c #EA483B",
"jc+	c #E93934",
"kc+	c #EA3030",
"lc+	c #E72B2D",
"mc+	c #E4312F",
"nc+	c #F35646",
"oc+	c #F67155",
"pc+	c #F17053",
"qc+	c #EF704F",
"rc+	c #EE6046",
"sc+	c #8F2920",
"tc+	c #672D2D",
"uc+	c #591C20",
"vc+	c #350F0D",
"wc+	c #65362E",
"xc+	c #6B352D",
"yc+	c #6C322B",
"zc+	c #6C312E",
"Ac+	c #6B332E",
"Bc+	c #7B5547",
"Cc+	c #CABAA2",
"Dc+	c #E2DFC3",
"Ec+	c #E1E6C8",
"Fc+	c #DDE9CA",
"Gc+	c #D6D3C3",
"Hc+	c #604B45",
"Ic+	c #68332E",
"Jc+	c #55413B",
"Kc+	c #C6DBC3",
"Lc+	c #DAEAD0",
"Mc+	c #846E69",
"Nc+	c #460711",
"Oc+	c #431C22",
"Pc+	c #692B2E",
"Qc+	c #46070D",
"Rc+	c #A40C21",
"Sc+	c #C5071D",
"Tc+	c #CD0D24",
"Uc+	c #CB0F22",
"Vc+	c #CC1422",
"Wc+	c #D41A29",
"Xc+	c #E2222F",
"Yc+	c #C7232F",
"Zc+	c #A3525F",
"`c+	c #B297A5",
" d+	c #B2B0B8",
".d+	c #B6BAC1",
"+d+	c #B7B9C0",
"@d+	c #BABBC0",
"#d+	c #B9B1B7",
"$d+	c #BDA2AB",
"%d+	c #8F495A",
"&d+	c #901B36",
"*d+	c #9B1C39",
"=d+	c #9C1D3A",
"-d+	c #9B1B36",
";d+	c #A01633",
">d+	c #B41938",
",d+	c #BF1F36",
"'d+	c #CB2A37",
")d+	c #CD3038",
"!d+	c #D43238",
"~d+	c #DA343B",
"{d+	c #D02431",
"]d+	c #CB152A",
"^d+	c #BB0824",
"/d+	c #BB0421",
"(d+	c #C30B23",
"_d+	c #CD172C",
":d+	c #CC172A",
"<d+	c #CA182C",
"[d+	c #C0132A",
"}d+	c #A70220",
"|d+	c #A90827",
"1d+	c #B00D2C",
"2d+	c #BA1634",
"3d+	c #C4233A",
"4d+	c #E15354",
"5d+	c #F0705C",
"6d+	c #F17360",
"7d+	c #EE745F",
"8d+	c #EE745E",
"9d+	c #F98C63",
"0d+	c #F99669",
"ad+	c #F89968",
"bd+	c #EE8B5D",
"cd+	c #F6895C",
"dd+	c #F89666",
"ed+	c #F29968",
"fd+	c #F9A773",
"gd+	c #F79E67",
"hd+	c #CF9371",
"id+	c #585082",
"jd+	c #3D509E",
"kd+	c #36549F",
"ld+	c #3356A3",
"md+	c #3257A4",
"nd+	c #25539E",
"od+	c #2354A1",
"pd+	c #2254A4",
"qd+	c #1F56A3",
"rd+	c #2056A3",
"sd+	c #245AAC",
"td+	c #2459AC",
"ud+	c #2655A3",
"vd+	c #365B9B",
"wd+	c #5F7BA5",
"xd+	c #6A819A",
"yd+	c #687F92",
"zd+	c #667B8F",
"Ad+	c #677C8F",
"Bd+	c #687F93",
"Cd+	c #6D899E",
"Dd+	c #AAD1E3",
"Ed+	c #7AAEBE",
"Fd+	c #617F96",
"Gd+	c #677C94",
"Hd+	c #668190",
"Id+	c #6A818F",
"Jd+	c #66869C",
"Kd+	c #336197",
"Ld+	c #21539E",
"Md+	c #2651A5",
"Nd+	c #2754A7",
"Od+	c #976483",
"Pd+	c #F29A7E",
"Qd+	c #FA9C71",
"Rd+	c #F39B70",
"Sd+	c #FBA97B",
"Td+	c #FAA878",
"Ud+	c #F59A6D",
"Vd+	c #F68D68",
"Wd+	c #EF855E",
"Xd+	c #E97D56",
"Yd+	c #FB8B67",
"Zd+	c #F0624D",
"`d+	c #EF5747",
" e+	c #F2765B",
".e+	c #F78667",
"+e+	c #F28763",
"@e+	c #F38662",
"#e+	c #7D1C1A",
"$e+	c #E65F50",
"%e+	c #F06745",
"&e+	c #F1744F",
"*e+	c #F28053",
"=e+	c #F38253",
"-e+	c #A3492E",
";e+	c #702824",
">e+	c #712A28",
",e+	c #571715",
"'e+	c #CD5B49",
")e+	c #F36A4A",
"!e+	c #EF6145",
"~e+	c #F36548",
"{e+	c #F16A49",
"]e+	c #F46B4C",
"^e+	c #F2674B",
"/e+	c #EE5C43",
"(e+	c #EE493F",
"_e+	c #E83E37",
":e+	c #E83733",
"<e+	c #E42E2E",
"[e+	c #EA2F30",
"}e+	c #E72D2D",
"|e+	c #E63531",
"1e+	c #F45E4C",
"2e+	c #F77557",
"3e+	c #F37052",
"4e+	c #F37050",
"5e+	c #F06D4C",
"6e+	c #F06F4E",
"7e+	c #F27350",
"8e+	c #F47350",
"9e+	c #F26B4F",
"0e+	c #83251E",
"ae+	c #692928",
"be+	c #540A11",
"ce+	c #421715",
"de+	c #68362D",
"ee+	c #6C362D",
"fe+	c #6A3630",
"ge+	c #856655",
"he+	c #CFC5AB",
"ie+	c #E4E2C5",
"je+	c #E0E6C8",
"ke+	c #DDE7C7",
"le+	c #DCE4C8",
"me+	c #D7D0C2",
"ne+	c #604641",
"oe+	c #6B332F",
"pe+	c #5C4F48",
"qe+	c #CFE0C7",
"re+	c #DFE9D0",
"se+	c #DDD7C2",
"te+	c #61403C",
"ue+	c #560513",
"ve+	c #4C2128",
"we+	c #6B2F32",
"xe+	c #662A2E",
"ye+	c #4C060E",
"ze+	c #B00C25",
"Ae+	c #CB0A21",
"Be+	c #CB1023",
"Ce+	c #CB1525",
"De+	c #D31D2A",
"Ee+	c #DF222E",
"Fe+	c #E62833",
"Ge+	c #CC2637",
"He+	c #9B606E",
"Ie+	c #969AAC",
"Je+	c #96AAB8",
"Ke+	c #A5C1CE",
"Le+	c #AFC7DB",
"Me+	c #ADC7DC",
"Ne+	c #ADC3D9",
"Oe+	c #AFAFCD",
"Pe+	c #705478",
"Qe+	c #57214E",
"Re+	c #652857",
"Se+	c #622756",
"Te+	c #5E2853",
"Ue+	c #632650",
"Ve+	c #73204C",
"We+	c #811C43",
"Xe+	c #96233E",
"Ye+	c #A72C3F",
"Ze+	c #BE3440",
"`e+	c #D53C42",
" f+	c #D5283A",
".f+	c #CA122A",
"+f+	c #B2041F",
"@f+	c #B60420",
"#f+	c #CC162C",
"$f+	c #CD182D",
"%f+	c #C4152D",
"&f+	c #A80422",
"*f+	c #BB1633",
"=f+	c #C52439",
"-f+	c #F06F5F",
";f+	c #F1705D",
">f+	c #F37461",
",f+	c #EF735F",
"'f+	c #ED745C",
")f+	c #FA8D64",
"!f+	c #EC8058",
"~f+	c #F79665",
"{f+	c #F48661",
"]f+	c #F88E65",
"^f+	c #FB9A6A",
"/f+	c #ED8759",
"(f+	c #F99464",
"_f+	c #F79865",
":f+	c #F89C6B",
"<f+	c #F89E6D",
"[f+	c #F59D6A",
"}f+	c #CF8D71",
"|f+	c #3D519C",
"1f+	c #3254A1",
"2f+	c #3157A2",
"3f+	c #2855A2",
"4f+	c #2557A4",
"5f+	c #2552A3",
"6f+	c #2254A2",
"7f+	c #2754A5",
"8f+	c #2756A6",
"9f+	c #2057A6",
"0f+	c #2159A8",
"af+	c #2657A4",
"bf+	c #2B559E",
"cf+	c #526E9F",
"df+	c #667C9E",
"ef+	c #697F94",
"ff+	c #698092",
"gf+	c #657C8E",
"hf+	c #677D91",
"if+	c #7B98AC",
"jf+	c #B4DFF0",
"kf+	c #7FB0BF",
"lf+	c #627E95",
"mf+	c #667D91",
"nf+	c #677F8E",
"of+	c #607E90",
"pf+	c #36618F",
"qf+	c #2353A0",
"rf+	c #234FA7",
"sf+	c #3050A1",
"tf+	c #956485",
"uf+	c #EE9B7F",
"vf+	c #F6976D",
"wf+	c #F8A175",
"xf+	c #F9A174",
"yf+	c #F99C70",
"zf+	c #F9936A",
"Af+	c #F0825E",
"Bf+	c #EE5F4A",
"Cf+	c #EF6B52",
"Df+	c #EE815E",
"Ef+	c #EF7F5D",
"Ff+	c #5E0F0F",
"Gf+	c #CC4D46",
"Hf+	c #F16649",
"If+	c #F06743",
"Jf+	c #F2724A",
"Kf+	c #F27D51",
"Lf+	c #F17F51",
"Mf+	c #B15237",
"Nf+	c #6E2724",
"Of+	c #712828",
"Pf+	c #5A1917",
"Qf+	c #B34A3E",
"Rf+	c #EF5F44",
"Sf+	c #F3654A",
"Tf+	c #F46B4B",
"Uf+	c #F1654A",
"Vf+	c #EE5241",
"Wf+	c #EA443B",
"Xf+	c #E63532",
"Yf+	c #E52D2D",
"Zf+	c #ED3131",
"`f+	c #EA302F",
" g+	c #E73B34",
".g+	c #F56650",
"+g+	c #F16B4E",
"@g+	c #F47553",
"#g+	c #F97953",
"$g+	c #73201B",
"%g+	c #6D2123",
"&g+	c #741A22",
"*g+	c #6C352C",
"=g+	c #6C3029",
"-g+	c #6A382E",
";g+	c #8F7B65",
">g+	c #D8D4B8",
",g+	c #DEE0C1",
"'g+	c #DEE3C5",
")g+	c #DAE2C3",
"!g+	c #DBE2C6",
"~g+	c #D3CBBD",
"{g+	c #5A403D",
"]g+	c #6B6259",
"^g+	c #DDE7D2",
"/g+	c #E5E6D3",
"(g+	c #CABEAE",
"_g+	c #611E20",
":g+	c #5B0514",
"<g+	c #4E242A",
"[g+	c #6D2E31",
"}g+	c #63282C",
"|g+	c #B20B25",
"1g+	c #C40820",
"2g+	c #C7081E",
"3g+	c #CA081F",
"4g+	c #CD1225",
"5g+	c #CB1424",
"6g+	c #D41D2A",
"7g+	c #CC2E3A",
"8g+	c #94616E",
"9g+	c #758397",
"0g+	c #7E94A7",
"ag+	c #9CB3C7",
"bg+	c #8FA2C0",
"cg+	c #6E83AA",
"dg+	c #6D86AF",
"eg+	c #5B689C",
"fg+	c #474687",
"gg+	c #3B3A80",
"hg+	c #35397F",
"ig+	c #314088",
"jg+	c #35478E",
"kg+	c #354489",
"lg+	c #383D7F",
"mg+	c #3F3B7B",
"ng+	c #493571",
"og+	c #572C60",
"pg+	c #6F2547",
"qg+	c #952C43",
"rg+	c #B0263D",
"sg+	c #C11627",
"tg+	c #C30E22",
"ug+	c #B4031B",
"vg+	c #BE0824",
"wg+	c #C50C24",
"xg+	c #CD172A",
"yg+	c #CF1B2E",
"zg+	c #CC192E",
"Ag+	c #C5152E",
"Bg+	c #A70724",
"Cg+	c #B00E2B",
"Dg+	c #BB1732",
"Eg+	c #C62636",
"Fg+	c #E35552",
"Gg+	c #F27160",
"Hg+	c #F2705E",
"Ig+	c #F47562",
"Jg+	c #F1745F",
"Kg+	c #ED735C",
"Lg+	c #F1795F",
"Mg+	c #F98C64",
"Ng+	c #F79064",
"Og+	c #FBA470",
"Pg+	c #F38E5D",
"Qg+	c #F38C5D",
"Rg+	c #F7A06B",
"Sg+	c #F19261",
"Tg+	c #F99C6B",
"Ug+	c #CE8A70",
"Vg+	c #5A5083",
"Wg+	c #3E509C",
"Xg+	c #2F55A0",
"Yg+	c #2F55A1",
"Zg+	c #2954A1",
"`g+	c #2654A2",
" h+	c #2452A3",
".h+	c #2855A6",
"+h+	c #2958A7",
"@h+	c #2556A3",
"#h+	c #2357A6",
"$h+	c #2B5AAE",
"%h+	c #2A58AC",
"&h+	c #3D619C",
"*h+	c #617E9E",
"=h+	c #687F96",
"-h+	c #687F91",
";h+	c #687D90",
">h+	c #667A8F",
",h+	c #8CA9BD",
"'h+	c #B4E2F2",
")h+	c #79A7B6",
"!h+	c #5F7C91",
"~h+	c #657B92",
"{h+	c #657C8F",
"]h+	c #667E8E",
"^h+	c #618093",
"/h+	c #3F6995",
"(h+	c #2556A0",
"_h+	c #2452A6",
":h+	c #2F50A0",
"<h+	c #9A698D",
"[h+	c #F6A287",
"}h+	c #F18F66",
"|h+	c #F5986D",
"1h+	c #EE845D",
"2h+	c #EE7A5A",
"3h+	c #FA8B68",
"4h+	c #F6805C",
"5h+	c #F67A5C",
"6h+	c #ED5144",
"7h+	c #EA5A47",
"8h+	c #661C19",
"9h+	c #942C2C",
"0h+	c #EF6544",
"ah+	c #F07049",
"bh+	c #F27C53",
"ch+	c #F38454",
"dh+	c #BD5C3F",
"eh+	c #6C2722",
"fh+	c #722A28",
"gh+	c #5E201C",
"hh+	c #973A33",
"ih+	c #EC6250",
"jh+	c #EF5E44",
"kh+	c #F16147",
"lh+	c #F56B4C",
"mh+	c #F46A4C",
"nh+	c #F2644A",
"oh+	c #ED4F41",
"ph+	c #EA433C",
"qh+	c #E73332",
"rh+	c #ED302F",
"sh+	c #ED3532",
"th+	c #EB4639",
"uh+	c #F46D50",
"vh+	c #F47554",
"wh+	c #F07250",
"xh+	c #F16F4F",
"yh+	c #F0694E",
"zh+	c #F57253",
"Ah+	c #F77752",
"Bh+	c #E26447",
"Ch+	c #6B1F1E",
"Dh+	c #7B2124",
"Eh+	c #8F2B32",
"Fh+	c #652A2B",
"Gh+	c #6C322C",
"Hh+	c #6D342C",
"Ih+	c #6B3028",
"Jh+	c #6C3127",
"Kh+	c #734A3B",
"Lh+	c #B9AE94",
"Mh+	c #DBDEBF",
"Nh+	c #DCE0C1",
"Oh+	c #DDE2C4",
"Ph+	c #D9E0C1",
"Qh+	c #DCE1C6",
"Rh+	c #C8BEB1",
"Sh+	c #543734",
"Th+	c #7B756D",
"Uh+	c #E1E0D1",
"Vh+	c #B1A99E",
"Wh+	c #847168",
"Xh+	c #750B1A",
"Yh+	c #590713",
"Zh+	c #51262B",
"`h+	c #6E2D2F",
" i+	c #602427",
".i+	c #5D0511",
"+i+	c #B60923",
"@i+	c #C40A21",
"#i+	c #C60B20",
"$i+	c #CB091F",
"%i+	c #CF1225",
"&i+	c #CB1221",
"*i+	c #D41C29",
"=i+	c #D9212A",
"-i+	c #E02C30",
";i+	c #CD333A",
">i+	c #A67A87",
",i+	c #A4BAC6",
"'i+	c #A8C1CE",
")i+	c #A1B4CC",
"!i+	c #56648F",
"~i+	c #2B3F7B",
"{i+	c #2F4283",
"]i+	c #263981",
"^i+	c #233582",
"/i+	c #213B8A",
"(i+	c #183F8E",
"_i+	c #1F4797",
":i+	c #264E9F",
"<i+	c #28499B",
"[i+	c #2A469C",
"}i+	c #2F489F",
"|i+	c #2E489A",
"1i+	c #344897",
"2i+	c #3B4286",
"3i+	c #44366C",
"4i+	c #571D45",
"5i+	c #A5192B",
"6i+	c #C00F21",
"7i+	c #B80319",
"8i+	c #B80620",
"9i+	c #CA1229",
"0i+	c #CE182C",
"ai+	c #CC1729",
"bi+	c #D01C2E",
"ci+	c #A90322",
"di+	c #A70726",
"ei+	c #B4112D",
"fi+	c #BB1730",
"gi+	c #C72835",
"hi+	c #E55751",
"ii+	c #F1715E",
"ji+	c #F2705C",
"ki+	c #F47560",
"li+	c #F1735D",
"mi+	c #EF745C",
"ni+	c #FC9367",
"oi+	c #EF915F",
"pi+	c #F8A26C",
"qi+	c #F3845D",
"ri+	c #F78561",
"si+	c #FA9C67",
"ti+	c #F59260",
"ui+	c #F28D5C",
"vi+	c #D48A73",
"wi+	c #5B4E84",
"xi+	c #3D4F9D",
"yi+	c #32539F",
"zi+	c #2E549F",
"Ai+	c #2952A0",
"Bi+	c #2553A4",
"Ci+	c #2150A0",
"Di+	c #20519F",
"Ei+	c #2C58AC",
"Fi+	c #2957A9",
"Gi+	c #2856A9",
"Hi+	c #305996",
"Ii+	c #56779D",
"Ji+	c #678593",
"Ki+	c #677E8C",
"Li+	c #687D91",
"Mi+	c #647B8D",
"Ni+	c #697D91",
"Oi+	c #657A8F",
"Pi+	c #95B5C7",
"Qi+	c #AEDDEC",
"Ri+	c #6F9AA8",
"Si+	c #5F7D8F",
"Ti+	c #647E91",
"Ui+	c #677F8F",
"Vi+	c #648397",
"Wi+	c #476F97",
"Xi+	c #26579E",
"Yi+	c #1F4FA4",
"Zi+	c #2050A5",
"`i+	c #2350A5",
" j+	c #2E4F9E",
".j+	c #95638A",
"+j+	c #F69E84",
"@j+	c #F5966C",
"#j+	c #EF8B63",
"$j+	c #F08D64",
"%j+	c #F69067",
"&j+	c #EE7F5D",
"*j+	c #ED7A5A",
"=j+	c #F87D5E",
"-j+	c #E94D41",
";j+	c #EC5B49",
">j+	c #F36D55",
",j+	c #F58464",
"'j+	c #983A2D",
")j+	c #5F1010",
"!j+	c #D6584D",
"~j+	c #EF714A",
"{j+	c #F08655",
"]j+	c #CA694A",
"^j+	c #6A2420",
"/j+	c #662922",
"(j+	c #7D2824",
"_j+	c #EB5E4E",
":j+	c #F05C44",
"<j+	c #ED5D43",
"[j+	c #F36849",
"}j+	c #F06447",
"|j+	c #F1644A",
"1j+	c #EF5945",
"2j+	c #E83433",
"3j+	c #EC312E",
"4j+	c #EC3832",
"5j+	c #F27454",
"6j+	c #F06E4E",
"7j+	c #EE684D",
"8j+	c #F06B4D",
"9j+	c #F77754",
"0j+	c #C3523C",
"aj+	c #651A18",
"bj+	c #942B2E",
"cj+	c #89282A",
"dj+	c #6E312D",
"ej+	c #6F342D",
"fj+	c #6E332E",
"gj+	c #692F26",
"hj+	c #6E372C",
"ij+	c #9C7D6B",
"jj+	c #DAD3BB",
"kj+	c #DBE0C4",
"lj+	c #DEE2C6",
"mj+	c #DCE1C3",
"nj+	c #DEDFC6",
"oj+	c #B9ACA1",
"pj+	c #52302E",
"qj+	c #6B2F29",
"rj+	c #60302A",
"sj+	c #908D84",
"tj+	c #CFCBC0",
"uj+	c #4F423D",
"vj+	c #431414",
"wj+	c #8E061D",
"xj+	c #590912",
"yj+	c #572A2D",
"zj+	c #581D21",
"Aj+	c #690515",
"Bj+	c #C70A20",
"Cj+	c #CE1123",
"Dj+	c #CC1321",
"Ej+	c #D51D29",
"Fj+	c #D41F26",
"Gj+	c #E23132",
"Hj+	c #CC2F34",
"Ij+	c #9B6A78",
"Jj+	c #A5BCC7",
"Kj+	c #A2BFCA",
"Lj+	c #6B7E9D",
"Mj+	c #2E4180",
"Nj+	c #183177",
"Oj+	c #0D2668",
"Pj+	c #092366",
"Qj+	c #0D296C",
"Rj+	c #0F3376",
"Sj+	c #0D397F",
"Tj+	c #0F4183",
"Uj+	c #16478B",
"Vj+	c #1C468E",
"Wj+	c #214697",
"Xj+	c #2649A0",
"Yj+	c #294CA3",
"Zj+	c #294F9D",
"`j+	c #2B4B90",
" k+	c #2A3B70",
".k+	c #841D37",
"+k+	c #BD041A",
"@k+	c #B9061F",
"#k+	c #BA0721",
"$k+	c #C91127",
"%k+	c #CE182B",
"&k+	c #D01B2A",
"*k+	c #D21D2F",
"=k+	c #CD1A2E",
"-k+	c #C7162F",
";k+	c #AB0423",
">k+	c #B4132D",
",k+	c #B9162C",
"'k+	c #E45550",
")k+	c #F06F5B",
"!k+	c #F3745E",
"~k+	c #F2745D",
"{k+	c #F28F5E",
"]k+	c #F39762",
"^k+	c #F18E5D",
"/k+	c #FA9A65",
"(k+	c #F89762",
"_k+	c #F6905F",
":k+	c #EF8460",
"<k+	c #D68773",
"[k+	c #594F86",
"}k+	c #3A509D",
"|k+	c #3453A0",
"1k+	c #2D539E",
"2k+	c #2B52A0",
"3k+	c #2853A2",
"4k+	c #2755A3",
"5k+	c #2654A5",
"6k+	c #2351A2",
"7k+	c #2756A5",
"8k+	c #20529F",
"9k+	c #2355A2",
"0k+	c #2756A3",
"ak+	c #2057A7",
"bk+	c #25539B",
"ck+	c #466994",
"dk+	c #5F8196",
"ek+	c #68878C",
"fk+	c #697F8B",
"gk+	c #6B7F94",
"hk+	c #637A8C",
"ik+	c #9EC3D4",
"jk+	c #A6D7E5",
"kk+	c #69939F",
"lk+	c #617E8E",
"mk+	c #647F8F",
"nk+	c #6A8190",
"ok+	c #677F91",
"pk+	c #648297",
"qk+	c #50759A",
"rk+	c #27579C",
"sk+	c #1F54A6",
"tk+	c #2451A9",
"uk+	c #925F88",
"vk+	c #EE9079",
"wk+	c #EE7857",
"xk+	c #F98966",
"yk+	c #F07F5F",
"zk+	c #EE7B5D",
"Ak+	c #F78760",
"Bk+	c #F67B5D",
"Ck+	c #F16550",
"Dk+	c #EB5043",
"Ek+	c #EE5C4C",
"Fk+	c #F27E5F",
"Gk+	c #F68562",
"Hk+	c #F88664",
"Ik+	c #C94E3F",
"Jk+	c #530F0A",
"Kk+	c #A53932",
"Lk+	c #ED744D",
"Mk+	c #DC7B5A",
"Nk+	c #6D241E",
"Ok+	c #722D28",
"Pk+	c #6B2C25",
"Qk+	c #671B19",
"Rk+	c #E75D4F",
"Sk+	c #EE5D43",
"Tk+	c #F16748",
"Uk+	c #EF6346",
"Vk+	c #EE5F46",
"Wk+	c #EB5641",
"Xk+	c #E43534",
"Yk+	c #E53232",
"Zk+	c #E7302E",
"`k+	c #EA312E",
" l+	c #EA3831",
".l+	c #EE5940",
"+l+	c #EE754E",
"@l+	c #F37653",
"#l+	c #F27555",
"$l+	c #F0704E",
"%l+	c #EF6F4A",
"&l+	c #F1744D",
"*l+	c #A03B2E",
"=l+	c #601510",
"-l+	c #A73435",
";l+	c #761C1D",
">l+	c #6D302B",
",l+	c #6E322C",
"'l+	c #6A2F29",
")l+	c #693026",
"!l+	c #7E5447",
"~l+	c #CDB9A3",
"{l+	c #E0DEC4",
"]l+	c #DBE0C5",
"^l+	c #DBE1C4",
"/l+	c #E3E4CA",
"(l+	c #A89E94",
"_l+	c #56302E",
":l+	c #692E27",
"<l+	c #5C3027",
"[l+	c #9A978F",
"}l+	c #89827A",
"|l+	c #4D0F13",
"1l+	c #6A0413",
"2l+	c #A1021F",
"3l+	c #570811",
"4l+	c #5E2C2D",
"5l+	c #551D20",
"6l+	c #75071A",
"7l+	c #C10A26",
"8l+	c #C6081F",
"9l+	c #CB081C",
"0l+	c #CE1021",
"al+	c #D01624",
"bl+	c #D51E28",
"cl+	c #D8252B",
"dl+	c #CD2D30",
"el+	c #8B4D5F",
"fl+	c #8AA1B1",
"gl+	c #96B1C2",
"hl+	c #394B7F",
"il+	c #283F84",
"jl+	c #103277",
"kl+	c #042865",
"ll+	c #002159",
"ml+	c #02245A",
"nl+	c #022B65",
"ol+	c #03306F",
"pl+	c #083472",
"ql+	c #0B3576",
"rl+	c #0F377E",
"sl+	c #163C8A",
"tl+	c #1C4193",
"ul+	c #1E4495",
"vl+	c #18418E",
"wl+	c #143E86",
"xl+	c #173F88",
"yl+	c #224988",
"zl+	c #732144",
"Al+	c #C11633",
"Bl+	c #BD031B",
"Cl+	c #BA051F",
"Dl+	c #C70F25",
"El+	c #CD1629",
"Fl+	c #D21D2D",
"Gl+	c #D21F31",
"Hl+	c #C5152F",
"Il+	c #AA0424",
"Jl+	c #B1102A",
"Kl+	c #B6142A",
"Ll+	c #C42533",
"Ml+	c #E1544F",
"Nl+	c #F2715D",
"Ol+	c #F4755D",
"Pl+	c #F78F61",
"Ql+	c #EF8858",
"Rl+	c #F2905E",
"Sl+	c #F99063",
"Tl+	c #EF8658",
"Ul+	c #F79762",
"Vl+	c #F59861",
"Wl+	c #F59966",
"Xl+	c #EE8455",
"Yl+	c #D27E6E",
"Zl+	c #575087",
"`l+	c #35509C",
" m+	c #3354A1",
".m+	c #2F539F",
"+m+	c #2553A1",
"@m+	c #2755A4",
"#m+	c #2856A5",
"$m+	c #2555A2",
"%m+	c #2F5896",
"&m+	c #5C7A99",
"*m+	c #678493",
"=m+	c #6C878E",
"-m+	c #6A7F8D",
";m+	c #687D92",
">m+	c #657D8F",
",m+	c #6A8598",
"'m+	c #A3CCDB",
")m+	c #9DD1DD",
"!m+	c #668E9B",
"~m+	c #637F8F",
"{m+	c #677D8C",
"]m+	c #677F90",
"^m+	c #627F93",
"/m+	c #527695",
"(m+	c #255696",
"_m+	c #1F4EA4",
":m+	c #2350A4",
"<m+	c #2E4F9F",
"[m+	c #905B87",
"}m+	c #EB8672",
"|m+	c #F78E68",
"1m+	c #FB916A",
"2m+	c #EE7454",
"3m+	c #EE7B5B",
"4m+	c #EF7455",
"5m+	c #EB614B",
"6m+	c #EB634D",
"7m+	c #F58161",
"8m+	c #DF5647",
"9m+	c #72211E",
"0m+	c #6F1A15",
"am+	c #EC6553",
"bm+	c #EE754F",
"cm+	c #F18457",
"dm+	c #E27D59",
"em+	c #72261E",
"fm+	c #772D26",
"gm+	c #732F28",
"hm+	c #581414",
"im+	c #D65149",
"jm+	c #F06047",
"km+	c #EF6648",
"lm+	c #EC5942",
"mm+	c #EE5743",
"nm+	c #E83B35",
"om+	c #E3302F",
"pm+	c #E9322E",
"qm+	c #EB3B33",
"rm+	c #F77D57",
"sm+	c #EF7851",
"tm+	c #F47955",
"um+	c #F37755",
"vm+	c #F3724F",
"wm+	c #F67752",
"xm+	c #ED6C54",
"ym+	c #79241C",
"zm+	c #6F2019",
"Am+	c #BC443F",
"Bm+	c #6F1D1E",
"Cm+	c #702F31",
"Dm+	c #6D3C2F",
"Em+	c #AB8977",
"Fm+	c #DED4BA",
"Gm+	c #DFE1C7",
"Hm+	c #DDE1C5",
"Im+	c #E2E3CA",
"Jm+	c #948E83",
"Km+	c #572E2D",
"Lm+	c #693028",
"Mm+	c #582D25",
"Nm+	c #695F59",
"Om+	c #64272A",
"Pm+	c #9A0C24",
"Qm+	c #A5011F",
"Rm+	c #520912",
"Sm+	c #632D2E",
"Tm+	c #4E191A",
"Um+	c #80071E",
"Vm+	c #C20724",
"Wm+	c #CD091D",
"Xm+	c #D01022",
"Ym+	c #CF1424",
"Zm+	c #D6202A",
"`m+	c #DB2A2E",
" n+	c #E23433",
".n+	c #CF2E30",
"+n+	c #8A485C",
"@n+	c #7C94A6",
"#n+	c #88A0B7",
"$n+	c #304388",
"%n+	c #2C4992",
"&n+	c #20498E",
"*n+	c #1B4180",
"=n+	c #11366D",
"-n+	c #092E63",
";n+	c #143973",
">n+	c #1A4081",
",n+	c #1A4185",
"'n+	c #163E82",
")n+	c #174387",
"!n+	c #134088",
"~n+	c #0E3A83",
"{n+	c #0A377B",
"]n+	c #0D387A",
"^n+	c #1B448B",
"/n+	c #224D93",
"(n+	c #70264D",
"_n+	c #C31839",
":n+	c #B9041E",
"<n+	c #BA0620",
"[n+	c #C40E24",
"}n+	c #CC1527",
"|n+	c #D01C2D",
"1n+	c #D11F31",
"2n+	c #C9192E",
"3n+	c #C41530",
"4n+	c #AA0524",
"5n+	c #B11029",
"6n+	c #B8162C",
"7n+	c #C42733",
"8n+	c #E35750",
"9n+	c #EF845C",
"0n+	c #F49064",
"an+	c #F78F63",
"bn+	c #F3895E",
"cn+	c #F5825C",
"dn+	c #EF8A5D",
"en+	c #F79765",
"fn+	c #F28858",
"gn+	c #CF786B",
"hn+	c #565087",
"in+	c #34539F",
"jn+	c #3454A0",
"kn+	c #3052A0",
"ln+	c #2652A1",
"mn+	c #23519F",
"nn+	c #2656A4",
"on+	c #2556A4",
"pn+	c #2758A7",
"qn+	c #2957A6",
"rn+	c #2656A2",
"sn+	c #2156A3",
"tn+	c #27559A",
"un+	c #476B99",
"vn+	c #647F99",
"wn+	c #6D8492",
"xn+	c #6F8590",
"yn+	c #6B818F",
"zn+	c #687E90",
"An+	c #62798B",
"Bn+	c #637D8F",
"Cn+	c #728FA2",
"Dn+	c #A4D2E1",
"En+	c #93CAD4",
"Fn+	c #638796",
"Gn+	c #667E90",
"Hn+	c #667E8D",
"In+	c #627D90",
"Jn+	c #537792",
"Kn+	c #265891",
"Ln+	c #2E4EA0",
"Mn+	c #905A85",
"Nn+	c #F28875",
"On+	c #F89069",
"Pn+	c #ED7453",
"Qn+	c #EC7251",
"Rn+	c #EA654D",
"Sn+	c #EC5649",
"Tn+	c #EA624D",
"Un+	c #EF7659",
"Vn+	c #ED7455",
"Wn+	c #F4745B",
"Xn+	c #EB5949",
"Yn+	c #B04140",
"Zn+	c #550908",
"`n+	c #C44B42",
" o+	c #F6905C",
".o+	c #E67A56",
"+o+	c #7A2821",
"@o+	c #7A2C28",
"#o+	c #752F28",
"$o+	c #521512",
"%o+	c #C34944",
"&o+	c #EB5E45",
"*o+	c #F26448",
"=o+	c #EF6445",
"-o+	c #F15643",
";o+	c #F04C41",
">o+	c #E33032",
",o+	c #E4302F",
"'o+	c #E42E2C",
")o+	c #E9362F",
"!o+	c #EE4638",
"~o+	c #F28256",
"{o+	c #EF7A52",
"]o+	c #F27A53",
"^o+	c #EE7851",
"/o+	c #ED774F",
"(o+	c #F27B51",
"_o+	c #F2794F",
":o+	c #F0774E",
"<o+	c #F87A53",
"[o+	c #F77351",
"}o+	c #DE5D4F",
"|o+	c #5A100D",
"1o+	c #A23D3A",
"2o+	c #B9403C",
"3o+	c #6C2425",
"4o+	c #722F30",
"5o+	c #6F312B",
"6o+	c #6C312A",
"7o+	c #6E2F2D",
"8o+	c #69322A",
"9o+	c #856152",
"0o+	c #D7BFAA",
"ao+	c #E0DCC1",
"bo+	c #DFE1CA",
"co+	c #DFE0CA",
"do+	c #7D756C",
"eo+	c #5C2E2C",
"fo+	c #6D3029",
"go+	c #502823",
"ho+	c #3E0E0D",
"io+	c #9A0E24",
"jo+	c #C10527",
"ko+	c #BE0125",
"lo+	c #9F021E",
"mo+	c #500D14",
"no+	c #6E2D31",
"oo+	c #481215",
"po+	c #8E0B24",
"qo+	c #CF0B1F",
"ro+	c #D21124",
"so+	c #CE1222",
"to+	c #D41D27",
"uo+	c #D9262B",
"vo+	c #E23333",
"wo+	c #D23034",
"xo+	c #955064",
"yo+	c #8397AE",
"zo+	c #7C94B0",
"Ao+	c #2F438A",
"Bo+	c #314C92",
"Co+	c #2A5096",
"Do+	c #285093",
"Eo+	c #214B82",
"Fo+	c #204775",
"Go+	c #234981",
"Ho+	c #2F5499",
"Io+	c #2C529F",
"Jo+	c #28509A",
"Ko+	c #214D94",
"Lo+	c #1E4F94",
"Mo+	c #1E4E93",
"No+	c #1F4F92",
"Oo+	c #235094",
"Po+	c #2A519E",
"Qo+	c #2B509B",
"Ro+	c #1E4688",
"So+	c #76284F",
"To+	c #C11A37",
"Uo+	c #BE0622",
"Vo+	c #C30E23",
"Wo+	c #C91326",
"Xo+	c #CD1728",
"Yo+	c #D11D2D",
"Zo+	c #CF1D2E",
"`o+	c #CA1B2D",
" p+	c #C61830",
".p+	c #AB0624",
"+p+	c #A90623",
"@p+	c #B20F28",
"#p+	c #C92C35",
"$p+	c #E75C53",
"%p+	c #EF6F5A",
"&p+	c #F3785D",
"*p+	c #F47B5F",
"=p+	c #F78160",
"-p+	c #EE815A",
";p+	c #F28E5E",
">p+	c #F7835D",
",p+	c #F08357",
"'p+	c #EF9862",
")p+	c #FB9F6D",
"!p+	c #F88D62",
"~p+	c #D2766A",
"{p+	c #594E84",
"]p+	c #344F99",
"^p+	c #2B53A2",
"/p+	c #22519F",
"(p+	c #2756A4",
"_p+	c #2956A6",
":p+	c #2855A5",
"<p+	c #2252A0",
"[p+	c #2555A1",
"}p+	c #2958AC",
"|p+	c #385E98",
"1p+	c #5B7C9C",
"2p+	c #678194",
"3p+	c #6C828F",
"4p+	c #6F8591",
"5p+	c #6C8291",
"6p+	c #6A7F92",
"7p+	c #637E8F",
"8p+	c #81A2B4",
"9p+	c #A5D9E9",
"0p+	c #8BC2CC",
"ap+	c #618392",
"bp+	c #667D8E",
"cp+	c #647B8B",
"dp+	c #667C8D",
"ep+	c #627C90",
"fp+	c #5A7D95",
"gp+	c #2F5F95",
"hp+	c #1E54A3",
"ip+	c #2551AA",
"jp+	c #2F4DA0",
"kp+	c #925983",
"lp+	c #F58774",
"mp+	c #F98E69",
"np+	c #FA916A",
"op+	c #FE976F",
"pp+	c #ED7452",
"qp+	c #F58460",
"rp+	c #F37259",
"sp+	c #EC584A",
"tp+	c #F26151",
"up+	c #ED624F",
"vp+	c #EE6A53",
"wp+	c #EF7358",
"xp+	c #EC7252",
"yp+	c #F47558",
"zp+	c #F47559",
"Ap+	c #F35A4A",
"Bp+	c #DD5A51",
"Cp+	c #5E1710",
"Dp+	c #852B24",
"Ep+	c #E8785D",
"Fp+	c #F68F59",
"Gp+	c #EE7B55",
"Hp+	c #812A22",
"Ip+	c #792B26",
"Jp+	c #752D24",
"Kp+	c #551B16",
"Lp+	c #AD3C3C",
"Mp+	c #EA5E47",
"Np+	c #F16546",
"Op+	c #EF6345",
"Pp+	c #F25D46",
"Qp+	c #ED5340",
"Rp+	c #EE4D3E",
"Sp+	c #E73133",
"Tp+	c #E52F2B",
"Up+	c #E7392E",
"Vp+	c #EE533D",
"Wp+	c #F38D5B",
"Xp+	c #EF8A58",
"Yp+	c #EF7C52",
"Zp+	c #F18154",
"`p+	c #F18656",
" q+	c #F18855",
".q+	c #F1834F",
"+q+	c #EE7B4C",
"@q+	c #F4774E",
"#q+	c #C54A42",
"$q+	c #6A1A17",
"%q+	c #D55855",
"&q+	c #972B2B",
"*q+	c #66292B",
"=q+	c #743031",
"-q+	c #70312B",
";q+	c #6E312A",
">q+	c #704137",
",q+	c #AF9985",
"'q+	c #E2D6BD",
")q+	c #E0E0C5",
"!q+	c #E0E2CA",
"~q+	c #DBDAC6",
"{q+	c #64564F",
"]q+	c #632F2F",
"^q+	c #702E2E",
"/q+	c #49201F",
"(q+	c #6D0C15",
"_q+	c #BF0F25",
":q+	c #940219",
"<q+	c #511116",
"[q+	c #6B2D31",
"}q+	c #6C2C32",
"|q+	c #440D11",
"1q+	c #9C0C23",
"2q+	c #C2031D",
"3q+	c #C6041C",
"4q+	c #D20F22",
"5q+	c #CD151F",
"6q+	c #D41F24",
"7q+	c #E22D30",
"8q+	c #D93136",
"9q+	c #A05268",
"0q+	c #8898B5",
"aq+	c #7F95B0",
"bq+	c #324384",
"cq+	c #394D8C",
"dq+	c #2E4A90",
"eq+	c #234A90",
"fq+	c #4B719E",
"gq+	c #587E9E",
"hq+	c #335783",
"iq+	c #325A99",
"jq+	c #2E54A3",
"kq+	c #2B53A1",
"lq+	c #234E9B",
"mq+	c #1E4F97",
"nq+	c #205194",
"oq+	c #225396",
"pq+	c #235199",
"qq+	c #2850A2",
"rq+	c #244F92",
"sq+	c #2C4F7F",
"tq+	c #84294B",
"uq+	c #C11830",
"vq+	c #BE0923",
"wq+	c #BC0923",
"xq+	c #BB0A23",
"yq+	c #C10D23",
"zq+	c #CD1829",
"Aq+	c #CF1B2A",
"Bq+	c #CD1B2B",
"Cq+	c #CB1B2E",
"Dq+	c #C6192F",
"Eq+	c #AE0823",
"Fq+	c #AB0723",
"Gq+	c #B20D26",
"Hq+	c #BC172C",
"Iq+	c #CB2C34",
"Jq+	c #E75E52",
"Kq+	c #F4765D",
"Lq+	c #F4775D",
"Mq+	c #ED8258",
"Nq+	c #F69463",
"Oq+	c #F9A069",
"Pq+	c #F0985F",
"Qq+	c #F99A65",
"Rq+	c #D9796C",
"Sq+	c #5F5084",
"Tq+	c #37519B",
"Uq+	c #36539E",
"Vq+	c #31539F",
"Wq+	c #2755A5",
"Xq+	c #2559AB",
"Yq+	c #2857AA",
"Zq+	c #2C5598",
"`q+	c #537399",
" r+	c #668397",
".r+	c #6A8192",
"+r+	c #6B828F",
"@r+	c #6A8092",
"#r+	c #93B7C9",
"$r+	c #A4DCEC",
"%r+	c #81B7C0",
"&r+	c #628091",
"*r+	c #637A8B",
"=r+	c #647C90",
"-r+	c #5F8198",
";r+	c #386798",
">r+	c #1E54A1",
",r+	c #334EA3",
"'r+	c #965883",
")r+	c #F37F6C",
"!r+	c #FB936C",
"~r+	c #FD966F",
"{r+	c #EB7754",
"]r+	c #EE8760",
"^r+	c #F68E69",
"/r+	c #EB604E",
"(r+	c #EC5D4D",
"_r+	c #F46453",
":r+	c #EE6552",
"<r+	c #F27158",
"[r+	c #F57B5B",
"}r+	c #F88260",
"|r+	c #F17655",
"1r+	c #F17454",
"2r+	c #F25547",
"3r+	c #EE6853",
"4r+	c #8E3A2A",
"5r+	c #59120E",
"6r+	c #C76355",
"7r+	c #F49065",
"8r+	c #F28953",
"9r+	c #F27C55",
"0r+	c #832D21",
"ar+	c #772B25",
"br+	c #782D24",
"cr+	c #5B201C",
"dr+	c #992F30",
"er+	c #E9604A",
"fr+	c #F16145",
"gr+	c #F25A45",
"hr+	c #EC463A",
"ir+	c #E93432",
"jr+	c #E83033",
"kr+	c #EA352F",
"lr+	c #EA4032",
"mr+	c #EE6143",
"nr+	c #FAA369",
"or+	c #F2935D",
"pr+	c #EF7B51",
"qr+	c #F88D5B",
"rr+	c #F6945E",
"sr+	c #F7995F",
"tr+	c #F79157",
"ur+	c #F1824F",
"vr+	c #F4794E",
"wr+	c #EB6748",
"xr+	c #9F2F25",
"yr+	c #9D3A36",
"zr+	c #DB5D58",
"Ar+	c #6E1D1E",
"Br+	c #562426",
"Cr+	c #773031",
"Dr+	c #712F2B",
"Er+	c #6C3229",
"Fr+	c #69342B",
"Gr+	c #8A675A",
"Hr+	c #D2C9B1",
"Ir+	c #E1DFC3",
"Jr+	c #DFDFC5",
"Kr+	c #E2E4C9",
"Lr+	c #DDE2C7",
"Mr+	c #DAE0C5",
"Nr+	c #DEE0CA",
"Or+	c #D9D5C2",
"Pr+	c #5A433F",
"Qr+	c #722B31",
"Rr+	c #451818",
"Sr+	c #901623",
"Tr+	c #BE0218",
"Ur+	c #910218",
"Vr+	c #51161A",
"Wr+	c #6C2C31",
"Xr+	c #6A2A31",
"Yr+	c #44090E",
"Zr+	c #A60C23",
"`r+	c #C4041B",
" s+	c #C7051B",
".s+	c #CD0B22",
"+s+	c #D10C20",
"@s+	c #CD1020",
"#s+	c #CA131D",
"$s+	c #D51F25",
"%s+	c #DC2F36",
"&s+	c #9F4760",
"*s+	c #7C86A8",
"=s+	c #889AB5",
"-s+	c #334783",
";s+	c #354989",
">s+	c #2A4693",
",s+	c #2A4E94",
"'s+	c #6F92B7",
")s+	c #5D7B8E",
"!s+	c #517598",
"~s+	c #386197",
"{s+	c #2A529D",
"]s+	c #2A51A0",
"^s+	c #234D9C",
"/s+	c #235092",
"(s+	c #2E5E92",
"_s+	c #1E4E86",
":s+	c #1E4D8C",
"<s+	c #204E9A",
"[s+	c #4070A2",
"}s+	c #6B91AF",
"|s+	c #93324B",
"1s+	c #C2172A",
"2s+	c #BE0C22",
"3s+	c #BC0A24",
"4s+	c #BC0C25",
"5s+	c #C20E23",
"6s+	c #CB1629",
"7s+	c #CE1928",
"8s+	c #CC1C2C",
"9s+	c #C6182E",
"0s+	c #AE0922",
"as+	c #AD0722",
"bs+	c #BB152A",
"cs+	c #CB2C33",
"ds+	c #E85F52",
"es+	c #F1725A",
"fs+	c #F3745B",
"gs+	c #F17459",
"hs+	c #F59262",
"is+	c #F59662",
"js+	c #F18B5C",
"ks+	c #FDAC72",
"ls+	c #F5905F",
"ms+	c #EC9962",
"ns+	c #F69863",
"os+	c #F38259",
"ps+	c #F17856",
"qs+	c #DD7A6E",
"rs+	c #655284",
"ss+	c #39529B",
"ts+	c #35529D",
"us+	c #32539E",
"vs+	c #3156A2",
"ws+	c #2A52A0",
"xs+	c #2753A4",
"ys+	c #2754A4",
"zs+	c #2757A4",
"As+	c #2758A4",
"Bs+	c #2758A5",
"Cs+	c #2657A5",
"Ds+	c #2557A5",
"Es+	c #255AAA",
"Fs+	c #2659AA",
"Gs+	c #2654A4",
"Hs+	c #2553A0",
"Is+	c #3C6396",
"Js+	c #627D9A",
"Ks+	c #6A8492",
"Ls+	c #6C8192",
"Ms+	c #6C8092",
"Ns+	c #697F8F",
"Os+	c #697E8F",
"Ps+	c #6A7F90",
"Qs+	c #698192",
"Rs+	c #698091",
"Ss+	c #A3C6DA",
"Ts+	c #A4DCEE",
"Us+	c #79ADB8",
"Vs+	c #617D8F",
"Ws+	c #657B8C",
"Xs+	c #697E92",
"Ys+	c #688094",
"Zs+	c #618296",
"`s+	c #3D6A9A",
" t+	c #1E55A1",
".t+	c #3650A5",
"+t+	c #9A5A84",
"@t+	c #F17A68",
"#t+	c #F68E68",
"$t+	c #F88D66",
"%t+	c #FB9C74",
"&t+	c #F47F62",
"*t+	c #EB614E",
"=t+	c #EA5D4C",
"-t+	c #F05C4D",
";t+	c #F27A55",
">t+	c #EB724F",
",t+	c #ED7654",
"'t+	c #EE5642",
")t+	c #C95D46",
"!t+	c #5D120B",
"~t+	c #8B3B2E",
"{t+	c #EF8D68",
"]t+	c #F48755",
"^t+	c #8A3225",
"/t+	c #752925",
"(t+	c #782F25",
"_t+	c #622421",
":t+	c #852626",
"<t+	c #EA5D4D",
"[t+	c #EF6243",
"}t+	c #F14B40",
"|t+	c #E94037",
"1t+	c #EB3B39",
"2t+	c #EA2F32",
"3t+	c #EB3332",
"4t+	c #EC3934",
"5t+	c #EA4535",
"6t+	c #ED6A48",
"7t+	c #FBA468",
"8t+	c #F09159",
"9t+	c #EE794F",
"0t+	c #F58B58",
"at+	c #F6975C",
"bt+	c #F59C5E",
"ct+	c #F9985E",
"dt+	c #F38652",
"et+	c #F78156",
"ft+	c #DC6349",
"gt+	c #7A1E18",
"ht+	c #CF544C",
"it+	c #CE504A",
"jt+	c #480F0E",
"kt+	c #4F2024",
"lt+	c #742F30",
"mt+	c #732E2A",
"nt+	c #6E3029",
"ot+	c #6A342A",
"pt+	c #72483B",
"qt+	c #BFA795",
"rt+	c #DFDAC2",
"st+	c #DEE0C5",
"tt+	c #DDDFC4",
"ut+	c #E2E3C8",
"vt+	c #DFE1C6",
"wt+	c #D7E0C4",
"xt+	c #E1E1CC",
"yt+	c #AFAC9B",
"zt+	c #492D2A",
"At+	c #6A2F30",
"Bt+	c #702B2F",
"Ct+	c #431413",
"Dt+	c #9E1423",
"Et+	c #C1041B",
"Ft+	c #8B0119",
"Gt+	c #521A1A",
"Ht+	c #6D2C30",
"It+	c #63292F",
"Jt+	c #46060C",
"Kt+	c #B10C23",
"Lt+	c #C5051B",
"Mt+	c #CA081C",
"Nt+	c #CC0B20",
"Ot+	c #D20C23",
"Pt+	c #D21023",
"Qt+	c #CE0F1F",
"Rt+	c #CD1520",
"St+	c #D92A34",
"Tt+	c #A43B54",
"Ut+	c #6D7292",
"Vt+	c #8497B3",
"Wt+	c #314478",
"Xt+	c #2C448D",
"Yt+	c #26438E",
"Zt+	c #355492",
"`t+	c #4D6988",
" u+	c #3D586A",
".u+	c #4A6B8D",
"+u+	c #355D8D",
"@u+	c #265291",
"#u+	c #2A509D",
"$u+	c #1E4C92",
"%u+	c #437095",
"&u+	c #6091AB",
"*u+	c #3F6D8E",
"=u+	c #46729C",
"-u+	c #245394",
";u+	c #5482AD",
">u+	c #8BB0C6",
",u+	c #9B3B4E",
"'u+	c #C21628",
")u+	c #BD0C21",
"!u+	c #BC0B22",
"~u+	c #BC0C24",
"{u+	c #C11024",
"]u+	c #CA1529",
"^u+	c #CC1B29",
"/u+	c #CE1929",
"(u+	c #D3212E",
"_u+	c #CD1D31",
":u+	c #C61A2F",
"<u+	c #AE0A24",
"[u+	c #AC0622",
"}u+	c #BC152B",
"|u+	c #CB2D35",
"1u+	c #E95F52",
"2u+	c #F2755B",
"3u+	c #F08E5B",
"4u+	c #F68E5E",
"5u+	c #F5825A",
"6u+	c #FDB677",
"7u+	c #F7A063",
"8u+	c #F2905B",
"9u+	c #F48258",
"0u+	c #EF7855",
"au+	c #DC7B6E",
"bu+	c #655489",
"cu+	c #3D549E",
"du+	c #39559F",
"eu+	c #35549E",
"fu+	c #3156A0",
"gu+	c #2754A2",
"hu+	c #2856A4",
"iu+	c #25539F",
"ju+	c #2653A3",
"ku+	c #2556A1",
"lu+	c #2759A6",
"mu+	c #2255A2",
"nu+	c #2758A8",
"ou+	c #2153A3",
"pu+	c #30599C",
"qu+	c #51769C",
"ru+	c #638094",
"su+	c #677E8F",
"tu+	c #687F8F",
"uu+	c #677E8E",
"vu+	c #657E8D",
"wu+	c #637A8A",
"xu+	c #728897",
"yu+	c #ABD1E3",
"zu+	c #A1DAE9",
"Au+	c #6FA1AF",
"Bu+	c #617C8D",
"Cu+	c #687C91",
"Du+	c #657B90",
"Eu+	c #657C8D",
"Fu+	c #688193",
"Gu+	c #628192",
"Hu+	c #416F9A",
"Iu+	c #1F58A4",
"Ju+	c #1C52A5",
"Ku+	c #1F56A5",
"Lu+	c #344EA4",
"Mu+	c #9D5B83",
"Nu+	c #F07664",
"Ou+	c #EF7E5E",
"Pu+	c #F0845F",
"Qu+	c #F98E66",
"Ru+	c #F18562",
"Su+	c #FA936E",
"Tu+	c #F9956F",
"Uu+	c #EC5C4D",
"Vu+	c #EF5A4C",
"Wu+	c #F67758",
"Xu+	c #F57F5A",
"Yu+	c #EB7451",
"Zu+	c #E97250",
"`u+	c #E56F52",
" v+	c #7A271A",
".v+	c #691D16",
"+v+	c #D77358",
"@v+	c #9B3931",
"#v+	c #6F2723",
"$v+	c #722D24",
"%v+	c #662A26",
"&v+	c #75201E",
"*v+	c #E65449",
"=v+	c #EE5945",
"-v+	c #CC4437",
";v+	c #CD3B34",
">v+	c #EA4038",
",v+	c #EB3837",
"'v+	c #EA3334",
")v+	c #E93030",
"!v+	c #EC3833",
"~v+	c #EA4737",
"{v+	c #F27551",
"]v+	c #F08E56",
"^v+	c #EE784E",
"/v+	c #F17B50",
"(v+	c #F18653",
"_v+	c #F6945A",
":v+	c #F4995D",
"<v+	c #F6995F",
"[v+	c #F48C57",
"}v+	c #F6875D",
"|v+	c #BA5341",
"1v+	c #812923",
"2v+	c #E65B4F",
"3v+	c #AD342D",
"4v+	c #320506",
"5v+	c #552427",
"6v+	c #742E2F",
"7v+	c #722F2B",
"8v+	c #6A3128",
"9v+	c #683C2E",
"0v+	c #987B69",
"av+	c #DACEB7",
"bv+	c #DDDEC4",
"cv+	c #DEE1C6",
"dv+	c #DCDFC4",
"ev+	c #DFE1C8",
"fv+	c #DEE2C8",
"gv+	c #DDE2C9",
"hv+	c #C7C3B0",
"iv+	c #55473F",
"jv+	c #442122",
"kv+	c #6C2C2E",
"lv+	c #471011",
"mv+	c #A91327",
"nv+	c #C0041D",
"ov+	c #860116",
"pv+	c #541F1C",
"qv+	c #60282C",
"rv+	c #4D050C",
"sv+	c #B70D24",
"tv+	c #CA081E",
"uv+	c #CC0C1E",
"vv+	c #CB0B20",
"wv+	c #D10D23",
"xv+	c #D31124",
"yv+	c #D11121",
"zv+	c #CD141F",
"Av+	c #D62026",
"Bv+	c #D92830",
"Cv+	c #A6344C",
"Dv+	c #726E8E",
"Ev+	c #7A8DA7",
"Fv+	c #506388",
"Gv+	c #26428D",
"Hv+	c #34549B",
"Iv+	c #38578B",
"Jv+	c #3F5B74",
"Kv+	c #395364",
"Lv+	c #4B6B88",
"Mv+	c #315881",
"Nv+	c #3C6C9C",
"Ov+	c #295395",
"Pv+	c #295790",
"Qv+	c #77AEC1",
"Rv+	c #81BAC3",
"Sv+	c #87BAC8",
"Tv+	c #78A7C2",
"Uv+	c #37659C",
"Vv+	c #5C8BB4",
"Wv+	c #91B3C9",
"Xv+	c #A54254",
"Yv+	c #C71929",
"Zv+	c #BF0C21",
"`v+	c #BC0D24",
" w+	c #CB192A",
".w+	c #CE1A29",
"+w+	c #D2232F",
"@w+	c #CA1D2E",
"#w+	c #C61C30",
"$w+	c #B10E27",
"%w+	c #AD0823",
"&w+	c #BA142B",
"*w+	c #CC2E37",
"=w+	c #E75D50",
"-w+	c #EF7058",
";w+	c #F2745A",
">w+	c #F28059",
",w+	c #F58C5F",
"'w+	c #F89062",
")w+	c #F18958",
"!w+	c #F38C5A",
"~w+	c #F5885B",
"{w+	c #FEBA79",
"]w+	c #F7A465",
"^w+	c #EF8E5A",
"/w+	c #F5A670",
"(w+	c #FDB079",
"_w+	c #DB7B6F",
":w+	c #655388",
"<w+	c #3D539F",
"[w+	c #37539F",
"}w+	c #34539E",
"|w+	c #2755A1",
"1w+	c #2653A4",
"2w+	c #2657A2",
"3w+	c #2859A7",
"4w+	c #1F53A4",
"5w+	c #456A9F",
"6w+	c #5E7F9C",
"7w+	c #628191",
"8w+	c #637F8E",
"9w+	c #65818F",
"0w+	c #637D8C",
"aw+	c #647E8C",
"bw+	c #647989",
"cw+	c #78909F",
"dw+	c #ADD5E8",
"ew+	c #9CD4E4",
"fw+	c #6795A4",
"gw+	c #637C8F",
"hw+	c #677B91",
"iw+	c #688092",
"jw+	c #668091",
"kw+	c #618090",
"lw+	c #45729B",
"mw+	c #1F57A1",
"nw+	c #2753A5",
"ow+	c #334BA2",
"pw+	c #9F5986",
"qw+	c #F27665",
"rw+	c #F5815C",
"sw+	c #F78862",
"tw+	c #F78B65",
"uw+	c #EA5749",
"vw+	c #EE5549",
"ww+	c #FA795B",
"xw+	c #F77D5B",
"yw+	c #F05A47",
"zw+	c #F36A4D",
"Aw+	c #F67858",
"Bw+	c #AC4B38",
"Cw+	c #611312",
"Dw+	c #9F4237",
"Ew+	c #F27A5C",
"Fw+	c #AF4037",
"Gw+	c #6C231F",
"Hw+	c #6F2B26",
"Iw+	c #6B2E29",
"Jw+	c #691C1A",
"Kw+	c #E04B44",
"Lw+	c #9C2625",
"Mw+	c #A92827",
"Nw+	c #EA443C",
"Ow+	c #E93536",
"Pw+	c #E72F2D",
"Qw+	c #E93732",
"Rw+	c #E54B37",
"Sw+	c #F5A064",
"Tw+	c #F28F57",
"Uw+	c #EF774F",
"Vw+	c #F1794F",
"Ww+	c #F7925B",
"Xw+	c #F7995E",
"Yw+	c #FA9D65",
"Zw+	c #F48F5B",
"`w+	c #EC8259",
" x+	c #963B2B",
".x+	c #AE453C",
"+x+	c #E85F49",
"@x+	c #9B281F",
"#x+	c #420B11",
"$x+	c #60292B",
"%x+	c #74302E",
"&x+	c #722F2A",
"*x+	c #683127",
"=x+	c #785244",
"-x+	c #C7B29D",
";x+	c #E2DAC1",
">x+	c #DEDFC5",
",x+	c #DFE1C9",
"'x+	c #E0E4CB",
")x+	c #E3E6CF",
"!x+	c #CFCDBB",
"~x+	c #725B50",
"{x+	c #4C0E14",
"]x+	c #522528",
"^x+	c #692D2E",
"/x+	c #4D0B0F",
"(x+	c #B7132A",
"_x+	c #C90423",
":x+	c #BC021E",
"<x+	c #7D0213",
"[x+	c #572420",
"}x+	c #6D2C2D",
"|x+	c #5A2325",
"1x+	c #58050F",
"2x+	c #BE0F26",
"3x+	c #CC0A1F",
"4x+	c #CB0D1F",
"5x+	c #D00E23",
"6x+	c #D41223",
"7x+	c #CB101C",
"8x+	c #D72026",
"9x+	c #E02B30",
"0x+	c #AD2E43",
"ax+	c #726787",
"bx+	c #73859E",
"cx+	c #586E8B",
"dx+	c #244486",
"ex+	c #4769A8",
"fx+	c #37547F",
"gx+	c #3B5971",
"hx+	c #3A5365",
"ix+	c #5C7B94",
"jx+	c #466C8E",
"kx+	c #5786B0",
"lx+	c #26548F",
"mx+	c #41719B",
"nx+	c #93CFD7",
"ox+	c #91CECD",
"px+	c #ACE7E9",
"qx+	c #85B6C5",
"rx+	c #3C6591",
"sx+	c #598CB0",
"tx+	c #8BAFC5",
"ux+	c #A0495A",
"vx+	c #BC2330",
"wx+	c #B31628",
"xx+	c #B21326",
"yx+	c #B31427",
"zx+	c #C41226",
"Ax+	c #C51926",
"Bx+	c #CF1B2C",
"Cx+	c #D21F2F",
"Dx+	c #CA1B2B",
"Ex+	c #C71D30",
"Fx+	c #B41129",
"Gx+	c #BA1229",
"Hx+	c #CD2F38",
"Ix+	c #E95F53",
"Jx+	c #F5785B",
"Kx+	c #F4775C",
"Lx+	c #F67D5E",
"Mx+	c #F7855F",
"Nx+	c #F79365",
"Ox+	c #F5915F",
"Px+	c #F68E61",
"Qx+	c #EF8555",
"Rx+	c #F4875A",
"Sx+	c #FAB676",
"Tx+	c #F7A665",
"Ux+	c #F0915B",
"Vx+	c #EB9763",
"Wx+	c #F9AA72",
"Xx+	c #F3795D",
"Yx+	c #F07A5E",
"Zx+	c #DB776E",
"`x+	c #645086",
" y+	c #3B519C",
".y+	c #37529E",
"+y+	c #3752A0",
"@y+	c #33529F",
"#y+	c #2F549F",
"$y+	c #2B54A4",
"%y+	c #2554A1",
"&y+	c #2453A0",
"*y+	c #2854A5",
"=y+	c #2757A3",
"-y+	c #2858A5",
";y+	c #2859A6",
">y+	c #2251A1",
",y+	c #305BA1",
"'y+	c #5D7BA4",
")y+	c #658295",
"!y+	c #64818F",
"~y+	c #668391",
"{y+	c #647F8E",
"]y+	c #637F8D",
"^y+	c #66828F",
"/y+	c #67808D",
"(y+	c #6A7E8D",
"_y+	c #849EAD",
":y+	c #ACD8EB",
"<y+	c #99D0E3",
"[y+	c #668FA0",
"}y+	c #667A90",
"|y+	c #647A8F",
"1y+	c #647E8F",
"2y+	c #617F90",
"3y+	c #487499",
"4y+	c #1F569C",
"5y+	c #A05885",
"6y+	c #EF7463",
"7y+	c #E95144",
"8y+	c #ED5245",
"9y+	c #F16451",
"0y+	c #F67356",
"ay+	c #F37554",
"by+	c #F07453",
"cy+	c #F87A5C",
"dy+	c #F77654",
"ey+	c #D6694E",
"fy+	c #6A1D17",
"gy+	c #681C18",
"hy+	c #DE6E59",
"iy+	c #F47B5D",
"jy+	c #BF4A38",
"ky+	c #6C2220",
"ly+	c #702B2B",
"my+	c #6C2C28",
"ny+	c #5A1513",
"oy+	c #D74340",
"py+	c #E54740",
"qy+	c #7C1618",
"ry+	c #9A2424",
"sy+	c #EE3936",
"ty+	c #EA3436",
"uy+	c #E93434",
"vy+	c #EC3231",
"wy+	c #E8312E",
"xy+	c #E93C2F",
"yy+	c #EA5B3F",
"zy+	c #FAAA6D",
"Ay+	c #F39259",
"By+	c #EF7650",
"Cy+	c #F28354",
"Dy+	c #F18854",
"Ey+	c #F5945D",
"Fy+	c #FC9E68",
"Gy+	c #E37952",
"Hy+	c #942F1F",
"Iy+	c #D45748",
"Jy+	c #EA6348",
"Ky+	c #CF4842",
"Ly+	c #6E202A",
"My+	c #692B2C",
"Ny+	c #73302C",
"Oy+	c #702F2A",
"Py+	c #6A392E",
"Qy+	c #A08472",
"Ry+	c #DED5BB",
"Sy+	c #E5DFC5",
"Ty+	c #DEDDC4",
"Uy+	c #DDE0C5",
"Vy+	c #E2E1CB",
"Wy+	c #E3E2CD",
"Xy+	c #847066",
"Yy+	c #7E1820",
"Zy+	c #7B1722",
"`y+	c #5D2729",
" z+	c #682D2E",
".z+	c #53090F",
"+z+	c #BE152A",
"@z+	c #CB0523",
"#z+	c #690411",
"$z+	c #5D2627",
"%z+	c #562123",
"&z+	c #630613",
"*z+	c #CB091D",
"=z+	c #CA0C1E",
"-z+	c #CA0C20",
";z+	c #D01421",
">z+	c #D82027",
",z+	c #B42C3D",
"'z+	c #716584",
")z+	c #657B97",
"!z+	c #455F7F",
"~z+	c #234379",
"{z+	c #5476A9",
"]z+	c #3C597C",
"^z+	c #5C7F96",
"/z+	c #658296",
"(z+	c #5F819A",
"_z+	c #6890B0",
":z+	c #5E88B1",
"<z+	c #245285",
"[z+	c #4B7B9D",
"}z+	c #97D1DB",
"|z+	c #93CED0",
"1z+	c #A3E1E6",
"2z+	c #7CBBC5",
"3z+	c #397D97",
"4z+	c #4C96AC",
"5z+	c #72ACBD",
"6z+	c #73606B",
"7z+	c #844F56",
"8z+	c #80515C",
"9z+	c #804E59",
"0z+	c #84444C",
"az+	c #942F3A",
"bz+	c #A61D2E",
"cz+	c #B91828",
"dz+	c #C91F31",
"ez+	c #CD1F33",
"fz+	c #C91B2B",
"gz+	c #C71D2F",
"hz+	c #B51228",
"iz+	c #AE0923",
"jz+	c #BA132A",
"kz+	c #CB2D37",
"lz+	c #E75D52",
"mz+	c #F0715A",
"nz+	c #FB9B69",
"oz+	c #FA9865",
"pz+	c #F58B5E",
"qz+	c #F58E5D",
"rz+	c #F48E5C",
"sz+	c #F58F5D",
"tz+	c #F78F5F",
"uz+	c #F38358",
"vz+	c #F27D58",
"wz+	c #EC8B5D",
"xz+	c #F2AF6E",
"yz+	c #F8AB6A",
"zz+	c #F2955D",
"Az+	c #EB955D",
"Bz+	c #F1A068",
"Cz+	c #F88861",
"Dz+	c #F57C5D",
"Ez+	c #F3785F",
"Fz+	c #F07961",
"Gz+	c #DB7571",
"Hz+	c #644D85",
"Iz+	c #36519F",
"Jz+	c #32519F",
"Kz+	c #2E539F",
"Lz+	c #2B54A5",
"Mz+	c #2555A0",
"Nz+	c #2A59A5",
"Oz+	c #2954A5",
"Pz+	c #2A56A4",
"Qz+	c #2756A2",
"Rz+	c #2757A2",
"Sz+	c #2A59A6",
"Tz+	c #28559E",
"Uz+	c #466CA0",
"Vz+	c #67829D",
"Wz+	c #658090",
"Xz+	c #658092",
"Yz+	c #637E8D",
"Zz+	c #668291",
"`z+	c #647E8D",
" A+	c #698190",
".A+	c #697F8C",
"+A+	c #92AEBE",
"@A+	c #A6D7EB",
"#A+	c #94CBDF",
"$A+	c #658A9D",
"%A+	c #677D93",
"&A+	c #687E93",
"*A+	c #667C8F",
"=A+	c #667E8F",
"-A+	c #667F91",
";A+	c #4F799A",
">A+	c #22589A",
",A+	c #2456A6",
"'A+	c #2851A5",
")A+	c #364B9E",
"!A+	c #A85F85",
"~A+	c #ED7864",
"{A+	c #FA976C",
"]A+	c #EE5347",
"^A+	c #F16B51",
"/A+	c #F06E51",
"(A+	c #EF6F4F",
"_A+	c #EC6C4D",
":A+	c #F17054",
"<A+	c #EF5C41",
"[A+	c #EF6548",
"}A+	c #E97858",
"|A+	c #7C2F22",
"1A+	c #5A1918",
"2A+	c #B14E40",
"3A+	c #CF563E",
"4A+	c #712121",
"5A+	c #732B2E",
"6A+	c #6C2A26",
"7A+	c #521614",
"8A+	c #C83E3D",
"9A+	c #DE443C",
"0A+	c #6C0E0E",
"aA+	c #902123",
"bA+	c #E33E37",
"cA+	c #E53235",
"dA+	c #E73536",
"eA+	c #EF3635",
"fA+	c #EB3430",
"gA+	c #EA4330",
"hA+	c #F1734E",
"iA+	c #FDAC74",
"jA+	c #FAAF6F",
"kA+	c #F3935B",
"lA+	c #F27852",
"mA+	c #F28155",
"nA+	c #FD9A67",
"oA+	c #F5905D",
"pA+	c #ED8058",
"qA+	c #C8543A",
"rA+	c #EA624E",
"sA+	c #E95D43",
"tA+	c #E34F4B",
"uA+	c #792427",
"vA+	c #712F2E",
"wA+	c #74312B",
"xA+	c #6D322A",
"yA+	c #7B5A4A",
"zA+	c #CABEA7",
"AA+	c #E0E2C4",
"BA+	c #E4E2C8",
"CA+	c #DDDEC5",
"DA+	c #DFE0C6",
"EA+	c #E3E3CB",
"FA+	c #E3DCC9",
"GA+	c #9A9282",
"HA+	c #692523",
"IA+	c #B11D2D",
"JA+	c #7B0E18",
"KA+	c #65292A",
"LA+	c #632C2C",
"MA+	c #600B12",
"NA+	c #AE021E",
"OA+	c #59040F",
"PA+	c #63292D",
"QA+	c #712C32",
"RA+	c #501D22",
"SA+	c #700816",
"TA+	c #C40C24",
"UA+	c #C8071A",
"VA+	c #C90B1E",
"WA+	c #C90B1F",
"XA+	c #D41121",
"YA+	c #DA2228",
"ZA+	c #E2272B",
"`A+	c #E32527",
" B+	c #B72B3A",
".B+	c #7E728D",
"+B+	c #536E8B",
"@B+	c #476487",
"#B+	c #2C4D77",
"$B+	c #52749B",
"%B+	c #51718F",
"&B+	c #8CB5CD",
"*B+	c #7FA2B6",
"=B+	c #5D819B",
"-B+	c #6E98B6",
";B+	c #5F88AB",
">B+	c #5481A4",
",B+	c #5484A0",
"'B+	c #94C7D9",
")B+	c #93C7D3",
"!B+	c #88C8D4",
"~B+	c #73D6DA",
"{B+	c #5DDCE2",
"]B+	c #53E1DF",
"^B+	c #5DE0E0",
"/B+	c #61D0CE",
"(B+	c #70D3CF",
"_B+	c #71D6D5",
":B+	c #70D4D3",
"<B+	c #6FCBC5",
"[B+	c #6DACA8",
"}B+	c #6C7E7C",
"|B+	c #7E3B40",
"1B+	c #AA2938",
"2B+	c #BA283B",
"3B+	c #C51F30",
"4B+	c #C81D30",
"5B+	c #B5132A",
"6B+	c #B60B28",
"7B+	c #BB132C",
"8B+	c #C92A37",
"9B+	c #E55C51",
"0B+	c #F07159",
"aB+	c #F07258",
"bB+	c #FA9B66",
"cB+	c #F89B61",
"dB+	c #F4955E",
"eB+	c #F69360",
"fB+	c #F58F5F",
"gB+	c #F69460",
"hB+	c #F3945E",
"iB+	c #F89262",
"jB+	c #F07F55",
"kB+	c #EE7753",
"lB+	c #ED8B5E",
"mB+	c #F8AE6A",
"nB+	c #F49C61",
"oB+	c #F5A065",
"pB+	c #F88960",
"qB+	c #F2785E",
"rB+	c #F47963",
"sB+	c #F17864",
"tB+	c #DC7474",
"uB+	c #644B82",
"vB+	c #39509C",
"wB+	c #3552A0",
"xB+	c #3050A0",
"yB+	c #2D539F",
"zB+	c #2953A1",
"AB+	c #25509F",
"BB+	c #2B5BA6",
"CB+	c #2452A1",
"DB+	c #2855A3",
"EB+	c #2957A3",
"FB+	c #2A58A6",
"GB+	c #2859A4",
"HB+	c #2356A1",
"IB+	c #386098",
"JB+	c #5C7C9D",
"KB+	c #68818E",
"LB+	c #64808E",
"MB+	c #657F91",
"NB+	c #647D8C",
"OB+	c #678190",
"PB+	c #6A8393",
"QB+	c #6B8191",
"RB+	c #6B7F8D",
"SB+	c #6A8291",
"TB+	c #A0C3D4",
"UB+	c #A1D7EA",
"VB+	c #8DC3D7",
"WB+	c #67889B",
"XB+	c #647D8F",
"YB+	c #677D92",
"ZB+	c #697F92",
"`B+	c #647C8D",
" C+	c #678192",
".C+	c #638091",
"+C+	c #527C9A",
"@C+	c #235999",
"#C+	c #384C9C",
"$C+	c #B26A87",
"%C+	c #EE7D66",
"&C+	c #F78F6B",
"*C+	c #F68662",
"=C+	c #EE6E52",
"-C+	c #EA5745",
";C+	c #EE4740",
">C+	c #E8453C",
",C+	c #F16351",
"'C+	c #F66E56",
")C+	c #F66F53",
"!C+	c #EF6A4C",
"~C+	c #EC694D",
"{C+	c #EE5C41",
"]C+	c #F77553",
"^C+	c #9C4A37",
"/C+	c #5C1D1E",
"(C+	c #72221E",
"_C+	c #E76E5A",
":C+	c #DF624B",
"<C+	c #76201F",
"[C+	c #712B2C",
"}C+	c #6D2C29",
"|C+	c #501915",
"1C+	c #B73A3B",
"2C+	c #DB4340",
"3C+	c #670E0F",
"4C+	c #8A1E20",
"5C+	c #E43E36",
"6C+	c #D82D33",
"7C+	c #DC3234",
"8C+	c #EF3936",
"9C+	c #EE3733",
"0C+	c #EB4A32",
"aC+	c #F48D5E",
"bC+	c #FCBA7B",
"cC+	c #F7AF6C",
"dC+	c #F2945D",
"eC+	c #F27952",
"fC+	c #F17F53",
"gC+	c #F18657",
"hC+	c #F38D5C",
"iC+	c #F28F5C",
"jC+	c #ED7151",
"kC+	c #ED664F",
"lC+	c #E85B42",
"mC+	c #CD3F37",
"nC+	c #711D1C",
"oC+	c #74302D",
"pC+	c #75312C",
"qC+	c #723A30",
"rC+	c #A58977",
"sC+	c #DDD9BF",
"tC+	c #DFE2C4",
"uC+	c #E4E0C6",
"vC+	c #DFE0C7",
"wC+	c #E1DFC6",
"xC+	c #E1DEC6",
"yC+	c #E4DFCA",
"zC+	c #BFAEA0",
"AC+	c #67332F",
"BC+	c #A61C28",
"CC+	c #C41727",
"DC+	c #680F14",
"EC+	c #6A2C2B",
"FC+	c #5B2928",
"GC+	c #710C13",
"HC+	c #D1192A",
"IC+	c #CD0A21",
"JC+	c #C0011D",
"KC+	c #A8021C",
"LC+	c #510810",
"MC+	c #6A2C2F",
"NC+	c #712D33",
"OC+	c #491A1E",
"PC+	c #7D0719",
"QC+	c #C3091F",
"RC+	c #C6061A",
"SC+	c #C9091E",
"TC+	c #CA0A1F",
"UC+	c #D00F21",
"VC+	c #D51822",
"WC+	c #DD232A",
"XC+	c #E72627",
"YC+	c #BD2D3B",
"ZC+	c #8E7E98",
"`C+	c #526E8A",
" D+	c #6687A6",
".D+	c #527394",
"+D+	c #4F718F",
"@D+	c #6E91AC",
"#D+	c #8CB7CE",
"$D+	c #85A9BD",
"%D+	c #5A7E98",
"&D+	c #6B94B2",
"*D+	c #6A92B2",
"=D+	c #79A7BF",
"-D+	c #5E8FA6",
";D+	c #90C1D6",
">D+	c #7CB4C6",
",D+	c #69C6D0",
"'D+	c #6DF7F7",
")D+	c #5DFBF9",
"!D+	c #5AFDF9",
"~D+	c #57FBFA",
"{D+	c #52FBF9",
"]D+	c #57FDFB",
"^D+	c #59FCFC",
"/D+	c #57FDFC",
"(D+	c #59FCF9",
"_D+	c #65F9F5",
":D+	c #71EEE8",
"<D+	c #71BBB8",
"[D+	c #788488",
"}D+	c #885C68",
"|D+	c #B43447",
"1D+	c #C52235",
"2D+	c #B5142C",
"3D+	c #AF0826",
"4D+	c #B50929",
"5D+	c #BC132E",
"6D+	c #C82937",
"7D+	c #E55E52",
"8D+	c #F07257",
"9D+	c #F27557",
"0D+	c #F17659",
"aD+	c #F07958",
"bD+	c #ED8257",
"cD+	c #EF935D",
"dD+	c #F59B5F",
"eD+	c #F3955A",
"fD+	c #F4925D",
"gD+	c #F8935F",
"hD+	c #F4965E",
"iD+	c #F79460",
"jD+	c #EE7755",
"kD+	c #F59568",
"lD+	c #FCBC78",
"mD+	c #F0A962",
"nD+	c #F79F63",
"oD+	c #F9A86A",
"pD+	c #F47761",
"qD+	c #F07663",
"rD+	c #DB7173",
"sD+	c #64497E",
"tD+	c #3750A0",
"uD+	c #3251A0",
"vD+	c #3150A0",
"wD+	c #2D549F",
"xD+	c #2853A0",
"yD+	c #26509F",
"zD+	c #2654A1",
"AD+	c #2755A2",
"BD+	c #2856A3",
"CD+	c #2657A0",
"DD+	c #26589F",
"ED+	c #24569F",
"FD+	c #2657A3",
"GD+	c #2057A3",
"HD+	c #486F95",
"ID+	c #647E93",
"JD+	c #677E8D",
"KD+	c #66808D",
"LD+	c #647E8E",
"MD+	c #66808F",
"ND+	c #6A8493",
"OD+	c #6B8091",
"PD+	c #6B8190",
"QD+	c #6F899A",
"RD+	c #A6D0E2",
"SD+	c #9ED6E9",
"TD+	c #87BACF",
"UD+	c #678599",
"VD+	c #637C8E",
"WD+	c #667E91",
"XD+	c #657C8A",
"YD+	c #678191",
"ZD+	c #658190",
"`D+	c #558299",
" E+	c #265E99",
".E+	c #3A4C9C",
"+E+	c #B76E89",
"@E+	c #F08066",
"#E+	c #F9996F",
"$E+	c #F58461",
"%E+	c #EA6B4F",
"&E+	c #E75542",
"*E+	c #EA5044",
"=E+	c #F36755",
"-E+	c #F96F58",
";E+	c #F86D53",
">E+	c #F0684B",
",E+	c #EF684D",
"'E+	c #EE6B53",
")E+	c #EE5E43",
"!E+	c #F97A56",
"~E+	c #F48156",
"{E+	c #CC6D50",
"]E+	c #66211C",
"^E+	c #5B1A19",
"/E+	c #BC5043",
"(E+	c #E76452",
"_E+	c #7B211F",
":E+	c #6F292A",
"<E+	c #6E2C29",
"[E+	c #521C17",
"}E+	c #AA3237",
"|E+	c #D64144",
"1E+	c #671516",
"2E+	c #851A1F",
"3E+	c #E73C3A",
"4E+	c #E32C32",
"5E+	c #9C131A",
"6E+	c #B12122",
"7E+	c #EF3832",
"8E+	c #E85739",
"9E+	c #F9A36E",
"0E+	c #F9C37E",
"aE+	c #F8B571",
"bE+	c #F27A51",
"cE+	c #EF7F52",
"dE+	c #F18758",
"eE+	c #EF8657",
"fE+	c #EF8459",
"gE+	c #EF7352",
"hE+	c #ED6C50",
"iE+	c #F1644D",
"jE+	c #B3302C",
"kE+	c #6B2624",
"lE+	c #75302D",
"mE+	c #72332C",
"nE+	c #83584A",
"oE+	c #CEB9A5",
"pE+	c #E3E1C6",
"qE+	c #DEE1C2",
"rE+	c #E1DDC3",
"sE+	c #E0DFC7",
"tE+	c #E3E3CA",
"uE+	c #D5C6BA",
"vE+	c #674C44",
"wE+	c #8C181F",
"xE+	c #C11521",
"yE+	c #5F1516",
"zE+	c #562725",
"AE+	c #7E0D17",
"BE+	c #CB0920",
"CE+	c #BF011D",
"DE+	c #A3021B",
"EE+	c #6F3032",
"FE+	c #6F3033",
"GE+	c #441619",
"HE+	c #87091C",
"IE+	c #C3081E",
"JE+	c #C8081C",
"KE+	c #CC0C21",
"LE+	c #D41222",
"ME+	c #D41821",
"NE+	c #DE242A",
"OE+	c #E2292A",
"PE+	c #E7282A",
"QE+	c #C32D3A",
"RE+	c #957E97",
"SE+	c #597390",
"TE+	c #7A9AB9",
"UE+	c #6889A4",
"VE+	c #577B93",
"WE+	c #7BA1BB",
"XE+	c #8EB9CE",
"YE+	c #87A9BE",
"ZE+	c #5C7995",
"`E+	c #6E92B2",
" F+	c #7199B6",
".F+	c #7FADC3",
"+F+	c #6999AD",
"@F+	c #73ADC1",
"#F+	c #4EADBF",
"$F+	c #5ED8E5",
"%F+	c #4FDEE7",
"&F+	c #48DDE8",
"*F+	c #4DE6F1",
"=F+	c #4FF7FA",
"-F+	c #4AFEFE",
";F+	c #4CFEFE",
">F+	c #50FDFF",
",F+	c #51FDFF",
"'F+	c #52FDFE",
")F+	c #5AFDFE",
"!F+	c #65FBFD",
"~F+	c #6EF9F8",
"{F+	c #6FECEA",
"]F+	c #7FD2D2",
"^F+	c #8B6773",
"/F+	c #BC293B",
"(F+	c #B7162A",
"_F+	c #B00A26",
":F+	c #B50A29",
"<F+	c #C52736",
"[F+	c #F27A59",
"}F+	c #EC8359",
"|F+	c #F79E63",
"1F+	c #FA9F64",
"2F+	c #F99A63",
"3F+	c #F08E59",
"4F+	c #F3925C",
"5F+	c #F4995E",
"6F+	c #F6875C",
"7F+	c #F37C58",
"8F+	c #FDBE7A",
"9F+	c #F1A963",
"0F+	c #EF985C",
"aF+	c #F2A062",
"bF+	c #FBAA6C",
"cF+	c #EF7561",
"dF+	c #DB7171",
"eF+	c #674A7D",
"fF+	c #38509E",
"gF+	c #3351A0",
"hF+	c #3051A2",
"iF+	c #3055A1",
"jF+	c #3157A5",
"kF+	c #22529F",
"lF+	c #2857A3",
"mF+	c #2857A4",
"nF+	c #2956A7",
"oF+	c #2757A0",
"pF+	c #27579F",
"qF+	c #25559E",
"rF+	c #2356A3",
"sF+	c #34619A",
"tF+	c #597C95",
"uF+	c #657F8D",
"vF+	c #687F8D",
"wF+	c #667E8C",
"xF+	c #657D8D",
"yF+	c #688090",
"zF+	c #698191",
"AF+	c #6B8092",
"BF+	c #687D8E",
"CF+	c #657D8B",
"DF+	c #7794A5",
"EF+	c #A9D4E5",
"FF+	c #9FD7E9",
"GF+	c #81B1C5",
"HF+	c #678497",
"IF+	c #678090",
"JF+	c #698090",
"KF+	c #67828D",
"LF+	c #67818E",
"MF+	c #5A8598",
"NF+	c #2A6095",
"OF+	c #2753A7",
"PF+	c #394B9B",
"QF+	c #B46A86",
"RF+	c #F17D65",
"SF+	c #F8976D",
"TF+	c #FC8E69",
"UF+	c #F78763",
"VF+	c #EA5B47",
"WF+	c #E8423B",
"XF+	c #E95446",
"YF+	c #F26B57",
"ZF+	c #F36A50",
"`F+	c #F06B50",
" G+	c #F06246",
".G+	c #ED6648",
"+G+	c #F87C57",
"@G+	c #F68355",
"#G+	c #EB8059",
"$G+	c #7E2E21",
"%G+	c #5F2221",
"&G+	c #7E2720",
"*G+	c #DC5951",
"=G+	c #832424",
"-G+	c #702A29",
";G+	c #6F2A26",
">G+	c #55201B",
",G+	c #90292D",
"'G+	c #B9353A",
")G+	c #661C1C",
"!G+	c #821B21",
"~G+	c #E63A3F",
"{G+	c #C72128",
"]G+	c #640B0F",
"^G+	c #961F1E",
"/G+	c #E83730",
"(G+	c #EA3F33",
"_G+	c #EF734E",
":G+	c #FCB377",
"<G+	c #F8C67F",
"[G+	c #FDBC77",
"}G+	c #F27C51",
"|G+	c #F18155",
"1G+	c #EF8154",
"2G+	c #F58758",
"3G+	c #F07354",
"4G+	c #8E2420",
"5G+	c #6D2F2C",
"6G+	c #74312D",
"7G+	c #713B31",
"8G+	c #9B7E6C",
"9G+	c #E1D6BE",
"0G+	c #E3E3C7",
"aG+	c #DFE1C4",
"bG+	c #E0DEC3",
"cG+	c #DFDFC6",
"dG+	c #DDE4C8",
"eG+	c #E0DDC4",
"fG+	c #88746B",
"gG+	c #791B1E",
"hG+	c #C11C29",
"iG+	c #D51329",
"jG+	c #AF131C",
"kG+	c #5C1D20",
"lG+	c #522323",
"mG+	c #8A101B",
"nG+	c #D61927",
"oG+	c #CC091D",
"pG+	c #BE021D",
"qG+	c #930117",
"rG+	c #511B1C",
"sG+	c #723233",
"tG+	c #411214",
"uG+	c #930A1D",
"vG+	c #C80A1F",
"wG+	c #D30F21",
"xG+	c #D21222",
"yG+	c #D51B25",
"zG+	c #E0252B",
"AG+	c #DF2526",
"BG+	c #E52929",
"CG+	c #CC2D39",
"DG+	c #9A7B92",
"EG+	c #5D7391",
"FG+	c #7392B1",
"GG+	c #618399",
"HG+	c #739AB1",
"IG+	c #88B1CA",
"JG+	c #9AC6D9",
"KG+	c #84A3B8",
"LG+	c #5D7593",
"MG+	c #6E91B1",
"NG+	c #7098B2",
"OG+	c #7BA8BF",
"PG+	c #76A7BB",
"QG+	c #4897A6",
"RG+	c #4ACAD8",
"SG+	c #28A6BB",
"TG+	c #2CAFC9",
"UG+	c #2AAFC9",
"VG+	c #3DC8DD",
"WG+	c #4DEDF5",
"XG+	c #4BFBFB",
"YG+	c #4FFDFD",
"ZG+	c #51FDFD",
"`G+	c #50FEFB",
" H+	c #4FFEFB",
".H+	c #4EFDFA",
"+H+	c #52FAF9",
"@H+	c #4DF4F2",
"#H+	c #4DE8E7",
"$H+	c #6DF7F3",
"%H+	c #77999A",
"&H+	c #B73343",
"*H+	c #BA182A",
"=H+	c #B60B29",
"-H+	c #BC142E",
";H+	c #C22533",
">H+	c #E35A4F",
",H+	c #F27159",
"'H+	c #F27359",
")H+	c #F5795C",
"!H+	c #F39662",
"~H+	c #FBA066",
"{H+	c #FCA167",
"]H+	c #F99D64",
"^H+	c #F2935C",
"/H+	c #F1965C",
"(H+	c #F69C61",
"_H+	c #F59B5E",
":H+	c #F5805B",
"<H+	c #FDB877",
"[H+	c #F5AE6A",
"}H+	c #E79155",
"|H+	c #EC9A5C",
"1H+	c #F7A365",
"2H+	c #F3955E",
"3H+	c #EF735E",
"4H+	c #EF7660",
"5H+	c #DF7472",
"6H+	c #6F4E7E",
"7H+	c #31519F",
"8H+	c #3459A7",
"9H+	c #2D55A4",
"0H+	c #2655A2",
"aH+	c #2756A1",
"bH+	c #2858A4",
"cH+	c #2A57A8",
"dH+	c #2854A2",
"eH+	c #2A57A0",
"fH+	c #2A58A0",
"gH+	c #28569F",
"hH+	c #2A5897",
"iH+	c #517799",
"jH+	c #62818D",
"kH+	c #637B87",
"lH+	c #657C8B",
"mH+	c #687E8F",
"nH+	c #83A1B3",
"oH+	c #A9D7E8",
"pH+	c #9DD7E8",
"qH+	c #7AA8BA",
"rH+	c #698397",
"sH+	c #66828D",
"tH+	c #69838F",
"uH+	c #5C8595",
"vH+	c #2E6593",
"wH+	c #2752A4",
"xH+	c #37499B",
"yH+	c #AA5F7F",
"zH+	c #F58662",
"AH+	c #F68E65",
"BH+	c #EF835D",
"CH+	c #F88964",
"DH+	c #EB433D",
"EH+	c #E9433D",
"FH+	c #F36F59",
"GH+	c #F16B53",
"HH+	c #F77055",
"IH+	c #F36F51",
"JH+	c #EF6B54",
"KH+	c #F4694C",
"LH+	c #F37F51",
"MH+	c #A74A35",
"NH+	c #682621",
"OH+	c #5A1713",
"PH+	c #BE4545",
"QH+	c #882527",
"RH+	c #702828",
"SH+	c #712A25",
"TH+	c #5E2521",
"UH+	c #721C1F",
"VH+	c #99262B",
"WH+	c #672222",
"XH+	c #7B1920",
"YH+	c #DA353D",
"ZH+	c #9D181D",
"`H+	c #5C1A1C",
" I+	c #9E2828",
".I+	c #E6372F",
"+I+	c #E74B39",
"@I+	c #FBB476",
"#I+	c #F8C17B",
"$I+	c #FDBE78",
"%I+	c #F7A067",
"&I+	c #F28055",
"*I+	c #F37F53",
"=I+	c #F68054",
"-I+	c #E86D55",
";I+	c #751E1B",
">I+	c #702D2E",
",I+	c #76493D",
"'I+	c #BDAA95",
")I+	c #E3E0C5",
"!I+	c #E1E3C6",
"~I+	c #E2E2C6",
"{I+	c #E0E0C4",
"]I+	c #E4E0CA",
"^I+	c #E3E2C9",
"/I+	c #B39F8F",
"(I+	c #6C2222",
"_I+	c #B91C2C",
":I+	c #CF1A28",
"<I+	c #D41428",
"[I+	c #9E0C17",
"}I+	c #612429",
"|I+	c #6E2C2D",
"1I+	c #4F1D1E",
"2I+	c #961521",
"3I+	c #C90619",
"4I+	c #BA021C",
"5I+	c #7F0312",
"6I+	c #592627",
"7I+	c #703131",
"8I+	c #692E2F",
"9I+	c #400E11",
"0I+	c #A00E23",
"aI+	c #CB0B1F",
"bI+	c #D20E21",
"cI+	c #D51624",
"dI+	c #DB202A",
"eI+	c #E2262D",
"fI+	c #DF2425",
"gI+	c #E22729",
"hI+	c #CF2A36",
"iI+	c #9A758D",
"jI+	c #5C7090",
"kI+	c #6280A2",
"lI+	c #4A6B82",
"mI+	c #85ADC4",
"nI+	c #8BB6CD",
"oI+	c #99C6D6",
"pI+	c #85A5BA",
"qI+	c #5C7392",
"rI+	c #698DAC",
"sI+	c #6C95AF",
"tI+	c #719CB6",
"uI+	c #79AABD",
"vI+	c #4BB8C0",
"wI+	c #31C7CF",
"xI+	c #22B3BE",
"yI+	c #26B4C2",
"zI+	c #22B2C0",
"AI+	c #2EBECD",
"BI+	c #38D6DF",
"CI+	c #43EDF1",
"DI+	c #4AF8FA",
"EI+	c #48F8F9",
"FI+	c #44F5F2",
"GI+	c #41F4F1",
"HI+	c #3EF1EF",
"II+	c #39E8E5",
"JI+	c #3BE8E5",
"KI+	c #56F7F6",
"LI+	c #63FBFA",
"MI+	c #6FB2B3",
"NI+	c #B63A47",
"OI+	c #BE1B2F",
"PI+	c #B60A27",
"QI+	c #C12432",
"RI+	c #E4594E",
"SI+	c #F4775B",
"TI+	c #F3795B",
"UI+	c #F0905D",
"VI+	c #F3965E",
"WI+	c #F89B62",
"XI+	c #F2955B",
"YI+	c #F59E62",
"ZI+	c #F9A064",
"`I+	c #F69E60",
" J+	c #F5955D",
".J+	c #F6825C",
"+J+	c #F59968",
"@J+	c #F9AF71",
"#J+	c #F7B06E",
"$J+	c #F19D5F",
"%J+	c #F8A466",
"&J+	c #F29B5F",
"*J+	c #F3915B",
"=J+	c #F0745F",
"-J+	c #F17860",
";J+	c #E27673",
">J+	c #775481",
",J+	c #3A509C",
"'J+	c #314F9D",
")J+	c #2F51A1",
"!J+	c #2E54A2",
"~J+	c #2958A5",
"{J+	c #2A58A8",
"]J+	c #2B56A0",
"^J+	c #2B57A0",
"/J+	c #28559F",
"(J+	c #2655A1",
"_J+	c #2456A1",
":J+	c #27559E",
"<J+	c #3F6497",
"[J+	c #69879D",
"}J+	c #6A828B",
"|J+	c #637987",
"1J+	c #607886",
"2J+	c #697F8D",
"3J+	c #677D8E",
"4J+	c #677C8E",
"5J+	c #677C8D",
"6J+	c #6A8091",
"7J+	c #94B6C8",
"8J+	c #A7D7E8",
"9J+	c #98D2E2",
"0J+	c #729DAE",
"aJ+	c #688396",
"bJ+	c #688490",
"cJ+	c #698293",
"dJ+	c #5C8495",
"eJ+	c #336895",
"fJ+	c #1F50A7",
"gJ+	c #36499C",
"hJ+	c #A3577B",
"iJ+	c #E96B56",
"jJ+	c #F98E68",
"kJ+	c #F9946A",
"lJ+	c #EF6252",
"mJ+	c #F4725D",
"nJ+	c #F27154",
"oJ+	c #F56B4E",
"pJ+	c #F06E4C",
"qJ+	c #F7875A",
"rJ+	c #CE664B",
"sJ+	c #66201B",
"tJ+	c #5C2320",
"uJ+	c #7C2226",
"vJ+	c #88232B",
"wJ+	c #702527",
"xJ+	c #722A26",
"yJ+	c #632822",
"zJ+	c #571216",
"AJ+	c #741721",
"BJ+	c #662524",
"CJ+	c #77171C",
"DJ+	c #CA2C35",
"EJ+	c #84171C",
"FJ+	c #5C1B1D",
"GJ+	c #B63530",
"HJ+	c #E63D2F",
"IJ+	c #EC6046",
"JJ+	c #FA9864",
"KJ+	c #F0A767",
"LJ+	c #F9B976",
"MJ+	c #FDBA75",
"NJ+	c #F8A165",
"OJ+	c #F28859",
"PJ+	c #F8875A",
"QJ+	c #F38555",
"RJ+	c #F17A51",
"SJ+	c #F17950",
"TJ+	c #CE5E4A",
"UJ+	c #68201D",
"VJ+	c #722D2D",
"WJ+	c #6F342B",
"XJ+	c #876658",
"YJ+	c #D8D0B6",
"ZJ+	c #E4E4C6",
"`J+	c #E2E2C4",
" K+	c #E1E1C7",
".K+	c #E7DECB",
"+K+	c #D7C8B9",
"@K+	c #784B44",
"#K+	c #A71D25",
"$K+	c #D11727",
"%K+	c #D31322",
"&K+	c #D11325",
"*K+	c #820813",
"=K+	c #62272D",
"-K+	c #712B32",
";K+	c #702D2D",
">K+	c #50191B",
",K+	c #A31828",
"'K+	c #D31524",
")K+	c #C60519",
"!K+	c #B3021C",
"~K+	c #6B030D",
"{K+	c #632A2D",
"]K+	c #6F2F31",
"^K+	c #6A2C2E",
"/K+	c #3F0D11",
"(K+	c #A70F25",
"_K+	c #CE0C20",
":K+	c #CD0A20",
"<K+	c #CC091E",
"[K+	c #D41021",
"}K+	c #D71625",
"|K+	c #DA1F29",
"1K+	c #DF2229",
"2K+	c #DF242A",
"3K+	c #D12C35",
"4K+	c #9A6E85",
"5K+	c #5D6C91",
"6K+	c #60769E",
"7K+	c #3D5A77",
"8K+	c #86ADC6",
"9K+	c #87B3C7",
"0K+	c #97C7D4",
"aK+	c #8EB4C2",
"bK+	c #5B768F",
"cK+	c #688FAA",
"dK+	c #6792A9",
"eK+	c #6B99AD",
"fK+	c #73A6B6",
"gK+	c #70E4E6",
"hK+	c #5EF7F8",
"iK+	c #54F6F7",
"jK+	c #51F4F4",
"kK+	c #52F5F5",
"lK+	c #56F3F6",
"mK+	c #53F1F5",
"nK+	c #55F8FA",
"oK+	c #56FBFD",
"pK+	c #54FBFB",
"qK+	c #4EFBFA",
"rK+	c #4FFCFB",
"sK+	c #51FBFB",
"tK+	c #53FEFC",
"uK+	c #53FEFD",
"vK+	c #5AFAFC",
"wK+	c #69B6BA",
"xK+	c #B2384A",
"yK+	c #C11D31",
"zK+	c #B00A23",
"AK+	c #BA0A27",
"BK+	c #BD122D",
"CK+	c #C62331",
"DK+	c #E8574C",
"EK+	c #F47259",
"FK+	c #F28D59",
"GK+	c #F1925C",
"HK+	c #F89B65",
"IK+	c #EF945A",
"JK+	c #F69F63",
"KK+	c #FCA367",
"LK+	c #F59660",
"MK+	c #F9A96B",
"NK+	c #F59D63",
"OK+	c #F38E5B",
"PK+	c #F0765E",
"QK+	c #F2745E",
"RK+	c #E6756C",
"SK+	c #7F547F",
"TK+	c #3A51A1",
"UK+	c #33519F",
"VK+	c #31539E",
"WK+	c #2E51A0",
"XK+	c #2B51A0",
"YK+	c #2352A1",
"ZK+	c #23549E",
"`K+	c #24549F",
" L+	c #2C5AA8",
".L+	c #2A57A1",
"+L+	c #2B57A1",
"@L+	c #2857A2",
"#L+	c #2458A3",
"$L+	c #2259A2",
"%L+	c #325A9A",
"&L+	c #58779C",
"*L+	c #6E8895",
"=L+	c #6B808B",
"-L+	c #637D88",
";L+	c #5C7885",
">L+	c #647D8E",
",L+	c #6D8497",
"'L+	c #A3C6D9",
")L+	c #A1D7E8",
"!L+	c #92CEDF",
"~L+	c #6A94A6",
"{L+	c #677F93",
"]L+	c #6D8190",
"^L+	c #6B8090",
"/L+	c #688391",
"(L+	c #698391",
"_L+	c #698093",
":L+	c #657E95",
"<L+	c #5F8394",
"[L+	c #3B6D96",
"}L+	c #2152A0",
"|L+	c #1F4FA5",
"1L+	c #2654A6",
"2L+	c #2752A3",
"3L+	c #324B9D",
"4L+	c #9F507B",
"5L+	c #E56253",
"6L+	c #EC7655",
"7L+	c #ED7D56",
"8L+	c #F68560",
"9L+	c #EF9165",
"0L+	c #ED9365",
"aL+	c #F79367",
"bL+	c #EF5F4A",
"cL+	c #F5765D",
"dL+	c #F17256",
"eL+	c #F27254",
"fL+	c #F56E4F",
"gL+	c #EF6E4C",
"hL+	c #F17750",
"iL+	c #F8885B",
"jL+	c #F58859",
"kL+	c #E67C5A",
"lL+	c #6F251C",
"mL+	c #4E1314",
"nL+	c #5B1319",
"oL+	c #672629",
"pL+	c #682B23",
"qL+	c #3E0D0D",
"rL+	c #480C11",
"sL+	c #622626",
"tL+	c #72151B",
"uL+	c #B3202A",
"vL+	c #771E22",
"wL+	c #581515",
"xL+	c #CD3E37",
"yL+	c #E64A35",
"zL+	c #F8835E",
"AL+	c #F69A60",
"BL+	c #F2A764",
"CL+	c #F6B16F",
"DL+	c #F9B36E",
"EL+	c #F48A58",
"FL+	c #F8885A",
"GL+	c #F48654",
"HL+	c #F68757",
"IL+	c #F47D53",
"JL+	c #ED704B",
"KL+	c #F27452",
"LL+	c #F87F60",
"ML+	c #A94434",
"NL+	c #642626",
"OL+	c #722F2C",
"PL+	c #743B32",
"QL+	c #B49889",
"RL+	c #E1DEC2",
"SL+	c #E1E0C2",
"TL+	c #E4E0C3",
"UL+	c #E3E0C3",
"VL+	c #E4E2C9",
"WL+	c #E6D8C7",
"XL+	c #8E776E",
"YL+	c #7C1D1E",
"ZL+	c #C71E2A",
"`L+	c #D81423",
" M+	c #CA1423",
".M+	c #5F040A",
"+M+	c #5A282C",
"@M+	c #712A31",
"#M+	c #6F2D2C",
"$M+	c #4D1618",
"%M+	c #AF1B2D",
"&M+	c #D31121",
"*M+	c #C9061B",
"=M+	c #A8031B",
"-M+	c #59080D",
";M+	c #682F33",
">M+	c #702E30",
",M+	c #430A0F",
"'M+	c #AF1028",
")M+	c #CD0C21",
"!M+	c #CE0D21",
"~M+	c #CD091F",
"{M+	c #D10D1F",
"]M+	c #D51524",
"^M+	c #D41923",
"/M+	c #E0262B",
"(M+	c #E5292C",
"_M+	c #D73038",
":M+	c #9F6A80",
"<M+	c #5F6C92",
"[M+	c #60759D",
"}M+	c #3E597A",
"|M+	c #81A6BF",
"1M+	c #85B1C5",
"2M+	c #99CBD7",
"3M+	c #92BCC8",
"4M+	c #5C7C92",
"5M+	c #6894AB",
"6M+	c #6D9AAE",
"7M+	c #7DADBD",
"8M+	c #72A8B5",
"9M+	c #7EF0F1",
"0M+	c #70FEFE",
"aM+	c #61FDFE",
"bM+	c #59FCFB",
"cM+	c #59FDFC",
"dM+	c #5BFEFD",
"eM+	c #5CFEFF",
"fM+	c #5CFDFC",
"gM+	c #5CFDFB",
"hM+	c #5EFEFC",
"iM+	c #58FEFB",
"jM+	c #53FCF8",
"kM+	c #58FDFA",
"lM+	c #5CFEFC",
"mM+	c #5EFDFC",
"nM+	c #59FEFD",
"oM+	c #5BFAFC",
"pM+	c #6AB6BB",
"qM+	c #C82437",
"rM+	c #B40C24",
"sM+	c #BC0B27",
"tM+	c #BD102B",
"uM+	c #CB2634",
"vM+	c #E75349",
"wM+	c #F37459",
"xM+	c #F2785A",
"yM+	c #EE7756",
"zM+	c #F28D57",
"AM+	c #F99C66",
"BM+	c #F4975E",
"CM+	c #F69B62",
"DM+	c #F8A066",
"EM+	c #F18557",
"FM+	c #F28658",
"GM+	c #F39761",
"HM+	c #FBAC72",
"IM+	c #F1A266",
"JM+	c #F9AB6D",
"KM+	c #F69E63",
"LM+	c #F28C59",
"MM+	c #F0755D",
"NM+	c #F2755E",
"OM+	c #E8746B",
"PM+	c #80547F",
"QM+	c #3A51A3",
"RM+	c #3452A0",
"SM+	c #30529C",
"TM+	c #2E52A0",
"UM+	c #2C52A2",
"VM+	c #21509F",
"WM+	c #25559F",
"XM+	c #25569F",
"YM+	c #285AA1",
"ZM+	c #2759A1",
"`M+	c #2759A2",
" N+	c #2A55A4",
".N+	c #2854A1",
"+N+	c #2A56A1",
"@N+	c #29569F",
"#N+	c #295AA4",
"$N+	c #2259A3",
"%N+	c #26559E",
"&N+	c #3E6498",
"*N+	c #627F98",
"=N+	c #6E848E",
"-N+	c #6B808C",
";N+	c #65818B",
">N+	c #5E7C87",
",N+	c #65838D",
"'N+	c #64808F",
")N+	c #6D8493",
"!N+	c #6B8292",
"~N+	c #748B9F",
"{N+	c #A3CEDE",
"]N+	c #9ED6E6",
"^N+	c #91CBDD",
"/N+	c #668DA1",
"(N+	c #657D92",
"_N+	c #697D8D",
":N+	c #6A808F",
"<N+	c #67808E",
"[N+	c #657C94",
"}N+	c #638291",
"|N+	c #457295",
"1N+	c #23539E",
"2N+	c #2755A7",
"3N+	c #314B9D",
"4N+	c #A04F7C",
"5N+	c #E65E52",
"6N+	c #EE7758",
"7N+	c #F58964",
"8N+	c #F69A6E",
"9N+	c #F09A69",
"0N+	c #F18961",
"aN+	c #ED5242",
"bN+	c #EE4E44",
"cN+	c #EE6250",
"dN+	c #F27858",
"eN+	c #F46F51",
"fN+	c #F8865A",
"gN+	c #F48658",
"hN+	c #EE835C",
"iN+	c #8B3528",
"jN+	c #682A2C",
"kN+	c #5B2525",
"lN+	c #2F0808",
"mN+	c #572325",
"nN+	c #6F2E29",
"oN+	c #6A2A23",
"pN+	c #34100F",
"qN+	c #300F0E",
"rN+	c #5F2525",
"sN+	c #671519",
"tN+	c #921B22",
"uN+	c #6A2426",
"vN+	c #611211",
"wN+	c #D83E34",
"xN+	c #EB6344",
"yN+	c #FA9D6B",
"zN+	c #F7A162",
"AN+	c #F9AC66",
"BN+	c #F1A765",
"CN+	c #F5AB66",
"DN+	c #F29459",
"EN+	c #F28652",
"FN+	c #F28554",
"GN+	c #EF814D",
"HN+	c #F48354",
"IN+	c #EE6D48",
"JN+	c #EE6D49",
"KN+	c #EE7459",
"LN+	c #872D23",
"MN+	c #7A4D40",
"NN+	c #D0BEAC",
"ON+	c #E2E1C4",
"PN+	c #E0E0C1",
"QN+	c #E1DEC1",
"RN+	c #DCE0C0",
"SN+	c #E4E4CA",
"TN+	c #C8B4A6",
"UN+	c #723330",
"VN+	c #C41421",
"WN+	c #4D0305",
"XN+	c #552729",
"YN+	c #712B31",
"ZN+	c #6E2C2A",
"`N+	c #4A1315",
" O+	c #B91B2E",
".O+	c #D40E1E",
"+O+	c #940418",
"@O+	c #461414",
"#O+	c #693134",
"$O+	c #662629",
"%O+	c #48070F",
"&O+	c #B7102B",
"*O+	c #CC0B1F",
"=O+	c #D51323",
"-O+	c #D31523",
";O+	c #D11721",
">O+	c #DA1E25",
",O+	c #E1262B",
"'O+	c #DA2F38",
")O+	c #A86A7F",
"!O+	c #657396",
"~O+	c #5D749B",
"{O+	c #425D7D",
"]O+	c #7DA0BB",
"^O+	c #85B3C6",
"/O+	c #98CCD7",
"(O+	c #90BCC7",
"_O+	c #587B8F",
":O+	c #6A98AC",
"<O+	c #7EACBE",
"[O+	c #95C7D6",
"}O+	c #6CAEB6",
"|O+	c #7DF5F3",
"1O+	c #75FDFD",
"2O+	c #66FBFB",
"3O+	c #57FEFA",
"4O+	c #57FDF9",
"5O+	c #5AFEFB",
"6O+	c #5CFEFE",
"7O+	c #58FDF9",
"8O+	c #5FFCF9",
"9O+	c #63F5F7",
"0O+	c #62FAFB",
"aO+	c #5DFEFA",
"bO+	c #5DFFFA",
"cO+	c #62FFFC",
"dO+	c #64FCFB",
"eO+	c #5BF1F3",
"fO+	c #6FB0B8",
"gO+	c #B73A4C",
"hO+	c #C92435",
"iO+	c #B50D24",
"jO+	c #BC0B25",
"kO+	c #BE1229",
"lO+	c #CD2534",
"mO+	c #E44E46",
"nO+	c #F5795D",
"oO+	c #F27358",
"pO+	c #F3775B",
"qO+	c #EE7856",
"rO+	c #EF8F59",
"sO+	c #F08E5A",
"tO+	c #F59A62",
"uO+	c #F69662",
"vO+	c #F5905E",
"wO+	c #F79B64",
"xO+	c #FBA96E",
"yO+	c #F9AD6F",
"zO+	c #F49B61",
"AO+	c #F08858",
"BO+	c #F0725D",
"CO+	c #E8736A",
"DO+	c #81547F",
"EO+	c #3B52A3",
"FO+	c #3553A2",
"GO+	c #31529D",
"HO+	c #3357A5",
"IO+	c #20509E",
"JO+	c #21529E",
"KO+	c #25569E",
"LO+	c #27589E",
"MO+	c #295BA0",
"NO+	c #2A59A3",
"OO+	c #2A58A4",
"PO+	c #2957A2",
"QO+	c #2957A1",
"RO+	c #2958A0",
"SO+	c #2859A1",
"TO+	c #2557A1",
"UO+	c #2457A1",
"VO+	c #2D5A99",
"WO+	c #4F7499",
"XO+	c #617C8B",
"YO+	c #6A7E87",
"ZO+	c #6A7F8A",
"`O+	c #65828C",
" P+	c #63838D",
".P+	c #66858C",
"+P+	c #6C8391",
"@P+	c #6D8494",
"#P+	c #7D97AA",
"$P+	c #A0D0DF",
"%P+	c #9BD5E4",
"&P+	c #91C8DB",
"*P+	c #64889B",
"=P+	c #667C8C",
"-P+	c #69818F",
";P+	c #65808F",
">P+	c #66818E",
",P+	c #678091",
"'P+	c #657B93",
")P+	c #66828E",
"!P+	c #4D7694",
"~P+	c #22529A",
"{P+	c #204FA5",
"]P+	c #254EA3",
"^P+	c #304A9D",
"/P+	c #A2507C",
"(P+	c #F0665B",
"_P+	c #F98C68",
":P+	c #FB8E6A",
"<P+	c #F88C65",
"[P+	c #F89169",
"}P+	c #FCA274",
"|P+	c #F9A471",
"1P+	c #EF7755",
"2P+	c #F47459",
"3P+	c #F57D5B",
"4P+	c #F37252",
"5P+	c #F37551",
"6P+	c #F37E54",
"7P+	c #F58256",
"8P+	c #B44E3D",
"9P+	c #662122",
"0P+	c #6B2A2A",
"aP+	c #3F1914",
"bP+	c #552323",
"cP+	c #702D2A",
"dP+	c #431B19",
"eP+	c #3B1415",
"fP+	c #581216",
"gP+	c #751A1D",
"hP+	c #612423",
"iP+	c #7C181A",
"jP+	c #DB4537",
"kP+	c #F88258",
"lP+	c #F6A263",
"mP+	c #F8A966",
"nP+	c #F2A363",
"oP+	c #F7A967",
"pP+	c #F08D53",
"qP+	c #F48857",
"rP+	c #F38651",
"sP+	c #F48052",
"tP+	c #F1754C",
"uP+	c #F2714C",
"vP+	c #EF6E4A",
"wP+	c #F3724E",
"xP+	c #F97756",
"yP+	c #DA634C",
"zP+	c #6D1D16",
"AP+	c #6F2F2B",
"BP+	c #72312A",
"CP+	c #947664",
"DP+	c #DDD7C0",
"EP+	c #E1E1C2",
"FP+	c #E1DFC1",
"GP+	c #D8E2C0",
"HP+	c #DEDAC1",
"IP+	c #7E5D54",
"JP+	c #941B22",
"KP+	c #CF1E2F",
"LP+	c #D41524",
"MP+	c #D0141F",
"NP+	c #D61A27",
"OP+	c #CC1824",
"PP+	c #73151A",
"QP+	c #592326",
"RP+	c #71292E",
"SP+	c #6B2926",
"TP+	c #490F11",
"UP+	c #C01D2E",
"VP+	c #D40E1D",
"WP+	c #C3061A",
"XP+	c #7D010F",
"YP+	c #321110",
"ZP+	c #6F2A2E",
"`P+	c #632527",
" Q+	c #4D060F",
".Q+	c #BD0F2D",
"+Q+	c #CD0A1F",
"@Q+	c #D00C22",
"#Q+	c #D31222",
"$Q+	c #D21422",
"%Q+	c #D11821",
"&Q+	c #D91E25",
"*Q+	c #DF2529",
"=Q+	c #E1262C",
"-Q+	c #DC2D35",
";Q+	c #AB6577",
">Q+	c #657494",
",Q+	c #5A769A",
"'Q+	c #3F5E7B",
")Q+	c #799EB6",
"!Q+	c #87B3C6",
"~Q+	c #97C8D4",
"{Q+	c #8FB9C4",
"]Q+	c #587A8E",
"^Q+	c #6C9AAC",
"/Q+	c #86B6C3",
"(Q+	c #A0D3E0",
"_Q+	c #71B4BD",
":Q+	c #75F2F1",
"<Q+	c #6AEAED",
"[Q+	c #59DBE1",
"}Q+	c #5CFCF9",
"|Q+	c #5DFCFA",
"1Q+	c #60FAFA",
"2Q+	c #61FDFD",
"3Q+	c #61EEF1",
"4Q+	c #3DA7B8",
"5Q+	c #52C3D3",
"6Q+	c #68F0F5",
"7Q+	c #68F9F9",
"8Q+	c #6BFAF9",
"9Q+	c #6BF6F7",
"0Q+	c #59D1D9",
"aQ+	c #6A9AA6",
"bQ+	c #BF374C",
"cQ+	c #CA2333",
"dQ+	c #B50F22",
"eQ+	c #BB0B22",
"fQ+	c #C0142A",
"gQ+	c #CA2130",
"hQ+	c #E14A44",
"iQ+	c #F5735A",
"jQ+	c #F07156",
"kQ+	c #F08B56",
"lQ+	c #EE8D57",
"mQ+	c #EC8755",
"nQ+	c #EF8B59",
"oQ+	c #F69663",
"pQ+	c #F49762",
"qQ+	c #F79863",
"rQ+	c #F99664",
"sQ+	c #FDA66F",
"tQ+	c #F5A56A",
"uQ+	c #F8AB6E",
"vQ+	c #F6AD6E",
"wQ+	c #F48B5B",
"xQ+	c #F1755C",
"yQ+	c #F3755E",
"zQ+	c #E7726B",
"AQ+	c #825480",
"BQ+	c #3C52A4",
"CQ+	c #3256A4",
"DQ+	c #2C52A1",
"EQ+	c #2B55A3",
"FQ+	c #2151A0",
"GQ+	c #27569F",
"HQ+	c #2A58A1",
"IQ+	c #2C59A2",
"JQ+	c #2A58A3",
"KQ+	c #2856A2",
"LQ+	c #2856A0",
"MQ+	c #2A59A1",
"NQ+	c #2858A0",
"OQ+	c #2757A1",
"PQ+	c #2B599C",
"QQ+	c #3F6698",
"RQ+	c #5C7D96",
"SQ+	c #607B88",
"TQ+	c #697E8A",
"UQ+	c #677E8A",
"VQ+	c #63808B",
"WQ+	c #62838C",
"XQ+	c #65848C",
"YQ+	c #64808C",
"ZQ+	c #68808C",
"`Q+	c #88A7BA",
" R+	c #A3D6E5",
".R+	c #9CD8E6",
"+R+	c #8DC1D3",
"@R+	c #64879A",
"#R+	c #65808E",
"$R+	c #547A95",
"%R+	c #215398",
"&R+	c #1D4EA6",
"*R+	c #1D4EA4",
"=R+	c #254DA2",
"-R+	c #314A9E",
";R+	c #A1517B",
">R+	c #F06A5F",
",R+	c #FB8668",
"'R+	c #F98C66",
")R+	c #F88762",
"!R+	c #F79A6E",
"~R+	c #F09464",
"{R+	c #F88A63",
"]R+	c #EA5241",
"^R+	c #EE5446",
"/R+	c #F57559",
"(R+	c #F7815E",
"_R+	c #F07154",
":R+	c #F07151",
"<R+	c #F37C53",
"[R+	c #DA6254",
"}R+	c #601D1B",
"|R+	c #6B2C28",
"1R+	c #612E26",
"2R+	c #642C29",
"3R+	c #712E2B",
"4R+	c #712D2C",
"5R+	c #5B2625",
"6R+	c #602829",
"7R+	c #480C0E",
"8R+	c #631A1B",
"9R+	c #591E1D",
"0R+	c #992629",
"aR+	c #E45B46",
"bR+	c #FB9364",
"cR+	c #F6A167",
"dR+	c #F6A565",
"eR+	c #F9A967",
"fR+	c #F7A666",
"gR+	c #F27F4F",
"hR+	c #F68A59",
"iR+	c #F38551",
"jR+	c #F47F51",
"kR+	c #F0724B",
"lR+	c #EF704C",
"mR+	c #F67450",
"nR+	c #F67552",
"oR+	c #BA4D39",
"pR+	c #682219",
"qR+	c #6B3129",
"rR+	c #734035",
"sR+	c #BFAB97",
"tR+	c #E1E2C5",
"uR+	c #DFDEC1",
"vR+	c #E2DEC1",
"wR+	c #BAA897",
"xR+	c #762423",
"yR+	c #BF212D",
"zR+	c #DB242E",
"AR+	c #A1262C",
"BR+	c #611F24",
"CR+	c #72262D",
"DR+	c #682725",
"ER+	c #4D0E10",
"FR+	c #C71F2F",
"GR+	c #D20E1B",
"HR+	c #C0061A",
"IR+	c #75010C",
"JR+	c #2B0908",
"KR+	c #632A2E",
"LR+	c #6D2B2E",
"MR+	c #612728",
"NR+	c #510711",
"OR+	c #C0102D",
"PR+	c #CF0A20",
"QR+	c #D20F24",
"RR+	c #D41424",
"SR+	c #D01321",
"TR+	c #D21923",
"UR+	c #DE232A",
"VR+	c #E2282D",
"WR+	c #DF2D35",
"XR+	c #AF6374",
"YR+	c #677493",
"ZR+	c #5E7FA0",
"`R+	c #41637F",
" S+	c #7399B1",
".S+	c #89B2C7",
"+S+	c #94C6D3",
"@S+	c #92BBC9",
"#S+	c #5A7A91",
"$S+	c #6D98AB",
"%S+	c #8BB9C7",
"&S+	c #A2D6E3",
"*S+	c #86C6D3",
"=S+	c #73EBEF",
"-S+	c #64D9E1",
";S+	c #53C0CC",
">S+	c #60F1F2",
",S+	c #66F7F7",
"'S+	c #53DCDF",
")S+	c #5BF0F2",
"!S+	c #66FCFC",
"~S+	c #5CCDDA",
"{S+	c #266484",
"]S+	c #37799A",
"^S+	c #4DB2C3",
"/S+	c #7BEDF2",
"(S+	c #7FF2F3",
"_S+	c #76EEF1",
":S+	c #60C3D1",
"<S+	c #6FEFF2",
"[S+	c #6D8D9A",
"}S+	c #C43549",
"|S+	c #CF2535",
"1S+	c #B71123",
"2S+	c #BB0D22",
"3S+	c #C21629",
"4S+	c #C61D2C",
"5S+	c #DD4642",
"6S+	c #F27258",
"7S+	c #F2725A",
"8S+	c #ED8653",
"9S+	c #F2915A",
"0S+	c #EF8D58",
"aS+	c #F08C5A",
"bS+	c #F59863",
"cS+	c #F69762",
"dS+	c #F3915E",
"eS+	c #F38F5D",
"fS+	c #EF8A57",
"gS+	c #F3A36A",
"hS+	c #FAB172",
"iS+	c #FAB474",
"jS+	c #F7A066",
"kS+	c #F48A5B",
"lS+	c #F57660",
"mS+	c #F2735F",
"nS+	c #F1735E",
"oS+	c #F27660",
"pS+	c #835580",
"qS+	c #32529D",
"rS+	c #3053A0",
"sS+	c #3059A7",
"tS+	c #2957A4",
"uS+	c #2151A1",
"vS+	c #1F509E",
"wS+	c #1E509F",
"xS+	c #21519F",
"yS+	c #2D57A4",
"zS+	c #2E58A4",
"AS+	c #2B57A2",
"BS+	c #2857A1",
"CS+	c #2959A1",
"DS+	c #28589F",
"ES+	c #325B97",
"FS+	c #53759C",
"GS+	c #607E91",
"HS+	c #627C8B",
"IS+	c #667F8A",
"JS+	c #627E88",
"KS+	c #63848C",
"LS+	c #64838D",
"MS+	c #65818E",
"NS+	c #688191",
"OS+	c #68808D",
"PS+	c #667E93",
"QS+	c #91B5C7",
"RS+	c #A0D6E6",
"SS+	c #9BD6E5",
"TS+	c #87B7CA",
"US+	c #648598",
"VS+	c #64808D",
"WS+	c #647D94",
"XS+	c #65828E",
"YS+	c #597E99",
"ZS+	c #235597",
"`S+	c #274FA5",
" T+	c #324A9D",
".T+	c #A65880",
"+T+	c #EA6C5D",
"@T+	c #F88567",
"#T+	c #EB7B59",
"$T+	c #EF7A56",
"%T+	c #ED7350",
"&T+	c #F78C66",
"*T+	c #F49D6D",
"=T+	c #F98D64",
"-T+	c #F57658",
";T+	c #ED5547",
">T+	c #F47357",
",T+	c #F57659",
"'T+	c #E86A56",
")T+	c #F1764F",
"!T+	c #C65537",
"~T+	c #CD5D4A",
"{T+	c #EE625C",
"]T+	c #6C1E1B",
"^T+	c #672B27",
"/T+	c #6C2E26",
"(T+	c #6E2D2A",
"_T+	c #6D2A29",
":T+	c #652A29",
"<T+	c #622829",
"[T+	c #330505",
"}T+	c #5A2425",
"|T+	c #55181A",
"1T+	c #B33B33",
"2T+	c #FA9965",
"3T+	c #FBA96A",
"4T+	c #F7AB69",
"5T+	c #F5AB67",
"6T+	c #F8AB68",
"7T+	c #F7A765",
"8T+	c #F58D57",
"9T+	c #F07F4D",
"0T+	c #F38450",
"aT+	c #F2824F",
"bT+	c #F57E50",
"cT+	c #EF724B",
"dT+	c #EF6E4B",
"eT+	c #ED704E",
"fT+	c #F46D4E",
"gT+	c #EE6A50",
"hT+	c #892D21",
"iT+	c #682A22",
"jT+	c #805E52",
"kT+	c #DCCEBA",
"lT+	c #E1E2C9",
"mT+	c #E1E3C9",
"nT+	c #DDDEC1",
"oT+	c #E2E0C4",
"pT+	c #DED1BF",
"qT+	c #794F49",
"rT+	c #A41A22",
"sT+	c #CF1D2C",
"tT+	c #D81726",
"uT+	c #D81B26",
"vT+	c #D91F28",
"wT+	c #A71E25",
"xT+	c #672327",
"yT+	c #73292E",
"zT+	c #632726",
"AT+	c #530C0E",
"BT+	c #CE1F2B",
"CT+	c #CE0D19",
"DT+	c #C2051A",
"ET+	c #940316",
"FT+	c #460709",
"GT+	c #642B2F",
"HT+	c #6D2A2D",
"IT+	c #602628",
"JT+	c #560614",
"KT+	c #D20D21",
"LT+	c #CE0A1E",
"MT+	c #CF0E21",
"NT+	c #D41022",
"OT+	c #D61626",
"PT+	c #D11523",
"QT+	c #D71E29",
"RT+	c #E0242C",
"ST+	c #E3272C",
"TT+	c #E32B2E",
"UT+	c #B66271",
"VT+	c #6D7797",
"WT+	c #6380A3",
"XT+	c #6786A4",
"YT+	c #7195AF",
"ZT+	c #8AB1C9",
"`T+	c #91C4D2",
" U+	c #93BFCF",
".U+	c #5C7C97",
"+U+	c #6793A7",
"@U+	c #88B4C4",
"#U+	c #9DD1DF",
"$U+	c #90CEE0",
"%U+	c #73E4ED",
"&U+	c #6FE2E9",
"*U+	c #5FBECE",
"=U+	c #58CBD3",
"-U+	c #5ED2DA",
";U+	c #43ADB9",
">U+	c #5BE2E8",
",U+	c #6EFAFA",
"'U+	c #52B3BE",
")U+	c #244C6C",
"!U+	c #3F6E8D",
"~U+	c #428698",
"{U+	c #9AECF1",
"]U+	c #A3F7F7",
"^U+	c #7AD8E1",
"/U+	c #67B8CA",
"(U+	c #79828D",
"_U+	c #C53440",
":U+	c #D02534",
"<U+	c #B71222",
"[U+	c #BB0E24",
"}U+	c #C1152A",
"|U+	c #C71D2E",
"1U+	c #F3945C",
"2U+	c #F4945D",
"3U+	c #F79961",
"4U+	c #F69A62",
"5U+	c #F59761",
"6U+	c #F58D5B",
"7U+	c #EC8754",
"8U+	c #EE905B",
"9U+	c #F1A267",
"0U+	c #F6B371",
"aU+	c #FABB79",
"bU+	c #F6A56A",
"cU+	c #F08556",
"dU+	c #F3765F",
"eU+	c #F47361",
"fU+	c #F17660",
"gU+	c #E67368",
"hU+	c #81547B",
"iU+	c #3A52A4",
"jU+	c #3452A1",
"kU+	c #3153A1",
"lU+	c #2E57A6",
"mU+	c #2F5BA9",
"nU+	c #2250A3",
"oU+	c #2051A2",
"pU+	c #2755A0",
"qU+	c #2A58A2",
"rU+	c #2C58A3",
"sU+	c #2B55A1",
"tU+	c #2C56A2",
"uU+	c #2858A1",
"vU+	c #27589F",
"wU+	c #2C559A",
"xU+	c #416891",
"yU+	c #627E8C",
"zU+	c #667D8B",
"AU+	c #667E8A",
"BU+	c #647E88",
"CU+	c #65838B",
"DU+	c #65848F",
"EU+	c #6A8193",
"FU+	c #6F8496",
"GU+	c #9CC5D7",
"HU+	c #9BD4E4",
"IU+	c #98D4E5",
"JU+	c #7CABBE",
"KU+	c #628294",
"LU+	c #678291",
"MU+	c #637D8B",
"NU+	c #667E92",
"OU+	c #63828F",
"PU+	c #5C7F97",
"QU+	c #255997",
"RU+	c #1D52A7",
"SU+	c #264FA5",
"TU+	c #274EA6",
"UU+	c #344C9B",
"VU+	c #AF6282",
"WU+	c #EC755D",
"XU+	c #ED805D",
"YU+	c #FA9D6F",
"ZU+	c #F18A60",
"`U+	c #F88761",
" V+	c #F05B47",
".V+	c #F16C53",
"+V+	c #EF6E53",
"@V+	c #EC7653",
"#V+	c #B9443D",
"$V+	c #EF7158",
"%V+	c #EF744C",
"&V+	c #F2754F",
"*V+	c #B14832",
"=V+	c #77201C",
"-V+	c #DE4F4C",
";V+	c #882320",
">V+	c #5C2421",
",V+	c #6A2C28",
"'V+	c #6A2A25",
")V+	c #6B2A26",
"!V+	c #6C2825",
"~V+	c #692B24",
"{V+	c #682D26",
"]V+	c #5F2925",
"^V+	c #512A2C",
"/V+	c #581917",
"(V+	c #CF5A45",
"_V+	c #FAAA6E",
":V+	c #F9AF6C",
"<V+	c #F4AE69",
"[V+	c #F7AD69",
"}V+	c #F7A564",
"|V+	c #F38B56",
"1V+	c #F18551",
"2V+	c #F2834F",
"3V+	c #F2804D",
"4V+	c #F47C4F",
"5V+	c #F37451",
"6V+	c #D85449",
"7V+	c #67332B",
"8V+	c #A48E7D",
"9V+	c #E4DCC7",
"0V+	c #E0E1C7",
"aV+	c #E0E2C7",
"bV+	c #AE9C91",
"cV+	c #811D22",
"dV+	c #CB1C2B",
"eV+	c #D81A27",
"fV+	c #D81926",
"gV+	c #D81C27",
"hV+	c #D92028",
"iV+	c #E73138",
"jV+	c #A51C24",
"kV+	c #68252C",
"lV+	c #75292F",
"mV+	c #602625",
"nV+	c #5A0A0E",
"oV+	c #CE1B28",
"pV+	c #CE0A18",
"qV+	c #C3041A",
"rV+	c #60050E",
"sV+	c #652B2B",
"tV+	c #702B2E",
"uV+	c #5B2425",
"vV+	c #590613",
"wV+	c #C6102A",
"xV+	c #CE0B1E",
"yV+	c #CF0E20",
"zV+	c #D41123",
"AV+	c #D61525",
"BV+	c #D21725",
"CV+	c #DB222C",
"DV+	c #E0262D",
"EV+	c #E0262C",
"FV+	c #E12D2E",
"GV+	c #E13036",
"HV+	c #B65767",
"IV+	c #6C7294",
"JV+	c #637FA2",
"KV+	c #7393B1",
"LV+	c #7194AF",
"MV+	c #8BB2CA",
"NV+	c #8DBFCE",
"OV+	c #90BDCD",
"PV+	c #5D7C9A",
"QV+	c #658FA5",
"RV+	c #88B4C1",
"SV+	c #9BCFDE",
"TV+	c #91C8DF",
"UV+	c #67C6D7",
"VV+	c #78E0E8",
"WV+	c #6AB3C9",
"XV+	c #65ACC4",
"YV+	c #5FA9C0",
"ZV+	c #4D98B3",
"`V+	c #61DBE4",
" W+	c #70F4F6",
".W+	c #36858F",
"+W+	c #4D6C87",
"@W+	c #5A8199",
"#W+	c #6DA5B6",
"$W+	c #ABECF5",
"%W+	c #ABEBEF",
"&W+	c #6BB3C1",
"*W+	c #60AABD",
"=W+	c #77E7E6",
"-W+	c #868083",
";W+	c #C8333B",
">W+	c #CE2835",
",W+	c #B61222",
"'W+	c #C01529",
")W+	c #CA2131",
"!W+	c #D8403D",
"~W+	c #F37359",
"{W+	c #F3785A",
"]W+	c #F89B63",
"^W+	c #F59960",
"/W+	c #F3975E",
"(W+	c #F89562",
"_W+	c #F78F5D",
":W+	c #F58958",
"<W+	c #EF8956",
"[W+	c #F2A76A",
"}W+	c #F8BA77",
"|W+	c #F9BE7A",
"1W+	c #FCAD71",
"2W+	c #EF8556",
"3W+	c #F37A5A",
"4W+	c #F57463",
"5W+	c #F27460",
"6W+	c #F17560",
"7W+	c #7F5277",
"8W+	c #32539D",
"9W+	c #2D53A1",
"0W+	c #325CAB",
"aW+	c #2B58A7",
"bW+	c #204FA3",
"cW+	c #2855A0",
"dW+	c #2856A1",
"eW+	c #2D54A1",
"fW+	c #2B519F",
"gW+	c #2E53A1",
"hW+	c #2E55A4",
"iW+	c #2758A1",
"jW+	c #29569D",
"kW+	c #365A96",
"lW+	c #57778F",
"mW+	c #627D8F",
"nW+	c #677F8C",
"oW+	c #697D8C",
"pW+	c #6B7C8C",
"qW+	c #677D8B",
"rW+	c #657F8A",
"sW+	c #65828D",
"tW+	c #678590",
"uW+	c #66808E",
"vW+	c #6F8394",
"wW+	c #6C8093",
"xW+	c #6D8A9F",
"yW+	c #A4D1E3",
"zW+	c #9AD4E5",
"AW+	c #97D2E4",
"BW+	c #75A2B4",
"CW+	c #628092",
"DW+	c #67818F",
"EW+	c #688190",
"FW+	c #63808D",
"GW+	c #5C7E94",
"HW+	c #285A95",
"IW+	c #2651A7",
"JW+	c #2A4FA5",
"KW+	c #374B98",
"LW+	c #B56B84",
"MW+	c #F28468",
"NW+	c #F58A66",
"OW+	c #F49367",
"PW+	c #F59768",
"QW+	c #F5835C",
"RW+	c #EC5A45",
"SW+	c #F26854",
"TW+	c #EC6A50",
"UW+	c #8E2721",
"VW+	c #D7604F",
"WW+	c #F67853",
"XW+	c #F77B4E",
"YW+	c #D46547",
"ZW+	c #5D1912",
"`W+	c #AF3031",
" X+	c #AC2F33",
".X+	c #5A1E1C",
"+X+	c #692B29",
"@X+	c #6A2922",
"#X+	c #6E2B24",
"$X+	c #6B2B22",
"%X+	c #682C22",
"&X+	c #672C26",
"*X+	c #572624",
"=X+	c #542A2B",
"-X+	c #6B251B",
";X+	c #E97E57",
">X+	c #F79A5F",
",X+	c #EF975A",
"'X+	c #F6A668",
")X+	c #F7AE6B",
"!X+	c #F0A964",
"~X+	c #EFA461",
"{X+	c #F28C57",
"]X+	c #F28955",
"^X+	c #F18650",
"/X+	c #F68854",
"(X+	c #F67B54",
"_X+	c #F67C58",
":X+	c #F17158",
"<X+	c #9E352D",
"[X+	c #5E2522",
"}X+	c #67342A",
"|X+	c #774B42",
"1X+	c #D0C0AE",
"2X+	c #E0E3C8",
"3X+	c #DFE2C9",
"4X+	c #DED4C1",
"5X+	c #77554D",
"6X+	c #B2232F",
"7X+	c #DD1B2A",
"8X+	c #DB1726",
"9X+	c #D71725",
"0X+	c #D71C27",
"aX+	c #D51D24",
"bX+	c #E22D33",
"cX+	c #9D1920",
"dX+	c #65272E",
"eX+	c #75292E",
"fX+	c #5C2425",
"gX+	c #690E15",
"hX+	c #CE1822",
"iX+	c #CD0617",
"jX+	c #C00419",
"kX+	c #B2021D",
"lX+	c #68050E",
"mX+	c #6E2C2E",
"nX+	c #592324",
"oX+	c #5E0813",
"pX+	c #D20E1E",
"qX+	c #D00E1F",
"rX+	c #D31223",
"sX+	c #D21122",
"tX+	c #D51625",
"uX+	c #D9222C",
"vX+	c #D92329",
"wX+	c #DA252A",
"xX+	c #DD2C2C",
"yX+	c #E13235",
"zX+	c #B54E5D",
"AX+	c #707495",
"BX+	c #6380A1",
"CX+	c #7094AE",
"DX+	c #8AB2CA",
"EX+	c #8CBFCD",
"FX+	c #8FBCCC",
"GX+	c #597997",
"HX+	c #648AA4",
"IX+	c #88B4C3",
"JX+	c #9BCDDC",
"KX+	c #96C7DD",
"LX+	c #5BA0B4",
"MX+	c #78CCD8",
"NX+	c #639FB8",
"OX+	c #6A9AB7",
"PX+	c #6394B1",
"QX+	c #5187A8",
"RX+	c #66D5E1",
"SX+	c #6FE8ED",
"TX+	c #25626F",
"UX+	c #4A6D83",
"VX+	c #6696A7",
"WX+	c #8FCBD6",
"XX+	c #B1F1F7",
"YX+	c #A7E3E7",
"ZX+	c #609CAB",
"`X+	c #63A4BA",
" Y+	c #79E2DE",
".Y+	c #977F7F",
"+Y+	c #CE353A",
"@Y+	c #CD2A37",
"#Y+	c #B71423",
"$Y+	c #BB1126",
"%Y+	c #C0162A",
"&Y+	c #CB2131",
"*Y+	c #D53E3A",
"=Y+	c #EC7253",
"-Y+	c #F49361",
";Y+	c #F59A61",
">Y+	c #F3975F",
",Y+	c #F69562",
"'Y+	c #F58B5A",
")Y+	c #F19A61",
"!Y+	c #F5AE6E",
"~Y+	c #FDC37E",
"{Y+	c #EB8455",
"]Y+	c #F27462",
"^Y+	c #F17460",
"/Y+	c #E77368",
"(Y+	c #805275",
"_Y+	c #30529F",
":Y+	c #2D56A7",
"<Y+	c #2150A3",
"[Y+	c #2955A0",
"}Y+	c #2A56A3",
"|Y+	c #2C53A1",
"1Y+	c #2D519F",
"2Y+	c #28589C",
"3Y+	c #2D5592",
"4Y+	c #4A6994",
"5Y+	c #607B8B",
"6Y+	c #66808B",
"7Y+	c #6A7C8B",
"8Y+	c #6B7B8A",
"9Y+	c #687E8C",
"0Y+	c #67818C",
"aY+	c #64828C",
"bY+	c #65838E",
"cY+	c #667F8D",
"dY+	c #6D8292",
"eY+	c #6F8292",
"fY+	c #6E8194",
"gY+	c #7696AA",
"hY+	c #A2D5E7",
"iY+	c #9BD5E9",
"jY+	c #97D1E3",
"kY+	c #6E99AB",
"lY+	c #617C8A",
"mY+	c #618094",
"nY+	c #2D5C93",
"oY+	c #1A52A1",
"pY+	c #2A50A6",
"qY+	c #2B4FA5",
"rY+	c #3A4D97",
"sY+	c #BC768A",
"tY+	c #F89474",
"uY+	c #F48E61",
"vY+	c #EB5C46",
"wY+	c #EA5043",
"xY+	c #F05F4F",
"yY+	c #F36B56",
"zY+	c #F16A53",
"AY+	c #F17957",
"BY+	c #F37458",
"CY+	c #B8493F",
"DY+	c #8E2D24",
"EY+	c #E76F57",
"FY+	c #F67D52",
"GY+	c #E86C49",
"HY+	c #7D2A21",
"IY+	c #6A0F14",
"JY+	c #A93039",
"KY+	c #5B1919",
"LY+	c #6B2C29",
"MY+	c #6B2B23",
"NY+	c #692920",
"OY+	c #6D2A24",
"PY+	c #692D26",
"QY+	c #552624",
"RY+	c #8D3E2D",
"SY+	c #F39A5D",
"TY+	c #F1985A",
"UY+	c #F8A564",
"VY+	c #EEA562",
"WY+	c #F0A160",
"XY+	c #F79C61",
"YY+	c #ED8954",
"ZY+	c #EC8550",
"`Y+	c #F28C56",
" Z+	c #FB915F",
".Z+	c #F8865B",
"+Z+	c #DD7156",
"@Z+	c #6E221E",
"#Z+	c #662D30",
"$Z+	c #8A6D60",
"%Z+	c #DCD5C1",
"&Z+	c #E0E2CB",
"*Z+	c #DFE3C7",
"=Z+	c #DCE2C5",
"-Z+	c #E5E3CC",
";Z+	c #C6B0A5",
">Z+	c #792929",
",Z+	c #D32433",
"'Z+	c #D51726",
")Z+	c #D61725",
"!Z+	c #D61C27",
"~Z+	c #DE2A2F",
"{Z+	c #91151B",
"]Z+	c #632A32",
"^Z+	c #73282C",
"/Z+	c #5A2123",
"(Z+	c #760F17",
"_Z+	c #C90817",
":Z+	c #B3021B",
"<Z+	c #670410",
"[Z+	c #622B2B",
"}Z+	c #572222",
"|Z+	c #650B16",
"1Z+	c #D30F1D",
"2Z+	c #D1101F",
"3Z+	c #D41626",
"4Z+	c #D51F29",
"5Z+	c #CE1A1F",
"6Z+	c #CE1D22",
"7Z+	c #D72A2A",
"8Z+	c #DF3234",
"9Z+	c #B64958",
"0Z+	c #777B9D",
"aZ+	c #6481A1",
"bZ+	c #7292B0",
"cZ+	c #6D92AC",
"dZ+	c #88AFC8",
"eZ+	c #8DC0CF",
"fZ+	c #8EBCCC",
"gZ+	c #597898",
"hZ+	c #6388A2",
"iZ+	c #8AB5C8",
"jZ+	c #9ECFDD",
"kZ+	c #98C5D7",
"lZ+	c #538095",
"mZ+	c #71B2C0",
"nZ+	c #6A9CB4",
"oZ+	c #7EABC3",
"pZ+	c #739AB5",
"qZ+	c #547C9A",
"rZ+	c #6DCDDA",
"sZ+	c #5DC5CE",
"tZ+	c #2C5E73",
"uZ+	c #406B7E",
"vZ+	c #8FC0D3",
"wZ+	c #90C9D4",
"xZ+	c #B0EEF2",
"yZ+	c #ABE5E8",
"zZ+	c #7EB6C5",
"AZ+	c #6FA6BD",
"BZ+	c #7ADDDB",
"CZ+	c #9F7D7F",
"DZ+	c #D1363E",
"EZ+	c #CE2B38",
"FZ+	c #B81724",
"GZ+	c #BF162A",
"HZ+	c #C81F2E",
"IZ+	c #D53E39",
"JZ+	c #ED7354",
"KZ+	c #EB7454",
"LZ+	c #EE7656",
"MZ+	c #F2815A",
"NZ+	c #F3945D",
"OZ+	c #F89861",
"PZ+	c #F3955F",
"QZ+	c #F3905D",
"RZ+	c #F18A5A",
"SZ+	c #F5B170",
"TZ+	c #FCC780",
"UZ+	c #F9C67F",
"VZ+	c #F3A76B",
"WZ+	c #EA8555",
"XZ+	c #F37261",
"YZ+	c #F07261",
"ZZ+	c #EF7360",
"`Z+	c #E77367",
" `+	c #7F5072",
".`+	c #3455A0",
"+`+	c #2F529E",
"@`+	c #2B519E",
"#`+	c #2851A3",
"$`+	c #2350A3",
"%`+	c #214FA3",
"&`+	c #27569E",
"*`+	c #27529E",
"=`+	c #27549F",
"-`+	c #2B57A3",
";`+	c #29539F",
">`+	c #2E54A1",
",`+	c #3356A5",
"'`+	c #2E55A2",
")`+	c #2A569E",
"!`+	c #2A559A",
"~`+	c #3B608F",
"{`+	c #5B7793",
"]`+	c #657A8A",
"^`+	c #66818C",
"/`+	c #6B8390",
"(`+	c #697E8C",
"_`+	c #697B8A",
":`+	c #687D8B",
"<`+	c #637F8B",
"[`+	c #6F8492",
"}`+	c #708191",
"|`+	c #6F8192",
"1`+	c #69838B",
"2`+	c #86AABC",
"3`+	c #9ED4E7",
"4`+	c #99D5E9",
"5`+	c #93CADD",
"6`+	c #658EA0",
"7`+	c #627E8E",
"8`+	c #697D90",
"9`+	c #647A8C",
"0`+	c #667B8A",
"a`+	c #637C8A",
"b`+	c #658496",
"c`+	c #325F94",
"d`+	c #1A529E",
"e`+	c #1E4DA0",
"f`+	c #2050A3",
"g`+	c #2A4FA6",
"h`+	c #284EA5",
"i`+	c #394D98",
"j`+	c #B8788A",
"k`+	c #F79876",
"l`+	c #F28B65",
"m`+	c #F08E63",
"n`+	c #F5885E",
"o`+	c #EB5F49",
"p`+	c #E95245",
"q`+	c #F66E59",
"r`+	c #F46D56",
"s`+	c #F16C57",
"t`+	c #F6745B",
"u`+	c #E36550",
"v`+	c #84281F",
"w`+	c #A24236",
"x`+	c #ED7554",
"y`+	c #F26A4C",
"z`+	c #B44139",
"A`+	c #470409",
"B`+	c #781B24",
"C`+	c #561417",
"D`+	c #682926",
"E`+	c #6D2C24",
"F`+	c #6A2A1F",
"G`+	c #6B2921",
"H`+	c #6B2922",
"I`+	c #692A22",
"J`+	c #6B2D27",
"K`+	c #6C2F29",
"L`+	c #541E1C",
"M`+	c #B5604A",
"N`+	c #F79B60",
"O`+	c #F4985B",
"P`+	c #F09A5C",
"Q`+	c #F0A360",
"R`+	c #F1A965",
"S`+	c #F7AA68",
"T`+	c #F0975B",
"U`+	c #F18F58",
"V`+	c #F4945C",
"W`+	c #F69560",
"X`+	c #F18759",
"Y`+	c #ED8059",
"Z`+	c #AB4F39",
"``+	c #601E23",
"  @	c #6F2F37",
". @	c #6C3B33",
"+ @	c #AC9F8C",
"@ @	c #E0E0C8",
"# @	c #E3E4C5",
"$ @	c #E0DCC7",
"% @	c #8E746C",
"& @	c #9D1F24",
"* @	c #D8232C",
"= @	c #D71827",
"- @	c #D41723",
"; @	c #D51723",
"> @	c #D81E25",
", @	c #871014",
"' @	c #4F1D21",
") @	c #70272B",
"! @	c #591E22",
"~ @	c #810D19",
"{ @	c #D21520",
"] @	c #CA0A1A",
"^ @	c #C2061B",
"/ @	c #6F2D2F",
"( @	c #542024",
"_ @	c #710C1B",
": @	c #D20F1B",
"< @	c #D21020",
"[ @	c #D01C25",
"} @	c #CF1D22",
"| @	c #D8272A",
"1 @	c #DD2D2E",
"2 @	c #DD3133",
"3 @	c #B54554",
"4 @	c #7B80A2",
"5 @	c #6684A6",
"6 @	c #7294B5",
"7 @	c #6A8EAC",
"8 @	c #82ACC6",
"9 @	c #8BBFCF",
"0 @	c #8FBBCC",
"a @	c #597A98",
"b @	c #6487A1",
"c @	c #89B5C7",
"d @	c #9FCEDC",
"e @	c #95BBCB",
"f @	c #4B6C7F",
"g @	c #76ACBE",
"h @	c #7FAFC5",
"i @	c #92BFD3",
"j @	c #81A6BE",
"k @	c #597C9A",
"l @	c #61AFC4",
"m @	c #3A93A5",
"n @	c #6493AC",
"o @	c #7DAEC1",
"p @	c #9DD1E2",
"q @	c #8FC5D1",
"r @	c #ADEAEC",
"s @	c #ABE7E8",
"t @	c #92C6D4",
"u @	c #649DB3",
"v @	c #79DADB",
"w @	c #A37B7C",
"x @	c #D5393F",
"y @	c #CE2D38",
"z @	c #B81624",
"A @	c #BA1123",
"B @	c #BE1529",
"C @	c #C81E2E",
"D @	c #D43D38",
"E @	c #F8755C",
"F @	c #F77A5A",
"G @	c #F17355",
"H @	c #EF7556",
"I @	c #F38D5D",
"J @	c #F3935C",
"K @	c #F79861",
"L @	c #F79862",
"M @	c #F2945F",
"N @	c #F39360",
"O @	c #EF8C5A",
"P @	c #F3B16F",
"Q @	c #FAC580",
"R @	c #F8C580",
"S @	c #F5AE71",
"T @	c #EF8A5B",
"U @	c #F2785C",
"V @	c #F4745E",
"W @	c #F1725E",
"X @	c #7E4E72",
"Y @	c #334B9F",
"Z @	c #3250A0",
"` @	c #33539D",
" .@	c #2650A2",
"..@	c #26539E",
"+.@	c #2954A0",
"@.@	c #2C57A3",
"#.@	c #2A54A0",
"$.@	c #2F56A5",
"%.@	c #2F58A5",
"&.@	c #2A56A2",
"*.@	c #2A559E",
"=.@	c #2D56A2",
"-.@	c #315897",
";.@	c #527397",
">.@	c #617C92",
",.@	c #68818F",
"'.@	c #6A8590",
").@	c #69808D",
"!.@	c #677C8A",
"~.@	c #667C8A",
"{.@	c #647D8B",
"].@	c #637E8C",
"^.@	c #718493",
"/.@	c #6F8190",
"(.@	c #70828F",
"_.@	c #6D858C",
":.@	c #94BBC9",
"<.@	c #9BD3E6",
"[.@	c #94D3E5",
"}.@	c #8DC5D7",
"|.@	c #648A9D",
"1.@	c #668092",
"2.@	c #667B8E",
"3.@	c #657A8D",
"4.@	c #64798D",
"5.@	c #697E8D",
"6.@	c #688395",
"7.@	c #376394",
"8.@	c #1D549F",
"9.@	c #1D4F9F",
"0.@	c #2251A6",
"a.@	c #2650A6",
"b.@	c #294DA4",
"c.@	c #374C98",
"d.@	c #B27285",
"e.@	c #F49572",
"f.@	c #F48D62",
"g.@	c #F88F64",
"h.@	c #FA8F65",
"i.@	c #F17B56",
"j.@	c #EA6149",
"k.@	c #EC5848",
"l.@	c #F56E57",
"m.@	c #F26D55",
"n.@	c #EE6A52",
"o.@	c #F77E5F",
"p.@	c #F47257",
"q.@	c #B94A41",
"r.@	c #671612",
"s.@	c #C75040",
"t.@	c #F2614D",
"u.@	c #DB4E45",
"v.@	c #631314",
"w.@	c #470A0D",
"x.@	c #350909",
"y.@	c #5B261F",
"z.@	c #6B2A23",
"A.@	c #69291E",
"B.@	c #682720",
"C.@	c #6A2822",
"D.@	c #6B2C22",
"E.@	c #6E2D26",
"F.@	c #6C2D28",
"G.@	c #D5785A",
"H.@	c #EF9055",
"I.@	c #F49458",
"J.@	c #F0975D",
"K.@	c #F2A362",
"L.@	c #F3AB68",
"M.@	c #FCB472",
"N.@	c #F2A163",
"O.@	c #F49960",
"P.@	c #EF8656",
"Q.@	c #E47C57",
"R.@	c #762A1C",
"S.@	c #7B574B",
"T.@	c #D3CDB6",
"U.@	c #DFE3CA",
"V.@	c #E5E2C5",
"W.@	c #CDC6B3",
"X.@	c #6E3C38",
"Y.@	c #BE2A30",
"Z.@	c #DA2229",
"`.@	c #DC202C",
" +@	c #D71A24",
".+@	c #D71924",
"++@	c #DB1B26",
"@+@	c #D92027",
"#+@	c #E33033",
"$+@	c #8B1315",
"%+@	c #431213",
"&+@	c #6D282B",
"*+@	c #541A1E",
"=+@	c #8B101E",
"-+@	c #D31521",
";+@	c #C9071A",
">+@	c #680510",
",+@	c #6E2D2E",
"'+@	c #531F23",
")+@	c #800D1E",
"!+@	c #D20F1D",
"~+@	c #D10F20",
"{+@	c #D41E28",
"]+@	c #D21F23",
"^+@	c #DB2A2C",
"/+@	c #E02F2E",
"(+@	c #D82D2F",
"_+@	c #B44555",
":+@	c #7F87A8",
"<+@	c #6889AE",
"[+@	c #7495B8",
"}+@	c #6185A4",
"|+@	c #7EA8C3",
"1+@	c #8ABCCE",
"2+@	c #92BDCF",
"3+@	c #6685A2",
"4+@	c #6687A0",
"5+@	c #9CCAD9",
"6+@	c #8BAEBE",
"7+@	c #4F6B80",
"8+@	c #7FAEC2",
"9+@	c #82B0C6",
"0+@	c #95C1D3",
"a+@	c #85A7BF",
"b+@	c #5E7998",
"c+@	c #306F89",
"d+@	c #44A1B6",
"e+@	c #77ADC5",
"f+@	c #88BACB",
"g+@	c #8CC1D2",
"h+@	c #92C6D3",
"i+@	c #ABE8EA",
"j+@	c #ABE9E8",
"k+@	c #93C6D3",
"l+@	c #5898AE",
"m+@	c #77DEDF",
"n+@	c #A37D7C",
"o+@	c #D73D40",
"p+@	c #D4333C",
"q+@	c #B71422",
"r+@	c #BF1729",
"s+@	c #C91F2F",
"t+@	c #D13B36",
"u+@	c #F8895E",
"v+@	c #F3915D",
"w+@	c #F59661",
"x+@	c #F89963",
"y+@	c #F2935F",
"z+@	c #F08C5B",
"A+@	c #F39661",
"B+@	c #F5A468",
"C+@	c #F3B470",
"D+@	c #FBCA84",
"E+@	c #FCCD87",
"F+@	c #F6B576",
"G+@	c #F27955",
"H+@	c #EF715E",
"I+@	c #F27560",
"J+@	c #E87269",
"K+@	c #7F4D72",
"L+@	c #31499C",
"M+@	c #304F9E",
"N+@	c #2F539D",
"O+@	c #234E9F",
"P+@	c #20509F",
"Q+@	c #2958A3",
"R+@	c #27539E",
"S+@	c #2B58A3",
"T+@	c #26549E",
"U+@	c #3057A7",
"V+@	c #2C55A2",
"W+@	c #2752A1",
"X+@	c #2A55A0",
"Y+@	c #30579D",
"Z+@	c #406494",
"`+@	c #5D7B96",
" @@	c #687D8F",
".@@	c #697F8E",
"+@@	c #667D8A",
"@@@	c #69808E",
"#@@	c #6E8492",
"$@@	c #728594",
"%@@	c #708290",
"&@@	c #70828D",
"*@@	c #728993",
"=@@	c #9EC6D4",
"-@@	c #9AD2E4",
";@@	c #94D3E4",
">@@	c #8BC1D3",
",@@	c #63879C",
"'@@	c #678094",
")@@	c #667C8E",
"!@@	c #677C90",
"~@@	c #6B8094",
"{@@	c #6E8494",
"]@@	c #6D8391",
"^@@	c #6C808D",
"/@@	c #3E6695",
"(@@	c #1F549E",
"_@@	c #1E52A1",
":@@	c #1E4CA1",
"<@@	c #294FA6",
"[@@	c #3A4D99",
"}@@	c #B57286",
"|@@	c #F89976",
"1@@	c #FA9B70",
"2@@	c #F28E62",
"3@@	c #F99066",
"4@@	c #F37C57",
"5@@	c #EE644B",
"6@@	c #EF5D4D",
"7@@	c #F46E55",
"8@@	c #F06D53",
"9@@	c #ED6950",
"0@@	c #FA8161",
"a@@	c #F67458",
"b@@	c #F26146",
"c@@	c #E86256",
"d@@	c #772321",
"e@@	c #741C18",
"f@@	c #DA4A43",
"g@@	c #A0292B",
"h@@	c #4C1916",
"i@@	c #2E0C0A",
"j@@	c #5A231D",
"k@@	c #6A2921",
"l@@	c #67271C",
"m@@	c #67271F",
"n@@	c #692822",
"o@@	c #6C2C23",
"p@@	c #712D27",
"q@@	c #71302D",
"r@@	c #702C23",
"s@@	c #E17C5A",
"t@@	c #ED844D",
"u@@	c #F4905C",
"v@@	c #F69962",
"w@@	c #F7A366",
"x@@	c #F1AB69",
"y@@	c #F9B572",
"z@@	c #F9B06F",
"A@@	c #F4A467",
"B@@	c #F69F64",
"C@@	c #F29860",
"D@@	c #C2654A",
"E@@	c #67211B",
"F@@	c #6C3630",
"G@@	c #9D8575",
"H@@	c #DDDEC8",
"I@@	c #DFDEC4",
"J@@	c #E3DEC3",
"K@@	c #938475",
"L@@	c #8A2124",
"M@@	c #D4282F",
"N@@	c #DE1F2A",
"O@@	c #DD212B",
"P@@	c #D61A23",
"Q@@	c #D61723",
"R@@	c #DA1924",
"S@@	c #DA2026",
"T@@	c #E73535",
"U@@	c #B4292C",
"V@@	c #4B1414",
"W@@	c #6A2928",
"X@@	c #4E181A",
"Y@@	c #8E111E",
"Z@@	c #D41321",
"`@@	c #C70419",
" #@	c #BE0319",
".#@	c #65040F",
"+#@	c #4C1A1D",
"@#@	c #8E0D21",
"##@	c #D21022",
"$#@	c #D21223",
"%#@	c #D31324",
"&#@	c #D51725",
"*#@	c #DB1E2A",
"=#@	c #D32025",
"-#@	c #DB2B2C",
";#@	c #DE2D2D",
">#@	c #D82C2F",
",#@	c #B54958",
"'#@	c #838BAC",
")#@	c #688BAF",
"!#@	c #7195B6",
"~#@	c #5C81A0",
"{#@	c #7DA7C1",
"]#@	c #8DBFD1",
"^#@	c #93BCD0",
"/#@	c #708DAA",
"(#@	c #6887A2",
"_#@	c #87B1C2",
":#@	c #98C6D4",
"<#@	c #7C9DAD",
"[#@	c #5B748B",
"}#@	c #8BB4C8",
"|#@	c #88B1C5",
"1#@	c #9AC3D5",
"2#@	c #89ABC4",
"3#@	c #48627E",
"4#@	c #2C6B81",
"5#@	c #65C6D9",
"6#@	c #75B0C6",
"7#@	c #88B8C9",
"8#@	c #89BACB",
"9#@	c #95C8D6",
"0#@	c #A7E3E5",
"a#@	c #ACE8E7",
"b#@	c #93C4D2",
"c#@	c #5497AF",
"d#@	c #72E1E2",
"e#@	c #A0827E",
"f#@	c #D64040",
"g#@	c #D5343C",
"h#@	c #B91523",
"i#@	c #BD1225",
"j#@	c #C1172A",
"k#@	c #C71E2E",
"l#@	c #D03B37",
"m#@	c #F77959",
"n#@	c #F8845F",
"o#@	c #F17D58",
"p#@	c #FA8862",
"q#@	c #F78C60",
"r#@	c #FA9A66",
"s#@	c #F79764",
"t#@	c #F2925F",
"u#@	c #F8AA6C",
"v#@	c #F1B870",
"w#@	c #FAD187",
"x#@	c #FDD68C",
"y#@	c #FAC07C",
"z#@	c #EF745D",
"A#@	c #EF735D",
"B#@	c #F17462",
"C#@	c #E9716A",
"D#@	c #854F70",
"E#@	c #2F4A99",
"F#@	c #30529A",
"G#@	c #2D529A",
"H#@	c #2B539E",
"I#@	c #214D9D",
"J#@	c #1F4F9E",
"K#@	c #29559F",
"L#@	c #2B59A3",
"M#@	c #2858A2",
"N#@	c #24579F",
"O#@	c #2956A0",
"P#@	c #2A55A2",
"Q#@	c #2A549D",
"R#@	c #375C96",
"S#@	c #537492",
"T#@	c #617A8A",
"U#@	c #687D8C",
"V#@	c #687C8D",
"W#@	c #687E8D",
"X#@	c #6C8290",
"Y#@	c #647B88",
"Z#@	c #637D8A",
"`#@	c #6D8491",
" $@	c #708694",
".$@	c #718391",
"+$@	c #718490",
"@$@	c #768F9D",
"#$@	c #A4D0DE",
"$$@	c #97CFE2",
"%$@	c #95CFE2",
"&$@	c #86B6CA",
"*$@	c #618196",
"=$@	c #6B7D91",
"-$@	c #6E8094",
";$@	c #708393",
">$@	c #6D828F",
",$@	c #6D818C",
"'$@	c #6B8291",
")$@	c #486F98",
"!$@	c #20559D",
"~$@	c #1E4BA0",
"{$@	c #294EA5",
"]$@	c #2D50A7",
"^$@	c #3F4D98",
"/$@	c #B87284",
"($@	c #F19471",
"_$@	c #F3946B",
":$@	c #EF8D61",
"<$@	c #F77E59",
"[$@	c #F16956",
"}$@	c #F26E53",
"|$@	c #F6825E",
"1$@	c #F98260",
"2$@	c #F25E43",
"3$@	c #F2604F",
"4$@	c #B5443D",
"5$@	c #4B0806",
"6$@	c #8E2020",
"7$@	c #E54643",
"8$@	c #D84A49",
"9$@	c #621A18",
"0$@	c #5B2424",
"a$@	c #6C2B23",
"b$@	c #68281C",
"c$@	c #6A2923",
"d$@	c #6E2D25",
"e$@	c #7A352F",
"f$@	c #753331",
"g$@	c #823B2B",
"h$@	c #EC805A",
"i$@	c #F1844E",
"j$@	c #F69561",
"k$@	c #FAA669",
"l$@	c #F6AF6D",
"m$@	c #F3AF6C",
"n$@	c #FBB674",
"o$@	c #F4A76A",
"p$@	c #F78E5D",
"q$@	c #ED7D5D",
"r$@	c #893A2B",
"s$@	c #622722",
"t$@	c #6D4337",
"u$@	c #C5B5A2",
"v$@	c #E2E6CC",
"w$@	c #E0E1C9",
"x$@	c #E1DFC9",
"y$@	c #E2DFC6",
"z$@	c #D3CBB3",
"A$@	c #704038",
"B$@	c #BC282E",
"C$@	c #DD2329",
"D$@	c #DC1D25",
"E$@	c #D81F25",
"F$@	c #D61C24",
"G$@	c #D91723",
"H$@	c #EE3837",
"I$@	c #D6353A",
"J$@	c #5A1818",
"K$@	c #6A2A27",
"L$@	c #4E1A19",
"M$@	c #91111D",
"N$@	c #D31220",
"O$@	c #C6031A",
"P$@	c #BE0219",
"Q$@	c #B2031B",
"R$@	c #64060E",
"S$@	c #632E2D",
"T$@	c #481718",
"U$@	c #CF1021",
"V$@	c #D01322",
"W$@	c #D51727",
"X$@	c #D81928",
"Y$@	c #DD1E2B",
"Z$@	c #D41A25",
"`$@	c #D11E23",
" %@	c #DB2C2D",
".%@	c #DF2E2E",
"+%@	c #D82F30",
"@%@	c #B34955",
"#%@	c #888DAC",
"$%@	c #6C8EB0",
"%%@	c #6D91B3",
"&%@	c #597F9E",
"*%@	c #81A9C3",
"=%@	c #91C1D4",
"-%@	c #99C1D6",
";%@	c #7392AE",
">%@	c #6788A0",
",%@	c #96C3D2",
"'%@	c #7696A7",
")%@	c #5F7A8F",
"!%@	c #92B8CB",
"~%@	c #8FB3C6",
"{%@	c #9FC5D7",
"]%@	c #7495AE",
"^%@	c #25455E",
"/%@	c #428FA2",
"(%@	c #65D1E0",
"_%@	c #70ACC0",
":%@	c #84B3C4",
"<%@	c #8FBBCF",
"[%@	c #99CAD9",
"}%@	c #A7E1E5",
"|%@	c #ACE5E5",
"1%@	c #93C2D0",
"2%@	c #589DB4",
"3%@	c #74E8E5",
"4%@	c #9C857D",
"5%@	c #D94645",
"6%@	c #BE1827",
"7%@	c #BD1124",
"8%@	c #C01528",
"9%@	c #C51E2D",
"0%@	c #D4403B",
"a%@	c #ED6C52",
"b%@	c #EF8156",
"c%@	c #F5805D",
"d%@	c #FC8864",
"e%@	c #F79464",
"f%@	c #F1905D",
"g%@	c #F2905D",
"h%@	c #F9AF6F",
"i%@	c #F6C278",
"j%@	c #F8CF84",
"k%@	c #FBD287",
"l%@	c #FBC07C",
"m%@	c #EF925C",
"n%@	c #ED7A50",
"o%@	c #EE755C",
"p%@	c #F0755F",
"q%@	c #EB7169",
"r%@	c #89526F",
"s%@	c #2E4B95",
"t%@	c #2F519D",
"u%@	c #30539A",
"v%@	c #2D539A",
"w%@	c #2B549E",
"x%@	c #29569E",
"y%@	c #2759A0",
"z%@	c #23579D",
"A%@	c #27549D",
"B%@	c #2D5596",
"C%@	c #486A96",
"D%@	c #5A788E",
"E%@	c #6C7F8D",
"F%@	c #6C818F",
"G%@	c #68808F",
"H%@	c #647A89",
"I%@	c #627E87",
"J%@	c #67808C",
"K%@	c #6C8490",
"L%@	c #6F8693",
"M%@	c #708392",
"N%@	c #728492",
"O%@	c #738693",
"P%@	c #819AAE",
"Q%@	c #A6D4E3",
"R%@	c #98CDE1",
"S%@	c #99CEE2",
"T%@	c #84AEC3",
"U%@	c #627F94",
"V%@	c #698294",
"W%@	c #697E91",
"X%@	c #6C7F91",
"Y%@	c #6C7F8E",
"Z%@	c #6A808C",
"`%@	c #6D828B",
" &@	c #708492",
".&@	c #51779A",
"+&@	c #21569D",
"@&@	c #1E4F9E",
"#&@	c #1F4EA2",
"$&@	c #2750A7",
"%&@	c #2E50A7",
"&&@	c #434C97",
"*&@	c #C17A87",
"=&@	c #F39672",
"-&@	c #EF9068",
";&@	c #EF8E64",
">&@	c #F97F5B",
",&@	c #EE674C",
"'&@	c #F26F54",
")&@	c #F88560",
"!&@	c #EF7152",
"~&@	c #EF5E43",
"{&@	c #EC5640",
"]&@	c #DF5145",
"^&@	c #731C18",
"/&@	c #550706",
"(&@	c #AD312D",
"_&@	c #E75C57",
":&@	c #812825",
"<&@	c #6D2828",
"[&@	c #702A2A",
"}&@	c #6B2A22",
"|&@	c #68271C",
"1&@	c #66251E",
"2&@	c #692A23",
"3&@	c #6E2C25",
"4&@	c #77342C",
"5&@	c #6C2D2C",
"6&@	c #944A3A",
"7&@	c #F58852",
"8&@	c #F38657",
"9&@	c #F18456",
"0&@	c #EE8A58",
"a&@	c #F3A065",
"b&@	c #FAB372",
"c&@	c #F8B371",
"d&@	c #FBB573",
"e&@	c #F1A667",
"f&@	c #F9AB6E",
"g&@	c #EB9059",
"h&@	c #F59862",
"i&@	c #F68B5D",
"j&@	c #D66B52",
"k&@	c #651C18",
"l&@	c #672F28",
"m&@	c #683429",
"n&@	c #866558",
"o&@	c #DFD4BD",
"p&@	c #E1DEC8",
"q&@	c #E3DEC5",
"r&@	c #A49A86",
"s&@	c #7D2628",
"t&@	c #D12C33",
"u&@	c #DD2124",
"v&@	c #DA1F25",
"w&@	c #D41B21",
"x&@	c #D51A24",
"y&@	c #D81622",
"z&@	c #DB2025",
"A&@	c #CF2D2F",
"B&@	c #5E1918",
"C&@	c #6B2C27",
"D&@	c #4F1A18",
"E&@	c #92111D",
"F&@	c #D10F1E",
"G&@	c #C7031B",
"H&@	c #BD0219",
"I&@	c #B0031B",
"J&@	c #63050F",
"K&@	c #602D2A",
"L&@	c #471616",
"M&@	c #9A0F22",
"N&@	c #D20E22",
"O&@	c #CD0E1E",
"P&@	c #CE1121",
"Q&@	c #D11423",
"R&@	c #D51827",
"S&@	c #D81827",
"T&@	c #D01D22",
"U&@	c #D9292B",
"V&@	c #DB2A2A",
"W&@	c #D62D2E",
"X&@	c #AD3F47",
"Y&@	c #8686A0",
"Z&@	c #708EB0",
"`&@	c #6A8DAE",
" *@	c #5E82A1",
".*@	c #84ACC5",
"+*@	c #90BFD3",
"@*@	c #98C1D6",
"#*@	c #7194AD",
"$*@	c #65879E",
"%*@	c #86AFC1",
"&*@	c #96C1D1",
"**@	c #7596A7",
"=*@	c #446074",
"-*@	c #87ABBE",
";*@	c #80A2B5",
">*@	c #7699A9",
",*@	c #38566D",
"'*@	c #3B5973",
")*@	c #539DB3",
"!*@	c #5FCBD8",
"~*@	c #6AA7BB",
"{*@	c #82AFC1",
"]*@	c #90BCCE",
"^*@	c #9BCCDA",
"/*@	c #A4DCE0",
"(*@	c #ADE4E6",
"_*@	c #93C0CF",
":*@	c #5AA1B4",
"<*@	c #76EBE5",
"[*@	c #9C867A",
"}*@	c #D84945",
"|*@	c #DA393F",
"1*@	c #BE1826",
"2*@	c #BD1123",
"3*@	c #BF1528",
"4*@	c #C72030",
"5*@	c #D5423D",
"6*@	c #F6875E",
"7*@	c #F37D59",
"8*@	c #EF8D5B",
"9*@	c #F29C63",
"0*@	c #F4AB6A",
"a*@	c #F7C57A",
"b*@	c #F4CA7E",
"c*@	c #F8C97F",
"d*@	c #FCBD79",
"e*@	c #F37957",
"f*@	c #ED7369",
"g*@	c #8E536E",
"h*@	c #304B94",
"i*@	c #2F519C",
"j*@	c #30549B",
"k*@	c #2D549A",
"l*@	c #2554A0",
"m*@	c #2855A1",
"n*@	c #2A55A1",
"o*@	c #2C58A1",
"p*@	c #2659A0",
"q*@	c #25569D",
"r*@	c #29539D",
"s*@	c #2B539F",
"t*@	c #2F54A4",
"u*@	c #2857A0",
"v*@	c #375E97",
"w*@	c #537398",
"x*@	c #5F798E",
"y*@	c #677B8C",
"z*@	c #6B838F",
"A*@	c #68808E",
"B*@	c #6A8090",
"C*@	c #64798A",
"D*@	c #657B8B",
"E*@	c #68818D",
"F*@	c #66818A",
"G*@	c #67808B",
"H*@	c #6E8592",
"I*@	c #728493",
"J*@	c #718594",
"K*@	c #8EAABF",
"L*@	c #A4D4E4",
"M*@	c #98CDE0",
"N*@	c #98CBE0",
"O*@	c #7CA3B7",
"P*@	c #637E92",
"Q*@	c #657D8E",
"R*@	c #687C8F",
"S*@	c #697A8E",
"T*@	c #6C7D8F",
"U*@	c #6D7F8E",
"V*@	c #6C828C",
"W*@	c #6F828B",
"X*@	c #557A9A",
"Y*@	c #23579B",
"Z*@	c #2050A1",
"`*@	c #214EA4",
" =@	c #294FA5",
".=@	c #2D4FA6",
"+=@	c #434B95",
"@=@	c #C8818D",
"#=@	c #FA9E79",
"$=@	c #F89266",
"%=@	c #F89068",
"&=@	c #FA815D",
"*=@	c #F7735C",
"==@	c #F26F51",
"-=@	c #F07150",
";=@	c #EF5741",
">=@	c #EB4C3A",
",=@	c #B83833",
"'=@	c #5A0D0D",
")=@	c #600F11",
"!=@	c #B84542",
"~=@	c #933837",
"{=@	c #692324",
"]=@	c #6F2927",
"^=@	c #6C2920",
"/=@	c #6A271E",
"(=@	c #67261D",
"_=@	c #672821",
":=@	c #682723",
"<=@	c #6C2A24",
"[=@	c #581E1E",
"}=@	c #B15C50",
"|=@	c #F38751",
"1=@	c #F68859",
"2=@	c #F28356",
"3=@	c #F08B5C",
"4=@	c #F4A268",
"5=@	c #F7B16E",
"6=@	c #FDBB79",
"7=@	c #FAAE6F",
"8=@	c #EF9F64",
"9=@	c #EE8F58",
"0=@	c #ED835C",
"a=@	c #A14836",
"b=@	c #642122",
"c=@	c #714035",
"d=@	c #B39989",
"e=@	c #E0DDC3",
"f=@	c #DEE4C4",
"g=@	c #DEDEC1",
"h=@	c #DFDBC4",
"i=@	c #DDD4BE",
"j=@	c #6E574B",
"k=@	c #AB272F",
"l=@	c #DA282F",
"m=@	c #DA2025",
"n=@	c #D61B20",
"o=@	c #D81725",
"p=@	c #D81520",
"q=@	c #DB1D23",
"r=@	c #C72C2B",
"s=@	c #5E1A19",
"t=@	c #6B2B29",
"u=@	c #4B1716",
"v=@	c #94111D",
"w=@	c #CB0E1D",
"x=@	c #C7041A",
"y=@	c #B90117",
"z=@	c #AD0319",
"A=@	c #62040E",
"B=@	c #5F2A25",
"C=@	c #461213",
"D=@	c #9E0F24",
"E=@	c #CD0C24",
"F=@	c #CD0C1D",
"G=@	c #CF1020",
"H=@	c #D31424",
"I=@	c #D31726",
"J=@	c #D71B28",
"K=@	c #D21B24",
"L=@	c #CE1D23",
"M=@	c #DA292A",
"N=@	c #D52D2F",
"O=@	c #AF363B",
"P=@	c #7A6478",
"Q=@	c #6F7A98",
"R=@	c #6D84A0",
"S=@	c #6B82A1",
"T=@	c #84A9C4",
"U=@	c #8EBDD1",
"V=@	c #93BDD3",
"W=@	c #6F95AC",
"X=@	c #6589A1",
"Y=@	c #86AFC0",
"Z=@	c #95BFD0",
"`=@	c #82A5B7",
" -@	c #273E51",
".-@	c #415A6C",
"+-@	c #344E5F",
"@-@	c #355A6C",
"#-@	c #54788E",
"$-@	c #587693",
"%-@	c #5293AD",
"&-@	c #5BBED0",
"*-@	c #639FB5",
"=-@	c #81ABC0",
"--@	c #8DB9CB",
";-@	c #96C7D4",
">-@	c #A1D2DA",
",-@	c #ABDDE1",
"'-@	c #93B9CA",
")-@	c #5AA0B1",
"!-@	c #77E7E3",
"~-@	c #A38075",
"{-@	c #D74845",
"]-@	c #D93A3D",
"^-@	c #BC1826",
"/-@	c #BD1224",
"(-@	c #C01829",
"_-@	c #C82231",
":-@	c #D94842",
"<-@	c #ED7054",
"[-@	c #F99165",
"}-@	c #F78D5F",
"|-@	c #F69260",
"1-@	c #EF8958",
"2-@	c #F6965D",
"3-@	c #EF9D5C",
"4-@	c #EFA662",
"5-@	c #F4C479",
"6-@	c #F5BE76",
"7-@	c #FCBE79",
"8-@	c #FAA068",
"9-@	c #F18055",
"0-@	c #F27B57",
"a-@	c #EE7568",
"b-@	c #975373",
"c-@	c #344A96",
"d-@	c #30509E",
"e-@	c #30539C",
"f-@	c #2B5198",
"g-@	c #2A559C",
"h-@	c #2955A2",
"i-@	c #2E5AA5",
"j-@	c #2D5AA3",
"k-@	c #2C5898",
"l-@	c #486B94",
"m-@	c #697D8B",
"n-@	c #6A828C",
"o-@	c #6A838F",
"p-@	c #708292",
"q-@	c #708192",
"r-@	c #6E8294",
"s-@	c #95B7CA",
"t-@	c #A3D6E6",
"u-@	c #98CFE2",
"v-@	c #94C8DD",
"w-@	c #7499AE",
"x-@	c #637F90",
"y-@	c #687B8E",
"z-@	c #6A7A8E",
"A-@	c #6C7B8F",
"B-@	c #6E808F",
"C-@	c #6F838E",
"D-@	c #728593",
"E-@	c #587B98",
"F-@	c #225797",
"G-@	c #1E4EA0",
"H-@	c #254FA5",
"I-@	c #404C96",
"J-@	c #C47D8A",
"K-@	c #F79674",
"L-@	c #F49166",
"M-@	c #F8996E",
"N-@	c #EF885F",
"O-@	c #F77C5C",
"P-@	c #F16850",
"Q-@	c #F4715A",
"R-@	c #EE503D",
"S-@	c #EA4436",
"T-@	c #E93C32",
"U-@	c #DD3F3A",
"V-@	c #861D1D",
"W-@	c #561414",
"X-@	c #5D1510",
"Y-@	c #591716",
"Z-@	c #611F1E",
"`-@	c #6F2B28",
" ;@	c #6C2921",
".;@	c #6B2920",
"+;@	c #672820",
"@;@	c #682923",
"#;@	c #662B24",
"$;@	c #4C1B18",
"%;@	c #BB5650",
"&;@	c #D9674B",
"*;@	c #EEAA66",
"=;@	c #F09B62",
"-;@	c #FBA66D",
";;@	c #F79963",
">;@	c #F99B66",
",;@	c #F18757",
"';@	c #E07857",
");@	c #6C241A",
"!;@	c #672C2A",
"~;@	c #6B362D",
"{;@	c #856052",
"];@	c #CFC0AC",
"^;@	c #DEDFC4",
"/;@	c #DEDFC3",
"(;@	c #E2DCC5",
"_;@	c #C8BBAA",
":;@	c #6D2B28",
"<;@	c #CC2934",
"[;@	c #DD222B",
"};@	c #DC1F25",
"|;@	c #E12027",
"1;@	c #DD2025",
"2;@	c #D61A21",
"3;@	c #D91A24",
"4;@	c #DB1725",
"5;@	c #D8131F",
"6;@	c #DB1C23",
"7;@	c #EC3737",
"8;@	c #C62C2E",
"9;@	c #62191A",
"0;@	c #6B2829",
"a;@	c #4A1716",
"b;@	c #97131F",
"c;@	c #CB0E1F",
"d;@	c #C6031B",
"e;@	c #B90017",
"f;@	c #AD0117",
"g;@	c #66030C",
"h;@	c #5C2724",
"i;@	c #461012",
"j;@	c #A41124",
"k;@	c #CD0C23",
"l;@	c #CD0B20",
"m;@	c #D41525",
"n;@	c #D41A28",
"o;@	c #D01724",
"p;@	c #D51D28",
"q;@	c #D31E28",
"r;@	c #D72627",
"s;@	c #D52D2E",
"t;@	c #BE383E",
"u;@	c #8C5261",
"v;@	c #644B61",
"w;@	c #585366",
"x;@	c #56576D",
"y;@	c #809DB3",
"z;@	c #8CB9CD",
"A;@	c #92BCD2",
"B;@	c #6B90A7",
"C;@	c #87AFC1",
"D;@	c #95C0D0",
"E;@	c #95BCCC",
"F;@	c #567183",
"G;@	c #365062",
"H;@	c #496C7C",
"I;@	c #85B2C2",
"J;@	c #85AEC3",
"K;@	c #5B7996",
"L;@	c #4E85A2",
"M;@	c #5AAFC5",
"N;@	c #659DB2",
"O;@	c #84AFC4",
"P;@	c #8EB9CC",
"Q;@	c #94C3D2",
"R;@	c #9FCED8",
"S;@	c #AADCE1",
"T;@	c #93BBCD",
"U;@	c #5E9DB1",
"V;@	c #78DCDC",
"W;@	c #A8726C",
"X;@	c #DE4A48",
"Y;@	c #DA3B3D",
"Z;@	c #BC1726",
"`;@	c #BE1324",
" >@	c #C3192A",
".>@	c #C7222F",
"+>@	c #DF5149",
"@>@	c #F07459",
"#>@	c #F98F64",
"$>@	c #EE7D58",
"%>@	c #EE7956",
"&>@	c #F67D5C",
"*>@	c #F58D5E",
"=>@	c #F79260",
"->@	c #FA9E63",
";>@	c #F9A866",
">>@	c #F3A765",
",>@	c #F4BA73",
"'>@	c #FAC87F",
")>@	c #F1B771",
"!>@	c #F9B974",
"~>@	c #FDA46B",
"{>@	c #F57F58",
"]>@	c #EE7766",
"^>@	c #985675",
"/>@	c #364995",
"(>@	c #2F519E",
"_>@	c #30539D",
":>@	c #2B5299",
"<>@	c #2854A0",
"[>@	c #28539F",
"}>@	c #2D59A4",
"|>@	c #2C57A0",
"1>@	c #26559D",
"2>@	c #2A56A0",
"3>@	c #2D569E",
"4>@	c #2A51A1",
"5>@	c #295398",
"6>@	c #396096",
"7>@	c #557394",
"8>@	c #5B7188",
"9>@	c #687C8A",
"0>@	c #6A7E8C",
"a>@	c #6A818E",
"b>@	c #607988",
"c>@	c #68818B",
"d>@	c #68838D",
"e>@	c #6D808F",
"f>@	c #6B7F90",
"g>@	c #6E8797",
"h>@	c #9FC5D6",
"i>@	c #A1D5E5",
"j>@	c #98D0E3",
"k>@	c #8FC1D6",
"l>@	c #6A8FA3",
"m>@	c #657F90",
"n>@	c #677B8E",
"o>@	c #6B7C90",
"p>@	c #6D7D90",
"q>@	c #6F808F",
"r>@	c #6F8390",
"s>@	c #6F8392",
"t>@	c #5A7F99",
"u>@	c #245A95",
"v>@	c #1D519D",
"w>@	c #2451A5",
"x>@	c #254FA4",
"y>@	c #414B96",
"z>@	c #BF7281",
"A>@	c #F28C67",
"B>@	c #F08960",
"C>@	c #EB6C4F",
"D>@	c #EB634B",
"E>@	c #F57556",
"F>@	c #EC4435",
"G>@	c #E73A2F",
"H>@	c #E6372D",
"I>@	c #EE463B",
"J>@	c #D0403C",
"K>@	c #6E1B19",
"L>@	c #5C211B",
"M>@	c #561A19",
"N>@	c #6A2827",
"O>@	c #6D2A22",
"P>@	c #6B2820",
"Q>@	c #6C2A22",
"R>@	c #692922",
"S>@	c #672B24",
"T>@	c #461614",
"U>@	c #8C2A2C",
"V>@	c #9C3726",
"W>@	c #F08055",
"X>@	c #FAAC71",
"Y>@	c #F7B973",
"Z>@	c #F09F64",
"`>@	c #F99462",
" ,@	c #FA9462",
".,@	c #B35742",
"+,@	c #601D1D",
"@,@	c #6C2E2C",
"#,@	c #713D32",
"$,@	c #9F8571",
"%,@	c #DAD5BB",
"&,@	c #DCDDC3",
"*,@	c #E0E0C6",
"=,@	c #96887A",
"-,@	c #8F2828",
";,@	c #D8252F",
">,@	c #DF1D25",
",,@	c #D81A23",
"',@	c #DA1A24",
"),@	c #D91521",
"!,@	c #D8121E",
"~,@	c #D81A20",
"{,@	c #E73232",
"],@	c #BC282D",
"^,@	c #621B1E",
"/,@	c #6B282A",
"(,@	c #481615",
"_,@	c #99131F",
":,@	c #C90E20",
"<,@	c #C5051D",
"[,@	c #BB0119",
"},@	c #B00216",
"|,@	c #6E040C",
"1,@	c #5C2727",
"2,@	c #642B2D",
"3,@	c #470F11",
"4,@	c #AA1224",
"5,@	c #D21123",
"6,@	c #D81A29",
"7,@	c #D71E2B",
"8,@	c #D51E2C",
"9,@	c #D21B25",
"0,@	c #D82327",
"a,@	c #DA2828",
"b,@	c #D1282A",
"c,@	c #C03A3E",
"d,@	c #9F5960",
"e,@	c #8B5C66",
"f,@	c #825F67",
"g,@	c #77606C",
"h,@	c #8798AA",
"i,@	c #87B1C6",
"j,@	c #91BBD0",
"k,@	c #769EB3",
"l,@	c #6D93A9",
"m,@	c #97C4D4",
"n,@	c #9EC6D8",
"o,@	c #87A9BC",
"p,@	c #83A4B8",
"q,@	c #86B1C2",
"r,@	c #9ACCDB",
"s,@	c #8CB6C8",
"t,@	c #5E7C97",
"u,@	c #4D7A99",
"v,@	c #5496B0",
"w,@	c #71A3B9",
"x,@	c #8CB8CB",
"y,@	c #90BBCC",
"z,@	c #96C4D1",
"A,@	c #A0CDD6",
"B,@	c #ABDBE1",
"C,@	c #96BFD0",
"D,@	c #5D99AC",
"E,@	c #76C4C9",
"F,@	c #B06562",
"G,@	c #E34C4A",
"H,@	c #DB4040",
"I,@	c #C41A2C",
"J,@	c #C5202D",
"K,@	c #D74B42",
"L,@	c #ED7757",
"M,@	c #EA7A53",
"N,@	c #E87651",
"O,@	c #EF8F57",
"P,@	c #FDB06D",
"Q,@	c #F9AB6A",
"R,@	c #F1B470",
"S,@	c #F9C67E",
"T,@	c #F1B872",
"U,@	c #F5B470",
"V,@	c #F9A168",
"W,@	c #F48358",
"X,@	c #F6815A",
"Y,@	c #EE7864",
"Z,@	c #955674",
"`,@	c #364896",
" '@	c #2F539E",
".'@	c #2F559D",
"+'@	c #24539E",
"@'@	c #21539C",
"#'@	c #25549F",
"$'@	c #2B56A1",
"%'@	c #2A53A0",
"&'@	c #2D57A1",
"*'@	c #29549D",
"='@	c #2A549E",
"-'@	c #26539C",
";'@	c #24559C",
">'@	c #2B589E",
",'@	c #2D5293",
"''@	c #4C6D9A",
")'@	c #597389",
"!'@	c #617384",
"~'@	c #6E818E",
"{'@	c #6C808E",
"]'@	c #69828E",
"^'@	c #617B8A",
"/'@	c #5E7887",
"('@	c #5B7584",
"_'@	c #627B8A",
":'@	c #647F8A",
"<'@	c #65808A",
"['@	c #69818D",
"}'@	c #6A7D8E",
"|'@	c #6E8D9D",
"1'@	c #A3CCDE",
"2'@	c #99D1E1",
"3'@	c #8EBED2",
"4'@	c #668A9C",
"5'@	c #617D8B",
"6'@	c #637C8C",
"7'@	c #6B7F8F",
"8'@	c #6E8190",
"9'@	c #6F8290",
"0'@	c #6F808E",
"a'@	c #6E8291",
"b'@	c #5D8098",
"c'@	c #2B6096",
"d'@	c #1E539F",
"e'@	c #2251A3",
"f'@	c #2B53A6",
"g'@	c #424B95",
"h'@	c #BF7180",
"i'@	c #EE8765",
"j'@	c #EF9262",
"k'@	c #FA9C6D",
"l'@	c #F18F63",
"m'@	c #EF8960",
"n'@	c #EA815A",
"o'@	c #ED8561",
"p'@	c #E9664C",
"q'@	c #EB664F",
"r'@	c #F17155",
"s'@	c #F57A5A",
"t'@	c #F57756",
"u'@	c #F27352",
"v'@	c #EF7754",
"w'@	c #EA382F",
"x'@	c #E9342D",
"y'@	c #EA3630",
"z'@	c #F24A3C",
"A'@	c #EC5247",
"B'@	c #9E3930",
"C'@	c #661F1A",
"D'@	c #6F2926",
"E'@	c #682821",
"F'@	c #672B25",
"G'@	c #652C28",
"H'@	c #3B1210",
"I'@	c #500A10",
"J'@	c #812F24",
"K'@	c #EC7D5F",
"L'@	c #F0905C",
"M'@	c #FEC87F",
"N'@	c #F6B976",
"O'@	c #F3A66B",
"P'@	c #F08A59",
"Q'@	c #F9885B",
"R'@	c #F88459",
"S'@	c #E47456",
"T'@	c #792A21",
"U'@	c #6D2F29",
"V'@	c #7B5041",
"W'@	c #BAAB92",
"X'@	c #E0DFC3",
"Y'@	c #DEDCC4",
"Z'@	c #E0DBC5",
"`'@	c #E1DDC6",
" )@	c #D9D2BB",
".)@	c #694840",
"+)@	c #BC2D32",
"@)@	c #DC2128",
"#)@	c #DE2027",
"$)@	c #DE2529",
"%)@	c #DC1D23",
"&)@	c #DC1D26",
"*)@	c #D91A25",
"=)@	c #D6141F",
"-)@	c #D91721",
";)@	c #D91A23",
">)@	c #AC2125",
",)@	c #5F2022",
"')@	c #6A292A",
"))@	c #471314",
"!)@	c #9A111F",
"~)@	c #C70B1F",
"{)@	c #BC011A",
"])@	c #B90A1E",
"^)@	c #7B0B13",
"/)@	c #5B2728",
"()@	c #622B2D",
"_)@	c #460D11",
":)@	c #AD1322",
"<)@	c #CB0B22",
"[)@	c #CC0E25",
"})@	c #CF0D24",
"|)@	c #D41325",
"1)@	c #D6232C",
"2)@	c #D1262E",
"3)@	c #CB212E",
"4)@	c #CE1F28",
"5)@	c #DA282A",
"6)@	c #DE2B2C",
"7)@	c #D2282B",
"8)@	c #BA3439",
"9)@	c #A1575C",
"0)@	c #935E61",
"a)@	c #926265",
"b)@	c #88626B",
"c)@	c #88909E",
"d)@	c #83ABC0",
"e)@	c #8DB8CD",
"f)@	c #759FB3",
"g)@	c #7298AD",
"h)@	c #89B1C3",
"i)@	c #95C3D3",
"j)@	c #9AC6D7",
"k)@	c #86ACBE",
"l)@	c #86ABBE",
"m)@	c #86B5C6",
"n)@	c #8BB3C6",
"o)@	c #63809B",
"p)@	c #597B9D",
"q)@	c #477796",
"r)@	c #74A4BB",
"s)@	c #8BBACA",
"t)@	c #91BDCA",
"u)@	c #97C4CD",
"v)@	c #A2CED4",
"w)@	c #A8DADB",
"x)@	c #96C1CF",
"y)@	c #6091A5",
"z)@	c #60808C",
"A)@	c #C15A5A",
"B)@	c #E14C49",
"C)@	c #D94341",
"D)@	c #BC1725",
"E)@	c #C31628",
"F)@	c #C81C2E",
"G)@	c #C6212D",
"H)@	c #D2493D",
"I)@	c #F18C5C",
"J)@	c #EC7D57",
"K)@	c #EC7352",
"L)@	c #EF7C57",
"M)@	c #F4845A",
"N)@	c #ED7F56",
"O)@	c #E87E53",
"P)@	c #E87F55",
"Q)@	c #EE7B56",
"R)@	c #F7925E",
"S)@	c #F09258",
"T)@	c #F7A968",
"U)@	c #FAAF6C",
"V)@	c #F7AD6B",
"W)@	c #F2B674",
"X)@	c #F8C881",
"Y)@	c #FAC47C",
"Z)@	c #FABC77",
"`)@	c #EE975E",
" !@	c #EC7862",
".!@	c #925471",
"+!@	c #394B99",
"@!@	c #3157A0",
"#!@	c #30579F",
"$!@	c #2C56A1",
"%!@	c #22549D",
"&!@	c #26549D",
"*!@	c #2A549F",
"=!@	c #2C569F",
"-!@	c #2B519C",
";!@	c #27519B",
">!@	c #26569E",
",!@	c #28559D",
"'!@	c #2D519A",
")!@	c #3D6092",
"!!@	c #5A7794",
"~!@	c #5B7582",
"{!@	c #6B7D8B",
"]!@	c #5B7684",
"^!@	c #697D8E",
"/!@	c #7396A5",
"(!@	c #A4D1E1",
"_!@	c #99D2E2",
":!@	c #90C7DA",
"<!@	c #8BBACD",
"[!@	c #648799",
"}!@	c #627989",
"|!@	c #637C8B",
"1!@	c #6C7F8F",
"2!@	c #6E7F8F",
"3!@	c #6C7C8C",
"4!@	c #6B7E8D",
"5!@	c #618299",
"6!@	c #326397",
"7!@	c #1F54A0",
"8!@	c #2952A3",
"9!@	c #2A50A3",
"0!@	c #435097",
"a!@	c #C37D87",
"b!@	c #F1946E",
"c!@	c #F09564",
"d!@	c #EC9563",
"e!@	c #F59D6B",
"f!@	c #F29566",
"g!@	c #EB885C",
"h!@	c #F69068",
"i!@	c #E9634C",
"j!@	c #EC664D",
"k!@	c #F37857",
"l!@	c #F77F5C",
"m!@	c #F07553",
"n!@	c #EC6D4D",
"o!@	c #E8322D",
"p!@	c #EC3631",
"q!@	c #EC3A35",
"r!@	c #F04A3E",
"s!@	c #ED5542",
"t!@	c #D85A48",
"u!@	c #812820",
"v!@	c #692421",
"w!@	c #6F2825",
"x!@	c #6F2624",
"y!@	c #692820",
"z!@	c #68261E",
"A!@	c #672720",
"B!@	c #652D29",
"C!@	c #2F110D",
"D!@	c #340D0E",
"E!@	c #792F25",
"F!@	c #ED7E61",
"G!@	c #F1AD6E",
"H!@	c #FAC97E",
"I!@	c #F4BB77",
"J!@	c #F8AD71",
"K!@	c #F78159",
"L!@	c #F47E55",
"M!@	c #EF7954",
"N!@	c #B24C3C",
"O!@	c #621B19",
"P!@	c #693029",
"Q!@	c #6C3329",
"R!@	c #8E6C59",
"S!@	c #D0CAAC",
"T!@	c #E2E3C5",
"U!@	c #DEDAC2",
"V!@	c #E1D9C4",
"W!@	c #E4D9C7",
"X!@	c #B6AB99",
"Y!@	c #7C2324",
"Z!@	c #D82830",
"`!@	c #E12329",
" ~@	c #E1282D",
".~@	c #DE1E28",
"+~@	c #DA1A25",
"@~@	c #D71722",
"#~@	c #D4151E",
"$~@	c #D71720",
"%~@	c #D91B23",
"&~@	c #E63133",
"*~@	c #9C1B1E",
"=~@	c #5D2626",
"-~@	c #451214",
";~@	c #9C1220",
">~@	c #C50B1D",
",~@	c #BF031B",
"'~@	c #BC0319",
")~@	c #CA192A",
"!~@	c #850F18",
"~~@	c #5B2627",
"{~@	c #612A2D",
"]~@	c #B11323",
"^~@	c #C80923",
"/~@	c #C90C25",
"(~@	c #C01F2A",
"_~@	c #AF2026",
":~@	c #9C1E21",
"<~@	c #95161F",
"[~@	c #B5242A",
"}~@	c #D62C31",
"|~@	c #E32E32",
"1~@	c #D72C30",
"2~@	c #B62B34",
"3~@	c #A1565A",
"4~@	c #935E5F",
"5~@	c #966164",
"6~@	c #8F6269",
"7~@	c #837F8B",
"8~@	c #87A4B8",
"9~@	c #85ADC1",
"0~@	c #759EB3",
"a~@	c #7BA1B9",
"b~@	c #88AFC4",
"c~@	c #8FBDCF",
"d~@	c #92BFD2",
"e~@	c #82A8BA",
"f~@	c #7EA5B7",
"g~@	c #83B1C2",
"h~@	c #96C6D6",
"i~@	c #8DB4C7",
"j~@	c #64839D",
"k~@	c #6382A4",
"l~@	c #5F85A5",
"m~@	c #79A5BB",
"n~@	c #88B8C6",
"o~@	c #8FBCC6",
"p~@	c #95C1C6",
"q~@	c #A1CBCD",
"r~@	c #ABDBDB",
"s~@	c #96C1CE",
"t~@	c #739DB4",
"u~@	c #675D6B",
"v~@	c #CD5858",
"w~@	c #DC4742",
"x~@	c #D7423F",
"y~@	c #BD1924",
"z~@	c #CA202E",
"A~@	c #C8232C",
"B~@	c #DB5746",
"C~@	c #EC945C",
"D~@	c #EF8E60",
"E~@	c #F29B69",
"F~@	c #ED7E57",
"G~@	c #F6935E",
"H~@	c #F2AC68",
"I~@	c #F4BD79",
"J~@	c #FACF86",
"K~@	c #F9C97F",
"L~@	c #FBC078",
"M~@	c #F19B61",
"N~@	c #EA7B62",
"O~@	c #8F5571",
"P~@	c #3B4C9A",
"Q~@	c #3355A0",
"R~@	c #3257A1",
"S~@	c #2F569E",
"T~@	c #23559E",
"U~@	c #26539D",
"V~@	c #2A4F9A",
"W~@	c #25559B",
"X~@	c #25569C",
"Y~@	c #25539A",
"Z~@	c #2F5593",
"`~@	c #507195",
" {@	c #5E7B89",
".{@	c #637981",
"+{@	c #71848E",
"@{@	c #6B7E8A",
"#{@	c #6A7F8C",
"${@	c #5E7886",
"%{@	c #5E7784",
"&{@	c #617988",
"*{@	c #647F8D",
"={@	c #65818D",
"-{@	c #65828B",
";{@	c #65818C",
">{@	c #657F8B",
",{@	c #667E8B",
"'{@	c #667B8D",
"){@	c #627F8F",
"!{@	c #84A9B9",
"~{@	c #A4D5E2",
"{{@	c #95CFDE",
"]{@	c #92C9DC",
"^{@	c #86B7C8",
"/{@	c #608494",
"({@	c #627E8B",
"_{@	c #627C88",
":{@	c #647B8A",
"<{@	c #637B8B",
"[{@	c #6C7D8D",
"}{@	c #6D7D8D",
"|{@	c #6B7F8E",
"1{@	c #658397",
"2{@	c #396796",
"3{@	c #1E549E",
"4{@	c #1F51A0",
"5{@	c #204FA1",
"6{@	c #2850A3",
"7{@	c #445197",
"8{@	c #CC878F",
"9{@	c #FAA179",
"0{@	c #F29767",
"a{@	c #F19A68",
"b{@	c #EF9B68",
"c{@	c #F39D6A",
"d{@	c #F59A67",
"e{@	c #EF9061",
"f{@	c #F7835E",
"g{@	c #EC664E",
"h{@	c #EB674C",
"i{@	c #EE7553",
"j{@	c #F67A58",
"k{@	c #F37553",
"l{@	c #E9312F",
"m{@	c #EA4137",
"n{@	c #EC4A3E",
"o{@	c #EF5441",
"p{@	c #F4664F",
"q{@	c #BC5345",
"r{@	c #641C19",
"s{@	c #6D2827",
"t{@	c #6D2423",
"u{@	c #6A251F",
"v{@	c #68261D",
"w{@	c #682721",
"x{@	c #692923",
"y{@	c #672C28",
"z{@	c #310F0B",
"A{@	c #451E1E",
"B{@	c #783026",
"C{@	c #F67D5D",
"D{@	c #F49B65",
"E{@	c #F0B171",
"F{@	c #FACB80",
"G{@	c #F7BE7A",
"H{@	c #FAA66E",
"I{@	c #FA8A5F",
"J{@	c #E87C59",
"K{@	c #7B2D23",
"L{@	c #652922",
"M{@	c #6A3028",
"N{@	c #723A2F",
"O{@	c #A68974",
"P{@	c #D5D2B3",
"Q{@	c #DBDEBE",
"R{@	c #DCD9BF",
"S{@	c #E2D7C5",
"T{@	c #846F64",
"U{@	c #A7232C",
"V{@	c #DF232C",
"W{@	c #E02429",
"X{@	c #DD1B25",
"Y{@	c #D91924",
"Z{@	c #D51820",
"`{@	c #D4171E",
" ]@	c #D71B21",
".]@	c #E53434",
"+]@	c #931C1C",
"@]@	c #592927",
"#]@	c #9F1222",
"$]@	c #C50A1B",
"%]@	c #BC0318",
"&]@	c #BC0518",
"*]@	c #D3202F",
"=]@	c #870F18",
"-]@	c #592726",
";]@	c #5E2B2D",
">]@	c #480F14",
",]@	c #B51628",
"']@	c #C40B21",
")]@	c #B80F26",
"!]@	c #8F101F",
"~]@	c #6A0910",
"{]@	c #5A090E",
"]]@	c #561418",
"^]@	c #520F14",
"/]@	c #630A0F",
"(]@	c #A8272E",
"_]@	c #DC2E39",
":]@	c #DB3036",
"<]@	c #BC2E38",
"[]@	c #9D5355",
"}]@	c #976063",
"|]@	c #996568",
"1]@	c #7F636D",
"2]@	c #858DA0",
"3]@	c #8AA4BB",
"4]@	c #7696B1",
"5]@	c #7B9EB9",
"6]@	c #7FA8BB",
"7]@	c #8AB6C8",
"8]@	c #8EB7CA",
"9]@	c #83A7B9",
"0]@	c #7AA1B2",
"a]@	c #86B4C4",
"b]@	c #97C5D5",
"c]@	c #8FB8CA",
"d]@	c #6888A1",
"e]@	c #6482A2",
"f]@	c #6D91B1",
"g]@	c #7DA7BD",
"h]@	c #87B6C3",
"i]@	c #8AB8C2",
"j]@	c #94C0C5",
"k]@	c #A1CCCD",
"l]@	c #B0E0E1",
"m]@	c #93BFCC",
"n]@	c #7AA0BA",
"o]@	c #8F8695",
"p]@	c #CF5652",
"q]@	c #DE4741",
"r]@	c #D4403C",
"s]@	c #BE1A25",
"t]@	c #C61928",
"u]@	c #CD222F",
"v]@	c #CA272D",
"w]@	c #DC5D49",
"x]@	c #EB8C5D",
"y]@	c #EDA566",
"z]@	c #F9AF78",
"A]@	c #F9976A",
"B]@	c #FBAD76",
"C]@	c #F18D5C",
"D]@	c #F48F5C",
"E]@	c #F2A35E",
"F]@	c #F5AE68",
"G]@	c #F4AF6B",
"H]@	c #F6C17C",
"I]@	c #F7CB82",
"J]@	c #F6C67C",
"K]@	c #F8BB74",
"L]@	c #F7A167",
"M]@	c #F4835B",
"N]@	c #EC8066",
"O]@	c #915973",
"P]@	c #3C4C9B",
"Q]@	c #31529E",
"R]@	c #2F549D",
"S]@	c #2C549C",
"T]@	c #2557A0",
"U]@	c #2B53A0",
"V]@	c #2B559F",
"W]@	c #2A519C",
"X]@	c #2A529C",
"Y]@	c #25559A",
"Z]@	c #24559A",
"`]@	c #25569B",
" ^@	c #265394",
".^@	c #3B5F95",
"+^@	c #597896",
"@^@	c #617B85",
"#^@	c #6B7F86",
"$^@	c #72858D",
"%^@	c #6F828C",
"&^@	c #6B818E",
"*^@	c #6A8490",
"=^@	c #68838F",
"-^@	c #657E8A",
";^@	c #66838D",
">^@	c #67838E",
",^@	c #638292",
"'^@	c #95BDCC",
")^@	c #A3D5E1",
"!^@	c #91CBD9",
"~^@	c #90C9DA",
"{^@	c #83B5C6",
"]^@	c #618494",
"^^@	c #637D89",
"/^@	c #6B7C8B",
"(^@	c #6B808E",
"_^@	c #678396",
":^@	c #3F6B94",
"<^@	c #1C549C",
"[^@	c #1F519F",
"}^@	c #2452A5",
"|^@	c #2A52A4",
"1^@	c #2A54A5",
"2^@	c #434D94",
"3^@	c #C88088",
"4^@	c #F59E77",
"5^@	c #FBA477",
"6^@	c #ED9666",
"7^@	c #F5A270",
"8^@	c #F19F6B",
"9^@	c #F19A64",
"0^@	c #EE915F",
"a^@	c #F59164",
"b^@	c #F88661",
"c^@	c #EC634B",
"d^@	c #EA5E49",
"e^@	c #EA6449",
"f^@	c #F47453",
"g^@	c #F37053",
"h^@	c #E8332F",
"i^@	c #EB463B",
"j^@	c #F15843",
"k^@	c #F56045",
"l^@	c #E36E58",
"m^@	c #823228",
"n^@	c #632222",
"o^@	c #6D2628",
"p^@	c #6A2520",
"q^@	c #682820",
"r^@	c #67251D",
"s^@	c #6B2822",
"t^@	c #6D2A25",
"u^@	c #451C19",
"v^@	c #572B29",
"w^@	c #7C3428",
"x^@	c #F58465",
"y^@	c #F5855B",
"z^@	c #F8A66F",
"A^@	c #F7BF7C",
"B^@	c #FBBE7B",
"C^@	c #ED774B",
"D^@	c #FA9263",
"E^@	c #F99065",
"F^@	c #BB6449",
"G^@	c #5E1E1A",
"H^@	c #663026",
"I^@	c #6A2E26",
"J^@	c #7A4A3E",
"K^@	c #C7B09B",
"L^@	c #DDDBBD",
"M^@	c #DBDDC0",
"N^@	c #DCDAC0",
"O^@	c #E1DAC5",
"P^@	c #D9CCBB",
"Q^@	c #6A403B",
"R^@	c #C72E35",
"S^@	c #E1232A",
"T^@	c #DD2026",
"U^@	c #DC1922",
"V^@	c #D81720",
"W^@	c #D51620",
"X^@	c #D71822",
"Y^@	c #D5181F",
"Z^@	c #D71C21",
"`^@	c #E33230",
" /@	c #881A16",
"./@	c #592B28",
"+/@	c #450E10",
"@/@	c #A11021",
"#/@	c #C20819",
"$/@	c #BA0216",
"%/@	c #C00B19",
"&/@	c #D7212F",
"*/@	c #880D17",
"=/@	c #552725",
"-/@	c #58292A",
";/@	c #490D12",
">/@	c #B81629",
",/@	c #CD0E21",
"'/@	c #C80920",
")/@	c #790614",
"!/@	c #460E0C",
"~/@	c #4C201F",
"{/@	c #532426",
"]/@	c #58272A",
"^/@	c #572527",
"//@	c #48191B",
"(/@	c #5F1115",
"_/@	c #C42C3A",
":/@	c #D93039",
"</@	c #BF2D38",
"[/@	c #9E5153",
"}/@	c #915D5F",
"|/@	c #965F61",
"1/@	c #A26765",
"2/@	c #9D656D",
"3/@	c #6E5A6B",
"4/@	c #767E93",
"5/@	c #7688A3",
"6/@	c #7492AB",
"7/@	c #7CA4B5",
"8/@	c #8EB5C7",
"9/@	c #93B2C8",
"0/@	c #89A2B4",
"a/@	c #7196A3",
"b/@	c #89B6C6",
"c/@	c #92BECD",
"d/@	c #91B7C8",
"e/@	c #67879F",
"f/@	c #61809E",
"g/@	c #6F92B1",
"h/@	c #7EA7BD",
"i/@	c #8AB7C0",
"j/@	c #95C1C7",
"k/@	c #A2CBCF",
"l/@	c #A9D8DB",
"m/@	c #92BDCB",
"n/@	c #7B9CB8",
"o/@	c #988898",
"p/@	c #CF5750",
"q/@	c #DE4942",
"r/@	c #D54340",
"s/@	c #C11D27",
"t/@	c #C81B29",
"u/@	c #CF232F",
"v/@	c #D12C31",
"w/@	c #DE624C",
"x/@	c #EC9363",
"y/@	c #F7B977",
"z/@	c #FDC588",
"A/@	c #F79F6D",
"B/@	c #FBB379",
"C/@	c #F38159",
"D/@	c #F99F62",
"E/@	c #F4A460",
"F/@	c #F7AE68",
"G/@	c #F2AC69",
"H/@	c #F4C980",
"I/@	c #F8C57C",
"J/@	c #F9B671",
"K/@	c #F9A267",
"L/@	c #EF7D5A",
"M/@	c #EF8268",
"N/@	c #935C73",
"O/@	c #3A4C98",
"P/@	c #2F539C",
"Q/@	c #2D549D",
"R/@	c #2A539E",
"S/@	c #26529D",
"T/@	c #21519B",
"U/@	c #2B55A0",
"V/@	c #29549E",
"W/@	c #27559D",
"X/@	c #27529C",
"Y/@	c #265099",
"Z/@	c #245499",
"`/@	c #26569C",
" (@	c #25579A",
".(@	c #2B558F",
"+(@	c #4F6E9A",
"@(@	c #5E7A91",
"#(@	c #627A82",
"$(@	c #738692",
"%(@	c #6D8490",
"&(@	c #6A828E",
"*(@	c #6B8490",
"=(@	c #677E8B",
"-(@	c #678798",
";(@	c #9DC9D7",
">(@	c #A1D7E2",
",(@	c #8FCBD8",
"'(@	c #92CBDC",
")(@	c #7BABBC",
"!(@	c #668191",
"~(@	c #637C89",
"{(@	c #697B8B",
"](@	c #697A8A",
"^(@	c #667D90",
"/(@	c #456C92",
"((@	c #1D549A",
"_(@	c #1F509D",
":(@	c #1F519E",
"<(@	c #2856A6",
"[(@	c #465096",
"}(@	c #C17780",
"|(@	c #F1956D",
"1(@	c #F3956C",
"2(@	c #F59B6E",
"3(@	c #EF9E6A",
"4(@	c #F19B69",
"5(@	c #F39C69",
"6(@	c #EF9861",
"7(@	c #F19761",
"8(@	c #F99A69",
"9(@	c #F8966B",
"0(@	c #FA996F",
"a(@	c #EF7254",
"b(@	c #EC614A",
"c(@	c #EC5D49",
"d(@	c #EC634A",
"e(@	c #F47556",
"f(@	c #EE694E",
"g(@	c #E73631",
"h(@	c #F26246",
"i(@	c #EE7154",
"j(@	c #CA6250",
"k(@	c #661D1B",
"l(@	c #6A2324",
"m(@	c #672822",
"n(@	c #65251E",
"o(@	c #6A2821",
"p(@	c #6D2925",
"q(@	c #602C2A",
"r(@	c #602E2B",
"s(@	c #81352A",
"t(@	c #DD7559",
"u(@	c #D16245",
"v(@	c #FBA774",
"w(@	c #F8BF7E",
"x(@	c #F1C277",
"y(@	c #F0B06E",
"z(@	c #ED8552",
"A(@	c #EC8E6B",
"B(@	c #713223",
"C(@	c #5E2625",
"D(@	c #652E24",
"E(@	c #663125",
"F(@	c #8B6A5C",
"G(@	c #DACEB6",
"H(@	c #DCDBBF",
"I(@	c #DCDCC2",
"J(@	c #DBD9C1",
"K(@	c #E1DAC4",
"L(@	c #B9A699",
"M(@	c #7B2526",
"N(@	c #D32F34",
"O(@	c #D91E23",
"P(@	c #DA1A23",
"Q(@	c #D81B23",
"R(@	c #D81A22",
"S(@	c #DA1B23",
"T(@	c #D4181F",
"U(@	c #D81D24",
"V(@	c #801614",
"W(@	c #5E2929",
"X(@	c #470E10",
"Y(@	c #A40E21",
"Z(@	c #C0081A",
"`(@	c #B90215",
" _@	c #CC1721",
"._@	c #860C16",
"+_@	c #552825",
"@_@	c #572628",
"#_@	c #4D0A0F",
"$_@	c #B91227",
"%_@	c #CD0B26",
"&_@	c #BC0822",
"*_@	c #7A0912",
"=_@	c #4C1715",
"-_@	c #552527",
";_@	c #5C2A29",
">_@	c #5D2928",
",_@	c #5D2628",
"'_@	c #5E2626",
")_@	c #5B2626",
"!_@	c #431012",
"~_@	c #91222D",
"{_@	c #D5333B",
"]_@	c #C22C38",
"^_@	c #A04F51",
"/_@	c #935D5E",
"(_@	c #955E61",
"__@	c #A16462",
":_@	c #AD6B6F",
"<_@	c #895966",
"[_@	c #654C59",
"}_@	c #5D5768",
"|_@	c #5D6776",
"1_@	c #6A7D8D",
"2_@	c #8093A6",
"3_@	c #858EA3",
"4_@	c #767887",
"5_@	c #6F8A96",
"6_@	c #8AB4C5",
"7_@	c #8EB8C8",
"8_@	c #92B6C5",
"9_@	c #67869D",
"0_@	c #5F7E9B",
"a_@	c #6A8DAC",
"b_@	c #7BA3BA",
"c_@	c #86B4C1",
"d_@	c #8BB9C3",
"e_@	c #96C2CA",
"f_@	c #A0C9D0",
"g_@	c #A4D3D8",
"h_@	c #92BECB",
"i_@	c #7D9CB6",
"j_@	c #998493",
"k_@	c #CC5B52",
"l_@	c #DC5048",
"m_@	c #DA4946",
"n_@	c #C42028",
"o_@	c #CA1D29",
"p_@	c #CE222E",
"q_@	c #D12D31",
"r_@	c #E26851",
"s_@	c #F7A071",
"t_@	c #FDBF80",
"u_@	c #F6B67A",
"v_@	c #F28E5D",
"w_@	c #EE8959",
"x_@	c #F6AF74",
"y_@	c #FAAB6F",
"z_@	c #F99B64",
"A_@	c #F49261",
"B_@	c #F07D56",
"C_@	c #F17658",
"D_@	c #F3775A",
"E_@	c #F9AF6B",
"F_@	c #F0AC67",
"G_@	c #FAC983",
"H_@	c #F9D289",
"I_@	c #F8C87E",
"J_@	c #F5B06C",
"K_@	c #EF8267",
"L_@	c #935E71",
"M_@	c #384C95",
"N_@	c #32519C",
"O_@	c #31549D",
"P_@	c #2D529B",
"Q_@	c #2A529B",
"R_@	c #28549E",
"S_@	c #22529B",
"T_@	c #23559D",
"U_@	c #28549D",
"V_@	c #28539B",
"W_@	c #25549A",
"X_@	c #26579C",
"Y_@	c #295695",
"Z_@	c #3A608D",
"`_@	c #5B7698",
" :@	c #617A8C",
".:@	c #677C87",
"+:@	c #6E828B",
"@:@	c #6F838D",
"#:@	c #6F838F",
"$:@	c #697F8A",
"%:@	c #677F89",
"&:@	c #6B828E",
"*:@	c #687E8B",
"=:@	c #677E88",
"-:@	c #68828C",
";:@	c #627E89",
">:@	c #637F8A",
",:@	c #64808B",
"':@	c #6F8FA1",
"):@	c #A2D1DE",
"!:@	c #9ED5DF",
"~:@	c #91CEDA",
"{:@	c #96CEE0",
"]:@	c #6F9DAF",
"^:@	c #5D7F91",
"/:@	c #647C89",
"(:@	c #617888",
"_:@	c #617989",
"::@	c #697C8B",
"<:@	c #677888",
"[:@	c #697989",
"}:@	c #4F7192",
"|:@	c #1C5295",
"1:@	c #1F509C",
"2:@	c #20519E",
"3:@	c #2953A3",
"4:@	c #484D94",
"5:@	c #C77F86",
"6:@	c #F5976E",
"7:@	c #F3A674",
"8:@	c #EFA06D",
"9:@	c #EC8A60",
"0:@	c #F69A6D",
"a:@	c #ED6F51",
"b:@	c #ED5D49",
"c:@	c #F8815F",
"d:@	c #F57E5C",
"e:@	c #F47859",
"f:@	c #F5785A",
"g:@	c #F16F50",
"h:@	c #ED664E",
"i:@	c #E73833",
"j:@	c #EC453B",
"k:@	c #F05545",
"l:@	c #F1664D",
"m:@	c #ED6A4D",
"n:@	c #EE714F",
"o:@	c #EE755F",
"p:@	c #953C34",
"q:@	c #5E1714",
"r:@	c #692620",
"s:@	c #672922",
"t:@	c #682822",
"u:@	c #6C2A25",
"v:@	c #6A2A26",
"w:@	c #632C2A",
"x:@	c #803531",
"y:@	c #A74D41",
"z:@	c #A54333",
"A:@	c #F29668",
"B:@	c #F8BA7A",
"C:@	c #FACA80",
"D:@	c #E8A866",
"E:@	c #EA8C58",
"F:@	c #EF8054",
"G:@	c #BD694E",
"H:@	c #5D251F",
"I:@	c #662C27",
"J:@	c #653A2E",
"K:@	c #B09A88",
"L:@	c #DBD6BE",
"M:@	c #D8D9BF",
"N:@	c #DBDBC3",
"O:@	c #DADAC1",
"P:@	c #DED7C2",
"Q:@	c #876B61",
"R:@	c #AD242E",
"S:@	c #DA2A2E",
"T:@	c #DD2228",
"U:@	c #DA2327",
"V:@	c #DB2127",
"W:@	c #DB2028",
"X:@	c #D81C25",
"Y:@	c #DA1C23",
"Z:@	c #D71920",
"`:@	c #D2151C",
" <@	c #D51A21",
".<@	c #D71C23",
"+<@	c #DB2329",
"@<@	c #7A1213",
"#<@	c #622629",
"$<@	c #490E10",
"%<@	c #A50D21",
"&<@	c #BF071B",
"*<@	c #BE0718",
"=<@	c #D62028",
"-<@	c #D9232E",
";<@	c #850B15",
"><@	c #572725",
",<@	c #592327",
"'<@	c #52070E",
")<@	c #BC0F27",
"!<@	c #C30A29",
"~<@	c #7D0716",
"{<@	c #531614",
"]<@	c #582A29",
"^<@	c #60282D",
"/<@	c #5E2A2B",
"(<@	c #572C28",
"_<@	c #582C2B",
":<@	c #5C292B",
"<<@	c #512123",
"[<@	c #651518",
"}<@	c #CF313A",
"|<@	c #CB323C",
"1<@	c #9F4B4D",
"2<@	c #925D5E",
"3<@	c #946063",
"4<@	c #9A6262",
"5<@	c #A36566",
"6<@	c #975D64",
"7<@	c #8E5E62",
"8<@	c #855C62",
"9<@	c #765A61",
"0<@	c #67515B",
"a<@	c #675660",
"b<@	c #765F6D",
"c<@	c #745D67",
"d<@	c #738390",
"e<@	c #8EB7C6",
"f<@	c #96BAC7",
"g<@	c #6E8DA2",
"h<@	c #5B7A96",
"i<@	c #6284A3",
"j<@	c #79A0B7",
"k<@	c #87B5C1",
"l<@	c #8DBAC3",
"m<@	c #95C0C9",
"n<@	c #9AC4CC",
"o<@	c #A5D4DA",
"p<@	c #93BECB",
"q<@	c #7E9DB2",
"r<@	c #988190",
"s<@	c #CC655A",
"t<@	c #DB584F",
"u<@	c #DE504E",
"v<@	c #C4222A",
"w<@	c #CA1E2A",
"x<@	c #CD232D",
"y<@	c #CE2D30",
"z<@	c #DC6049",
"A<@	c #F6AC71",
"B<@	c #F6A670",
"C<@	c #EC8E5A",
"D<@	c #F49C65",
"E<@	c #F0925C",
"F<@	c #F1A167",
"G<@	c #FBB075",
"H<@	c #F4A163",
"I<@	c #F6AA69",
"J<@	c #F1AD69",
"K<@	c #F8CA82",
"L<@	c #FEDA8E",
"M<@	c #F9CB81",
"N<@	c #F3AE6A",
"O<@	c #ED8264",
"P<@	c #915E70",
"Q<@	c #374B93",
"R<@	c #31539D",
"S<@	c #2D529C",
"T<@	c #2B539C",
"U<@	c #23539D",
"V<@	c #24559E",
"W<@	c #2A539D",
"X<@	c #29539B",
"Y<@	c #26569B",
"Z<@	c #27569B",
"`<@	c #325792",
" [@	c #507093",
".[@	c #607990",
"+[@	c #6C808A",
"@[@	c #6B7F8B",
"#[@	c #687E89",
"$[@	c #6B818C",
"%[@	c #6A808D",
"&[@	c #6B828C",
"*[@	c #698088",
"=[@	c #69818B",
"-[@	c #647F8C",
";[@	c #7C9DAE",
">[@	c #A5D5E3",
",[@	c #9AD4DD",
"'[@	c #95D3DF",
")[@	c #92CDDD",
"![@	c #638FA1",
"~[@	c #5E8092",
"{[@	c #678092",
"][@	c #627A87",
"^[@	c #607787",
"/[@	c #6C7B8B",
"([@	c #6D7C90",
"_[@	c #567594",
":[@	c #1E5396",
"<[@	c #21539F",
"[[@	c #2953A4",
"}[@	c #2C51A2",
"|[@	c #474A90",
"1[@	c #D18F91",
"2[@	c #F2936B",
"3[@	c #F59F72",
"4[@	c #F0A774",
"5[@	c #F2A471",
"6[@	c #F19969",
"7[@	c #F9A16E",
"8[@	c #F79D6E",
"9[@	c #EF8F63",
"0[@	c #E8865C",
"a[@	c #F99C6F",
"b[@	c #FB936A",
"c[@	c #EE6E51",
"d[@	c #EC5D47",
"e[@	c #EF7554",
"f[@	c #F26A52",
"g[@	c #E84338",
"h[@	c #ED5843",
"i[@	c #F36D50",
"j[@	c #ED7552",
"k[@	c #CE5B4E",
"l[@	c #721F19",
"m[@	c #66231C",
"n[@	c #692721",
"o[@	c #692925",
"p[@	c #672823",
"q[@	c #692A25",
"r[@	c #692927",
"s[@	c #632827",
"t[@	c #632523",
"u[@	c #6D2522",
"v[@	c #9D4338",
"w[@	c #EE845A",
"x[@	c #F4B275",
"y[@	c #FBD28A",
"z[@	c #F2B474",
"A[@	c #F7AB73",
"B[@	c #E27959",
"C[@	c #723123",
"D[@	c #632B26",
"E[@	c #682C26",
"F[@	c #672D28",
"G[@	c #745245",
"H[@	c #C8BEAD",
"I[@	c #DAD9C3",
"J[@	c #D9DBC3",
"K[@	c #D8DBC2",
"L[@	c #DADBC1",
"M[@	c #D0C8B5",
"N[@	c #76433F",
"O[@	c #CA2C36",
"P[@	c #DE252A",
"Q[@	c #DB2228",
"R[@	c #DA1D26",
"S[@	c #DD2229",
"T[@	c #D61B22",
"U[@	c #D91A22",
"V[@	c #700E11",
"W[@	c #622527",
"X[@	c #4B0D12",
"Y[@	c #BD0619",
"Z[@	c #C91521",
"`[@	c #D81F29",
" }@	c #D8202D",
".}@	c #810A15",
"+}@	c #5D2123",
"@}@	c #580710",
"#}@	c #9E0820",
"$}@	c #4B0D0E",
"%}@	c #542624",
"&}@	c #5E2B29",
"*}@	c #62282B",
"=}@	c #5D292D",
"-}@	c #552A29",
";}@	c #452520",
">}@	c #40201E",
",}@	c #512424",
"'}@	c #572728",
")}@	c #4B1215",
"!}@	c #C0333D",
"~}@	c #CE373E",
"{}@	c #9F4647",
"]}@	c #8F6060",
"^}@	c #926162",
"/}@	c #976262",
"(}@	c #9A6261",
"_}@	c #996064",
":}@	c #986165",
"<}@	c #956367",
"[}@	c #8D6066",
"}}@	c #896166",
"|}@	c #866266",
"1}@	c #815B61",
"2}@	c #6D7985",
"3}@	c #84B0BF",
"4}@	c #8EB5C6",
"5}@	c #9BBDC9",
"6}@	c #7494A7",
"7}@	c #5E7E97",
"8}@	c #6386A1",
"9}@	c #79A1B7",
"0}@	c #8AB5C3",
"a}@	c #8EB8C2",
"b}@	c #94BFC7",
"c}@	c #96C3C8",
"d}@	c #A8D9DD",
"e}@	c #95BECA",
"f}@	c #7C99AF",
"g}@	c #917F8A",
"h}@	c #BE645B",
"i}@	c #D15B56",
"j}@	c #D75350",
"k}@	c #C02228",
"l}@	c #C61F29",
"m}@	c #CA282D",
"n}@	c #CB2B2C",
"o}@	c #D75742",
"p}@	c #F38E63",
"q}@	c #F49561",
"r}@	c #EE9058",
"s}@	c #F4A766",
"t}@	c #ED7254",
"u}@	c #EF8B5E",
"v}@	c #F19160",
"w}@	c #F39A63",
"x}@	c #F5A869",
"y}@	c #F3B06E",
"z}@	c #F8CC82",
"A}@	c #FEDE91",
"B}@	c #F6C880",
"C}@	c #F2AC6B",
"D}@	c #F0995F",
"E}@	c #EE8157",
"F}@	c #E9855F",
"G}@	c #90616B",
"H}@	c #374991",
"I}@	c #2F529D",
"J}@	c #24519E",
"K}@	c #23549C",
"L}@	c #25559D",
"M}@	c #24549C",
"N}@	c #25549C",
"O}@	c #28549B",
"P}@	c #2A569D",
"Q}@	c #26559B",
"R}@	c #285699",
"S}@	c #406192",
"T}@	c #5D7694",
"U}@	c #627788",
"V}@	c #687C8B",
"W}@	c #69838D",
"X}@	c #66808A",
"Y}@	c #67818D",
"Z}@	c #6A818D",
"`}@	c #8AADBB",
" |@	c #A2D3E1",
".|@	c #98D4DE",
"+|@	c #9CD9E4",
"@|@	c #8FC9D9",
"#|@	c #61879A",
"$|@	c #627F91",
"%|@	c #627C89",
"&|@	c #637A88",
"*|@	c #6B7E8C",
"=|@	c #6D7E8D",
"-|@	c #6D7F90",
";|@	c #225599",
">|@	c #1F51A2",
",|@	c #2351A3",
"'|@	c #2952A2",
")|@	c #2F509F",
"!|@	c #474D8F",
"~|@	c #D1938D",
"{|@	c #F8A679",
"]|@	c #F89F77",
"^|@	c #F3A978",
"/|@	c #F8B281",
"(|@	c #F6A874",
"_|@	c #EB9466",
":|@	c #F4996A",
"<|@	c #EE9362",
"[|@	c #EB8D61",
"}|@	c #ED5E49",
"||@	c #F0604C",
"1|@	c #F26950",
"2|@	c #F07153",
"3|@	c #F77559",
"4|@	c #E53430",
"5|@	c #E64337",
"6|@	c #F77B59",
"7|@	c #E05B4C",
"8|@	c #AE3C32",
"9|@	c #621914",
"0|@	c #692B25",
"a|@	c #6B2923",
"b|@	c #682924",
"c|@	c #6A2927",
"d|@	c #3F0D0E",
"e|@	c #410608",
"f|@	c #A84C40",
"g|@	c #F07E56",
"h|@	c #FBB57A",
"i|@	c #FDD48D",
"j|@	c #F7C07E",
"k|@	c #FBB579",
"l|@	c #AE523F",
"m|@	c #5D1F1B",
"n|@	c #662A25",
"o|@	c #622F28",
"p|@	c #957E6F",
"q|@	c #D3D2BD",
"r|@	c #D8DAC2",
"s|@	c #D7DCC0",
"t|@	c #DBDDC1",
"u|@	c #ABA593",
"v|@	c #742929",
"w|@	c #DA333D",
"x|@	c #DE2328",
"y|@	c #DA2226",
"z|@	c #D81D26",
"A|@	c #DC2029",
"B|@	c #D71B22",
"C|@	c #D51920",
"D|@	c #D6181F",
"E|@	c #D41B26",
"F|@	c #690E10",
"G|@	c #632628",
"H|@	c #4B0C11",
"I|@	c #A40B21",
"J|@	c #BD0518",
"K|@	c #D6212B",
"L|@	c #D51F2A",
"M|@	c #7C0811",
"N|@	c #5A2525",
"O|@	c #582022",
"P|@	c #5C0715",
"Q|@	c #AA0F29",
"R|@	c #64070F",
"S|@	c #4F211E",
"T|@	c #5F2629",
"U|@	c #5E2729",
"V|@	c #5E292C",
"W|@	c #522628",
"X|@	c #391513",
"Y|@	c #300F0B",
"Z|@	c #3A1414",
"`|@	c #522122",
" 1@	c #421011",
".1@	c #B2353C",
"+1@	c #CF373D",
"@1@	c #9F3F42",
"#1@	c #956062",
"$1@	c #926061",
"%1@	c #976564",
"&1@	c #96605F",
"*1@	c #9A6266",
"=1@	c #9C6469",
"-1@	c #996467",
";1@	c #996569",
">1@	c #986465",
",1@	c #936363",
"'1@	c #8D6161",
")1@	c #885D61",
"!1@	c #656E79",
"~1@	c #87B2C5",
"{1@	c #8AB3C5",
"]1@	c #9ABFCA",
"^1@	c #7596A8",
"/1@	c #65869E",
"(1@	c #6589A4",
"_1@	c #78A1B6",
":1@	c #8BB6C3",
"<1@	c #8FB8C2",
"[1@	c #9AC8CE",
"}1@	c #ACDFE3",
"|1@	c #91BDC7",
"11@	c #789AB0",
"21@	c #8A828B",
"31@	c #A6635D",
"41@	c #B85D5B",
"51@	c #C1514F",
"61@	c #B92228",
"71@	c #C52029",
"81@	c #CD282E",
"91@	c #CD2C2E",
"01@	c #DC5C4A",
"a1@	c #F19357",
"b1@	c #F19C5B",
"c1@	c #EDA761",
"d1@	c #F0A262",
"e1@	c #F59F62",
"f1@	c #EC975F",
"g1@	c #F59C68",
"h1@	c #ED7F55",
"i1@	c #F07956",
"j1@	c #EC8C5E",
"k1@	c #F2AB6B",
"l1@	c #FACC83",
"m1@	c #FBD98D",
"n1@	c #F2C37B",
"o1@	c #F2AD6C",
"p1@	c #EE8657",
"q1@	c #EE8259",
"r1@	c #EC8A5F",
"s1@	c #96686B",
"t1@	c #394B8D",
"u1@	c #33509A",
"v1@	c #35549F",
"w1@	c #2D539D",
"x1@	c #2A529F",
"y1@	c #26529F",
"z1@	c #29559C",
"A1@	c #29559D",
"B1@	c #25559C",
"C1@	c #2B5796",
"D1@	c #4F6E94",
"E1@	c #5E758B",
"F1@	c #627785",
"G1@	c #677F8B",
"H1@	c #6B858F",
"I1@	c #6B838D",
"J1@	c #68828B",
"K1@	c #6A8391",
"L1@	c #9DC5D1",
"M1@	c #A4D8E7",
"N1@	c #99D4E2",
"O1@	c #9EDAE9",
"P1@	c #8BC4D4",
"Q1@	c #5F8396",
"R1@	c #627E91",
"S1@	c #61798A",
"T1@	c #647B89",
"U1@	c #6D818D",
"V1@	c #6D7F8F",
"W1@	c #5F7C95",
"X1@	c #255697",
"Y1@	c #2150A2",
"Z1@	c #2250A2",
"`1@	c #2651A1",
" 2@	c #2B4FA0",
".2@	c #484D8F",
"+2@	c #D59590",
"@2@	c #F7A174",
"#2@	c #F8AE7E",
"$2@	c #F8AF7F",
"%2@	c #F0A36F",
"&2@	c #F49A6B",
"*2@	c #F09764",
"=2@	c #F39C6D",
"-2@	c #EE6A4F",
";2@	c #F46D53",
">2@	c #F07051",
",2@	c #EF7153",
"'2@	c #F07355",
")2@	c #F07255",
"!2@	c #F07053",
"~2@	c #F67156",
"{2@	c #E63430",
"]2@	c #E8453A",
"^2@	c #F77958",
"/2@	c #F06950",
"(2@	c #EB5546",
"_2@	c #DD4E42",
":2@	c #771B17",
"<2@	c #662925",
"[2@	c #6C2B26",
"}2@	c #652621",
"|2@	c #682925",
"12@	c #642827",
"22@	c #360D0E",
"32@	c #390F11",
"42@	c #B25547",
"52@	c #F7AD73",
"62@	c #FBCC87",
"72@	c #F5BC79",
"82@	c #FBAD73",
"92@	c #DD7957",
"02@	c #72271C",
"a2@	c #682C28",
"b2@	c #642B25",
"c2@	c #684439",
"d2@	c #BEB19E",
"e2@	c #D4D9C2",
"f2@	c #DADCBF",
"g2@	c #D8DABD",
"h2@	c #D9D7BE",
"i2@	c #796659",
"j2@	c #9F2B2D",
"k2@	c #DE2E36",
"l2@	c #E2232A",
"m2@	c #DE2327",
"n2@	c #DA1F24",
"o2@	c #D71B24",
"p2@	c #D91B25",
"q2@	c #D81923",
"r2@	c #D4161E",
"s2@	c #D61721",
"t2@	c #CC1725",
"u2@	c #651112",
"v2@	c #64282A",
"w2@	c #480B0F",
"x2@	c #A40B20",
"y2@	c #C30B1C",
"z2@	c #D81F26",
"A2@	c #D11A27",
"B2@	c #74060D",
"C2@	c #502021",
"D2@	c #530A18",
"E2@	c #7C0C20",
"F2@	c #4D1515",
"G2@	c #582928",
"H2@	c #602529",
"I2@	c #5D262A",
"J2@	c #562A2B",
"K2@	c #351313",
"L2@	c #3A1817",
"M2@	c #4E2726",
"N2@	c #572828",
"O2@	c #5C2728",
"P2@	c #3C1112",
"Q2@	c #9F3138",
"R2@	c #D03840",
"S2@	c #A53B40",
"T2@	c #995F64",
"U2@	c #936162",
"V2@	c #976765",
"W2@	c #966162",
"X2@	c #996265",
"Y2@	c #9E676A",
"Z2@	c #9C6669",
"`2@	c #966266",
" 3@	c #956467",
".3@	c #8F6264",
"+3@	c #8F6465",
"@3@	c #8B5F62",
"#3@	c #6B6C78",
"$3@	c #8DB2C9",
"%3@	c #86B1C5",
"&3@	c #95BDC9",
"*3@	c #789BAD",
"=3@	c #678AA2",
"-3@	c #6388A3",
";3@	c #759FB4",
">3@	c #90B9C4",
",3@	c #94C2CC",
"'3@	c #9BCBD4",
")3@	c #ADE1E6",
"!3@	c #93C1CA",
"~3@	c #7AA0B5",
"{3@	c #898990",
"]3@	c #9D716C",
"^3@	c #A86365",
"/3@	c #AF5353",
"(3@	c #AC292E",
"_3@	c #BF252E",
":3@	c #CA282F",
"<3@	c #CF3134",
"[3@	c #D8594A",
"}3@	c #E98465",
"|3@	c #EF9467",
"13@	c #F09D5F",
"23@	c #F4A963",
"33@	c #F6B56B",
"43@	c #EFA561",
"53@	c #FAA969",
"63@	c #ED995F",
"73@	c #EB7F55",
"83@	c #F49260",
"93@	c #F49D65",
"03@	c #F0A667",
"a3@	c #F8C880",
"b3@	c #F8D589",
"c3@	c #F8B473",
"d3@	c #EE895B",
"e3@	c #EF855C",
"f3@	c #9E6F6C",
"g3@	c #3A4C8A",
"h3@	c #345199",
"i3@	c #32529B",
"j3@	c #2E529C",
"k3@	c #2955A1",
"l3@	c #27539A",
"m3@	c #275497",
"n3@	c #3A5F97",
"o3@	c #587493",
"p3@	c #5F7486",
"q3@	c #657886",
"r3@	c #697D8A",
"s3@	c #687F8C",
"t3@	c #647C8A",
"u3@	c #657D89",
"v3@	c #68808A",
"w3@	c #6B818D",
"x3@	c #6C8690",
"y3@	c #6D858F",
"z3@	c #6A838D",
"A3@	c #68838E",
"B3@	c #6C818E",
"C3@	c #6C8895",
"D3@	c #A6D3DE",
"E3@	c #A4DDEA",
"F3@	c #98D2E3",
"G3@	c #99D5E7",
"H3@	c #82B8CA",
"I3@	c #5E8094",
"J3@	c #647D8D",
"K3@	c #647E8B",
"L3@	c #637E8B",
"M3@	c #6D828E",
"N3@	c #6C7E8E",
"O3@	c #607C92",
"P3@	c #295994",
"Q3@	c #1E529D",
"R3@	c #1F52A0",
"S3@	c #2552A1",
"T3@	c #494C8F",
"U3@	c #D69690",
"V3@	c #F39D6F",
"W3@	c #F5A878",
"X3@	c #F5AA7B",
"Y3@	c #F2A470",
"Z3@	c #F9A472",
"`3@	c #FA9B71",
" 4@	c #F39366",
".4@	c #EF9162",
"+4@	c #F9A26E",
"@4@	c #F5A16E",
"#4@	c #F6A270",
"$4@	c #F06C51",
"%4@	c #F46F54",
"&4@	c #EE4A3F",
"*4@	c #F05B45",
"=4@	c #EF664A",
"-4@	c #F66B55",
";4@	c #EE564A",
">4@	c #E84D42",
",4@	c #A72F30",
"'4@	c #5A1919",
")4@	c #662722",
"!4@	c #662924",
"~4@	c #692826",
"{4@	c #652626",
"]4@	c #481B19",
"^4@	c #471D1A",
"/4@	c #B85C4D",
"(4@	c #EC7B50",
"_4@	c #F08756",
":4@	c #F1A56B",
"<4@	c #F7B475",
"[4@	c #F5A26E",
"}4@	c #A0523A",
"|4@	c #642E2A",
"14@	c #682A25",
"24@	c #652E28",
"34@	c #8B7063",
"44@	c #D9D1BB",
"54@	c #D4DBC2",
"64@	c #DCDABC",
"74@	c #C8C1A8",
"84@	c #70332E",
"94@	c #C12D2F",
"04@	c #DC282C",
"a4@	c #E3232B",
"b4@	c #DF2227",
"c4@	c #DE2126",
"d4@	c #DA1C26",
"e4@	c #D51520",
"f4@	c #D5131E",
"g4@	c #D71621",
"h4@	c #D5171F",
"i4@	c #D71921",
"j4@	c #C21121",
"k4@	c #5F1312",
"l4@	c #662B2A",
"m4@	c #62282A",
"n4@	c #460B0E",
"o4@	c #A20B1F",
"p4@	c #CC1121",
"q4@	c #DA2028",
"r4@	c #D61D23",
"s4@	c #CB1823",
"t4@	c #6F090D",
"u4@	c #572F2E",
"v4@	c #3C1918",
"w4@	c #290408",
"x4@	c #3D070E",
"y4@	c #502525",
"z4@	c #5A282A",
"A4@	c #60272B",
"B4@	c #58282B",
"C4@	c #401D1D",
"D4@	c #3C1B1C",
"E4@	c #52292B",
"F4@	c #5B2A2D",
"G4@	c #5E282B",
"H4@	c #5C2926",
"I4@	c #3C1315",
"J4@	c #932C34",
"K4@	c #CF363E",
"L4@	c #AC393F",
"M4@	c #9A6065",
"N4@	c #946263",
"O4@	c #996565",
"P4@	c #9A6366",
"Q4@	c #986164",
"R4@	c #9C6568",
"S4@	c #9A6467",
"T4@	c #935F63",
"U4@	c #916164",
"V4@	c #8D6063",
"W4@	c #8E6565",
"X4@	c #8D6162",
"Y4@	c #756D7A",
"Z4@	c #91AFC5",
"`4@	c #87B1C7",
" 5@	c #93BACC",
".5@	c #7CA0B2",
"+5@	c #688BA3",
"@5@	c #678CA6",
"#5@	c #8AB5C2",
"$5@	c #92BBC5",
"%5@	c #94C1CD",
"&5@	c #96C8D3",
"*5@	c #ABE1E7",
"=5@	c #9ACAD3",
"-5@	c #8BAEC2",
";5@	c #87878D",
">5@	c #92716B",
",5@	c #9B6668",
"'5@	c #9E5858",
")5@	c #A03C3D",
"!5@	c #B32C35",
"~5@	c #C52B34",
"{5@	c #C42E33",
"]5@	c #BB3D36",
"^5@	c #BB4F3E",
"/5@	c #D97C60",
"(5@	c #F9AA79",
"_5@	c #F7B370",
":5@	c #FBBD71",
"<5@	c #F4A76C",
"[5@	c #FAAE76",
"}5@	c #EC8257",
"|5@	c #F37958",
"15@	c #F57D5C",
"25@	c #F18D60",
"35@	c #FB9C6A",
"45@	c #F1905F",
"55@	c #F5C87F",
"65@	c #FBD88C",
"75@	c #F6C67E",
"85@	c #FBB977",
"95@	c #F5A87A",
"05@	c #F19E70",
"a5@	c #A3746F",
"b5@	c #3C4D89",
"c5@	c #334F98",
"d5@	c #315099",
"e5@	c #2B509E",
"f5@	c #2B509F",
"g5@	c #265299",
"h5@	c #295599",
"i5@	c #2C5690",
"j5@	c #4B6B96",
"k5@	c #5C748B",
"l5@	c #657888",
"m5@	c #687A89",
"n5@	c #687F8B",
"o5@	c #637A87",
"p5@	c #6C838F",
"q5@	c #6B868F",
"r5@	c #69848F",
"s5@	c #6B8691",
"t5@	c #6E8491",
"u5@	c #6E818F",
"v5@	c #76919E",
"w5@	c #ABDCE6",
"x5@	c #9FDDE6",
"y5@	c #96D4E5",
"z5@	c #7AAFC0",
"A5@	c #627C8F",
"B5@	c #637E8A",
"C5@	c #617B89",
"D5@	c #677B89",
"E5@	c #687A8A",
"F5@	c #627D92",
"G5@	c #2F5D94",
"H5@	c #1C509A",
"I5@	c #1E50A0",
"J5@	c #204FA0",
"K5@	c #2050A0",
"L5@	c #3352A0",
"M5@	c #D2928C",
"N5@	c #F09A6C",
"O5@	c #F7AA7B",
"P5@	c #F5A572",
"Q5@	c #F49E6B",
"R5@	c #F29268",
"S5@	c #F8A573",
"T5@	c #F7A36F",
"U5@	c #F8A671",
"V5@	c #F6A16E",
"W5@	c #F06650",
"X5@	c #F26F53",
"Y5@	c #EF7354",
"Z5@	c #F5795A",
"`5@	c #F77C5D",
" 6@	c #E93734",
".6@	c #EB483D",
"+6@	c #F45F4A",
"@6@	c #F2684B",
"#6@	c #E45F4E",
"$6@	c #E25149",
"%6@	c #ED4B49",
"&6@	c #D33C46",
"*6@	c #681415",
"=6@	c #632324",
"-6@	c #662723",
";6@	c #652623",
">6@	c #662725",
",6@	c #672725",
"'6@	c #672827",
")6@	c #622B26",
"!6@	c #50211B",
"~6@	c #B96453",
"{6@	c #FABA7C",
"]6@	c #F9A96F",
"^6@	c #DD8E63",
"/6@	c #6B2E20",
"(6@	c #622E27",
"_6@	c #622E25",
":6@	c #71453B",
"<6@	c #BEAC9A",
"[6@	c #D9D6C0",
"}6@	c #D9DABD",
"|6@	c #DBD9BD",
"16@	c #DEDBBD",
"26@	c #9B8E7B",
"36@	c #892123",
"46@	c #CE2829",
"56@	c #DA2424",
"66@	c #DE1F26",
"76@	c #E02127",
"86@	c #DF2328",
"96@	c #D91D24",
"06@	c #DA1E26",
"a6@	c #DA1D27",
"b6@	c #D41420",
"c6@	c #D3121E",
"d6@	c #D51420",
"e6@	c #D3151E",
"f6@	c #D5161F",
"g6@	c #D51721",
"h6@	c #BA0E1D",
"i6@	c #5B1718",
"j6@	c #662A2A",
"k6@	c #602728",
"l6@	c #460A0E",
"m6@	c #A10A1B",
"n6@	c #D81C26",
"o6@	c #D61821",
"p6@	c #CD1525",
"q6@	c #65060D",
"r6@	c #381918",
"s6@	c #2F1411",
"t6@	c #2E1614",
"u6@	c #240A08",
"v6@	c #3E201E",
"w6@	c #572B2D",
"x6@	c #5C2A2C",
"y6@	c #4F2426",
"z6@	c #341313",
"A6@	c #50292B",
"B6@	c #592B2D",
"C6@	c #612829",
"D6@	c #5B2924",
"E6@	c #401719",
"F6@	c #89272E",
"G6@	c #CB313A",
"H6@	c #AF333B",
"I6@	c #996062",
"J6@	c #926261",
"K6@	c #986262",
"L6@	c #9B6465",
"M6@	c #986062",
"N6@	c #9A6568",
"O6@	c #976266",
"P6@	c #936164",
"Q6@	c #916062",
"R6@	c #926564",
"S6@	c #916565",
"T6@	c #776471",
"U6@	c #97AAC0",
"V6@	c #8EB3C8",
"W6@	c #95BCCF",
"X6@	c #7EA3B7",
"Y6@	c #6C90A8",
"Z6@	c #6890AA",
"`6@	c #79A0B8",
" 7@	c #8FB7C5",
".7@	c #91BAC4",
"+7@	c #94C2CE",
"@7@	c #9BCAD8",
"#7@	c #B1E5EE",
"$7@	c #A4CED5",
"%7@	c #8EAAB7",
"&7@	c #776F74",
"*7@	c #876662",
"=7@	c #946768",
"-7@	c #9D6967",
";7@	c #A45C5B",
">7@	c #A83A43",
",7@	c #AF2A34",
"'7@	c #A92628",
")7@	c #B83C36",
"!7@	c #AC2E2D",
"~7@	c #AE473F",
"{7@	c #EC9876",
"]7@	c #F6AD75",
"^7@	c #F5B36C",
"/7@	c #F7AD76",
"(7@	c #FDB380",
"_7@	c #F5805A",
":7@	c #EF8C5C",
"<7@	c #EF8D5D",
"[7@	c #F79D67",
"}7@	c #F0A666",
"|7@	c #FACE85",
"17@	c #FCD98D",
"27@	c #FBC982",
"37@	c #FAB574",
"47@	c #F68F61",
"57@	c #F2A674",
"67@	c #F7B57F",
"77@	c #AC7674",
"87@	c #325198",
"97@	c #31529A",
"07@	c #30549D",
"a7@	c #3056A0",
"b7@	c #2C519E",
"c7@	c #2A519D",
"d7@	c #26549B",
"e7@	c #26549C",
"f7@	c #27549C",
"g7@	c #285198",
"h7@	c #2C549A",
"i7@	c #2C5494",
"j7@	c #3B5F8D",
"k7@	c #617586",
"l7@	c #6A7D8B",
"m7@	c #687D8A",
"n7@	c #677D89",
"o7@	c #667E89",
"p7@	c #6A7E8B",
"q7@	c #6C838D",
"r7@	c #6B838C",
"s7@	c #677F88",
"t7@	c #6B848E",
"u7@	c #6D818B",
"v7@	c #80A0AB",
"w7@	c #A1E1E6",
"x7@	c #97D4E1",
"y7@	c #95D4E3",
"z7@	c #74A9B9",
"A7@	c #618295",
"B7@	c #637D8D",
"C7@	c #617C89",
"D7@	c #607887",
"E7@	c #677D8A",
"F7@	c #657887",
"G7@	c #6A7B8B",
"H7@	c #637F91",
"I7@	c #326091",
"J7@	c #1C5099",
"K7@	c #2051A1",
"L7@	c #3151A2",
"M7@	c #4C4C92",
"N7@	c #CE8E8C",
"O7@	c #F1A072",
"P7@	c #F59969",
"Q7@	c #FAA476",
"R7@	c #FAA97A",
"S7@	c #F8A472",
"T7@	c #F39C6A",
"U7@	c #F19367",
"V7@	c #F99D6E",
"W7@	c #F39B6A",
"X7@	c #F6A070",
"Y7@	c #F7A573",
"Z7@	c #EE9A67",
"`7@	c #EF9A67",
" 8@	c #ED7D57",
".8@	c #EF6C51",
"+8@	c #F06A51",
"@8@	c #F67C5B",
"#8@	c #EF7251",
"$8@	c #EE7152",
"%8@	c #EC674D",
"&8@	c #EC3835",
"*8@	c #ED483D",
"=8@	c #F0654A",
"-8@	c #9F2A1F",
";8@	c #922020",
">8@	c #C7383A",
",8@	c #DF444B",
"'8@	c #A9292F",
")8@	c #5E1616",
"!8@	c #682626",
"~8@	c #692627",
"{8@	c #642424",
"]8@	c #662624",
"^8@	c #672825",
"/8@	c #531F19",
"(8@	c #BB6C57",
"_8@	c #F9A46C",
":8@	c #F6AB69",
"<8@	c #F0A766",
"[8@	c #E59365",
"}8@	c #8C4C34",
"|8@	c #5C201D",
"18@	c #652E26",
"28@	c #612C22",
"38@	c #613025",
"48@	c #917263",
"58@	c #D9CCB8",
"68@	c #D8D7C0",
"78@	c #DBDBC2",
"88@	c #DADABF",
"98@	c #DBD9BE",
"08@	c #D2CDB4",
"a8@	c #65473C",
"b8@	c #B6252A",
"c8@	c #DB2422",
"d8@	c #DA2120",
"e8@	c #D81C21",
"f8@	c #D71E24",
"g8@	c #D51A23",
"h8@	c #D41522",
"i8@	c #D2121F",
"j8@	c #D31321",
"k8@	c #D1121D",
"l8@	c #D2111C",
"m8@	c #D2121E",
"n8@	c #AE0E1A",
"o8@	c #5F2728",
"p8@	c #46090D",
"q8@	c #A20717",
"r8@	c #D11427",
"s8@	c #D31622",
"t8@	c #C61527",
"u8@	c #55030A",
"v8@	c #351516",
"w8@	c #502A2A",
"x8@	c #542C2D",
"y8@	c #421F1F",
"z8@	c #2A0D0B",
"A8@	c #482626",
"B8@	c #522B2C",
"C8@	c #3A1516",
"D8@	c #4A2123",
"E8@	c #58272B",
"F8@	c #5B282B",
"G8@	c #5A2726",
"H8@	c #5E292A",
"I8@	c #5F2A29",
"J8@	c #5B2A25",
"K8@	c #40171A",
"L8@	c #7D2226",
"M8@	c #C62D36",
"N8@	c #B02D37",
"O8@	c #985D5E",
"P8@	c #93615F",
"Q8@	c #966061",
"R8@	c #9A6363",
"S8@	c #9A6162",
"T8@	c #996163",
"U8@	c #9B6468",
"V8@	c #975F65",
"W8@	c #956065",
"X8@	c #946165",
"Y8@	c #946666",
"Z8@	c #7D5D68",
"`8@	c #8A879E",
" 9@	c #96B1C3",
".9@	c #96BACD",
"+9@	c #7DA5BC",
"@9@	c #6892AE",
"#9@	c #6690AE",
"$9@	c #7C9FB8",
"%9@	c #94B6C5",
"&9@	c #93BAC5",
"*9@	c #97C0CF",
"=9@	c #A3CADC",
"-9@	c #B3DCE9",
";9@	c #9CB3BB",
">9@	c #6E7078",
",9@	c #806269",
"'9@	c #8B5F5F",
")9@	c #986869",
"!9@	c #A07270",
"~9@	c #A76F6D",
"{9@	c #A5525B",
"]9@	c #96333B",
"^9@	c #A83D3B",
"/9@	c #C0443F",
"(9@	c #B72B36",
"_9@	c #9E2530",
":9@	c #C06454",
"<9@	c #F2A17A",
"[9@	c #F6AE6F",
"}9@	c #FAAA6C",
"|9@	c #F69F75",
"19@	c #F5A37C",
"29@	c #FCAD85",
"39@	c #EF825C",
"49@	c #F27A54",
"59@	c #F08D5B",
"69@	c #F1A666",
"79@	c #FDD188",
"89@	c #FDD78C",
"99@	c #FCC781",
"09@	c #FAAF71",
"a9@	c #F78E5E",
"b9@	c #F09865",
"c9@	c #F8B67D",
"d9@	c #EF8B5C",
"e9@	c #AF7274",
"f9@	c #3C4E8A",
"g9@	c #315298",
"h9@	c #2F529A",
"i9@	c #2E55A0",
"j9@	c #28519B",
"k9@	c #27539B",
"l9@	c #295396",
"m9@	c #2D5196",
"n9@	c #32548E",
"o9@	c #4C6B8B",
"p9@	c #5A7180",
"q9@	c #667983",
"r9@	c #6B8089",
"s9@	c #687F89",
"t9@	c #6C818C",
"u9@	c #6D7F8D",
"v9@	c #6C7E8C",
"w9@	c #6A7C8A",
"x9@	c #6B7F8A",
"y9@	c #6C838C",
"z9@	c #6B828B",
"A9@	c #6B828D",
"B9@	c #6A848E",
"C9@	c #6C838B",
"D9@	c #6C8288",
"E9@	c #8BB2B9",
"F9@	c #ABE3E6",
"G9@	c #A3E2E4",
"H9@	c #96D5DF",
"I9@	c #97D5E1",
"J9@	c #71A5B3",
"K9@	c #628394",
"L9@	c #627C8A",
"M9@	c #607B87",
"N9@	c #6B8290",
"O9@	c #677A89",
"P9@	c #6C7E8D",
"Q9@	c #37638F",
"R9@	c #1E519B",
"S9@	c #2D4EA1",
"T9@	c #4D4A93",
"U9@	c #D49393",
"V9@	c #FBAD7F",
"W9@	c #F4996C",
"X9@	c #F69F6C",
"Y9@	c #F3996A",
"Z9@	c #FBA571",
"`9@	c #F8A270",
" 0@	c #F09967",
".0@	c #EE9462",
"+0@	c #F18C5F",
"@0@	c #EB7753",
"#0@	c #F47056",
"$0@	c #EE7251",
"%0@	c #F36F54",
"&0@	c #EF3C37",
"*0@	c #F04C3F",
"=0@	c #EE6048",
"-0@	c #EF6951",
";0@	c #EA644F",
">0@	c #BF453A",
",0@	c #630A0A",
"'0@	c #660B0D",
")0@	c #A02727",
"!0@	c #BB313A",
"~0@	c #641719",
"{0@	c #622225",
"]0@	c #702A2C",
"^0@	c #652726",
"/0@	c #642623",
"(0@	c #652822",
"_0@	c #66271E",
":0@	c #532018",
"<0@	c #B56951",
"[0@	c #FBAE6F",
"}0@	c #F7B86D",
"|0@	c #F3AC68",
"10@	c #F0A266",
"20@	c #B36D4F",
"30@	c #572018",
"40@	c #652C24",
"50@	c #622E24",
"60@	c #6C483B",
"70@	c #BFAA95",
"80@	c #DDD6BD",
"90@	c #DAD9C0",
"00@	c #DBDBC1",
"a0@	c #B5B09D",
"b0@	c #722321",
"c0@	c #D12A30",
"d0@	c #DE2420",
"e0@	c #DB2120",
"f0@	c #DA1D23",
"g0@	c #E02228",
"h0@	c #D51C22",
"i0@	c #D21620",
"j0@	c #D1111E",
"k0@	c #D2111D",
"l0@	c #CD0C1B",
"m0@	c #9F0914",
"n0@	c #551E21",
"o0@	c #642A29",
"p0@	c #5E2828",
"q0@	c #44090D",
"r0@	c #A90E1C",
"s0@	c #D41728",
"t0@	c #D21921",
"u0@	c #D41323",
"v0@	c #A91323",
"w0@	c #470D0E",
"x0@	c #5F2C2B",
"y0@	c #602A2C",
"z0@	c #432120",
"A0@	c #301614",
"B0@	c #3E2421",
"C0@	c #391615",
"D0@	c #5C2A2E",
"E0@	c #5E242A",
"F0@	c #5B2926",
"G0@	c #5B2927",
"H0@	c #5C2B28",
"I0@	c #41191B",
"J0@	c #7F2226",
"K0@	c #C12932",
"L0@	c #AE2833",
"M0@	c #9A5B5E",
"N0@	c #946162",
"O0@	c #966163",
"P0@	c #9B6466",
"Q0@	c #996264",
"R0@	c #986063",
"S0@	c #975E63",
"T0@	c #956265",
"U0@	c #946166",
"V0@	c #966464",
"W0@	c #956664",
"X0@	c #885F64",
"Y0@	c #6F5466",
"Z0@	c #797F90",
"`0@	c #8EA5BA",
" a@	c #7F9DB7",
".a@	c #688EAF",
"+a@	c #6389AB",
"@a@	c #7998B3",
"#a@	c #95ADBF",
"$a@	c #96B2C1",
"%a@	c #99B3C3",
"&a@	c #97AFC0",
"*a@	c #8899A5",
"=a@	c #746872",
"-a@	c #7D5560",
";a@	c #925F66",
">a@	c #905A5C",
",a@	c #976363",
"'a@	c #9D7370",
")a@	c #A17271",
"!a@	c #995E64",
"~a@	c #884247",
"{a@	c #A94D4A",
"]a@	c #C34644",
"^a@	c #BE2D3B",
"/a@	c #A01D33",
"(a@	c #A94346",
"_a@	c #D37F66",
":a@	c #FCAC7A",
"<a@	c #F09663",
"[a@	c #CF6C52",
"}a@	c #CB6959",
"|a@	c #E58770",
"1a@	c #ED7C61",
"2a@	c #F07B59",
"3a@	c #F07A53",
"4a@	c #F17B55",
"5a@	c #F28C5B",
"6a@	c #F1905B",
"7a@	c #F0A265",
"8a@	c #FAC67E",
"9a@	c #F8C980",
"0a@	c #F5B975",
"aa@	c #F58B59",
"ba@	c #EC905A",
"ca@	c #F7AB72",
"da@	c #B37274",
"ea@	c #3C4C89",
"fa@	c #2F5197",
"ga@	c #2D5098",
"ha@	c #2C519C",
"ia@	c #29529C",
"ja@	c #264F99",
"ka@	c #23539B",
"la@	c #27569C",
"ma@	c #28539A",
"na@	c #2F5393",
"oa@	c #3A5988",
"pa@	c #577288",
"qa@	c #61757C",
"ra@	c #6A7F84",
"sa@	c #6A7F86",
"ta@	c #698089",
"ua@	c #6E818D",
"va@	c #6D7F8C",
"wa@	c #6C7E8B",
"xa@	c #6B7F89",
"ya@	c #6B818A",
"za@	c #6B818B",
"Aa@	c #6C828E",
"Ba@	c #6B838E",
"Ca@	c #6D848C",
"Da@	c #6C858A",
"Ea@	c #98C3C6",
"Fa@	c #ABE6E7",
"Ga@	c #A0E2E2",
"Ha@	c #95D5DE",
"Ia@	c #94D1DC",
"Ja@	c #6B9AA8",
"Ka@	c #658393",
"La@	c #657D8A",
"Ma@	c #667D8C",
"Na@	c #617C88",
"Oa@	c #617D89",
"Pa@	c #66808C",
"Qa@	c #6D7E8F",
"Ra@	c #416993",
"Sa@	c #1F529D",
"Ta@	c #1D549E",
"Ua@	c #1D529F",
"Va@	c #1D509F",
"Wa@	c #2B4DA0",
"Xa@	c #4B4892",
"Ya@	c #D48F92",
"Za@	c #FAAB7F",
"`a@	c #F1986A",
" b@	c #F49E6E",
".b@	c #F49F6B",
"+b@	c #F49D6E",
"@b@	c #F39A6A",
"#b@	c #F37055",
"$b@	c #EF7453",
"%b@	c #F27755",
"&b@	c #EF4039",
"*b@	c #F25444",
"=b@	c #F15E48",
"-b@	c #ED5D46",
";b@	c #F1634B",
">b@	c #EC5F49",
",b@	c #E65745",
"'b@	c #E75A4D",
")b@	c #A7342D",
"!b@	c #5D0C0F",
"~b@	c #5D0C10",
"{b@	c #671116",
"]b@	c #5A141B",
"^b@	c #441517",
"/b@	c #662825",
"(b@	c #642723",
"_b@	c #642720",
":b@	c #66281E",
"<b@	c #53231B",
"[b@	c #A55B43",
"}b@	c #F5BA6D",
"|b@	c #DB935E",
"1b@	c #6B3523",
"2b@	c #572524",
"3b@	c #672C29",
"4b@	c #652B21",
"5b@	c #613328",
"6b@	c #8E7A68",
"7b@	c #D0C9AE",
"8b@	c #DAD9BD",
"9b@	c #DADABE",
"0b@	c #DBDBC0",
"ab@	c #D9DAC0",
"bb@	c #D6D8C0",
"cb@	c #867C6E",
"db@	c #962527",
"eb@	c #DB2A2F",
"fb@	c #DC2421",
"gb@	c #DC2020",
"hb@	c #DE2429",
"ib@	c #DB2328",
"jb@	c #D31A21",
"kb@	c #D1151F",
"lb@	c #D31320",
"mb@	c #CF0F1C",
"nb@	c #D00F1C",
"ob@	c #D00D1D",
"pb@	c #CA071B",
"qb@	c #920610",
"rb@	c #552125",
"sb@	c #632929",
"tb@	c #5D2828",
"ub@	c #440A0D",
"vb@	c #B11623",
"wb@	c #D61A29",
"xb@	c #CE1620",
"yb@	c #CE1224",
"zb@	c #740811",
"Ab@	c #4D201D",
"Bb@	c #632A28",
"Cb@	c #642628",
"Db@	c #622828",
"Eb@	c #2A0F0C",
"Fb@	c #28120E",
"Gb@	c #4E2626",
"Hb@	c #5E2328",
"Ib@	c #5B2A24",
"Jb@	c #5B2825",
"Kb@	c #5D2A26",
"Lb@	c #582923",
"Mb@	c #401619",
"Nb@	c #8B2129",
"Ob@	c #C42731",
"Pb@	c #AF2733",
"Qb@	c #9A595D",
"Rb@	c #936062",
"Sb@	c #956264",
"Tb@	c #976264",
"Ub@	c #945D60",
"Vb@	c #955F62",
"Wb@	c #965E64",
"Xb@	c #966367",
"Yb@	c #936065",
"Zb@	c #966465",
"`b@	c #956464",
" c@	c #8E6063",
".c@	c #885C63",
"+c@	c #6B535D",
"@c@	c #67606F",
"#c@	c #676B80",
"$c@	c #636E88",
"%c@	c #647390",
"&c@	c #6D7B94",
"*c@	c #808598",
"=c@	c #828291",
"-c@	c #817C8B",
";c@	c #766E79",
">c@	c #755A63",
",c@	c #91565E",
"'c@	c #9D535A",
")c@	c #A15B5D",
"!c@	c #9B5C5C",
"~c@	c #986463",
"{c@	c #9F7B76",
"]c@	c #9B7171",
"^c@	c #885659",
"/c@	c #8A4D4C",
"(c@	c #AB514B",
"_c@	c #CE524D",
":c@	c #C0353F",
"<c@	c #9F1C33",
"[c@	c #9E3241",
"}c@	c #B45A51",
"|c@	c #F49F7B",
"1c@	c #D5714C",
"2c@	c #B44032",
"3c@	c #A12C2C",
"4c@	c #B2433D",
"5c@	c #E46B60",
"6c@	c #EF7661",
"7c@	c #F48356",
"8c@	c #F07D53",
"9c@	c #EF8959",
"0c@	c #F08F5B",
"ac@	c #F19C62",
"bc@	c #F5B26E",
"cc@	c #F1B370",
"dc@	c #F1A96B",
"ec@	c #F69C65",
"fc@	c #F78F5E",
"gc@	c #F58A5A",
"hc@	c #B57074",
"ic@	c #3D4C89",
"jc@	c #2D5095",
"kc@	c #2B4F97",
"lc@	c #26509A",
"mc@	c #28569C",
"nc@	c #2C569D",
"oc@	c #265098",
"pc@	c #275398",
"qc@	c #32548C",
"rc@	c #4C6789",
"sc@	c #5E7785",
"tc@	c #677B80",
"uc@	c #6B7F85",
"vc@	c #677C84",
"wc@	c #677D87",
"xc@	c #657D87",
"yc@	c #687F8A",
"zc@	c #6B7D8A",
"Ac@	c #6D8189",
"Bc@	c #6C828A",
"Cc@	c #6C848B",
"Dc@	c #6F8D90",
"Ec@	c #A4D4D7",
"Fc@	c #ABE9E9",
"Gc@	c #A4E7E6",
"Hc@	c #95D4DD",
"Ic@	c #92CCD7",
"Jc@	c #6992A0",
"Kc@	c #657C89",
"Lc@	c #637E88",
"Mc@	c #6D7E90",
"Nc@	c #687F90",
"Oc@	c #4A7095",
"Pc@	c #21519C",
"Qc@	c #1D529D",
"Rc@	c #1D519E",
"Sc@	c #2C4DA3",
"Tc@	c #4B4792",
"Uc@	c #CF888C",
"Vc@	c #F1A175",
"Wc@	c #EE9869",
"Xc@	c #F69F72",
"Yc@	c #F6A172",
"Zc@	c #EE9865",
"`c@	c #F39B6C",
" d@	c #EF9764",
".d@	c #F49D6B",
"+d@	c #F89D6F",
"@d@	c #FA9D6E",
"#d@	c #EE7754",
"$d@	c #EF5D47",
"%d@	c #EB5A43",
"&d@	c #F4554B",
"*d@	c #E54B45",
"=d@	c #9D2A27",
"-d@	c #600D13",
";d@	c #531817",
">d@	c #350C09",
",d@	c #270906",
"'d@	c #582722",
")d@	c #672925",
"!d@	c #642822",
"~d@	c #642821",
"{d@	c #662B21",
"]d@	c #582B25",
"^d@	c #99513C",
"/d@	c #F4A568",
"(d@	c #F9B76E",
"_d@	c #F6AE74",
":d@	c #9A6141",
"<d@	c #541F19",
"[d@	c #5F2C25",
"}d@	c #672A24",
"|d@	c #60291E",
"1d@	c #6F4C3F",
"2d@	c #BEB39D",
"3d@	c #D6D9BA",
"4d@	c #D7DCBE",
"5d@	c #D8D9BB",
"6d@	c #D3D0B7",
"7d@	c #6B4A42",
"8d@	c #B6292E",
"9d@	c #E0232A",
"0d@	c #E12326",
"ad@	c #DE2022",
"bd@	c #DE1E24",
"cd@	c #DA1B22",
"dd@	c #DA2127",
"ed@	c #D41A21",
"fd@	c #D21721",
"gd@	c #D51623",
"hd@	c #CE0E1C",
"id@	c #CC0E1B",
"jd@	c #CA091B",
"kd@	c #C9081E",
"ld@	c #8C050F",
"md@	c #562127",
"nd@	c #430A0D",
"od@	c #B51927",
"pd@	c #D11422",
"qd@	c #A30F1A",
"rd@	c #510F11",
"sd@	c #5C2925",
"td@	c #622A28",
"ud@	c #632625",
"vd@	c #632425",
"wd@	c #63272B",
"xd@	c #3F1E1D",
"yd@	c #321A17",
"zd@	c #572C2B",
"Ad@	c #5A2728",
"Bd@	c #5A2626",
"Cd@	c #5C2825",
"Dd@	c #5F2C26",
"Ed@	c #5F2A27",
"Fd@	c #5E2925",
"Gd@	c #592C25",
"Hd@	c #451518",
"Id@	c #9E2330",
"Jd@	c #C82531",
"Kd@	c #B02734",
"Ld@	c #9B585E",
"Md@	c #905C60",
"Nd@	c #956366",
"Od@	c #966064",
"Pd@	c #925D60",
"Qd@	c #915F61",
"Rd@	c #946265",
"Sd@	c #966468",
"Td@	c #986567",
"Ud@	c #976769",
"Vd@	c #926465",
"Wd@	c #916461",
"Xd@	c #8E6566",
"Yd@	c #835D64",
"Zd@	c #74525F",
"`d@	c #6A4E5D",
" e@	c #624D5B",
".e@	c #63525C",
"+e@	c #6A525B",
"@e@	c #75535E",
"#e@	c #825A62",
"$e@	c #825A5E",
"%e@	c #92575A",
"&e@	c #A64E50",
"*e@	c #B04A4E",
"=e@	c #B15353",
"-e@	c #A65C5C",
";e@	c #A3736E",
">e@	c #A27F79",
",e@	c #996C6D",
"'e@	c #8A5250",
")e@	c #A15650",
"!e@	c #B04F43",
"~e@	c #D45A51",
"{e@	c #BF3E41",
"]e@	c #9B1C2E",
"^e@	c #962A3D",
"/e@	c #A84849",
"(e@	c #D1765E",
"_e@	c #C4563B",
":e@	c #C3443B",
"<e@	c #AD2B31",
"[e@	c #A11F26",
"}e@	c #BC3E42",
"|e@	c #E46760",
"1e@	c #F47F68",
"2e@	c #F37E59",
"3e@	c #E87652",
"4e@	c #F69763",
"5e@	c #F39B63",
"6e@	c #F29F60",
"7e@	c #F0A264",
"8e@	c #F29F66",
"9e@	c #F4895A",
"0e@	c #F78B5E",
"ae@	c #B66F74",
"be@	c #3E4B89",
"ce@	c #2C5095",
"de@	c #2C549D",
"ee@	c #25519A",
"fe@	c #27539C",
"ge@	c #29569A",
"he@	c #2B569B",
"ie@	c #2D569D",
"je@	c #28529A",
"ke@	c #254F97",
"le@	c #275199",
"me@	c #3C5C8E",
"ne@	c #58738D",
"oe@	c #6A7E86",
"pe@	c #647983",
"qe@	c #647A86",
"re@	c #677D88",
"se@	c #667D88",
"te@	c #667E88",
"ue@	c #6B7D89",
"ve@	c #6D7F8B",
"we@	c #6D8289",
"xe@	c #6E848B",
"ye@	c #6D848A",
"ze@	c #6B8289",
"Ae@	c #6D848F",
"Be@	c #6C858B",
"Ce@	c #76969A",
"De@	c #AADDE1",
"Ee@	c #ACECEE",
"Fe@	c #A3E8E7",
"Ge@	c #97D7DE",
"He@	c #95CDD7",
"Ie@	c #698D9B",
"Je@	c #647D88",
"Ke@	c #617C87",
"Le@	c #6E7E91",
"Me@	c #517495",
"Ne@	c #22539A",
"Oe@	c #1D53A0",
"Pe@	c #2C4EA4",
"Qe@	c #4B4692",
"Re@	c #CE858B",
"Se@	c #F0A073",
"Te@	c #F3A472",
"Ue@	c #F8A776",
"Ve@	c #F59B67",
"We@	c #F19361",
"Xe@	c #F89B6F",
"Ye@	c #FB9F70",
"Ze@	c #EE7854",
"`e@	c #F8785B",
" f@	c #EE483C",
".f@	c #F45E49",
"+f@	c #F6664D",
"@f@	c #F06149",
"#f@	c #ED5241",
"$f@	c #DA3F3E",
"%f@	c #9A1F26",
"&f@	c #61191A",
"*f@	c #5B2723",
"=f@	c #441A17",
"-f@	c #56211D",
";f@	c #662B26",
">f@	c #642824",
",f@	c #652F22",
"'f@	c #66372D",
")f@	c #803F2D",
"!f@	c #F19F67",
"~f@	c #C4805E",
"{f@	c #512318",
"]f@	c #642A24",
"^f@	c #642B23",
"/f@	c #5F3123",
"(f@	c #9E8975",
"_f@	c #D4D3B8",
":f@	c #D6DABC",
"<f@	c #D8DABF",
"[f@	c #D6D8BC",
"}f@	c #DAD6BB",
"|f@	c #DAD8BF",
"1f@	c #BBB59E",
"2f@	c #702827",
"3f@	c #C92933",
"4f@	c #DD2129",
"5f@	c #E02227",
"6f@	c #DF2128",
"7f@	c #DC1E24",
"8f@	c #D31B24",
"9f@	c #D01020",
"0f@	c #D01121",
"af@	c #CB0C1D",
"bf@	c #C6081D",
"cf@	c #86050F",
"df@	c #552226",
"ef@	c #612A28",
"ff@	c #450B0F",
"gf@	c #BA1C29",
"hf@	c #C51224",
"if@	c #68090D",
"jf@	c #4E1F21",
"kf@	c #602A27",
"lf@	c #642C27",
"mf@	c #622A27",
"nf@	c #612726",
"of@	c #612525",
"pf@	c #62262A",
"qf@	c #4B2325",
"rf@	c #3A201E",
"sf@	c #5B2B2D",
"tf@	c #592723",
"uf@	c #5D2926",
"vf@	c #602B27",
"wf@	c #5F2825",
"xf@	c #5B2A26",
"yf@	c #4A191C",
"zf@	c #AC2939",
"Af@	c #C72434",
"Bf@	c #AC232F",
"Cf@	c #9A585B",
"Df@	c #8F5C5F",
"Ef@	c #946365",
"Ff@	c #915F60",
"Gf@	c #925F61",
"Hf@	c #925F62",
"If@	c #946064",
"Jf@	c #9E6A6F",
"Kf@	c #966567",
"Lf@	c #946766",
"Mf@	c #926665",
"Nf@	c #916564",
"Of@	c #926966",
"Pf@	c #916966",
"Qf@	c #90666B",
"Rf@	c #8A6363",
"Sf@	c #896561",
"Tf@	c #87615E",
"Uf@	c #8E5F60",
"Vf@	c #905B5B",
"Wf@	c #8E5E59",
"Xf@	c #985C54",
"Yf@	c #A54943",
"Zf@	c #AE3E3C",
"`f@	c #B04745",
" g@	c #A2514B",
".g@	c #A9776E",
"+g@	c #AA7B74",
"@g@	c #A26663",
"#g@	c #9C5C55",
"$g@	c #B35F53",
"%g@	c #BC5244",
"&g@	c #C75248",
"*g@	c #B33F3A",
"=g@	c #911F29",
"-g@	c #902D34",
";g@	c #A64843",
">g@	c #B5583C",
",g@	c #DA6545",
"'g@	c #CF4F3E",
")g@	c #C23E3D",
"!g@	c #A21F26",
"~g@	c #9A1A26",
"{g@	c #BF434A",
"]g@	c #EC7667",
"^g@	c #EF7F55",
"/g@	c #F28D5D",
"(g@	c #F18959",
"_g@	c #F48B5A",
":g@	c #B97070",
"<g@	c #414C89",
"[g@	c #2F5096",
"}g@	c #2B529B",
"|g@	c #28529D",
"1g@	c #25529C",
"2g@	c #24539A",
"3g@	c #26539A",
"4g@	c #29549C",
"5g@	c #29549B",
"6g@	c #285296",
"7g@	c #305597",
"8g@	c #506C94",
"9g@	c #5E798B",
"0g@	c #667B86",
"ag@	c #617581",
"bg@	c #657985",
"cg@	c #667B88",
"dg@	c #667D87",
"eg@	c #637D84",
"fg@	c #647F86",
"gg@	c #668189",
"hg@	c #68838B",
"ig@	c #6B878F",
"jg@	c #6F868F",
"kg@	c #6E838C",
"lg@	c #6B7F88",
"mg@	c #698087",
"ng@	c #6C838A",
"og@	c #6D868B",
"pg@	c #6E858E",
"qg@	c #6C868E",
"rg@	c #86A8AE",
"sg@	c #ACE4E6",
"tg@	c #ADECEC",
"ug@	c #A6E8EB",
"vg@	c #9EDEE4",
"wg@	c #98CDD8",
"xg@	c #6A8795",
"yg@	c #647C88",
"zg@	c #617C86",
"Ag@	c #6C7F90",
"Bg@	c #687D8D",
"Cg@	c #537697",
"Dg@	c #245697",
"Eg@	c #2852A1",
"Fg@	c #2C4FA1",
"Gg@	c #494990",
"Hg@	c #D18C91",
"Ig@	c #F7AA7A",
"Jg@	c #FCB17D",
"Kg@	c #F6AB7B",
"Lg@	c #F8A677",
"Mg@	c #F5996A",
"Ng@	c #F09263",
"Og@	c #F4956A",
"Pg@	c #ED7656",
"Qg@	c #F5765C",
"Rg@	c #F98863",
"Sg@	c #ED7A55",
"Tg@	c #F04B3E",
"Ug@	c #F76B51",
"Vg@	c #F46A4F",
"Wg@	c #EF5E46",
"Xg@	c #F05B46",
"Yg@	c #F1443B",
"Zg@	c #DA353C",
"`g@	c #8A1116",
" h@	c #682620",
".h@	c #6B2C2A",
"+h@	c #6B2B27",
"@h@	c #672E24",
"#h@	c #5E2F26",
"$h@	c #653022",
"%h@	c #D79265",
"&h@	c #6C3926",
"*h@	c #502320",
"=h@	c #602C25",
"-h@	c #612B23",
";h@	c #632F24",
">h@	c #785847",
",h@	c #CEC0A8",
"'h@	c #D8D9BD",
")h@	c #DBD9C2",
"!h@	c #D7D8BE",
"~h@	c #D9D5BA",
"{h@	c #D7D3BD",
"]h@	c #887F6E",
"^h@	c #961E28",
"/h@	c #D22631",
"(h@	c #DB2128",
"_h@	c #DD2126",
":h@	c #DD2128",
"<h@	c #D91E28",
"[h@	c #D31924",
"}h@	c #D41624",
"|h@	c #CD0E1F",
"1h@	c #CD101F",
"2h@	c #CA0B1D",
"3h@	c #C6071B",
"4h@	c #C3061B",
"5h@	c #81050F",
"6h@	c #552325",
"7h@	c #B7242F",
"8h@	c #9F111F",
"9h@	c #4E0C0E",
"0h@	c #592526",
"ah@	c #612A25",
"bh@	c #602826",
"ch@	c #632529",
"dh@	c #391D1B",
"eh@	c #5D292A",
"fh@	c #5A2824",
"gh@	c #5D2725",
"hh@	c #522725",
"ih@	c #4A161D",
"jh@	c #B52C42",
"kh@	c #C82537",
"lh@	c #A81F2B",
"mh@	c #97595A",
"nh@	c #905E60",
"oh@	c #936264",
"ph@	c #8E5D5E",
"qh@	c #956465",
"rh@	c #9D6A6C",
"sh@	c #946565",
"th@	c #926464",
"uh@	c #916665",
"vh@	c #93696A",
"wh@	c #956B6B",
"xh@	c #916B69",
"yh@	c #926B6A",
"zh@	c #956868",
"Ah@	c #946863",
"Bh@	c #936963",
"Ch@	c #8E645F",
"Dh@	c #906158",
"Eh@	c #945E56",
"Fh@	c #986B5F",
"Gh@	c #9B695C",
"Hh@	c #A05346",
"Ih@	c #A3483F",
"Jh@	c #A74F44",
"Kh@	c #AC6755",
"Lh@	c #C0826F",
"Mh@	c #BC6F64",
"Nh@	c #AE524E",
"Oh@	c #B36151",
"Ph@	c #BB6249",
"Qh@	c #C96048",
"Rh@	c #CA5748",
"Sh@	c #B24A40",
"Th@	c #9D4E43",
"Uh@	c #A06049",
"Vh@	c #A5593C",
"Wh@	c #D17F4D",
"Xh@	c #D45139",
"Yh@	c #CF4C46",
"Zh@	c #AA282E",
"`h@	c #971425",
" i@	c #A42834",
".i@	c #C4514B",
"+i@	c #E2755B",
"@i@	c #F8875E",
"#i@	c #F78560",
"$i@	c #F68760",
"%i@	c #F08657",
"&i@	c #F68C5F",
"*i@	c #F38A5C",
"=i@	c #F08857",
"-i@	c #F38A59",
";i@	c #BB706F",
">i@	c #424C89",
",i@	c #315197",
"'i@	c #2D509A",
")i@	c #2C529A",
"!i@	c #285199",
"~i@	c #255299",
"{i@	c #255398",
"]i@	c #275499",
"^i@	c #2A569C",
"/i@	c #26559C",
"(i@	c #2A5597",
"_i@	c #3F5F93",
":i@	c #597391",
"<i@	c #5E7985",
"[i@	c #5E7982",
"}i@	c #5F7882",
"|i@	c #5E7881",
"1i@	c #647F88",
"2i@	c #638288",
"3i@	c #6A8B8F",
"4i@	c #719396",
"5i@	c #789A9D",
"6i@	c #82A3A7",
"7i@	c #89A9AD",
"8i@	c #8DA9AF",
"9i@	c #8BA5AA",
"0i@	c #8CA4A9",
"ai@	c #89A1A6",
"bi@	c #809C9D",
"ci@	c #789495",
"di@	c #728E8F",
"ei@	c #6D898A",
"fi@	c #6D878B",
"gi@	c #6D888E",
"hi@	c #6B8A8F",
"ii@	c #94BDC0",
"ji@	c #AFEAEB",
"ki@	c #ACE9EC",
"li@	c #A8E6EC",
"mi@	c #A4E3EA",
"ni@	c #6B8693",
"oi@	c #637B88",
"pi@	c #607A87",
"qi@	c #617B88",
"ri@	c #637C88",
"si@	c #6E8290",
"ti@	c #557896",
"ui@	c #255894",
"vi@	c #1E53A0",
"wi@	c #2A4FA0",
"xi@	c #4A4C91",
"yi@	c #D59296",
"zi@	c #FCB381",
"Ai@	c #FAB27B",
"Bi@	c #F7AE7D",
"Ci@	c #F7A576",
"Di@	c #F09365",
"Ei@	c #F59B6C",
"Fi@	c #EE7354",
"Gi@	c #EF7655",
"Hi@	c #F27B56",
"Ii@	c #F17253",
"Ji@	c #F7815D",
"Ki@	c #ED694F",
"Li@	c #EF4C3E",
"Mi@	c #F06148",
"Ni@	c #F26B4E",
"Oi@	c #EF6448",
"Pi@	c #ED5B44",
"Qi@	c #EA3B34",
"Ri@	c #C52728",
"Si@	c #771911",
"Ti@	c #6F2A21",
"Ui@	c #6F312A",
"Vi@	c #662724",
"Wi@	c #6A2B26",
"Xi@	c #692C26",
"Yi@	c #592B23",
"Zi@	c #4F261E",
"`i@	c #DC8A70",
" j@	c #8F513B",
".j@	c #491915",
"+j@	c #5B2C28",
"@j@	c #602B22",
"#j@	c #602D22",
"$j@	c #683F30",
"%j@	c #AA967F",
"&j@	c #D9D4B9",
"*j@	c #DBDBBF",
"=j@	c #DEDBC1",
"-j@	c #DDD7C3",
";j@	c #D8D5BE",
">j@	c #D9D4BB",
",j@	c #CCC3B0",
"'j@	c #6D4942",
")j@	c #BF2633",
"!j@	c #DB2330",
"~j@	c #D91F25",
"{j@	c #DB2124",
"]j@	c #D81E24",
"^j@	c #D31823",
"/j@	c #D61825",
"(j@	c #D21121",
"_j@	c #CC0E1D",
":j@	c #C90C1B",
"<j@	c #C6071A",
"[j@	c #BF0419",
"}j@	c #7A050E",
"|j@	c #552424",
"1j@	c #622826",
"2j@	c #450E11",
"3j@	c #B6242F",
"4j@	c #CD162B",
"5j@	c #690812",
"6j@	c #4A1E1F",
"7j@	c #602827",
"8j@	c #602925",
"9j@	c #602927",
"0j@	c #612626",
"aj@	c #62252A",
"bj@	c #502326",
"cj@	c #381A18",
"dj@	c #5B2A2B",
"ej@	c #5B2929",
"fj@	c #5D2825",
"gj@	c #5E2824",
"hj@	c #5A2827",
"ij@	c #411E1E",
"jj@	c #3E0E16",
"kj@	c #AF2A43",
"lj@	c #CC2B3F",
"mj@	c #AB232D",
"nj@	c #995C5C",
"oj@	c #915F62",
"pj@	c #905E5F",
"qj@	c #8F5D5E",
"rj@	c #915F5F",
"sj@	c #926263",
"tj@	c #946363",
"uj@	c #906161",
"vj@	c #916463",
"wj@	c #916766",
"xj@	c #966C6F",
"yj@	c #966D70",
"zj@	c #906A68",
"Aj@	c #8E6A65",
"Bj@	c #936863",
"Cj@	c #95685F",
"Dj@	c #93685E",
"Ej@	c #966A61",
"Fj@	c #9A6B60",
"Gj@	c #A57165",
"Hj@	c #AA8270",
"Ij@	c #A9836C",
"Jj@	c #B07B62",
"Kj@	c #B87963",
"Lj@	c #BA765F",
"Mj@	c #D7967A",
"Nj@	c #D07E66",
"Oj@	c #9F2F2E",
"Pj@	c #B2594A",
"Qj@	c #CC7656",
"Rj@	c #D16C4D",
"Sj@	c #BF513E",
"Tj@	c #BE5A4B",
"Uj@	c #D59077",
"Vj@	c #C7956A",
"Wj@	c #B5844B",
"Xj@	c #F4B069",
"Yj@	c #EB7E46",
"Zj@	c #D55335",
"`j@	c #D14F47",
" k@	c #A5232B",
".k@	c #9D1A2D",
"+k@	c #A02335",
"@k@	c #AF4147",
"#k@	c #C3584D",
"$k@	c #F38457",
"%k@	c #F99362",
"&k@	c #F58D5D",
"*k@	c #F58C5C",
"=k@	c #BD706D",
"-k@	c #444B88",
";k@	c #325097",
">k@	c #2F519B",
",k@	c #2A5499",
"'k@	c #275598",
")k@	c #265599",
"!k@	c #2C579C",
"~k@	c #2A59A0",
"{k@	c #28589B",
"]k@	c #325993",
"^k@	c #4F6A8A",
"/k@	c #5B7583",
"(k@	c #5A787F",
"_k@	c #5A7880",
":k@	c #5B7B82",
"<k@	c #5F8187",
"[k@	c #6C8E94",
"}k@	c #789CA1",
"|k@	c #83AAAC",
"1k@	c #91B9B9",
"2k@	c #9BC4C3",
"3k@	c #9EC7C6",
"4k@	c #A4CDCC",
"5k@	c #A9CECF",
"6k@	c #ABCED0",
"7k@	c #B0CFD0",
"8k@	c #AFCDCD",
"9k@	c #AACAC8",
"0k@	c #A3C3C0",
"ak@	c #99B9B6",
"bk@	c #88A8A5",
"ck@	c #769495",
"dk@	c #6E8C8F",
"ek@	c #6A8F90",
"fk@	c #9DCFCE",
"gk@	c #ACECEA",
"hk@	c #A6E1E6",
"ik@	c #ACE8ED",
"jk@	c #AAE9F0",
"kk@	c #8FC0CA",
"lk@	c #6A8390",
"mk@	c #637A89",
"nk@	c #637C8D",
"ok@	c #617C8C",
"pk@	c #587995",
"qk@	c #275890",
"rk@	c #294F9F",
"sk@	c #464B8F",
"tk@	c #D39395",
"uk@	c #FBB582",
"vk@	c #F3AC74",
"wk@	c #F7AD7A",
"xk@	c #EB8F63",
"yk@	c #F19768",
"zk@	c #F19A6A",
"Ak@	c #F39C6B",
"Bk@	c #F7A06E",
"Ck@	c #F89F6D",
"Dk@	c #F4976A",
"Ek@	c #F06F53",
"Fk@	c #F37157",
"Gk@	c #F17853",
"Hk@	c #EC6B4C",
"Ik@	c #F47F5A",
"Jk@	c #F5684F",
"Kk@	c #ED6649",
"Lk@	c #EE694B",
"Mk@	c #EE5640",
"Nk@	c #E83C34",
"Ok@	c #E53930",
"Pk@	c #DE3E35",
"Qk@	c #B7483C",
"Rk@	c #712216",
"Sk@	c #642722",
"Tk@	c #652925",
"Uk@	c #592A25",
"Vk@	c #371A15",
"Wk@	c #7E453B",
"Xk@	c #521F19",
"Yk@	c #562621",
"Zk@	c #602C24",
"`k@	c #632923",
" l@	c #613125",
".l@	c #846856",
"+l@	c #D0C3A9",
"@l@	c #DBDABD",
"#l@	c #DCDBC1",
"$l@	c #D8D3BF",
"%l@	c #D9D4BC",
"&l@	c #B1A394",
"*l@	c #6F2A27",
"=l@	c #D22734",
"-l@	c #DA1E2A",
";l@	c #D91E24",
">l@	c #D71C24",
",l@	c #DC2326",
"'l@	c #DB2026",
")l@	c #D61923",
"!l@	c #D41622",
"~l@	c #D41523",
"{l@	c #CF101F",
"]l@	c #C60B19",
"^l@	c #C60719",
"/l@	c #C20317",
"(l@	c #BE0318",
"_l@	c #74050D",
":l@	c #562626",
"<l@	c #632826",
"[l@	c #5C2626",
"}l@	c #410D0E",
"|l@	c #AF1E2B",
"1l@	c #AF1525",
"2l@	c #4C0F13",
"3l@	c #572629",
"4l@	c #602928",
"5l@	c #612727",
"6l@	c #61272B",
"7l@	c #4E2325",
"8l@	c #3B1D1B",
"9l@	c #5B2B2B",
"0l@	c #5A2625",
"al@	c #5A2623",
"bl@	c #5C2725",
"cl@	c #5D2724",
"dl@	c #5C2723",
"el@	c #592828",
"fl@	c #2D1010",
"gl@	c #2E0D0E",
"hl@	c #932439",
"il@	c #CC3347",
"jl@	c #B02731",
"kl@	c #995D5A",
"ll@	c #905D60",
"ml@	c #8E5C5E",
"nl@	c #8E5C5D",
"ol@	c #91605F",
"pl@	c #905F5D",
"ql@	c #8F625F",
"rl@	c #936160",
"sl@	c #916361",
"tl@	c #946B69",
"ul@	c #956C6E",
"vl@	c #946D6E",
"wl@	c #916C69",
"xl@	c #916C67",
"yl@	c #966E69",
"zl@	c #966E64",
"Al@	c #977061",
"Bl@	c #9F7965",
"Cl@	c #AC826D",
"Dl@	c #B4846F",
"El@	c #BD977C",
"Fl@	c #B99A79",
"Gl@	c #C69F7B",
"Hl@	c #CA9A76",
"Il@	c #AD7050",
"Jl@	c #BE7D5C",
"Kl@	c #BB6142",
"Ll@	c #A83F2E",
"Ml@	c #983B33",
"Nl@	c #A8634E",
"Ol@	c #D4936F",
"Pl@	c #CA7C56",
"Ql@	c #9C4A2B",
"Rl@	c #904124",
"Sl@	c #B87555",
"Tl@	c #B88A58",
"Ul@	c #E3C77D",
"Vl@	c #FCD07C",
"Wl@	c #ED8D4E",
"Xl@	c #D75937",
"Yl@	c #C94742",
"Zl@	c #A92430",
"`l@	c #A21F35",
" m@	c #A2263A",
".m@	c #A8404D",
"+m@	c #B54E4E",
"@m@	c #E77A64",
"#m@	c #F17D56",
"$m@	c #EF7F54",
"%m@	c #F48259",
"&m@	c #BE706C",
"*m@	c #464B88",
"=m@	c #345198",
"-m@	c #30519B",
";m@	c #2E539B",
">m@	c #275599",
",m@	c #275699",
"'m@	c #295699",
")m@	c #2B569A",
"!m@	c #28569E",
"~m@	c #275596",
"{m@	c #3E608E",
"]m@	c #556D7F",
"^m@	c #567275",
"/m@	c #597B7E",
"(m@	c #66898F",
"_m@	c #769AA0",
":m@	c #88ADB1",
"<m@	c #97BDC0",
"[m@	c #A0C6C9",
"}m@	c #A0CACA",
"|m@	c #A2CDCB",
"1m@	c #A4D1CD",
"2m@	c #A4D0CC",
"3m@	c #A5D1CD",
"4m@	c #A9D2CF",
"5m@	c #AFD2CE",
"6m@	c #AED0CB",
"7m@	c #B0D2CD",
"8m@	c #AED3CE",
"9m@	c #ADD3CF",
"0m@	c #ACD0CC",
"am@	c #A8CBC9",
"bm@	c #A0C0C1",
"cm@	c #88AAAA",
"dm@	c #77A39F",
"em@	c #A5DCD5",
"fm@	c #A2E5DF",
"gm@	c #99D6D7",
"hm@	c #A9E4E9",
"im@	c #ABEBF1",
"jm@	c #85B3BF",
"km@	c #69818E",
"lm@	c #627D8B",
"mm@	c #5D7C96",
"nm@	c #2B5B8F",
"om@	c #2650A1",
"pm@	c #284FA0",
"qm@	c #464D90",
"rm@	c #D39596",
"sm@	c #F4AE78",
"tm@	c #EEA46B",
"um@	c #F5A875",
"vm@	c #F7A575",
"wm@	c #F1976C",
"xm@	c #F59B6D",
"ym@	c #F59A66",
"zm@	c #F48E66",
"Am@	c #F27456",
"Bm@	c #F27853",
"Cm@	c #EF5948",
"Dm@	c #F86B52",
"Em@	c #ED6749",
"Fm@	c #F4664C",
"Gm@	c #ED5540",
"Hm@	c #EA473A",
"Im@	c #E84037",
"Jm@	c #E83A34",
"Km@	c #E4362E",
"Lm@	c #E45142",
"Mm@	c #EB7F68",
"Nm@	c #8A3828",
"Om@	c #692720",
"Pm@	c #6A2E29",
"Qm@	c #642A26",
"Rm@	c #622721",
"Sm@	c #5B2B26",
"Tm@	c #2D1912",
"Um@	c #2F0B08",
"Vm@	c #512420",
"Wm@	c #5D2822",
"Xm@	c #60281E",
"Ym@	c #612620",
"Zm@	c #6D4638",
"`m@	c #BAA891",
" n@	c #DDD8BC",
".n@	c #D7D8BA",
"+n@	c #DAD8BB",
"@n@	c #D9D9BD",
"#n@	c #D6D3BE",
"$n@	c #D6D2BD",
"%n@	c #D1D0B8",
"&n@	c #7F6C60",
"*n@	c #912226",
"=n@	c #D4242E",
"-n@	c #D81E27",
";n@	c #D81E26",
">n@	c #DC232A",
",n@	c #DD242A",
"'n@	c #DC2327",
")n@	c #CE0D1E",
"!n@	c #C80A1A",
"~n@	c #C60B1A",
"{n@	c #C40617",
"]n@	c #C00215",
"^n@	c #BB0317",
"/n@	c #6F060D",
"(n@	c #562525",
"_n@	c #642826",
":n@	c #5C2726",
"<n@	c #3E0C0D",
"[n@	c #9F1826",
"}n@	c #800C15",
"|n@	c #511F20",
"1n@	c #5E2726",
"2n@	c #5C2525",
"3n@	c #5E2725",
"4n@	c #612928",
"5n@	c #612828",
"6n@	c #60282B",
"7n@	c #4D2326",
"8n@	c #3C1F1D",
"9n@	c #5A2B29",
"0n@	c #5A2624",
"an@	c #5F2626",
"bn@	c #301515",
"cn@	c #371E1B",
"dn@	c #6F1A26",
"en@	c #C73447",
"fn@	c #B42933",
"gn@	c #9B5B5B",
"hn@	c #8F5F60",
"in@	c #905F5F",
"jn@	c #926161",
"kn@	c #91615F",
"ln@	c #8E615E",
"mn@	c #936766",
"nn@	c #926866",
"on@	c #936B69",
"pn@	c #956D6E",
"qn@	c #95706E",
"rn@	c #92716C",
"sn@	c #99746F",
"tn@	c #A07972",
"un@	c #9F7C6E",
"vn@	c #A2826C",
"wn@	c #B39776",
"xn@	c #C29E79",
"yn@	c #AE7E5A",
"zn@	c #C9A27A",
"An@	c #CAAB7D",
"Bn@	c #CAA878",
"Cn@	c #C89D70",
"Dn@	c #BF8A63",
"En@	c #BD845B",
"Fn@	c #BF7B51",
"Gn@	c #BB7555",
"Hn@	c #B4755E",
"In@	c #C59677",
"Jn@	c #D6A981",
"Kn@	c #D6A073",
"Ln@	c #D19E6D",
"Mn@	c #CCA26C",
"Nn@	c #BA7E50",
"On@	c #C49E67",
"Pn@	c #F3E191",
"Qn@	c #FBDC82",
"Rn@	c #F6A061",
"Sn@	c #E16445",
"Tn@	c #BF3B37",
"Un@	c #AE2936",
"Vn@	c #A41F33",
"Wn@	c #A02337",
"Xn@	c #A74050",
"Yn@	c #AE4B4E",
"Zn@	c #DE725F",
"`n@	c #EE835B",
" o@	c #F17E57",
".o@	c #EF7956",
"+o@	c #F47B58",
"@o@	c #F37F58",
"#o@	c #BE706B",
"$o@	c #464A87",
"%o@	c #35539B",
"&o@	c #2F549C",
"*o@	c #2B549B",
"=o@	c #28549A",
"-o@	c #275698",
";o@	c #2A569A",
">o@	c #2B5599",
",o@	c #295297",
"'o@	c #2D5792",
")o@	c #456688",
"!o@	c #546D75",
"~o@	c #62807E",
"{o@	c #7CA0A0",
"]o@	c #93BBBC",
"^o@	c #A0C9CB",
"/o@	c #A8CFD2",
"(o@	c #A9CFD2",
"_o@	c #A8CED1",
":o@	c #A5CECE",
"<o@	c #A2CCCA",
"[o@	c #A4CFCB",
"}o@	c #A3CECA",
"|o@	c #A2CECA",
"1o@	c #A6CFCC",
"2o@	c #A9D0CB",
"3o@	c #A9D0C9",
"4o@	c #ACD2CC",
"5o@	c #ABD1CD",
"6o@	c #ABD1CE",
"7o@	c #ACCFD0",
"8o@	c #B0D2D3",
"9o@	c #A8CCCA",
"0o@	c #ADD2CC",
"ao@	c #C3EEE8",
"bo@	c #ACE7E0",
"co@	c #96D7D5",
"do@	c #A3E1E4",
"eo@	c #A8E7EB",
"fo@	c #7BA9B4",
"go@	c #6D838F",
"ho@	c #6E838F",
"io@	c #627E8A",
"jo@	c #5F7D94",
"ko@	c #2F5F8F",
"lo@	c #1F539E",
"mo@	c #274EA0",
"no@	c #434B91",
"oo@	c #CB8C8D",
"po@	c #F2AA75",
"qo@	c #EFA16A",
"ro@	c #F2A270",
"so@	c #F8A174",
"to@	c #F49664",
"uo@	c #F37954",
"vo@	c #F26E4F",
"wo@	c #F97E5F",
"xo@	c #ED6448",
"yo@	c #F4684D",
"zo@	c #EB503D",
"Ao@	c #E94638",
"Bo@	c #E53C32",
"Co@	c #E3362E",
"Do@	c #EF6953",
"Eo@	c #F98E6E",
"Fo@	c #BF6046",
"Go@	c #6B1F18",
"Ho@	c #6B2B28",
"Io@	c #662B25",
"Jo@	c #642923",
"Ko@	c #5E2721",
"Lo@	c #4D241D",
"Mo@	c #251208",
"No@	c #42241D",
"Oo@	c #582B24",
"Po@	c #612922",
"Qo@	c #5E261C",
"Ro@	c #603026",
"So@	c #927868",
"To@	c #D3CDB2",
"Uo@	c #D9DBBE",
"Vo@	c #D5D5B9",
"Wo@	c #D7D6B9",
"Xo@	c #D8D8BB",
"Yo@	c #D5D3BB",
"Zo@	c #D5D3BA",
"`o@	c #C0C5AB",
" p@	c #6F3F37",
".p@	c #B4252E",
"+p@	c #D5272D",
"@p@	c #DB222A",
"#p@	c #DA2029",
"$p@	c #D92026",
"%p@	c #D51823",
"&p@	c #D71824",
"*p@	c #D61524",
"=p@	c #C80A19",
"-p@	c #C70B1B",
";p@	c #C4091A",
">p@	c #BF0215",
",p@	c #B90318",
"'p@	c #6B070F",
")p@	c #5D2625",
"!p@	c #390D0F",
"~p@	c #771521",
"{p@	c #550A0D",
"]p@	c #592829",
"^p@	c #5D2A28",
"/p@	c #5D2824",
"(p@	c #5B2523",
"_p@	c #622A29",
":p@	c #60292A",
"<p@	c #492124",
"[p@	c #582C2A",
"}p@	c #5D2927",
"|p@	c #532422",
"1p@	c #402627",
"2p@	c #482726",
"3p@	c #58131A",
"4p@	c #BF3142",
"5p@	c #B52935",
"6p@	c #9C595B",
"7p@	c #8E5E5F",
"8p@	c #8F6363",
"9p@	c #946362",
"0p@	c #956365",
"ap@	c #976468",
"bp@	c #956566",
"cp@	c #936362",
"dp@	c #916360",
"ep@	c #926867",
"fp@	c #936B66",
"gp@	c #926B67",
"hp@	c #946F6D",
"ip@	c #987772",
"jp@	c #977A73",
"kp@	c #9E7E74",
"lp@	c #A88674",
"mp@	c #AF9474",
"np@	c #BEA87C",
"op@	c #D2BE88",
"pp@	c #DBBA84",
"qp@	c #B78551",
"rp@	c #C29A61",
"sp@	c #DBBF7F",
"tp@	c #E1C485",
"up@	c #D2B177",
"vp@	c #D2AF7A",
"wp@	c #D3AE78",
"xp@	c #DEB881",
"yp@	c #D8AF81",
"zp@	c #C0906F",
"Ap@	c #C19676",
"Bp@	c #CC9D76",
"Cp@	c #D4A275",
"Dp@	c #DDB580",
"Ep@	c #F3D497",
"Fp@	c #C38E5C",
"Gp@	c #C79B65",
"Hp@	c #F6DE92",
"Ip@	c #F7D180",
"Jp@	c #ED955E",
"Kp@	c #DC5D45",
"Lp@	c #AE2C2C",
"Mp@	c #A62734",
"Np@	c #9F1E2E",
"Op@	c #981F30",
"Pp@	c #A2404E",
"Qp@	c #A74B4B",
"Rp@	c #D76F5C",
"Sp@	c #EE855E",
"Tp@	c #ED8056",
"Up@	c #ED8157",
"Vp@	c #F38459",
"Wp@	c #F07F58",
"Xp@	c #EF815B",
"Yp@	c #EF7A53",
"Zp@	c #F5825B",
"`p@	c #464B89",
" q@	c #30559C",
".q@	c #2B5399",
"+q@	c #275297",
"@q@	c #2C569A",
"#q@	c #2C5498",
"$q@	c #2B539A",
"%q@	c #26519A",
"&q@	c #275493",
"*q@	c #365C8C",
"=q@	c #506F85",
"-q@	c #738C8F",
";q@	c #94B1B1",
">q@	c #A4CAC7",
",q@	c #A6D2CF",
"'q@	c #A5D1CE",
")q@	c #A5CECF",
"!q@	c #A5CCCE",
"~q@	c #A7CBCE",
"{q@	c #A5CBCD",
"]q@	c #A4CBCA",
"^q@	c #A4CCCB",
"/q@	c #A4CCCA",
"(q@	c #A6CFCB",
"_q@	c #A7D0CA",
":q@	c #AAD2CD",
"<q@	c #AACECC",
"[q@	c #ABCFCF",
"}q@	c #AACECE",
"|q@	c #ADD0D2",
"1q@	c #AED0D1",
"2q@	c #B0D1CE",
"3q@	c #D9F1EC",
"4q@	c #E9FEFC",
"5q@	c #D1F7F5",
"6q@	c #ADE7E3",
"7q@	c #A5E5E2",
"8q@	c #A4E5E4",
"9q@	c #73A2A9",
"0q@	c #6D8390",
"aq@	c #657B89",
"bq@	c #62808B",
"cq@	c #6B808F",
"dq@	c #607C8E",
"eq@	c #35638E",
"fq@	c #1E5599",
"gq@	c #2350A1",
"hq@	c #274DA0",
"iq@	c #444C91",
"jq@	c #C28487",
"kq@	c #F1A876",
"lq@	c #F2A16C",
"mq@	c #EF9D6D",
"nq@	c #F8A173",
"oq@	c #F69B6E",
"pq@	c #F69968",
"qq@	c #EF7756",
"rq@	c #F47E57",
"sq@	c #F98762",
"tq@	c #F87C5C",
"uq@	c #F0634A",
"vq@	c #F06249",
"wq@	c #F2614A",
"xq@	c #EA4C3B",
"yq@	c #E94436",
"zq@	c #E43A30",
"Aq@	c #E63832",
"Bq@	c #E43C32",
"Cq@	c #F78060",
"Dq@	c #F88962",
"Eq@	c #E67A5B",
"Fq@	c #88362A",
"Gq@	c #692722",
"Hq@	c #682B25",
"Iq@	c #652C26",
"Jq@	c #502521",
"Kq@	c #2E110A",
"Lq@	c #3F2019",
"Mq@	c #5B3027",
"Nq@	c #5E2B21",
"Oq@	c #582B1B",
"Pq@	c #715446",
"Qq@	c #C9B9A5",
"Rq@	c #D6D7BB",
"Sq@	c #D7D9BC",
"Tq@	c #D6D6BA",
"Uq@	c #D5D5B8",
"Vq@	c #D5D7BB",
"Wq@	c #D4D4BD",
"Xq@	c #D8D6BD",
"Yq@	c #959680",
"Zq@	c #81272A",
"`q@	c #CF2932",
" r@	c #D72327",
".r@	c #DC2429",
"+r@	c #DB2027",
"@r@	c #DE242B",
"#r@	c #D2151E",
"$r@	c #D41422",
"%r@	c #C80B1A",
"&r@	c #C50919",
"*r@	c #C00617",
"=r@	c #BC0114",
"-r@	c #B60317",
";r@	c #68080F",
">r@	c #572729",
",r@	c #642727",
"'r@	c #602626",
")r@	c #2E0F10",
"!r@	c #3B0C13",
"~r@	c #431817",
"{r@	c #5D2A2A",
"]r@	c #5F2926",
"^r@	c #5F2826",
"/r@	c #5F2726",
"(r@	c #5F292B",
"_r@	c #421E20",
":r@	c #29110E",
"<r@	c #502C2B",
"[r@	c #592C2D",
"}r@	c #592A29",
"|r@	c #5C2B29",
"1r@	c #532A27",
"2r@	c #331613",
"3r@	c #1A0706",
"4r@	c #442A2B",
"5r@	c #4C2826",
"6r@	c #4A1216",
"7r@	c #BA3341",
"8r@	c #B62A34",
"9r@	c #9B595B",
"0r@	c #8C5D5E",
"ar@	c #8F6161",
"br@	c #926364",
"cr@	c #946567",
"dr@	c #966868",
"er@	c #966767",
"fr@	c #926864",
"gr@	c #926B68",
"hr@	c #946F69",
"ir@	c #937168",
"jr@	c #98796E",
"kr@	c #A28477",
"lr@	c #A78879",
"mr@	c #B2937D",
"nr@	c #C4AB85",
"or@	c #D5C38A",
"pr@	c #DDCE8E",
"qr@	c #E4D68E",
"rr@	c #E9D388",
"sr@	c #E5C67F",
"tr@	c #E5CC85",
"ur@	c #E4D386",
"vr@	c #E6D388",
"wr@	c #E0CE85",
"xr@	c #E4CF8B",
"yr@	c #E3CB8B",
"zr@	c #EACE93",
"Ar@	c #DCBA8A",
"Br@	c #C89471",
"Cr@	c #C28164",
"Dr@	c #C57D5F",
"Er@	c #C87E60",
"Fr@	c #D19873",
"Gr@	c #DDB586",
"Hr@	c #B98259",
"Ir@	c #AE7A4C",
"Jr@	c #CDA267",
"Kr@	c #CE9759",
"Lr@	c #C46B41",
"Mr@	c #AF402C",
"Nr@	c #8F2020",
"Or@	c #922A2F",
"Pr@	c #942732",
"Qr@	c #8E2835",
"Rr@	c #9D454D",
"Sr@	c #A14B49",
"Tr@	c #CC6758",
"Ur@	c #E8835D",
"Vr@	c #F99164",
"Wr@	c #F18255",
"Xr@	c #F3875A",
"Yr@	c #BF716B",
"Zr@	c #464A86",
"`r@	c #324F98",
" s@	c #2F549B",
".s@	c #285298",
"+s@	c #2A579A",
"@s@	c #2A5699",
"#s@	c #244F93",
"$s@	c #2C568A",
"%s@	c #4D7190",
"&s@	c #7C9AA3",
"*s@	c #A0BDBF",
"=s@	c #ABCBCA",
"-s@	c #A9CDCB",
";s@	c #A4CDCB",
">s@	c #A2C8C9",
",s@	c #A3C9CA",
"'s@	c #A5CACC",
")s@	c #A5CBCC",
"!s@	c #A4CACB",
"~s@	c #A2CAC9",
"{s@	c #A5CDCA",
"]s@	c #A5CEC8",
"^s@	c #A8D1CB",
"/s@	c #A6CCCB",
"(s@	c #A8CDCD",
"_s@	c #A9CDCE",
":s@	c #AACDD0",
"<s@	c #A7CACB",
"[s@	c #B1D1CD",
"}s@	c #EAF7F5",
"|s@	c #F8FEFE",
"1s@	c #F1FEFE",
"2s@	c #DBFBF8",
"3s@	c #BCEDEA",
"4s@	c #9EE4DF",
"5s@	c #6C9A9F",
"6s@	c #6E8391",
"7s@	c #708693",
"8s@	c #6A828F",
"9s@	c #6C808F",
"0s@	c #3E6A8E",
"as@	c #225897",
"bs@	c #2450A1",
"cs@	c #284EA0",
"ds@	c #424B91",
"es@	c #C08187",
"fs@	c #F0A375",
"gs@	c #F3A06C",
"hs@	c #EF996A",
"is@	c #EE9568",
"js@	c #F09062",
"ks@	c #EF8E63",
"ls@	c #F39867",
"ms@	c #F19263",
"ns@	c #F57B58",
"os@	c #FA8864",
"ps@	c #EB7855",
"qs@	c #F15F46",
"rs@	c #EF6147",
"ss@	c #F4634B",
"ts@	c #EE543F",
"us@	c #EA4939",
"vs@	c #E94235",
"ws@	c #E3372C",
"xs@	c #E3362D",
"ys@	c #E6483A",
"zs@	c #F88662",
"As@	c #BD5E4C",
"Bs@	c #65201A",
"Cs@	c #672B26",
"Ds@	c #5B2B25",
"Es@	c #361411",
"Fs@	c #3D1B17",
"Gs@	c #592C26",
"Hs@	c #612D24",
"Is@	c #5E281D",
"Js@	c #5D2A1D",
"Ks@	c #5D3726",
"Ls@	c #A3907F",
"Ms@	c #DAD4BE",
"Ns@	c #D7DABE",
"Os@	c #D8D8BD",
"Ps@	c #D7D5BB",
"Qs@	c #D6D3B8",
"Rs@	c #D4D4BA",
"Ss@	c #D9D6C1",
"Ts@	c #D3CFB9",
"Us@	c #604D41",
"Vs@	c #D6252C",
"Ws@	c #DA1F23",
"Xs@	c #DD2127",
"Ys@	c #DC2329",
"Zs@	c #DE252B",
"`s@	c #D41A20",
" t@	c #D5191F",
".t@	c #D1141B",
"+t@	c #D1131F",
"@t@	c #CA0C1A",
"#t@	c #C40818",
"$t@	c #BD0517",
"%t@	c #B90114",
"&t@	c #B40418",
"*t@	c #640910",
"=t@	c #64292A",
"-t@	c #642828",
";t@	c #2F1111",
">t@	c #1D0508",
",t@	c #512525",
"'t@	c #602A28",
")t@	c #5E2826",
"!t@	c #5E2A2C",
"~t@	c #3A1A1A",
"{t@	c #260C09",
"]t@	c #311515",
"^t@	c #432324",
"/t@	c #4A2524",
"(t@	c #451F1F",
"_t@	c #331512",
":t@	c #2A1211",
"<t@	c #291515",
"[t@	c #432928",
"}t@	c #512727",
"|t@	c #431214",
"1t@	c #B6323D",
"2t@	c #BA2935",
"3t@	c #9C5959",
"4t@	c #8C5C5D",
"5t@	c #8C6060",
"6t@	c #8C6061",
"7t@	c #906363",
"8t@	c #936664",
"9t@	c #956766",
"0t@	c #986A6A",
"at@	c #936D68",
"bt@	c #916D66",
"ct@	c #937069",
"dt@	c #96746C",
"et@	c #977969",
"ft@	c #A48A72",
"gt@	c #B39077",
"ht@	c #BE917A",
"it@	c #CDA889",
"jt@	c #D3BB89",
"kt@	c #DACC89",
"lt@	c #DACE87",
"mt@	c #DED287",
"nt@	c #E2DA87",
"ot@	c #E4DA89",
"pt@	c #E3D588",
"qt@	c #DCD080",
"rt@	c #DCCE80",
"st@	c #D7CB7F",
"tt@	c #DBC780",
"ut@	c #DDBF84",
"vt@	c #D6B380",
"wt@	c #C09A6F",
"xt@	c #C18766",
"yt@	c #BB6048",
"zt@	c #B94E40",
"At@	c #A84136",
"Bt@	c #B05F4F",
"Ct@	c #C78A72",
"Dt@	c #C4846A",
"Et@	c #B57C56",
"Ft@	c #A97447",
"Gt@	c #A36A39",
"Ht@	c #A56138",
"It@	c #934E2E",
"Jt@	c #924E37",
"Kt@	c #9E5747",
"Lt@	c #9B4843",
"Mt@	c #964343",
"Nt@	c #A35455",
"Ot@	c #9B4847",
"Pt@	c #C16558",
"Qt@	c #E88B65",
"Rt@	c #EC7554",
"St@	c #F07A58",
"Tt@	c #F38157",
"Ut@	c #F38158",
"Vt@	c #C1716C",
"Wt@	c #474A85",
"Xt@	c #305199",
"Yt@	c #2A579B",
"Zt@	c #29589A",
"`t@	c #27589A",
" u@	c #235299",
".u@	c #245087",
"+u@	c #3F6889",
"@u@	c #7DA1AE",
"#u@	c #A7C6C8",
"$u@	c #A8C8C9",
"%u@	c #A8CAC8",
"&u@	c #A8CBC8",
"*u@	c #A5CAC8",
"=u@	c #A4C7C7",
"-u@	c #A2C8C8",
";u@	c #A5CCCC",
">u@	c #A6CDCD",
",u@	c #A6CBCD",
"'u@	c #A4CACA",
")u@	c #A3CACA",
"!u@	c #A6CCCC",
"~u@	c #A3CBCA",
"{u@	c #A3CCC9",
"]u@	c #A5CECA",
"^u@	c #A5CCCA",
"/u@	c #A6CCCD",
"(u@	c #AACFD0",
"_u@	c #A9CCCF",
":u@	c #A6C8C9",
"<u@	c #B4D0CE",
"[u@	c #F4F9F8",
"}u@	c #FDFDFF",
"|u@	c #FDFCFF",
"1u@	c #F4FFFE",
"2u@	c #E0FBF9",
"3u@	c #ADEBE3",
"4u@	c #649296",
"5u@	c #6D8691",
"6u@	c #6B7D8C",
"7u@	c #69828D",
"8u@	c #647D8A",
"9u@	c #456E8C",
"0u@	c #235794",
"au@	c #22539D",
"bu@	c #24529F",
"cu@	c #414B91",
"du@	c #BF8088",
"eu@	c #F5A37A",
"fu@	c #F8A06F",
"gu@	c #F08C60",
"hu@	c #EE8C5E",
"iu@	c #F19967",
"ju@	c #EF9666",
"ku@	c #F07454",
"lu@	c #F37456",
"mu@	c #F57D59",
"nu@	c #EE5D42",
"ou@	c #EE5F45",
"pu@	c #F5624C",
"qu@	c #F05C47",
"ru@	c #F05441",
"su@	c #EE4E3B",
"tu@	c #EE4A3B",
"uu@	c #EC4236",
"vu@	c #E13429",
"wu@	c #E1332A",
"xu@	c #E2715B",
"yu@	c #72271F",
"zu@	c #5F2724",
"Au@	c #411E18",
"Bu@	c #351110",
"Cu@	c #5A2A28",
"Du@	c #632821",
"Eu@	c #5E271E",
"Fu@	c #5C2C20",
"Gu@	c #836251",
"Hu@	c #D9C7B4",
"Iu@	c #DEDAC4",
"Ju@	c #D9D9BF",
"Ku@	c #D8D8BE",
"Lu@	c #D6D4BB",
"Mu@	c #D7D2B9",
"Nu@	c #D5D2B9",
"Ou@	c #DCD7C3",
"Pu@	c #ADA092",
"Qu@	c #702326",
"Ru@	c #D42D38",
"Su@	c #DB2327",
"Tu@	c #DA2126",
"Uu@	c #DD2429",
"Vu@	c #D61C21",
"Wu@	c #D71B1F",
"Xu@	c #D2171D",
"Yu@	c #D2141F",
"Zu@	c #CE101F",
"`u@	c #C70A19",
" v@	c #C20717",
".v@	c #BE0618",
"+v@	c #B30519",
"@v@	c #610810",
"#v@	c #562A2D",
"$v@	c #642729",
"%v@	c #361615",
"&v@	c #301517",
"*v@	c #602B29",
"=v@	c #5F2927",
"-v@	c #5D2A2B",
";v@	c #2E1314",
">v@	c #1D0708",
",v@	c #240C0B",
"'v@	c #25090A",
")v@	c #2E1213",
"!v@	c #4A2829",
"~v@	c #3C2020",
"{v@	c #402523",
"]v@	c #562829",
"^v@	c #401214",
"/v@	c #B32E38",
"(v@	c #C12A37",
"_v@	c #9E5859",
":v@	c #8D5D5E",
"<v@	c #8E6262",
"[v@	c #8C6162",
"}v@	c #906564",
"|v@	c #946966",
"1v@	c #986C6A",
"2v@	c #9D7171",
"3v@	c #9A746F",
"4v@	c #97756C",
"5v@	c #9A7B6D",
"6v@	c #A0856D",
"7v@	c #AC9472",
"8v@	c #C0A981",
"9v@	c #C39A78",
"0v@	c #AA7153",
"av@	c #A77955",
"bv@	c #A38751",
"cv@	c #CCBE75",
"dv@	c #D1C57A",
"ev@	c #D2C47A",
"fv@	c #D5CA80",
"gv@	c #D3C87F",
"hv@	c #D9C681",
"iv@	c #D3C57D",
"jv@	c #D2C27B",
"kv@	c #CEBF7A",
"lv@	c #C1A266",
"mv@	c #A77B4F",
"nv@	c #B1875F",
"ov@	c #C29D74",
"pv@	c #CB9773",
"qv@	c #BA5B45",
"rv@	c #A9362E",
"sv@	c #922522",
"tv@	c #963E3A",
"uv@	c #B37065",
"vv@	c #B57C67",
"wv@	c #C59671",
"xv@	c #C19569",
"yv@	c #B58F5E",
"zv@	c #C4A06C",
"Av@	c #CBAA73",
"Bv@	c #C6A46F",
"Cv@	c #BA8F67",
"Dv@	c #A96850",
"Ev@	c #AC6255",
"Fv@	c #B0645E",
"Gv@	c #9C4A4C",
"Hv@	c #B46054",
"Iv@	c #E4916A",
"Jv@	c #F8A26B",
"Kv@	c #EF8C57",
"Lv@	c #F18E58",
"Mv@	c #F18C5A",
"Nv@	c #F07E5D",
"Ov@	c #C2726C",
"Pv@	c #484B84",
"Qv@	c #335099",
"Rv@	c #31569E",
"Sv@	c #2C569C",
"Tv@	c #2B589C",
"Uv@	c #255698",
"Vv@	c #1F5094",
"Wv@	c #38638F",
"Xv@	c #719AAE",
"Yv@	c #A0C8CA",
"Zv@	c #AACDCE",
"`v@	c #A6C8C8",
" w@	c #A7C9C7",
".w@	c #A7C9C8",
"+w@	c #A5C7C6",
"@w@	c #A4C6C7",
"#w@	c #A5C9C9",
"$w@	c #A7CECC",
"%w@	c #A9CFCF",
"&w@	c #A6CCCE",
"*w@	c #A2CBC9",
"=w@	c #A4CDC9",
"-w@	c #A5CCCD",
";w@	c #A9CBCB",
">w@	c #BDD6D4",
",w@	c #F8FCFB",
"'w@	c #FBFEFE",
")w@	c #FEFCFF",
"!w@	c #FCFDFD",
"~w@	c #F5FEFE",
"{w@	c #C6F3EF",
"]w@	c #6A9C9C",
"^w@	c #6A828D",
"/w@	c #657F8C",
"(w@	c #65808D",
"_w@	c #4D718F",
":w@	c #255895",
"<w@	c #26529E",
"[w@	c #2651A0",
"}w@	c #2851A1",
"|w@	c #C0828A",
"1w@	c #F9A57F",
"2w@	c #F79A6B",
"3w@	c #F29C69",
"4w@	c #EE9968",
"5w@	c #F17F56",
"6w@	c #F88867",
"7w@	c #EE5C40",
"8w@	c #EB5A40",
"9w@	c #F25945",
"0w@	c #F04D40",
"aw@	c #EA4537",
"bw@	c #EF443A",
"cw@	c #E33029",
"dw@	c #E2322B",
"ew@	c #F46451",
"fw@	c #F3805A",
"gw@	c #A24D3C",
"hw@	c #4A1C18",
"iw@	c #351212",
"jw@	c #582624",
"kw@	c #632C27",
"lw@	c #602821",
"mw@	c #602922",
"nw@	c #5C2922",
"ow@	c #673F35",
"pw@	c #BCA592",
"qw@	c #E1D9C5",
"rw@	c #DAD9C1",
"sw@	c #D7D6BC",
"tw@	c #D6D4BA",
"uw@	c #D8D5BA",
"vw@	c #D3D5BB",
"ww@	c #CEC8B7",
"xw@	c #6D514B",
"yw@	c #A92431",
"zw@	c #E02936",
"Aw@	c #DB2227",
"Bw@	c #DC2328",
"Cw@	c #DC2428",
"Dw@	c #D82025",
"Ew@	c #D51E23",
"Fw@	c #D92226",
"Gw@	c #D81F21",
"Hw@	c #D51B20",
"Iw@	c #D0141E",
"Jw@	c #CC0F1C",
"Kw@	c #C70818",
"Lw@	c #C10618",
"Mw@	c #BC0616",
"Nw@	c #B90316",
"Ow@	c #B2081B",
"Pw@	c #5F0A11",
"Qw@	c #582A2C",
"Rw@	c #612929",
"Sw@	c #642929",
"Tw@	c #3E1C1A",
"Uw@	c #3D2122",
"Vw@	c #5C2A2B",
"Ww@	c #5D2B27",
"Xw@	c #602C29",
"Yw@	c #622B28",
"Zw@	c #5C292A",
"`w@	c #2D1414",
" x@	c #583034",
".x@	c #472428",
"+x@	c #2E1716",
"@x@	c #422320",
"#x@	c #462321",
"$x@	c #512728",
"%x@	c #481F22",
"&x@	c #3B1D1E",
"*x@	c #572C2E",
"=x@	c #421216",
"-x@	c #AE2E38",
";x@	c #BA2C35",
">x@	c #9E5558",
",x@	c #8F5F5F",
"'x@	c #8F6362",
")x@	c #8F6566",
"!x@	c #936867",
"~x@	c #A27672",
"{x@	c #A87C76",
"]x@	c #A77E74",
"^x@	c #9F7D70",
"/x@	c #A2846D",
"(x@	c #AD9371",
"_x@	c #C2AD7E",
":x@	c #CDBF86",
"<x@	c #D2C386",
"[x@	c #C39D6D",
"}x@	c #B6875A",
"|x@	c #BD9865",
"1x@	c #BDA566",
"2x@	c #CFC176",
"3x@	c #CCC071",
"4x@	c #C9BB71",
"5x@	c #C3B572",
"6x@	c #C2B273",
"7x@	c #C9B677",
"8x@	c #C8B577",
"9x@	c #C5B274",
"0x@	c #C5B075",
"ax@	c #B89A66",
"bx@	c #A0794E",
"cx@	c #AB8C5F",
"dx@	c #CAB57E",
"ex@	c #D3B17D",
"fx@	c #B26C44",
"gx@	c #A95E3C",
"hx@	c #9B5638",
"ix@	c #A05A44",
"jx@	c #A86A54",
"kx@	c #BD8F6C",
"lx@	c #DFBD8B",
"mx@	c #DEC086",
"nx@	c #D6C080",
"ox@	c #DACB85",
"px@	c #E2D58A",
"qx@	c #E4D78A",
"rx@	c #DAC182",
"sx@	c #C78964",
"tx@	c #C9725E",
"ux@	c #B96055",
"vx@	c #A4514B",
"wx@	c #A15645",
"xx@	c #D3865D",
"yx@	c #F3A167",
"zx@	c #F7A165",
"Ax@	c #F99D65",
"Bx@	c #F68E60",
"Cx@	c #F5875D",
"Dx@	c #EE7F57",
"Ex@	c #C4736B",
"Fx@	c #494A83",
"Gx@	c #324F99",
"Hx@	c #32549E",
"Ix@	c #2C539D",
"Jx@	c #2B579E",
"Kx@	c #29589B",
"Lx@	c #245599",
"Mx@	c #23569C",
"Nx@	c #2B5E96",
"Ox@	c #76A4BE",
"Px@	c #A4CCD6",
"Qx@	c #A9CBCA",
"Rx@	c #A7C8C8",
"Sx@	c #A6C8C7",
"Tx@	c #A4C6C5",
"Ux@	c #A6CBCB",
"Vx@	c #A6CDCC",
"Wx@	c #A5CCCB",
"Xx@	c #A8CFCF",
"Yx@	c #A1CAC8",
"Zx@	c #A3CDCB",
"`x@	c #A6D0CC",
" y@	c #A7CCCD",
".y@	c #A8CACA",
"+y@	c #A9CDC9",
"@y@	c #C9E1DE",
"#y@	c #F9FCFD",
"$y@	c #FBFEFD",
"%y@	c #FDFDFD",
"&y@	c #D2F8F4",
"*y@	c #88BAB9",
"=y@	c #688E95",
"-y@	c #608089",
";y@	c #68828E",
">y@	c #537591",
",y@	c #295A93",
"'y@	c #264FA0",
")y@	c #2851A2",
"!y@	c #404B90",
"~y@	c #C3838D",
"{y@	c #F6A47D",
"]y@	c #EE9467",
"^y@	c #F79E6D",
"/y@	c #F8A571",
"(y@	c #F39F6C",
"_y@	c #EE7554",
":y@	c #EF7253",
"<y@	c #F67F5A",
"[y@	c #F68966",
"}y@	c #EA563C",
"|y@	c #E7563D",
"1y@	c #ED5741",
"2y@	c #EE523E",
"3y@	c #E94335",
"4y@	c #E73B30",
"5y@	c #E83832",
"6y@	c #E6322F",
"7y@	c #E12C28",
"8y@	c #E33730",
"9y@	c #F96E5B",
"0y@	c #ED7959",
"ay@	c #F88A60",
"by@	c #F87E57",
"cy@	c #CE745C",
"dy@	c #38120D",
"ey@	c #5D2922",
"fy@	c #5D2D26",
"gy@	c #947367",
"hy@	c #D9CAB4",
"iy@	c #D5D4BF",
"jy@	c #D6D8C1",
"ky@	c #D8D8C0",
"ly@	c #D7D6BB",
"my@	c #DAD7BC",
"ny@	c #DAD7BB",
"oy@	c #C9CBB1",
"py@	c #888477",
"qy@	c #5C1919",
"ry@	c #CC2931",
"sy@	c #DD242E",
"ty@	c #E1282E",
"uy@	c #DB2226",
"vy@	c #DA2227",
"wy@	c #D72024",
"xy@	c #D72125",
"yy@	c #D62125",
"zy@	c #DA2428",
"Ay@	c #CD121C",
"By@	c #C90E1B",
"Cy@	c #C70918",
"Dy@	c #BB0717",
"Ey@	c #B70316",
"Fy@	c #AE071B",
"Gy@	c #5E0A11",
"Hy@	c #5A2B2E",
"Iy@	c #622A2B",
"Jy@	c #44201E",
"Ky@	c #381D1D",
"Ly@	c #5D2B2B",
"My@	c #5F2827",
"Ny@	c #5F2A26",
"Oy@	c #642A2B",
"Py@	c #5A292B",
"Qy@	c #230F0F",
"Ry@	c #552F32",
"Sy@	c #4B2426",
"Ty@	c #3C211F",
"Uy@	c #572B2B",
"Vy@	c #5A2929",
"Wy@	c #5A292A",
"Xy@	c #361A1B",
"Yy@	c #542C2E",
"Zy@	c #421416",
"`y@	c #AB3138",
" z@	c #BA2B35",
".z@	c #9F5456",
"+z@	c #966B69",
"@z@	c #A07572",
"#z@	c #AA807B",
"$z@	c #AC8279",
"%z@	c #AA8574",
"&z@	c #AA8D6F",
"*z@	c #BEA67A",
"=z@	c #D4C187",
"-z@	c #DECF8B",
";z@	c #DCD287",
">z@	c #D4CE82",
",z@	c #D4C080",
"'z@	c #DCC385",
")z@	c #DBC887",
"!z@	c #D6CB82",
"~z@	c #D4CA7D",
"{z@	c #DACF7E",
"]z@	c #D4C678",
"^z@	c #C1B470",
"/z@	c #BFAE71",
"(z@	c #C2AE71",
"_z@	c #C3AE71",
":z@	c #C2AD70",
"<z@	c #C5AF72",
"[z@	c #C4AC70",
"}z@	c #C8AE78",
"|z@	c #C8B87E",
"1z@	c #CAC981",
"2z@	c #CFC57C",
"3z@	c #CAAB69",
"4z@	c #DCBB79",
"5z@	c #DBBC7D",
"6z@	c #C68F5F",
"7z@	c #C8875E",
"8z@	c #D5A372",
"9z@	c #DFBF81",
"0z@	c #E4D087",
"az@	c #E3D587",
"bz@	c #DDD383",
"cz@	c #DFD785",
"dz@	c #E6DE88",
"ez@	c #E7D88A",
"fz@	c #C79662",
"gz@	c #A35134",
"hz@	c #993D2C",
"iz@	c #A45B48",
"jz@	c #BC8668",
"kz@	c #CB8D5E",
"lz@	c #E0995D",
"mz@	c #F9A76D",
"nz@	c #FBA96C",
"oz@	c #F6A064",
"pz@	c #F89564",
"qz@	c #F17E55",
"rz@	c #FB8A62",
"sz@	c #F08557",
"tz@	c #4A4A84",
"uz@	c #2C549B",
"vz@	c #2B589D",
"wz@	c #27569A",
"xz@	c #245498",
"yz@	c #26569A",
"zz@	c #5E8CB0",
"Az@	c #9FCCD6",
"Bz@	c #A9D2D0",
"Cz@	c #A8CACB",
"Dz@	c #AACACD",
"Ez@	c #A7C9C9",
"Fz@	c #A8CAC9",
"Gz@	c #A7CBCA",
"Hz@	c #A8CFCE",
"Iz@	c #A5CDCC",
"Jz@	c #A2CBCA",
"Kz@	c #A8CFCC",
"Lz@	c #A7CAC9",
"Mz@	c #AACCC8",
"Nz@	c #D6EBE8",
"Oz@	c #FAFDFE",
"Pz@	c #FCFEFE",
"Qz@	c #FEFEFE",
"Rz@	c #FAFEFD",
"Sz@	c #CCF4EF",
"Tz@	c #9FD0D1",
"Uz@	c #85AFB6",
"Vz@	c #638791",
"Wz@	c #6C8392",
"Xz@	c #587A93",
"Yz@	c #2D5D93",
"Zz@	c #26569D",
"`z@	c #2653A0",
" A@	c #26519D",
".A@	c #264F9F",
"+A@	c #29529F",
"@A@	c #3F4B91",
"#A@	c #C2848F",
"$A@	c #F8A87F",
"%A@	c #EF9B6C",
"&A@	c #F39E6F",
"*A@	c #F7986A",
"=A@	c #F69A6A",
"-A@	c #F29B68",
";A@	c #F4A26D",
">A@	c #F4A06D",
",A@	c #F07E57",
"'A@	c #ED7756",
")A@	c #F88A67",
"!A@	c #EE5841",
"~A@	c #EF5B45",
"{A@	c #EA513D",
"]A@	c #EB4B3A",
"^A@	c #E73C31",
"/A@	c #E7332D",
"(A@	c #E52E2C",
"_A@	c #E42C2D",
":A@	c #DE2A27",
"<A@	c #EA483E",
"[A@	c #F8755E",
"}A@	c #ED895A",
"|A@	c #F88159",
"1A@	c #D0755E",
"2A@	c #431816",
"3A@	c #5D2B29",
"4A@	c #652B25",
"5A@	c #662A22",
"6A@	c #602B23",
"7A@	c #592A22",
"8A@	c #6D4B43",
"9A@	c #CBB5A5",
"0A@	c #DDD7BD",
"aA@	c #D1D3BC",
"bA@	c #D5D6BE",
"cA@	c #DAD5BC",
"dA@	c #D8D0B9",
"eA@	c #A4A18A",
"fA@	c #3E3329",
"gA@	c #620F13",
"hA@	c #CF2328",
"iA@	c #D92325",
"jA@	c #D92426",
"kA@	c #DC272A",
"lA@	c #D72324",
"mA@	c #D92526",
"nA@	c #DB292A",
"oA@	c #DA2427",
"pA@	c #D71C22",
"qA@	c #D41920",
"rA@	c #CC101C",
"sA@	c #C90D1A",
"tA@	c #C60A18",
"uA@	c #BF0616",
"vA@	c #BA0819",
"wA@	c #B70418",
"xA@	c #AB061A",
"yA@	c #5C0912",
"zA@	c #5B2B2F",
"AA@	c #632B2C",
"BA@	c #622928",
"CA@	c #4F2625",
"DA@	c #3A1A19",
"EA@	c #5D2B2A",
"FA@	c #5F2B27",
"GA@	c #612B29",
"HA@	c #632B29",
"IA@	c #612B2A",
"JA@	c #1B0908",
"KA@	c #4D2C2D",
"LA@	c #4E2828",
"MA@	c #3F221F",
"NA@	c #5B2C2C",
"OA@	c #532828",
"PA@	c #311616",
"QA@	c #512B2D",
"RA@	c #421517",
"SA@	c #A52F38",
"TA@	c #BA2F3A",
"UA@	c #A15656",
"VA@	c #946161",
"WA@	c #966566",
"XA@	c #9C706E",
"YA@	c #A27873",
"ZA@	c #A27D72",
"`A@	c #A5836C",
" B@	c #B59872",
".B@	c #CAB67C",
"+B@	c #E4D38D",
"@B@	c #E9DD8D",
"#B@	c #E5DC84",
"$B@	c #DDD67B",
"%B@	c #D9D47D",
"&B@	c #DCD184",
"*B@	c #DDD386",
"=B@	c #D7CE82",
"-B@	c #D8CD7F",
";B@	c #DCD381",
">B@	c #EDE38E",
",B@	c #ECE18C",
"'B@	c #DACF82",
")B@	c #CFC17B",
"!B@	c #CEBD7B",
"~B@	c #CEBC79",
"{B@	c #D0BE7B",
"]B@	c #D1C079",
"^B@	c #D3C57B",
"/B@	c #D8C885",
"(B@	c #D2C982",
"_B@	c #C7CB7A",
":B@	c #D3D182",
"<B@	c #DBD082",
"[B@	c #DED886",
"}B@	c #E2DA8B",
"|B@	c #CCA363",
"1B@	c #C28850",
"2B@	c #BF9457",
"3B@	c #C2A965",
"4B@	c #DBCE81",
"5B@	c #DED783",
"6B@	c #DBD580",
"7B@	c #DDD67E",
"8B@	c #E2DD81",
"9B@	c #E5DF84",
"0B@	c #E2C77E",
"aB@	c #B47547",
"bB@	c #B56D4A",
"cB@	c #CD9A70",
"dB@	c #E2C18C",
"eB@	c #E1BB7F",
"fB@	c #D7A363",
"gB@	c #E4A464",
"hB@	c #F3A46A",
"iB@	c #F19F65",
"jB@	c #F19E62",
"kB@	c #F69864",
"lB@	c #F07F52",
"mB@	c #F88B60",
"nB@	c #F3875B",
"oB@	c #F88F63",
"pB@	c #FC966A",
"qB@	c #D4887A",
"rB@	c #505089",
"sB@	c #2F539A",
"tB@	c #2B579A",
"uB@	c #28559A",
"vB@	c #265496",
"wB@	c #3A6598",
"xB@	c #90BAD3",
"yB@	c #A4CED0",
"zB@	c #A5CDC6",
"AB@	c #A7C7C6",
"BB@	c #AAC9CC",
"CB@	c #A6C6C8",
"DB@	c #A5C8C7",
"EB@	c #A4C8C6",
"FB@	c #A7CAC8",
"GB@	c #A6C9C8",
"HB@	c #A1C9C8",
"IB@	c #A6CECA",
"JB@	c #AAD1CD",
"KB@	c #A6CDCB",
"LB@	c #A7CECE",
"MB@	c #A5CBC9",
"NB@	c #ADCBC8",
"OB@	c #E5F5F4",
"PB@	c #F9FEFE",
"QB@	c #C2EDE8",
"RB@	c #A1CFD1",
"SB@	c #A0CCD2",
"TB@	c #79A1AA",
"UB@	c #657B88",
"VB@	c #65808C",
"WB@	c #6F8594",
"XB@	c #5C7D92",
"YB@	c #326093",
"ZB@	c #27529F",
"`B@	c #264F9D",
" C@	c #2750A0",
".C@	c #414C92",
"+C@	c #C28690",
"@C@	c #F8A97F",
"#C@	c #F6A372",
"$C@	c #F29669",
"%C@	c #F09160",
"&C@	c #F09866",
"*C@	c #F09D69",
"=C@	c #F49F6C",
"-C@	c #FB996A",
";C@	c #F7825C",
">C@	c #F47D59",
",C@	c #F17A55",
"'C@	c #ED7150",
")C@	c #F15341",
"!C@	c #EE5342",
"~C@	c #E74438",
"{C@	c #E32C2F",
"]C@	c #DC2F2C",
"^C@	c #F15D4E",
"/C@	c #F2985F",
"(C@	c #EA7E5B",
"_C@	c #914637",
":C@	c #4E1C18",
"<C@	c #632B25",
"[C@	c #642A21",
"}C@	c #642B20",
"|C@	c #5E2C24",
"1C@	c #5C372E",
"2C@	c #A18C80",
"3C@	c #DAD1BC",
"4C@	c #D9D8BE",
"5C@	c #D2D4BD",
"6C@	c #D4D6BC",
"7C@	c #D7D7BC",
"8C@	c #D7CFBB",
"9C@	c #BFB1A3",
"0C@	c #57483D",
"aC@	c #3E1E17",
"bC@	c #480A0B",
"cC@	c #BD262F",
"dC@	c #DA222C",
"eC@	c #D62126",
"fC@	c #D82326",
"gC@	c #D92626",
"hC@	c #DD2B2B",
"iC@	c #DC2A2A",
"jC@	c #D82425",
"kC@	c #D61B21",
"lC@	c #D21720",
"mC@	c #CD111F",
"nC@	c #C90E1C",
"oC@	c #C40919",
"pC@	c #BD0618",
"qC@	c #B7071A",
"rC@	c #B5041A",
"sC@	c #A9061B",
"tC@	c #590811",
"uC@	c #59282E",
"vC@	c #5F2B29",
"wC@	c #622C28",
"xC@	c #492222",
"yC@	c #201110",
"zC@	c #391D1D",
"AC@	c #4B2829",
"BC@	c #391D1C",
"CC@	c #5E2D2D",
"DC@	c #5B2727",
"EC@	c #592624",
"FC@	c #552827",
"GC@	c #2E1715",
"HC@	c #4F2C2D",
"IC@	c #411416",
"JC@	c #98313A",
"KC@	c #AE4048",
"LC@	c #9B5956",
"MC@	c #96685E",
"NC@	c #9E6F63",
"OC@	c #9E7668",
"PC@	c #A07D65",
"QC@	c #A58964",
"RC@	c #BDA771",
"SC@	c #DCCA82",
"TC@	c #E8DA86",
"UC@	c #EDE288",
"VC@	c #F0E98B",
"WC@	c #EBE586",
"XC@	c #E1DA79",
"YC@	c #DFDB7D",
"ZC@	c #E0DA83",
"`C@	c #E0D984",
" D@	c #DCD17D",
".D@	c #E0D783",
"+D@	c #EDE58B",
"@D@	c #EEE68A",
"#D@	c #E8E186",
"$D@	c #DCD17E",
"%D@	c #D8CB7F",
"&D@	c #DACE81",
"*D@	c #DACF81",
"=D@	c #D9D17F",
"-D@	c #DED882",
";D@	c #E2DA89",
">D@	c #D9D383",
",D@	c #CCCC7A",
"'D@	c #D8D285",
")D@	c #DAD386",
"!D@	c #D7D584",
"~D@	c #D7D483",
"{D@	c #DFCC81",
"]D@	c #E1C47E",
"^D@	c #DEC87F",
"/D@	c #DBCF83",
"(D@	c #DDD485",
"_D@	c #DCD682",
":D@	c #DDD781",
"<D@	c #DCD77D",
"[D@	c #E0DB7E",
"}D@	c #E1E182",
"|D@	c #E5DB82",
"1D@	c #C8A461",
"2D@	c #C89D62",
"3D@	c #DEC380",
"4D@	c #E3D389",
"5D@	c #E4D187",
"6D@	c #DDBF77",
"7D@	c #D7A764",
"8D@	c #E29A61",
"9D@	c #E6935D",
"0D@	c #F29C65",
"aD@	c #EF7D52",
"bD@	c #F79263",
"cD@	c #FB9D6C",
"dD@	c #D78F79",
"eD@	c #535288",
"fD@	c #36529A",
"gD@	c #30569C",
"hD@	c #2F579C",
"iD@	c #2A559B",
"jD@	c #2B559B",
"kD@	c #2B5499",
"lD@	c #2F5791",
"mD@	c #739BB6",
"nD@	c #A6CDD5",
"oD@	c #A2CAC5",
"pD@	c #A4CBC5",
"qD@	c #A8C8C7",
"rD@	c #A8C6C9",
"sD@	c #A6C5C7",
"tD@	c #A5CAC7",
"uD@	c #A5C9C7",
"vD@	c #A7CBC9",
"wD@	c #A6CAC8",
"xD@	c #A4C9C8",
"yD@	c #A3CBC9",
"zD@	c #A3CCCB",
"AD@	c #A3CCCA",
"BD@	c #A2C9C8",
"CD@	c #A6CDCA",
"DD@	c #A5CCC9",
"ED@	c #AAD1CC",
"FD@	c #A8CFCB",
"GD@	c #A7CFCD",
"HD@	c #B4CECD",
"ID@	c #EEF9F9",
"JD@	c #FCFDFF",
"KD@	c #FEFDFE",
"LD@	c #F6FDFD",
"MD@	c #BBE7E2",
"ND@	c #A2CDCF",
"OD@	c #A6D0D3",
"PD@	c #9BC3CA",
"QD@	c #789CA5",
"RD@	c #618089",
"SD@	c #6A7D8C",
"TD@	c #6F8493",
"UD@	c #5F7E91",
"VD@	c #366291",
"WD@	c #254E9D",
"XD@	c #28519F",
"YD@	c #2852A0",
"ZD@	c #2C53A0",
"`D@	c #424D93",
" E@	c #BE828C",
".E@	c #F6A87F",
"+E@	c #F3A371",
"@E@	c #F7AC7A",
"#E@	c #FBB17F",
"$E@	c #EF9C6D",
"%E@	c #EC9063",
"&E@	c #F19665",
"*E@	c #F19564",
"=E@	c #F5825E",
"-E@	c #EC7250",
";E@	c #EA7452",
">E@	c #F14F3E",
",E@	c #E74038",
"'E@	c #E93634",
")E@	c #E03934",
"!E@	c #FB9961",
"~E@	c #F8A465",
"{E@	c #F5A36E",
"]E@	c #AE5B41",
"^E@	c #521712",
"/E@	c #5A2A22",
"(E@	c #622A22",
"_E@	c #632A1F",
":E@	c #602B1F",
"<E@	c #5C2E26",
"[E@	c #7E695D",
"}E@	c #D0C8B7",
"|E@	c #D7D8BD",
"1E@	c #D6D3BD",
"2E@	c #D6D5BA",
"3E@	c #D9D6BB",
"4E@	c #D7D4BC",
"5E@	c #C3B8A9",
"6E@	c #695B53",
"7E@	c #45211E",
"8E@	c #3A110F",
"9E@	c #931D29",
"0E@	c #DA2732",
"aE@	c #D82428",
"bE@	c #D9282A",
"cE@	c #DD2B2C",
"dE@	c #DC292A",
"eE@	c #DE2C2C",
"fE@	c #DB2B2B",
"gE@	c #DC2D2C",
"hE@	c #DB2C2B",
"iE@	c #CE1320",
"jE@	c #C90E1E",
"kE@	c #C2071A",
"lE@	c #BB051A",
"mE@	c #B50519",
"nE@	c #B2051C",
"oE@	c #A8061D",
"pE@	c #580610",
"qE@	c #58272C",
"rE@	c #612D2D",
"sE@	c #622927",
"tE@	c #5E2C29",
"uE@	c #602D29",
"vE@	c #5F2C29",
"wE@	c #421C1C",
"xE@	c #3D2829",
"yE@	c #321719",
"zE@	c #482A2D",
"AE@	c #321919",
"BE@	c #602C2B",
"CE@	c #602A29",
"DE@	c #5E2827",
"EE@	c #542725",
"FE@	c #2C1613",
"GE@	c #4C2C2B",
"HE@	c #3C1617",
"IE@	c #8A3F41",
"JE@	c #9A5051",
"KE@	c #915E55",
"LE@	c #9B715D",
"ME@	c #AA8163",
"NE@	c #B4926A",
"OE@	c #C1AA73",
"PE@	c #D4C280",
"QE@	c #E8D98D",
"RE@	c #F1E689",
"SE@	c #EFE783",
"TE@	c #EBE582",
"UE@	c #F1EC8A",
"VE@	c #EBE585",
"WE@	c #E4DE7E",
"XE@	c #E5E384",
"YE@	c #E2E087",
"ZE@	c #E2DE86",
"`E@	c #E0DA82",
" F@	c #E3DD84",
".F@	c #E9E386",
"+F@	c #F0E98A",
"@F@	c #EBE584",
"#F@	c #E2DA7D",
"$F@	c #E3DA84",
"%F@	c #E2DB85",
"&F@	c #E2DE84",
"*F@	c #E4E084",
"=F@	c #E3E086",
"-F@	c #DADC86",
";F@	c #D6D484",
">F@	c #DDD886",
",F@	c #D8D583",
"'F@	c #D5D482",
")F@	c #D3D37E",
"!F@	c #D6D681",
"~F@	c #D9D582",
"{F@	c #DED885",
"]F@	c #DED884",
"^F@	c #DCD580",
"/F@	c #DCD67D",
"(F@	c #DED87F",
"_F@	c #DDD77E",
":F@	c #DFDA7E",
"<F@	c #E0DF82",
"[F@	c #E0D07E",
"}F@	c #DDCB7D",
"|F@	c #DBD27F",
"1F@	c #D8D27B",
"2F@	c #DBD380",
"3F@	c #DACD7E",
"4F@	c #DBBA72",
"5F@	c #DB9F65",
"6F@	c #DB8957",
"7F@	c #F19B68",
"8F@	c #FCA071",
"9F@	c #EE7C53",
"0F@	c #F17A56",
"aF@	c #F67D56",
"bF@	c #F68257",
"cF@	c #F48C5D",
"dF@	c #F99D67",
"eF@	c #D48E72",
"fF@	c #535281",
"gF@	c #35549B",
"hF@	c #31569C",
"iF@	c #2E559C",
"jF@	c #2A539C",
"kF@	c #2C5496",
"lF@	c #4E729D",
"mF@	c #9DC4CE",
"nF@	c #A9D1C9",
"oF@	c #A5CDC3",
"pF@	c #A6C7C5",
"qF@	c #A6C6C6",
"rF@	c #A6C6C7",
"sF@	c #A5C9C8",
"tF@	c #A5CBC8",
"uF@	c #A6CBC9",
"vF@	c #A3CAC8",
"wF@	c #A5CBCB",
"xF@	c #A4CAC9",
"yF@	c #A4CAC8",
"zF@	c #A5CDC7",
"AF@	c #A8CFCD",
"BF@	c #A6CECC",
"CF@	c #BFD7D6",
"DF@	c #F3FDFC",
"EF@	c #F3FDFD",
"FF@	c #B4DEDB",
"GF@	c #A4CDD1",
"HF@	c #A6CFD0",
"IF@	c #A6CED3",
"JF@	c #99C3C9",
"KF@	c #6A9198",
"LF@	c #607D87",
"MF@	c #69828F",
"NF@	c #687C89",
"OF@	c #697C88",
"PF@	c #6F8393",
"QF@	c #658093",
"RF@	c #3D6992",
"SF@	c #275496",
"TF@	c #2A54A1",
"UF@	c #BC7F88",
"VF@	c #F5A67B",
"WF@	c #F4A574",
"XF@	c #F2A775",
"YF@	c #F8AD7B",
"ZF@	c #F09467",
"`F@	c #ED7753",
" G@	c #EC7755",
".G@	c #E83B36",
"+G@	c #E12C2C",
"@G@	c #E22D2E",
"#G@	c #E34439",
"$G@	c #F77A5D",
"%G@	c #FC9F61",
"&G@	c #CC8458",
"*G@	c #5C281C",
"=G@	c #562521",
"-G@	c #612B26",
";G@	c #652A20",
">G@	c #622B23",
",G@	c #6B473E",
"'G@	c #BEB1A0",
")G@	c #DFDDC9",
"!G@	c #D5D9BE",
"~G@	c #D8D4BC",
"{G@	c #D8D1B8",
"]G@	c #D5CDB8",
"^G@	c #BCB2A1",
"/G@	c #6C5E53",
"(G@	c #422420",
"_G@	c #5D2C2C",
":G@	c #4F2320",
"<G@	c #540C11",
"[G@	c #C22931",
"}G@	c #D92D2E",
"|G@	c #DB2D2D",
"1G@	c #DC2D2D",
"2G@	c #E02C2B",
"3G@	c #DD2B28",
"4G@	c #DC2B29",
"5G@	c #D82828",
"6G@	c #D92427",
"7G@	c #D41922",
"8G@	c #D31821",
"9G@	c #CC131F",
"0G@	c #C40C1B",
"aG@	c #BA0617",
"bG@	c #B6071A",
"cG@	c #B2041B",
"dG@	c #AE051D",
"eG@	c #A7061F",
"fG@	c #59070F",
"gG@	c #612D2B",
"hG@	c #5E2A28",
"iG@	c #622827",
"jG@	c #5E2D29",
"kG@	c #5F2E28",
"lG@	c #381817",
"mG@	c #502E32",
"nG@	c #3B1E1E",
"oG@	c #3B2525",
"pG@	c #2C1714",
"qG@	c #5C2C2A",
"rG@	c #552826",
"sG@	c #2B1412",
"tG@	c #4A2C29",
"uG@	c #361C18",
"vG@	c #7D5245",
"wG@	c #996859",
"xG@	c #A07D63",
"yG@	c #BE9C77",
"zG@	c #D4B481",
"AG@	c #E2C885",
"BG@	c #E9D789",
"CG@	c #ECE18B",
"DG@	c #F0E78B",
"EG@	c #F3EC86",
"FG@	c #EDE882",
"GG@	c #EBE681",
"HG@	c #F0EB88",
"IG@	c #ECE785",
"JG@	c #EDE687",
"KG@	c #E9E389",
"LG@	c #E6E189",
"MG@	c #E4DE87",
"NG@	c #E3DB84",
"OG@	c #DDD47E",
"PG@	c #E2DC81",
"QG@	c #E6E183",
"RG@	c #EFEA8A",
"SG@	c #EDE988",
"TG@	c #E8E184",
"UG@	c #E8E085",
"VG@	c #E5DE84",
"WG@	c #E2DB82",
"XG@	c #E3DD83",
"YG@	c #E3DF84",
"ZG@	c #E3E088",
"`G@	c #DCDB87",
" H@	c #DCD685",
".H@	c #DCD485",
"+H@	c #D8D484",
"@H@	c #D5D583",
"#H@	c #D8D281",
"$H@	c #D9D381",
"%H@	c #DED785",
"&H@	c #DED683",
"*H@	c #DDD581",
"=H@	c #DED77F",
"-H@	c #DED77E",
";H@	c #DFD97E",
">H@	c #DEDA7B",
",H@	c #DEDB7E",
"'H@	c #DFDC80",
")H@	c #DFD982",
"!H@	c #DDD981",
"~H@	c #DAD97E",
"{H@	c #D3D477",
"]H@	c #D6D47D",
"^H@	c #DCCB80",
"/H@	c #E0B875",
"(H@	c #D6965B",
"_H@	c #DA8E5A",
":H@	c #F19D6E",
"<H@	c #F28557",
"[H@	c #EE7D51",
"}H@	c #F07952",
"|H@	c #F38055",
"1H@	c #F08257",
"2H@	c #D1886B",
"3H@	c #53507E",
"4H@	c #32559B",
"5H@	c #31569D",
"6H@	c #31579E",
"7H@	c #2B529C",
"8H@	c #2A5297",
"9H@	c #355E96",
"0H@	c #83AAC2",
"aH@	c #AACFD1",
"bH@	c #A4CBC2",
"cH@	c #A3CAC2",
"dH@	c #A3C8C2",
"eH@	c #A6C8C6",
"fH@	c #A5C7C8",
"gH@	c #A0C9C7",
"hH@	c #A1CBC9",
"iH@	c #A2C9C9",
"jH@	c #A5C9CA",
"kH@	c #A7CBCB",
"lH@	c #A8CCCB",
"mH@	c #A6CDC7",
"nH@	c #A6CCC9",
"oH@	c #A8CCCD",
"pH@	c #CBE0E0",
"qH@	c #F6FEFD",
"rH@	c #FEFDFD",
"sH@	c #EFFCFB",
"tH@	c #B0D7D6",
"uH@	c #A4CDD2",
"vH@	c #A5CDD0",
"wH@	c #A6CDD2",
"xH@	c #8CB9BF",
"yH@	c #63868F",
"zH@	c #627F8A",
"AH@	c #687B89",
"BH@	c #6F8593",
"CH@	c #688093",
"DH@	c #426B8E",
"EH@	c #2C57A4",
"FH@	c #28539C",
"GH@	c #434C93",
"HH@	c #BE7B83",
"IH@	c #F7A679",
"JH@	c #F5A574",
"KH@	c #F1A372",
"LH@	c #F5AA79",
"MH@	c #F8AA78",
"NH@	c #F5986A",
"OH@	c #F8986A",
"PH@	c #EF895B",
"QH@	c #EE865E",
"RH@	c #F04D3E",
"SH@	c #EE473E",
"TH@	c #E93F39",
"UH@	c #E53934",
"VH@	c #E43130",
"WH@	c #E32D2C",
"XH@	c #E12B2C",
"YH@	c #DE2D2B",
"ZH@	c #E95340",
"`H@	c #DD8C58",
" I@	c #73341E",
".I@	c #4F211D",
"+I@	c #5D2E28",
"@I@	c #612A22",
"#I@	c #65302C",
"$I@	c #9E887B",
"%I@	c #DED9C4",
"&I@	c #CFCEB3",
"*I@	c #CAC9AB",
"=I@	c #C3BBA3",
"-I@	c #B1A491",
";I@	c #82776C",
">I@	c #4D403C",
",I@	c #3B201D",
"'I@	c #542C29",
")I@	c #642D2B",
"!I@	c #5F2E2A",
"~I@	c #391210",
"{I@	c #831C1F",
"]I@	c #D13133",
"^I@	c #DD2D2B",
"/I@	c #DE2C29",
"(I@	c #DE2D29",
"_I@	c #DD2926",
":I@	c #D92827",
"<I@	c #D92428",
"[I@	c #D41A23",
"}I@	c #C6101C",
"|I@	c #C10C1C",
"1I@	c #B7081C",
"2I@	c #B2081C",
"3I@	c #AE051A",
"4I@	c #AB041D",
"5I@	c #A6071F",
"6I@	c #59050E",
"7I@	c #55292B",
"8I@	c #622C2C",
"9I@	c #5E2B28",
"0I@	c #5F2D29",
"aI@	c #5E2D27",
"bI@	c #5F2D2A",
"cI@	c #331311",
"dI@	c #563033",
"eI@	c #4D2A2A",
"fI@	c #2F1E1C",
"gI@	c #291614",
"hI@	c #5E2C2B",
"iI@	c #5E2C28",
"jI@	c #572A27",
"kI@	c #2F1314",
"lI@	c #4C2B2C",
"mI@	c #37271D",
"nI@	c #988764",
"oI@	c #B99F6F",
"pI@	c #D0B97F",
"qI@	c #E4CC8B",
"rI@	c #E7D087",
"sI@	c #ECDD85",
"tI@	c #ECE183",
"uI@	c #EBE281",
"vI@	c #EDE584",
"wI@	c #F1E986",
"xI@	c #ECE481",
"yI@	c #EBE381",
"zI@	c #ECE588",
"AI@	c #EAE086",
"BI@	c #E3DB85",
"CI@	c #E0D985",
"DI@	c #DFD886",
"EI@	c #E0D686",
"FI@	c #DAD080",
"GI@	c #DAD57F",
"HI@	c #E7E488",
"II@	c #E9E587",
"JI@	c #E4DF83",
"KI@	c #E3DC84",
"LI@	c #E4DD86",
"MI@	c #E0DB85",
"NI@	c #DEDB84",
"OI@	c #DDDB86",
"PI@	c #D1CF7D",
"QI@	c #D6D081",
"RI@	c #D8D183",
"SI@	c #D8D485",
"TI@	c #D7D585",
"UI@	c #D8D385",
"VI@	c #DAD283",
"WI@	c #D9D281",
"XI@	c #D9D180",
"YI@	c #DCD481",
"ZI@	c #DED681",
"`I@	c #E2DA84",
" J@	c #E1DA81",
".J@	c #DFDB7E",
"+J@	c #DEDC7A",
"@J@	c #DCD97B",
"#J@	c #DBD77C",
"$J@	c #DCD77E",
"%J@	c #DAD77C",
"&J@	c #D7DB7C",
"*J@	c #D2D779",
"=J@	c #D6D680",
"-J@	c #D7D282",
";J@	c #D9CF80",
">J@	c #DCC97D",
",J@	c #DCBA72",
"'J@	c #D39F5F",
")J@	c #D8935B",
"!J@	c #E58B5A",
"~J@	c #F89D6B",
"{J@	c #EA8552",
"]J@	c #F27E53",
"^J@	c #F89C67",
"/J@	c #F1975C",
"(J@	c #D18569",
"_J@	c #544E7F",
":J@	c #335399",
"<J@	c #34569E",
"[J@	c #355AA1",
"}J@	c #2D559D",
"|J@	c #2B548F",
"1J@	c #5681A4",
"2J@	c #9EC9D6",
"3J@	c #A7CECA",
"4J@	c #A3C7C0",
"5J@	c #A4C7C1",
"6J@	c #A6C8C5",
"7J@	c #A6CAC9",
"8J@	c #A2C7C5",
"9J@	c #A0C8C7",
"0J@	c #A0CAC8",
"aJ@	c #A1C9C9",
"bJ@	c #A1C8C9",
"cJ@	c #A9CFCE",
"dJ@	c #A6CEC9",
"eJ@	c #ABCBCF",
"fJ@	c #DBEBED",
"gJ@	c #F9FEFD",
"hJ@	c #EAFAF8",
"iJ@	c #ABD3D1",
"jJ@	c #A4CCCF",
"kJ@	c #A4CCCE",
"lJ@	c #A6CDD1",
"mJ@	c #A4CCD3",
"nJ@	c #9FCBD0",
"oJ@	c #7FA9AF",
"pJ@	c #61848D",
"qJ@	c #6B808D",
"rJ@	c #687F8E",
"sJ@	c #647A88",
"tJ@	c #697C8D",
"uJ@	c #6F8293",
"vJ@	c #677D8F",
"wJ@	c #497091",
"xJ@	c #2B5897",
"yJ@	c #28519E",
"zJ@	c #27519C",
"AJ@	c #424990",
"BJ@	c #C07B84",
"CJ@	c #F49E72",
"DJ@	c #EF9A6A",
"EJ@	c #F6AA78",
"FJ@	c #F9A977",
"GJ@	c #F89E6F",
"HJ@	c #EE895C",
"IJ@	c #F17855",
"JJ@	c #E73E37",
"KJ@	c #E33934",
"LJ@	c #E3312F",
"MJ@	c #E12C2B",
"NJ@	c #DD312C",
"OJ@	c #F1664E",
"PJ@	c #EA9369",
"QJ@	c #88462F",
"RJ@	c #622D27",
"SJ@	c #602A20",
"TJ@	c #652C20",
"UJ@	c #622B24",
"VJ@	c #794F48",
"WJ@	c #BFAD9C",
"XJ@	c #B8AD9A",
"YJ@	c #A79986",
"ZJ@	c #857762",
"`J@	c #775D4A",
" K@	c #76473A",
".K@	c #6D3528",
"+K@	c #672923",
"@K@	c #3D0E0D",
"#K@	c #452420",
"$K@	c #592F2A",
"%K@	c #672B29",
"&K@	c #4F2624",
"*K@	c #4F0D0E",
"=K@	c #AC2B30",
"-K@	c #DF363E",
";K@	c #DF2C2C",
">K@	c #DF2D2B",
",K@	c #E1312D",
"'K@	c #DF322D",
")K@	c #DC2E2A",
"!K@	c #DB2A29",
"~K@	c #DA2329",
"{K@	c #D11822",
"]K@	c #C5131C",
"^K@	c #C0101B",
"/K@	c #BB0B1B",
"(K@	c #B6071B",
"_K@	c #AF071C",
":K@	c #AA071A",
"<K@	c #A7071D",
"[K@	c #A2071E",
"}K@	c #5A050E",
"|K@	c #522B2B",
"1K@	c #612A29",
"2K@	c #5F2D27",
"3K@	c #401A19",
"4K@	c #5E3134",
"5K@	c #582D2E",
"6K@	c #2D1817",
"7K@	c #281817",
"8K@	c #522D2D",
"9K@	c #5D2D2C",
"0K@	c #5D2C28",
"aK@	c #572A28",
"bK@	c #321416",
"cK@	c #4D2D2D",
"dK@	c #453C29",
"eK@	c #C0BA82",
"fK@	c #D1C378",
"gK@	c #D9CA78",
"hK@	c #DED17C",
"iK@	c #DACE77",
"jK@	c #DFD77E",
"kK@	c #DDD57D",
"lK@	c #E0D981",
"mK@	c #E4DE85",
"nK@	c #E0D87C",
"oK@	c #DFD77B",
"pK@	c #E1D97F",
"qK@	c #E1DB84",
"rK@	c #DBD47F",
"sK@	c #D6CF7D",
"tK@	c #D3CD7E",
"uK@	c #D3CD7F",
"vK@	c #D4CE80",
"wK@	c #D1CA7C",
"xK@	c #CECA79",
"yK@	c #D3D07C",
"zK@	c #D6D47E",
"AK@	c #D6D47B",
"BK@	c #D5D07A",
"CK@	c #D8D27D",
"DK@	c #DAD381",
"EK@	c #D7D07F",
"FK@	c #D9D584",
"GK@	c #D3D17F",
"HK@	c #CECE7C",
"IK@	c #CBCA7A",
"JK@	c #D1CC7E",
"KK@	c #D6D082",
"LK@	c #D8D284",
"MK@	c #D9D186",
"NK@	c #DAD184",
"OK@	c #D8D081",
"PK@	c #D3CB7B",
"QK@	c #D6CE7C",
"RK@	c #DCD47F",
"SK@	c #E1D985",
"TK@	c #E2DB84",
"UK@	c #E0DA7E",
"VK@	c #E0DC7D",
"WK@	c #DEDA7D",
"XK@	c #DFDA7F",
"YK@	c #DBD57C",
"ZK@	c #D9D27B",
"`K@	c #DCDA83",
" L@	c #D8D682",
".L@	c #DAD584",
"+L@	c #D9D284",
"@L@	c #D4CF7D",
"#L@	c #D8CD7B",
"$L@	c #DCC178",
"%L@	c #DCAF6F",
"&L@	c #D8945C",
"*L@	c #E19762",
"=L@	c #F6A368",
"-L@	c #F39C63",
";L@	c #F59C67",
">L@	c #F38357",
",L@	c #FCA16D",
"'L@	c #F59860",
")L@	c #D6886C",
"!L@	c #57507E",
"~L@	c #345496",
"{L@	c #34589E",
"]L@	c #3359A0",
"^L@	c #2D5496",
"/L@	c #3D6691",
"(L@	c #88B6C9",
"_L@	c #A4D0D3",
":L@	c #A6CEC7",
"<L@	c #A5C8C2",
"[L@	c #A7C7C4",
"}L@	c #A8C8C6",
"|L@	c #A6C9C9",
"1L@	c #A8CBCA",
"2L@	c #A1C8C4",
"3L@	c #A3CAC7",
"4L@	c #A4CDCA",
"5L@	c #A3CBCB",
"6L@	c #9FC7C6",
"7L@	c #AAD1D0",
"8L@	c #A5CDCB",
"9L@	c #A5CDC9",
"0L@	c #A7CDD0",
"aL@	c #B1CDD2",
"bL@	c #EAF4F7",
"cL@	c #FFFEFF",
"dL@	c #E4F8F6",
"eL@	c #A6D0CD",
"fL@	c #A2C9CC",
"gL@	c #A4CCCD",
"hL@	c #A4CBCE",
"iL@	c #A7CBD3",
"jL@	c #A5CFD5",
"kL@	c #9CC7CD",
"lL@	c #6E969D",
"mL@	c #63808A",
"nL@	c #6B7D8D",
"oL@	c #708193",
"pL@	c #4E7392",
"qL@	c #2F5B97",
"rL@	c #274F9D",
"sL@	c #28519D",
"tL@	c #43478E",
"uL@	c #C57B84",
"vL@	c #F69B6F",
"wL@	c #F59F70",
"xL@	c #F5A474",
"yL@	c #FAA675",
"zL@	c #F49C6C",
"AL@	c #EF9566",
"BL@	c #F99F6F",
"CL@	c #F79568",
"DL@	c #ED7A56",
"EL@	c #EF7553",
"FL@	c #EE7552",
"GL@	c #EA473C",
"HL@	c #E53D36",
"IL@	c #E33A33",
"JL@	c #E03631",
"KL@	c #E02E2D",
"LL@	c #E32B2A",
"ML@	c #DF2A28",
"NL@	c #E03A33",
"OL@	c #F28966",
"PL@	c #A75D45",
"QL@	c #541B17",
"RL@	c #612C25",
"SL@	c #612A23",
"TL@	c #612B20",
"UL@	c #5D2B21",
"VL@	c #69332E",
"WL@	c #764B3D",
"XL@	c #773A2C",
"YL@	c #8E3E2F",
"ZL@	c #A44E3A",
"`L@	c #B55341",
" M@	c #CE5F53",
".M@	c #C85649",
"+M@	c #A74543",
"@M@	c #5B1814",
"#M@	c #4C1817",
"$M@	c #5B2826",
"%M@	c #642E2B",
"&M@	c #5F2D2B",
"*M@	c #471A16",
"=M@	c #5E1215",
"-M@	c #C0363D",
";M@	c #DA3235",
">M@	c #DB3734",
",M@	c #DC3935",
"'M@	c #DA3935",
")M@	c #D1312C",
"!M@	c #CD2927",
"~M@	c #CD2124",
"{M@	c #C51A21",
"]M@	c #BC131A",
"^M@	c #B7101A",
"/M@	c #B20D19",
"(M@	c #AB0916",
"_M@	c #A50918",
":M@	c #A20918",
"<M@	c #A30A1C",
"[M@	c #9E091D",
"}M@	c #5C060E",
"|M@	c #4E2929",
"1M@	c #632A29",
"2M@	c #622F2A",
"3M@	c #622E2B",
"4M@	c #653134",
"5M@	c #602E30",
"6M@	c #34181A",
"7M@	c #2A1C1C",
"8M@	c #452626",
"9M@	c #5C2C2C",
"0M@	c #5A2A29",
"aM@	c #301715",
"bM@	c #472C28",
"cM@	c #565235",
"dM@	c #C7C883",
"eM@	c #C8C76D",
"fM@	c #CCC76B",
"gM@	c #CFCA6F",
"hM@	c #CDC770",
"iM@	c #D0CA75",
"jM@	c #CBC774",
"kM@	c #CCCA77",
"lM@	c #CECA76",
"mM@	c #D1CD76",
"nM@	c #D0CB73",
"oM@	c #D0CB75",
"pM@	c #D0CD77",
"qM@	c #CFCD7A",
"rM@	c #CDC978",
"sM@	c #CCC97A",
"tM@	c #CBC87B",
"uM@	c #CBC87C",
"vM@	c #CCCC7C",
"wM@	c #CAC979",
"xM@	c #CBCB7A",
"yM@	c #CECD7B",
"zM@	c #CDCC79",
"AM@	c #C9C876",
"BM@	c #CBC778",
"CM@	c #CCC878",
"DM@	c #CCC979",
"EM@	c #CBC87A",
"FM@	c #CFCD80",
"GM@	c #C8C87B",
"HM@	c #CACA7C",
"IM@	c #CECE7F",
"JM@	c #D2CE82",
"KM@	c #D6D185",
"LM@	c #D4CF82",
"MM@	c #D4CD82",
"NM@	c #D5C881",
"OM@	c #D8CD82",
"PM@	c #D6CF82",
"QM@	c #D6CD7E",
"RM@	c #D6CD7C",
"SM@	c #DBD37E",
"TM@	c #E4D987",
"UM@	c #E6DB85",
"VM@	c #E6DE84",
"WM@	c #E5E084",
"XM@	c #E5E085",
"YM@	c #DACE7E",
"ZM@	c #D8C782",
"`M@	c #D2C07D",
" N@	c #D5C77F",
".N@	c #DAD084",
"+N@	c #D8D487",
"@N@	c #D1CF7E",
"#N@	c #D2CE7C",
"$N@	c #D6CB7E",
"%N@	c #DAC57F",
"&N@	c #D9B373",
"*N@	c #CCA162",
"=N@	c #DBA165",
"-N@	c #F0AA6C",
";N@	c #FAAE73",
">N@	c #FDB178",
",N@	c #F8A874",
"'N@	c #F1895A",
")N@	c #DD8F71",
"!N@	c #5C537B",
"~N@	c #325494",
"{N@	c #2E579A",
"]N@	c #2D569B",
"^N@	c #2F538E",
"/N@	c #6A91AC",
"(N@	c #9FCCD1",
"_N@	c #A6D1CC",
":N@	c #A6CDC6",
"<N@	c #A6CCC6",
"[N@	c #A8CAC7",
"}N@	c #A9C9C7",
"|N@	c #A1C3C3",
"1N@	c #A5C7C7",
"2N@	c #A2CAC6",
"3N@	c #A4CBC8",
"4N@	c #A1CAC9",
"5N@	c #A3CDCC",
"6N@	c #A0CAC9",
"7N@	c #A7CECD",
"8N@	c #A3CDC9",
"9N@	c #A4CCCC",
"0N@	c #A6CDCF",
"aN@	c #B6CED0",
"bN@	c #F2F9F8",
"cN@	c #FDFEFD",
"dN@	c #FFFEFE",
"eN@	c #FCFDFC",
"fN@	c #FCFCFC",
"gN@	c #FBFDFD",
"hN@	c #DBF3F1",
"iN@	c #A4CFCC",
"jN@	c #A4C9CB",
"kN@	c #A3CBCD",
"lN@	c #A5CACF",
"mN@	c #A7D0D5",
"nN@	c #90B9BF",
"oN@	c #678B93",
"pN@	c #63818B",
"qN@	c #687C8C",
"rN@	c #2F5C93",
"sN@	c #28519C",
"tN@	c #45478F",
"uN@	c #C57983",
"vN@	c #FAA271",
"wN@	c #F09768",
"xN@	c #F09969",
"yN@	c #F99F70",
"zN@	c #FA996C",
"AN@	c #ED7855",
"BN@	c #F18960",
"CN@	c #EE7654",
"DN@	c #ED473B",
"EN@	c #E93F37",
"FN@	c #E23732",
"GN@	c #DE322E",
"HN@	c #DE2C2B",
"IN@	c #E02A29",
"JN@	c #DD2A27",
"KN@	c #E54B3F",
"LN@	c #F87E5B",
"MN@	c #C7684F",
"NN@	c #5B1916",
"ON@	c #5D2523",
"PN@	c #682C25",
"QN@	c #642D29",
"RN@	c #4F2317",
"SN@	c #5B2019",
"TN@	c #983B36",
"UN@	c #C05647",
"VN@	c #DD6951",
"WN@	c #E76E54",
"XN@	c #E7694D",
"YN@	c #E36149",
"ZN@	c #EA6452",
"`N@	c #E05846",
" O@	c #E55F4C",
".O@	c #E96056",
"+O@	c #781D24",
"@O@	c #4E1010",
"#O@	c #532020",
"$O@	c #612C2C",
"%O@	c #612E27",
"&O@	c #5C2A24",
"*O@	c #401412",
"=O@	c #711C20",
"-O@	c #BD3739",
";O@	c #CF3C36",
">O@	c #CB3B37",
",O@	c #C93B32",
"'O@	c #C8332A",
")O@	c #C22D26",
"!O@	c #B92520",
"~O@	c #B62421",
"{O@	c #AC1A19",
"]O@	c #A91516",
"^O@	c #A61314",
"/O@	c #9E0E10",
"(O@	c #990D11",
"_O@	c #980D17",
":O@	c #970D17",
"<O@	c #930D1A",
"[O@	c #59060F",
"}O@	c #422423",
"|O@	c #612E2E",
"1O@	c #612C2A",
"2O@	c #632E2B",
"3O@	c #632F2C",
"4O@	c #602D2B",
"5O@	c #662E30",
"6O@	c #3D1A1B",
"7O@	c #332424",
"8O@	c #391E1D",
"9O@	c #5A2F2E",
"0O@	c #5C2C29",
"aO@	c #582D29",
"bO@	c #2D1815",
"cO@	c #362820",
"dO@	c #75754E",
"eO@	c #C6CD81",
"fO@	c #BCC368",
"gO@	c #C1C46A",
"hO@	c #C7C771",
"iO@	c #C8C674",
"jO@	c #C5C472",
"kO@	c #C5C974",
"lO@	c #CCD07B",
"mO@	c #C7CC75",
"nO@	c #C9CB73",
"oO@	c #C9CB76",
"pO@	c #CACA76",
"qO@	c #CBCE79",
"rO@	c #C6C975",
"sO@	c #C7C775",
"tO@	c #C9C878",
"uO@	c #C9CA7D",
"vO@	c #C7C979",
"wO@	c #C6CB79",
"xO@	c #C5CA78",
"yO@	c #CACC7C",
"zO@	c #C8C878",
"AO@	c #C4C676",
"BO@	c #C7C779",
"CO@	c #C7C879",
"DO@	c #C9C97E",
"EO@	c #CBCC81",
"FO@	c #C6C87D",
"GO@	c #C9CB7E",
"HO@	c #CCCF80",
"IO@	c #D1D083",
"JO@	c #D5D286",
"KO@	c #CDC67E",
"LO@	c #C3B771",
"MO@	c #C6BA72",
"NO@	c #D5CF82",
"OO@	c #DBD383",
"PO@	c #DED482",
"QO@	c #DED381",
"RO@	c #E1D585",
"SO@	c #E4D38B",
"TO@	c #E4D188",
"UO@	c #E3D482",
"VO@	c #E9E188",
"WO@	c #E6E284",
"XO@	c #E0D880",
"YO@	c #CEBF75",
"ZO@	c #B89F66",
"`O@	c #B99C67",
" P@	c #CAB676",
".P@	c #D9CE83",
"+P@	c #D8D384",
"@P@	c #D1CE7E",
"#P@	c #CECB7E",
"$P@	c #CFCB7F",
"%P@	c #D4CC83",
"&P@	c #D3C47E",
"*P@	c #D2C27C",
"=P@	c #CFB06E",
"-P@	c #D19A5E",
";P@	c #E79C65",
">P@	c #F3A670",
",P@	c #FDB87E",
"'P@	c #DF9374",
")P@	c #615577",
"!P@	c #345791",
"~P@	c #285997",
"{P@	c #43678F",
"]P@	c #96BCCA",
"^P@	c #A7CEC9",
"/P@	c #A6CCC8",
"(P@	c #A6C9C6",
"_P@	c #A4C7C5",
":P@	c #9CC0C0",
"<P@	c #A4C8C8",
"[P@	c #A5C8C9",
"}P@	c #A2C2C3",
"|P@	c #A7C8C7",
"1P@	c #A6CCCA",
"2P@	c #A7CFCC",
"3P@	c #A4CECC",
"4P@	c #A5CFCE",
"5P@	c #A5CECD",
"6P@	c #A1CCCA",
"7P@	c #A3CECB",
"8P@	c #A6CFCD",
"9P@	c #C0D4D5",
"0P@	c #F9FDFD",
"aP@	c #FEFEFD",
"bP@	c #FEFDFF",
"cP@	c #FDFEFE",
"dP@	c #CEECEB",
"eP@	c #A4CECD",
"fP@	c #A6C9CD",
"gP@	c #A3C9CD",
"hP@	c #A3C8CE",
"iP@	c #A4CCD1",
"jP@	c #A4CCD0",
"kP@	c #A1CAD0",
"lP@	c #78A1A8",
"mP@	c #5F848D",
"nP@	c #6C7D8A",
"oP@	c #6B7C89",
"pP@	c #597793",
"qP@	c #315F91",
"rP@	c #28549C",
"sP@	c #2B549D",
"tP@	c #464992",
"uP@	c #C77982",
"vP@	c #FCA371",
"wP@	c #F29868",
"xP@	c #FBA06F",
"yP@	c #ED7553",
"zP@	c #E54837",
"AP@	c #E24236",
"BP@	c #DC3D32",
"CP@	c #D5332A",
"DP@	c #D62C26",
"EP@	c #DB2F2D",
"FP@	c #F88361",
"GP@	c #D17755",
"HP@	c #702C1E",
"IP@	c #592322",
"JP@	c #642924",
"KP@	c #5D2E25",
"LP@	c #491F19",
"MP@	c #5A2C25",
"NP@	c #BC6252",
"OP@	c #E96D5B",
"PP@	c #F56F50",
"QP@	c #E66445",
"RP@	c #E15E44",
"SP@	c #DF5944",
"TP@	c #DF5544",
"UP@	c #DC5441",
"VP@	c #DD5442",
"WP@	c #D6443C",
"XP@	c #C43840",
"YP@	c #94242B",
"ZP@	c #4F0F0F",
"`P@	c #4D1E1A",
" Q@	c #5F2B23",
".Q@	c #562625",
"+Q@	c #3B100E",
"@Q@	c #7E2A28",
"#Q@	c #B73F39",
"$Q@	c #B53D34",
"%Q@	c #B33F32",
"&Q@	c #B53F2D",
"*Q@	c #B03F2C",
"=Q@	c #AD4631",
"-Q@	c #B3503C",
";Q@	c #B5503E",
">Q@	c #A34330",
",Q@	c #9B3B29",
"'Q@	c #913221",
")Q@	c #8F2F21",
"!Q@	c #8A281B",
"~Q@	c #8A2B22",
"{Q@	c #4E1111",
"]Q@	c #361F1C",
"^Q@	c #5C2F2D",
"/Q@	c #5F2A28",
"(Q@	c #612D2A",
"_Q@	c #622E2C",
":Q@	c #622F2C",
"<Q@	c #612C29",
"[Q@	c #652D2C",
"}Q@	c #421D1E",
"|Q@	c #3C2A2A",
"1Q@	c #2F1615",
"2Q@	c #572C2C",
"3Q@	c #5D2827",
"4Q@	c #5F322E",
"5Q@	c #2C1812",
"6Q@	c #332C1D",
"7Q@	c #999D69",
"8Q@	c #C5CF7F",
"9Q@	c #BEC46C",
"0Q@	c #C2C470",
"aQ@	c #C7C374",
"bQ@	c #C8C377",
"cQ@	c #C8C378",
"dQ@	c #CDD27D",
"eQ@	c #C9CF79",
"fQ@	c #CDCF78",
"gQ@	c #CDCC78",
"hQ@	c #CCCB77",
"iQ@	c #CDD07C",
"jQ@	c #C9CE7A",
"kQ@	c #C8CB77",
"lQ@	c #CCCC7F",
"mQ@	c #C8CA79",
"nQ@	c #C7CC7A",
"oQ@	c #C4CC79",
"pQ@	c #C8CE7B",
"qQ@	c #C8CC7B",
"rQ@	c #C5C778",
"sQ@	c #C6C67A",
"tQ@	c #C9C77C",
"uQ@	c #C8C67B",
"vQ@	c #CAC97F",
"wQ@	c #C9CA81",
"xQ@	c #C9CB82",
"yQ@	c #CBCD82",
"zQ@	c #CDD081",
"AQ@	c #D1D284",
"BQ@	c #D3D185",
"CQ@	c #D3CF82",
"DQ@	c #D0C982",
"EQ@	c #C4B975",
"FQ@	c #C5BA73",
"GQ@	c #D7D183",
"HQ@	c #DBD481",
"IQ@	c #DFD382",
"JQ@	c #E0D284",
"KQ@	c #DAC47F",
"LQ@	c #D2B77B",
"MQ@	c #CFB276",
"NQ@	c #D4BC75",
"OQ@	c #E6DA84",
"PQ@	c #E3DE80",
"QQ@	c #DED67D",
"RQ@	c #D0C177",
"SQ@	c #BEA56A",
"TQ@	c #C3A870",
"UQ@	c #D4C180",
"VQ@	c #D6D083",
"WQ@	c #D1CD82",
"XQ@	c #CFCC81",
"YQ@	c #D2CB81",
"ZQ@	c #D1C981",
"`Q@	c #D3CA83",
" R@	c #D5C37D",
".R@	c #D6B071",
"+R@	c #D69A5F",
"@R@	c #DE9660",
"#R@	c #EAA56D",
"$R@	c #F4AB72",
"%R@	c #E29577",
"&R@	c #655677",
"*R@	c #355592",
"=R@	c #295894",
"-R@	c #2C5B8E",
";R@	c #6F94AE",
">R@	c #A8CCCE",
",R@	c #A9CAC5",
"'R@	c #A5CAC4",
")R@	c #A6CAC6",
"!R@	c #A5CDC8",
"~R@	c #A3CAC5",
"{R@	c #A4C8C4",
"]R@	c #A3C7C6",
"^R@	c #A3C7C7",
"/R@	c #A2C6C6",
"(R@	c #A0C2C2",
"_R@	c #8EADAE",
":R@	c #A5C5C5",
"<R@	c #A2CCC9",
"[R@	c #A6D0CE",
"}R@	c #A5CFCD",
"|R@	c #A6D0CF",
"1R@	c #A2CFCD",
"2R@	c #A1CFCB",
"3R@	c #D1E2E3",
"4R@	c #FBFDFE",
"5R@	c #F3FCFD",
"6R@	c #C2E6E4",
"7R@	c #A4CECE",
"8R@	c #A6CACE",
"9R@	c #A1C7CB",
"0R@	c #A2C7CD",
"aR@	c #A2C9CE",
"bR@	c #A1CACE",
"cR@	c #A1CDD1",
"dR@	c #668F96",
"eR@	c #6A7F8B",
"fR@	c #6C7D89",
"gR@	c #6D7C88",
"hR@	c #5C7993",
"iR@	c #35638F",
"jR@	c #2C549F",
"kR@	c #2C519F",
"lR@	c #2D50A1",
"mR@	c #464991",
"nR@	c #CB7D83",
"oR@	c #F89A73",
"pR@	c #F99F6E",
"qR@	c #F89869",
"rR@	c #F99A6D",
"sR@	c #F99E6D",
"tR@	c #F29567",
"uR@	c #F57B5A",
"vR@	c #ED7651",
"wR@	c #F07854",
"xR@	c #F07A56",
"yR@	c #D35335",
"zR@	c #D35238",
"AR@	c #CC4B34",
"BR@	c #C9452E",
"CR@	c #CC3D2B",
"DR@	c #D33C2F",
"ER@	c #D74334",
"FR@	c #F4755F",
"GR@	c #DC775F",
"HR@	c #703024",
"IR@	c #511C18",
"JR@	c #612D22",
"KR@	c #582B28",
"LR@	c #3E1C16",
"MR@	c #643729",
"NR@	c #BF7B67",
"OR@	c #E78568",
"PR@	c #E9704E",
"QR@	c #EB6D4A",
"RR@	c #EB6E4F",
"SR@	c #E35E44",
"TR@	c #E15B44",
"UR@	c #DD5341",
"VR@	c #DE4C40",
"WR@	c #D44137",
"XR@	c #D34136",
"YR@	c #D33430",
"ZR@	c #D12C32",
"`R@	c #C12E35",
" S@	c #922327",
".S@	c #560B0D",
"+S@	c #4C1B17",
"@S@	c #5B2B28",
"#S@	c #4D2223",
"$S@	c #3B0F0D",
"%S@	c #893A36",
"&S@	c #AD6149",
"*S@	c #B56B48",
"=S@	c #BD794D",
"-S@	c #C98B5F",
";S@	c #CE976B",
">S@	c #D39C72",
",S@	c #D3A579",
"'S@	c #D0A87A",
")S@	c #CAA576",
"!S@	c #CAA374",
"~S@	c #C09A6C",
"{S@	c #C29668",
"]S@	c #C09265",
"^S@	c #BD8E68",
"/S@	c #563728",
"(S@	c #281210",
"_S@	c #572F2A",
":S@	c #632D2B",
"<S@	c #642C2B",
"[S@	c #431E1F",
"}S@	c #41292C",
"|S@	c #512A28",
"1S@	c #623331",
"2S@	c #341F12",
"3S@	c #414028",
"4S@	c #B3BA79",
"5S@	c #C4CB7B",
"6S@	c #C5C573",
"7S@	c #C6BD72",
"8S@	c #C6B674",
"9S@	c #C5B373",
"0S@	c #CBB879",
"aS@	c #CDC579",
"bS@	c #CBCB75",
"cS@	c #CECF78",
"dS@	c #D2CE7A",
"eS@	c #D1C977",
"fS@	c #D1CA77",
"gS@	c #CFD07B",
"hS@	c #CCD17C",
"iS@	c #CACD79",
"jS@	c #CFCC7C",
"kS@	c #CBC97C",
"lS@	c #CACB7A",
"mS@	c #C8CC79",
"nS@	c #C6CC79",
"oS@	c #CACE7C",
"pS@	c #CBCD7D",
"qS@	c #CACA7A",
"rS@	c #C9C77A",
"sS@	c #CBC67C",
"tS@	c #CFCA81",
"uS@	c #CDC87E",
"vS@	c #CCC77F",
"wS@	c #CAC681",
"xS@	c #CBC983",
"yS@	c #CDCD84",
"zS@	c #CED081",
"AS@	c #D4D083",
"BS@	c #D7D187",
"CS@	c #D1C884",
"DS@	c #D9D484",
"ES@	c #D9CF7D",
"FS@	c #D1C077",
"GS@	c #BFA167",
"HS@	c #B89662",
"IS@	c #C19D68",
"JS@	c #C5A867",
"KS@	c #E0D27E",
"LS@	c #DDD579",
"MS@	c #DAD37A",
"NS@	c #DBD080",
"OS@	c #D4C17D",
"PS@	c #D6C180",
"QS@	c #D9C883",
"RS@	c #CFC67D",
"SS@	c #D0CA80",
"TS@	c #D0CC82",
"US@	c #CDCB80",
"VS@	c #CEC77E",
"WS@	c #D3CB83",
"XS@	c #D2C981",
"YS@	c #D5C17C",
"ZS@	c #D7B573",
"`S@	c #D19E61",
" T@	c #D1915A",
".T@	c #DB935D",
"+T@	c #EC9463",
"@T@	c #E79376",
"#T@	c #6B5679",
"$T@	c #365494",
"%T@	c #2F5A93",
"&T@	c #436D93",
"*T@	c #98BBCB",
"=T@	c #ABCCC7",
"-T@	c #A7C6BF",
";T@	c #A7CBC6",
">T@	c #A9CDCA",
",T@	c #A5C9C6",
"'T@	c #A5C8C8",
")T@	c #A3C6C7",
"!T@	c #A4C7C8",
"~T@	c #A4C5C6",
"{T@	c #9CBBBC",
"]T@	c #A4C5C4",
"^T@	c #A3C8C6",
"/T@	c #A3CBC8",
"(T@	c #A5CECC",
"_T@	c #A4D2D0",
":T@	c #A1CFCC",
"<T@	c #A9D1CD",
"[T@	c #DFEEEF",
"}T@	c #F0FBFC",
"|T@	c #B6DDDC",
"1T@	c #A2CCCC",
"2T@	c #A2C8CC",
"3T@	c #A4CBD0",
"4T@	c #A3CCD0",
"5T@	c #9FCDD0",
"6T@	c #A1D0D5",
"7T@	c #81AEB4",
"8T@	c #61828D",
"9T@	c #6E7F8C",
"0T@	c #6D7D8B",
"aT@	c #5F7A91",
"bT@	c #38648E",
"cT@	c #2B4F9E",
"dT@	c #2F52A3",
"eT@	c #454991",
"fT@	c #CA7D81",
"gT@	c #F3956E",
"hT@	c #F29366",
"iT@	c #E97A55",
"jT@	c #F87C5B",
"kT@	c #F77E5D",
"lT@	c #D78D5C",
"mT@	c #D58D5E",
"nT@	c #D1895C",
"oT@	c #D08358",
"pT@	c #D07E53",
"qT@	c #D27A52",
"rT@	c #D57958",
"sT@	c #CE795D",
"tT@	c #77372A",
"uT@	c #511D1B",
"vT@	c #683024",
"wT@	c #682B20",
"xT@	c #582821",
"yT@	c #3F1C1A",
"zT@	c #6A4835",
"AT@	c #C48663",
"BT@	c #E18D62",
"CT@	c #E27F55",
"DT@	c #E3734A",
"ET@	c #E16C47",
"FT@	c #DD6747",
"GT@	c #DA5E3F",
"HT@	c #DD5A40",
"IT@	c #D84F3C",
"JT@	c #D84539",
"KT@	c #D03933",
"LT@	c #CF3632",
"MT@	c #CA2E2E",
"NT@	c #C22829",
"OT@	c #BD282A",
"PT@	c #B7292D",
"QT@	c #96262C",
"RT@	c #4E1313",
"ST@	c #3E1E18",
"TT@	c #572B28",
"UT@	c #612B2E",
"VT@	c #481D1F",
"WT@	c #4F2E24",
"XT@	c #BE9B77",
"YT@	c #D0BD7F",
"ZT@	c #CBC176",
"`T@	c #CFC77B",
" U@	c #CDC97D",
".U@	c #C9C47B",
"+U@	c #CDC67F",
"@U@	c #CDC880",
"#U@	c #CCCA81",
"$U@	c #D2CE85",
"%U@	c #D4CE84",
"&U@	c #DBD084",
"*U@	c #E3D488",
"=U@	c #DDC988",
"-U@	c #5A4631",
";U@	c #381819",
">U@	c #5B2E2A",
",U@	c #602F2B",
"'U@	c #66312F",
")U@	c #64302D",
"!U@	c #622C2B",
"~U@	c #462121",
"{U@	c #402629",
"]U@	c #331B1B",
"^U@	c #3F221D",
"/U@	c #572A25",
"(U@	c #5C2A2A",
"_U@	c #5B2E2B",
":U@	c #372617",
"<U@	c #686D47",
"[U@	c #C3C784",
"}U@	c #C6C77B",
"|U@	c #C7BD78",
"1U@	c #C5AE6F",
"2U@	c #C8A673",
"3U@	c #C6A372",
"4U@	c #C9AB72",
"5U@	c #D3C378",
"6U@	c #D5CE78",
"7U@	c #D7D07A",
"8U@	c #DBD07E",
"9U@	c #DACC7B",
"0U@	c #D8CC7A",
"aU@	c #D4D17D",
"bU@	c #D2D27D",
"cU@	c #D1D07C",
"dU@	c #D4CF7E",
"eU@	c #D3CE80",
"fU@	c #CFCC7B",
"gU@	c #CDCD7B",
"hU@	c #CCCD7B",
"iU@	c #CECD7C",
"jU@	c #CFCC7D",
"kU@	c #CFC97B",
"lU@	c #D0CA7C",
"mU@	c #D1C97D",
"nU@	c #D6CE83",
"oU@	c #D5CD82",
"pU@	c #D2CA82",
"qU@	c #D0CB84",
"rU@	c #D2CF85",
"sU@	c #D2D184",
"tU@	c #D5D287",
"uU@	c #D5D283",
"vU@	c #D7D285",
"wU@	c #D5CF85",
"xU@	c #DAD782",
"yU@	c #DBD67E",
"zU@	c #D8CF7B",
"AU@	c #C1B067",
"BU@	c #BBA365",
"CU@	c #BC9F65",
"DU@	c #C7AB6F",
"EU@	c #D3BD75",
"FU@	c #DED07C",
"GU@	c #DAD479",
"HU@	c #D9D479",
"IU@	c #DFD284",
"JU@	c #DACB81",
"KU@	c #D5C97E",
"LU@	c #D0C87B",
"MU@	c #D0CA7E",
"NU@	c #CECB7D",
"OU@	c #CDCA7F",
"PU@	c #CDC77E",
"QU@	c #CFC77F",
"RU@	c #CFC67E",
"SU@	c #D6C880",
"TU@	c #D5BD78",
"UU@	c #D0A469",
"VU@	c #CC935A",
"WU@	c #D88C5B",
"XU@	c #E78A5F",
"YU@	c #EC825A",
"ZU@	c #ED7D58",
"`U@	c #E89074",
" V@	c #6E5579",
".V@	c #375393",
"+V@	c #3A5F90",
"@V@	c #79A3B9",
"#V@	c #A9CCD1",
"$V@	c #ADCBC1",
"%V@	c #A5C3BE",
"&V@	c #A7C9C6",
"*V@	c #ACCFCC",
"=V@	c #A4CBC6",
"-V@	c #A5C8C4",
";V@	c #A3C5C6",
">V@	c #A7C8C9",
",V@	c #A5C6C7",
"'V@	c #A3C7C5",
")V@	c #A2C9C6",
"!V@	c #A2CBC7",
"~V@	c #A6CECD",
"{V@	c #A6D2D0",
"]V@	c #A5D1CF",
"^V@	c #ACD2CF",
"/V@	c #E8F5F6",
"(V@	c #FCFFFD",
"_V@	c #FFFDFC",
":V@	c #FFFDFE",
"<V@	c #FEFCFD",
"[V@	c #EFFBFB",
"}V@	c #AFD6D5",
"|V@	c #A8CDCE",
"1V@	c #A4CBCB",
"2V@	c #A7CDD1",
"3V@	c #A5CAD0",
"4V@	c #A0CCD0",
"5V@	c #A0CED3",
"6V@	c #97C8CD",
"7V@	c #6B939B",
"8V@	c #5E7E88",
"9V@	c #69808A",
"0V@	c #6F808D",
"aV@	c #6F7E8D",
"bV@	c #617B8F",
"cV@	c #3E688E",
"dV@	c #2B539B",
"eV@	c #45488F",
"fV@	c #CA7E7E",
"gV@	c #FAA876",
"hV@	c #F49D69",
"iV@	c #ED855E",
"jV@	c #F17857",
"kV@	c #F17956",
"lV@	c #F98862",
"mV@	c #D6BB76",
"nV@	c #D3BB7B",
"oV@	c #D0B878",
"pV@	c #CFB374",
"qV@	c #CEB475",
"rV@	c #CFB379",
"sV@	c #C7A076",
"tV@	c #764D35",
"uV@	c #491F1A",
"vV@	c #5F2F2A",
"wV@	c #66302B",
"xV@	c #5D2C27",
"yV@	c #411D15",
"zV@	c #69563B",
"AV@	c #CBA476",
"BV@	c #F0B67B",
"CV@	c #F0B373",
"DV@	c #EFAF71",
"EV@	c #ECA76C",
"FV@	c #E9A36C",
"GV@	c #E49F66",
"HV@	c #E09861",
"IV@	c #E08659",
"JV@	c #D9724B",
"KV@	c #D15F40",
"LV@	c #CF5039",
"MV@	c #C64031",
"NV@	c #BE3728",
"OV@	c #BA3025",
"PV@	c #B82B24",
"QV@	c #B62D29",
"RV@	c #B4332D",
"SV@	c #AE3832",
"TV@	c #944D3D",
"UV@	c #5C3D29",
"VV@	c #5B282C",
"WV@	c #391F16",
"XV@	c #776B49",
"YV@	c #D2CA8B",
"ZV@	c #DADB8C",
"`V@	c #D4D27F",
" W@	c #D5D37E",
".W@	c #D2D07C",
"+W@	c #CECD78",
"@W@	c #CDCD79",
"#W@	c #D3D47D",
"$W@	c #DBD880",
"%W@	c #DFD97F",
"&W@	c #E3DB80",
"*W@	c #D5C67A",
"=W@	c #58412C",
"-W@	c #582B2E",
";W@	c #632C2B",
">W@	c #462021",
",W@	c #3E2123",
"'W@	c #432826",
")W@	c #2D1611",
"!W@	c #48251E",
"~W@	c #532825",
"{W@	c #502825",
"]W@	c #443D26",
"^W@	c #ABB47C",
"/W@	c #C8C983",
"(W@	c #C8BF7B",
"_W@	c #C4B075",
":W@	c #C9A772",
"<W@	c #CCA275",
"[W@	c #C99E72",
"}W@	c #CCA871",
"|W@	c #DECB7F",
"1W@	c #E0D67D",
"2W@	c #E0D47E",
"3W@	c #E2D382",
"4W@	c #E2D180",
"5W@	c #E0D281",
"6W@	c #DAD581",
"7W@	c #DAD580",
"8W@	c #DAD382",
"9W@	c #DBD585",
"0W@	c #D7D382",
"aW@	c #D7D082",
"bW@	c #D8CF81",
"cW@	c #D8D180",
"dW@	c #D7CE7F",
"eW@	c #DAD182",
"fW@	c #D8CF84",
"gW@	c #D8D087",
"hW@	c #D4CD84",
"iW@	c #D4D386",
"jW@	c #D3D083",
"kW@	c #D3D085",
"lW@	c #D3D080",
"mW@	c #D2D07F",
"nW@	c #DAD980",
"oW@	c #DDDA80",
"pW@	c #D8D07B",
"qW@	c #D8C580",
"rW@	c #DDCB83",
"sW@	c #DDD27C",
"tW@	c #DBD87D",
"uW@	c #DFD981",
"vW@	c #DDD380",
"wW@	c #D9CE7D",
"xW@	c #D4CB7C",
"yW@	c #D3CC7D",
"zW@	c #D2CC7B",
"AW@	c #CDC77C",
"BW@	c #CBC57D",
"CW@	c #CEC880",
"DW@	c #D0C981",
"EW@	c #CEC77F",
"FW@	c #D9BF7E",
"GW@	c #D3B173",
"HW@	c #C9985E",
"IW@	c #D48D5B",
"JW@	c #E3865B",
"KW@	c #E9805B",
"LW@	c #E68A6E",
"MW@	c #6C5175",
"NW@	c #36528C",
"OW@	c #55779D",
"PW@	c #9AC3D0",
"QW@	c #AECDCB",
"RW@	c #AEC8C1",
"SW@	c #A6C3C1",
"TW@	c #A7C8C5",
"UW@	c #ABCDCC",
"VW@	c #A4CAC6",
"WW@	c #A2C4C5",
"XW@	c #A4C6C6",
"YW@	c #A3C5C3",
"ZW@	c #A3C6C4",
"`W@	c #A3C8C5",
" X@	c #9FC7C5",
".X@	c #A0C8C8",
"+X@	c #A6CECE",
"@X@	c #B0D0CE",
"#X@	c #F0FAFB",
"$X@	c #FFFDFD",
"%X@	c #FDFCFD",
"&X@	c #E8F8F8",
"*X@	c #AAD1D1",
"=X@	c #A7CBCD",
"-X@	c #AACECF",
";X@	c #A5CBD0",
">X@	c #A5CBD1",
",X@	c #A2CBD0",
"'X@	c #A0CBD1",
")X@	c #9CCED2",
"!X@	c #8BB8BE",
"~X@	c #5C828A",
"{X@	c #607885",
"]X@	c #677C88",
"^X@	c #6A7E8A",
"/X@	c #6E808D",
"(X@	c #6F7E8E",
"_X@	c #446D8F",
":X@	c #2C4EA2",
"<X@	c #45478D",
"[X@	c #CD817F",
"}X@	c #F99C71",
"|X@	c #FDAA7B",
"1X@	c #FBAD7A",
"2X@	c #F69E71",
"3X@	c #F19B6A",
"4X@	c #FB9A70",
"5X@	c #F37757",
"6X@	c #CCC477",
"7X@	c #C7C57A",
"8X@	c #C2C176",
"9X@	c #C6C176",
"0X@	c #CAC880",
"aX@	c #C4C286",
"bX@	c #7C704C",
"cX@	c #432117",
"dX@	c #593027",
"eX@	c #63312A",
"fX@	c #65312C",
"gX@	c #5A2F25",
"hX@	c #3E201A",
"iX@	c #60563E",
"jX@	c #BAB07F",
"kX@	c #CFBA7B",
"lX@	c #DBBC75",
"mX@	c #E0BE7A",
"nX@	c #E5C37D",
"oX@	c #ECCB84",
"pX@	c #F4D48B",
"qX@	c #F9DA92",
"rX@	c #F7D48D",
"sX@	c #F7CA89",
"tX@	c #F3BB7E",
"uX@	c #F0AE76",
"vX@	c #E59467",
"wX@	c #D97E55",
"xX@	c #C66B46",
"yX@	c #BD5E3D",
"zX@	c #B95739",
"AX@	c #B6553A",
"BX@	c #BE6349",
"CX@	c #CD7A5B",
"DX@	c #D89F74",
"EX@	c #C7A47D",
"FX@	c #614A39",
"GX@	c #4A2322",
"HX@	c #592A28",
"IX@	c #562B23",
"JX@	c #402619",
"KX@	c #887E5A",
"LX@	c #D7D292",
"MX@	c #D9CF85",
"NX@	c #DFD283",
"OX@	c #DCD480",
"PX@	c #D8D37A",
"QX@	c #D7D47E",
"RX@	c #DAD882",
"SX@	c #E2D97F",
"TX@	c #E1DC7C",
"UX@	c #CFC076",
"VX@	c #513A28",
"WX@	c #62312D",
"XX@	c #642F2C",
"YX@	c #5C2C28",
"ZX@	c #41241F",
"`X@	c #492F27",
" Y@	c #281A0E",
".Y@	c #382510",
"+Y@	c #3A2210",
"@Y@	c #42311B",
"#Y@	c #969161",
"$Y@	c #C9CC8A",
"%Y@	c #C8BD7A",
"&Y@	c #C3AF70",
"*Y@	c #C4A76E",
"=Y@	c #CDA974",
"-Y@	c #CAA671",
";Y@	c #CAA36F",
">Y@	c #DABD7E",
",Y@	c #E8D988",
"'Y@	c #E4DC82",
")Y@	c #E2DA80",
"!Y@	c #E0D881",
"~Y@	c #DFD57E",
"{Y@	c #E1D682",
"]Y@	c #DED982",
"^Y@	c #DFD983",
"/Y@	c #DDD583",
"(Y@	c #DFD787",
"_Y@	c #E0D888",
":Y@	c #DFD887",
"<Y@	c #DDD785",
"[Y@	c #DCD483",
"}Y@	c #DDD484",
"|Y@	c #DBD382",
"1Y@	c #DBD282",
"2Y@	c #DBD284",
"3Y@	c #DDD487",
"4Y@	c #D8D084",
"5Y@	c #D6D386",
"6Y@	c #D4D184",
"7Y@	c #D5D185",
"8Y@	c #D3D281",
"9Y@	c #CFD27E",
"0Y@	c #D2D37F",
"aY@	c #DAD883",
"bY@	c #DEDB82",
"cY@	c #DFDB82",
"dY@	c #DCD57E",
"eY@	c #DFD582",
"fY@	c #E0D384",
"gY@	c #DED082",
"hY@	c #E0D484",
"iY@	c #DFD780",
"jY@	c #DED37D",
"kY@	c #DAD57C",
"lY@	c #DBD67D",
"mY@	c #DCD67F",
"nY@	c #DDD580",
"oY@	c #DBD37F",
"pY@	c #D7CF7C",
"qY@	c #D8D17D",
"rY@	c #D4CE7A",
"sY@	c #D1CC7C",
"tY@	c #D1CB7F",
"uY@	c #CDC77B",
"vY@	c #CBC679",
"wY@	c #CAC77D",
"xY@	c #CBC881",
"yY@	c #CBC980",
"zY@	c #CCCC80",
"AY@	c #D0C881",
"BY@	c #D5C883",
"CY@	c #D3BC7B",
"DY@	c #CEA467",
"EY@	c #D1905B",
"FY@	c #D9865A",
"GY@	c #EE8C65",
"HY@	c #E28466",
"IY@	c #674C70",
"JY@	c #405C8A",
"KY@	c #8EB1C9",
"LY@	c #A8CBD3",
"MY@	c #ADC8C5",
"NY@	c #ACC4C2",
"OY@	c #A7C5C4",
"PY@	c #AACBCA",
"QY@	c #A7CCC9",
"RY@	c #A3C7C4",
"SY@	c #A5C6C2",
"TY@	c #A5C7C5",
"UY@	c #A4C7C6",
"VY@	c #A1C6C3",
"WY@	c #9EC6C5",
"XY@	c #9FC6CA",
"YY@	c #A7CDCC",
"ZY@	c #A3CAC9",
"`Y@	c #A7CFD1",
" Z@	c #C0D7D7",
".Z@	c #F6FDFE",
"+Z@	c #FDFDFE",
"@Z@	c #FFFDFF",
"#Z@	c #FDFEFF",
"$Z@	c #DFF7F6",
"%Z@	c #A3CECD",
"&Z@	c #A0C6CA",
"*Z@	c #A5CCD1",
"=Z@	c #A0C9CD",
"-Z@	c #A2CCD0",
";Z@	c #719EA3",
">Z@	c #5E7C88",
",Z@	c #6C7D8C",
"'Z@	c #6E808C",
")Z@	c #657E89",
"!Z@	c #2C579A",
"~Z@	c #2E4EA3",
"{Z@	c #4A478C",
"]Z@	c #D4867E",
"^Z@	c #F1976B",
"/Z@	c #F6A377",
"(Z@	c #FBB17E",
"_Z@	c #FDA072",
":Z@	c #F5825F",
"<Z@	c #F77F5B",
"[Z@	c #F67957",
"}Z@	c #F27654",
"|Z@	c #C3CA7A",
"1Z@	c #C2C978",
"2Z@	c #C3CA78",
"3Z@	c #C8CE79",
"4Z@	c #C9CA84",
"5Z@	c #87855C",
"6Z@	c #3C2619",
"7Z@	c #5B2C24",
"8Z@	c #633125",
"9Z@	c #663227",
"0Z@	c #5E2F29",
"aZ@	c #3E201C",
"bZ@	c #5A5842",
"cZ@	c #B4B88A",
"dZ@	c #C9CE89",
"eZ@	c #C5BF76",
"fZ@	c #C8B873",
"gZ@	c #C5B473",
"hZ@	c #C6B66F",
"iZ@	c #C9BA72",
"jZ@	c #CFC073",
"kZ@	c #D3C87A",
"lZ@	c #D3C478",
"mZ@	c #D7C278",
"nZ@	c #D6BD74",
"oZ@	c #DCBD77",
"pZ@	c #DFB475",
"qZ@	c #DEAF72",
"rZ@	c #DDAD72",
"sZ@	c #DAA56E",
"tZ@	c #DAA46D",
"uZ@	c #D7A46B",
"vZ@	c #D6A76E",
"wZ@	c #D3A76D",
"xZ@	c #D0AE70",
"yZ@	c #CCB27F",
"zZ@	c #A78C6F",
"AZ@	c #44271F",
"BZ@	c #542924",
"CZ@	c #5D2E27",
"DZ@	c #542C26",
"EZ@	c #39231B",
"FZ@	c #867C57",
"GZ@	c #C9BA7C",
"HZ@	c #D0BF76",
"IZ@	c #D8C778",
"JZ@	c #E0D67F",
"KZ@	c #E0D87E",
"LZ@	c #DED781",
"MZ@	c #E1DA85",
"NZ@	c #E4DA85",
"OZ@	c #E0D67C",
"PZ@	c #E2DB7B",
"QZ@	c #C8B66F",
"RZ@	c #4C3324",
"SZ@	c #61302C",
"TZ@	c #61302B",
"UZ@	c #602E26",
"VZ@	c #5C2D27",
"WZ@	c #331712",
"XZ@	c #2F200F",
"YZ@	c #3B2E15",
"ZZ@	c #736D49",
"`Z@	c #A39B66",
" `@	c #9E9763",
".`@	c #BAB37A",
"+`@	c #DDD88D",
"@`@	c #DEDD8A",
"#`@	c #D3C376",
"$`@	c #CEB26F",
"%`@	c #D6B777",
"&`@	c #D5B677",
"*`@	c #CAAE6D",
"=`@	c #D8B879",
"-`@	c #E8D187",
";`@	c #E9DD87",
">`@	c #E3DD80",
",`@	c #E2DB81",
"'`@	c #E1DA82",
")`@	c #DFD880",
"!`@	c #E0D582",
"~`@	c #E1D880",
"{`@	c #E0D883",
"]`@	c #E2DA88",
"^`@	c #DFD985",
"/`@	c #DED684",
"(`@	c #DDD684",
"_`@	c #DDD582",
":`@	c #DDD483",
"<`@	c #DBD283",
"[`@	c #DAD183",
"}`@	c #D8D083",
"|`@	c #D7CF83",
"1`@	c #DAD486",
"2`@	c #D5D083",
"3`@	c #D7D784",
"4`@	c #D6D983",
"5`@	c #CED27A",
"6`@	c #D7D67E",
"7`@	c #DFDD83",
"8`@	c #DFDC82",
"9`@	c #DDD87F",
"0`@	c #DCD47D",
"a`@	c #DFD47F",
"b`@	c #DCD27E",
"c`@	c #DFD680",
"d`@	c #E0D97F",
"e`@	c #DDD47D",
"f`@	c #D9D47C",
"g`@	c #DED980",
"h`@	c #DBD77F",
"i`@	c #DFD883",
"j`@	c #DFD984",
"k`@	c #DCD681",
"l`@	c #D7D17D",
"m`@	c #D3CE7C",
"n`@	c #D2CC7E",
"o`@	c #CEC87A",
"p`@	c #CEC97B",
"q`@	c #CBC97D",
"r`@	c #CBC981",
"s`@	c #CDCA83",
"t`@	c #CCCD83",
"u`@	c #CBCE81",
"v`@	c #CBCB80",
"w`@	c #CECC82",
"x`@	c #CFCD84",
"y`@	c #D5CF88",
"z`@	c #D6C680",
"A`@	c #D1B071",
"B`@	c #CE9964",
"C`@	c #E1976A",
"D`@	c #DA7E64",
"E`@	c #694C6F",
"F`@	c #6183A2",
"G`@	c #A4C9CE",
"H`@	c #A8C8CB",
"I`@	c #A7C5C3",
"J`@	c #A7C4C3",
"K`@	c #A8C7C6",
"L`@	c #A9CAC9",
"M`@	c #A2C4C3",
"N`@	c #A6C9C7",
"O`@	c #A2C6C4",
"P`@	c #A8D0CE",
"Q`@	c #A3C8CA",
"R`@	c #A2C6CC",
"S`@	c #A5CACA",
"T`@	c #A9CCCD",
"U`@	c #A5CDCD",
"V`@	c #A4CDCF",
"W`@	c #D2E5E5",
"X`@	c #F9FDFF",
"Y`@	c #FEFEFF",
"Z`@	c #DAF4F3",
"``@	c #A2CFCF",
"  #	c #A3CACF",
". #	c #9FC8CC",
"+ #	c #A0C9CE",
"@ #	c #A1CACF",
"# #	c #89BBBE",
"$ #	c #61868E",
"% #	c #6A7E8E",
"& #	c #6D808E",
"* #	c #6E818C",
"= #	c #67808A",
"- #	c #50728E",
"; #	c #2C5698",
"> #	c #4F478A",
", #	c #DD9084",
"' #	c #F7A374",
") #	c #F49F73",
"! #	c #F2A275",
"~ #	c #FDB682",
"{ #	c #F7AF7C",
"] #	c #FAAE7B",
"^ #	c #F4A66F",
"/ #	c #F7A66F",
"( #	c #F49567",
"_ #	c #F49563",
": #	c #FA9C6B",
"< #	c #F6865F",
"[ #	c #F27153",
"} #	c #C2CC7D",
"| #	c #C4CC7B",
"1 #	c #C8D281",
"2 #	c #C5D082",
"3 #	c #94905F",
"4 #	c #443321",
"5 #	c #562F2D",
"6 #	c #643024",
"7 #	c #5F3124",
"8 #	c #45241A",
"9 #	c #494830",
"0 #	c #B1B88A",
"a #	c #C6D493",
"b #	c #C2CF79",
"c #	c #BEC472",
"d #	c #C0BD78",
"e #	c #C0BD7B",
"f #	c #BFBD7A",
"g #	c #BEBC79",
"h #	c #C0BC75",
"i #	c #BDBA71",
"j #	c #BDB56F",
"k #	c #C6B571",
"l #	c #C4B470",
"m #	c #C5B671",
"n #	c #CAB772",
"o #	c #CBB974",
"p #	c #D2BE75",
"q #	c #D5BE75",
"r #	c #E2C97F",
"s #	c #E7CE82",
"t #	c #E5D280",
"u #	c #DDCD7B",
"v #	c #D2BF6E",
"w #	c #BCA262",
"x #	c #BAA079",
"y #	c #7E634F",
"z #	c #46221B",
"A #	c #5E2F28",
"B #	c #5C2C27",
"C #	c #4A2423",
"D #	c #361F17",
"E #	c #92805B",
"F #	c #D3C386",
"G #	c #DDCF83",
"H #	c #E1DB81",
"I #	c #DCD882",
"J #	c #E2D984",
"K #	c #DFD77C",
"L #	c #E0DA7A",
"M #	c #BFAC67",
"N #	c #492D20",
"O #	c #602B26",
"P #	c #662F2E",
"Q #	c #622D2B",
"R #	c #603029",
"S #	c #5F2F27",
"T #	c #582C29",
"U #	c #38271C",
"V #	c #87865A",
"W #	c #AAA96B",
"X #	c #D5D38C",
"Y #	c #E2DE8E",
"Z #	c #E6E495",
"` #	c #ECEA96",
" .#	c #E7E385",
"..#	c #E5E181",
"+.#	c #E2D27C",
"@.#	c #E5CB7E",
"#.#	c #EBD388",
"$.#	c #E7D286",
"%.#	c #DBC979",
"&.#	c #E6D183",
"*.#	c #E9DB85",
"=.#	c #E5DC82",
"-.#	c #E0DA7C",
";.#	c #E2DB80",
">.#	c #E0DA81",
",.#	c #E1D683",
"'.#	c #E2D980",
").#	c #E4DC81",
"!.#	c #E1D982",
"~.#	c #E0D884",
"{.#	c #DDD680",
"].#	c #DCD57F",
"^.#	c #DED682",
"/.#	c #DBD381",
"(.#	c #D8CE7E",
"_.#	c #D7D081",
":.#	c #D9D282",
"<.#	c #DDD585",
"[.#	c #D8D080",
"}.#	c #D4D07F",
"|.#	c #D8D984",
"1.#	c #DDE288",
"2.#	c #D3D77D",
"3.#	c #D8D77D",
"4.#	c #DDDB81",
"5.#	c #DEDC83",
"6.#	c #DBD77E",
"7.#	c #D8D278",
"8.#	c #DCD57B",
"9.#	c #E1DC82",
"0.#	c #DDD77F",
"a.#	c #E1DC83",
"b.#	c #D9D57D",
"c.#	c #DCD680",
"d.#	c #D7D17E",
"e.#	c #D7D281",
"f.#	c #D6D180",
"g.#	c #D2CE7D",
"h.#	c #CBC97F",
"i.#	c #C8C77F",
"j.#	c #C8C97F",
"k.#	c #C9CC80",
"l.#	c #C7CA7E",
"m.#	c #CBCE82",
"n.#	c #CDCF85",
"o.#	c #D3D087",
"p.#	c #D6D187",
"q.#	c #D9CA85",
"r.#	c #D9BB80",
"s.#	c #D6A873",
"t.#	c #C98664",
"u.#	c #695C6F",
"v.#	c #8EB5C5",
"w.#	c #A7CCC7",
"x.#	c #A6C6C5",
"y.#	c #A7C7C7",
"z.#	c #AACAC9",
"A.#	c #A9C9C8",
"B.#	c #A3C5C4",
"C.#	c #A4C6C3",
"D.#	c #A2C6C2",
"E.#	c #A7CDCD",
"F.#	c #A0C3C5",
"G.#	c #9EC0C6",
"H.#	c #A3C5C7",
"I.#	c #A9CCCE",
"J.#	c #A6CACC",
"K.#	c #A5CDCE",
"L.#	c #ACCDCD",
"M.#	c #E2F1F1",
"N.#	c #FBFDFF",
"O.#	c #FEFCFE",
"P.#	c #CFEEEE",
"Q.#	c #A1CDCE",
"R.#	c #A7D1D0",
"S.#	c #A1C8CC",
"T.#	c #A4CAD0",
"U.#	c #A4CACF",
"V.#	c #9EC9CD",
"W.#	c #96C9CB",
"X.#	c #6F9BA0",
"Y.#	c #61808A",
"Z.#	c #69808C",
"`.#	c #55758C",
" +#	c #2E5897",
".+#	c #2B50A1",
"++#	c #2B4D9F",
"@+#	c #54488B",
"#+#	c #E39486",
"$+#	c #FDAD7B",
"%+#	c #F8A678",
"&+#	c #F2A574",
"*+#	c #F2A875",
"=+#	c #F7AD78",
"-+#	c #F4A76F",
";+#	c #F49E6A",
">+#	c #F57957",
",+#	c #F07251",
"'+#	c #F16E50",
")+#	c #C9C980",
"!+#	c #CED38A",
"~+#	c #9DA56D",
"{+#	c #493A26",
"]+#	c #542C27",
"^+#	c #65342D",
"/+#	c #6A322C",
"(+#	c #5E3026",
"_+#	c #4B281E",
":+#	c #3C3522",
"<+#	c #9DA671",
"[+#	c #C6D28C",
"}+#	c #C1CF7F",
"|+#	c #BCCA72",
"1+#	c #BDC772",
"2+#	c #BEC076",
"3+#	c #BCC175",
"4+#	c #BDC379",
"5+#	c #C0C577",
"6+#	c #BCC173",
"7+#	c #BDBF72",
"8+#	c #C3BF76",
"9+#	c #C3BE76",
"0+#	c #C2BF75",
"a+#	c #C5BE72",
"b+#	c #C5BD70",
"c+#	c #C8C171",
"d+#	c #CFC474",
"e+#	c #DCCE7D",
"f+#	c #E3D782",
"g+#	c #E4DD80",
"h+#	c #EBE684",
"i+#	c #EAE081",
"j+#	c #CFBA6F",
"k+#	c #C5AC71",
"l+#	c #AF9769",
"m+#	c #483121",
"n+#	c #5B2F27",
"o+#	c #612B27",
"p+#	c #5B2B27",
"q+#	c #4D2522",
"r+#	c #453222",
"s+#	c #AAA274",
"t+#	c #D4D388",
"u+#	c #D5D27E",
"v+#	c #D3D37B",
"w+#	c #D0D17C",
"x+#	c #D4D47E",
"y+#	c #D7D47C",
"z+#	c #D9D67A",
"A+#	c #DFDC7A",
"B+#	c #BBA963",
"C+#	c #4A2C20",
"D+#	c #5D2C29",
"E+#	c #5D2E2B",
"F+#	c #4D2526",
"G+#	c #5C5736",
"H+#	c #E0E28F",
"I+#	c #E9ED89",
"J+#	c #EBEB8A",
"K+#	c #E7E387",
"L+#	c #E7E58B",
"M+#	c #ECE88C",
"N+#	c #EAE384",
"O+#	c #E6E07E",
"P+#	c #E5DA7E",
"Q+#	c #E5D980",
"R+#	c #E7DC86",
"S+#	c #E8DC85",
"T+#	c #E3D97E",
"U+#	c #E7DA81",
"V+#	c #E3DC7E",
"W+#	c #E1DB7E",
"X+#	c #DFD77F",
"Y+#	c #DFD481",
"Z+#	c #DCD77C",
"`+#	c #E0DA7F",
" @#	c #E0D982",
".@#	c #DBD47C",
"+@#	c #DCD57D",
"@@#	c #DDD67F",
"#@#	c #D8D07D",
"$@#	c #DAD281",
"%@#	c #DBD483",
"&@#	c #DCD584",
"*@#	c #DAD482",
"=@#	c #D8D481",
"-@#	c #D8D982",
";@#	c #DEE288",
">@#	c #D7DB7F",
",@#	c #DAD97D",
"'@#	c #DBDB80",
")@#	c #DBDA80",
"!@#	c #DCD97F",
"~@#	c #DAD57D",
"{@#	c #DDD87D",
"]@#	c #DFDC85",
"^@#	c #DCD880",
"/@#	c #DAD67E",
"(@#	c #D9D780",
"_@#	c #DCD881",
":@#	c #DCD781",
"<@#	c #DDD783",
"[@#	c #DBD683",
"}@#	c #D8D482",
"|@#	c #CECD7F",
"1@#	c #CAC87E",
"2@#	c #C9C77F",
"3@#	c #CCCB82",
"4@#	c #CDCD81",
"5@#	c #C7C87D",
"6@#	c #C9CD81",
"7@#	c #CBD085",
"8@#	c #D0CE86",
"9@#	c #D2D188",
"0@#	c #D2C886",
"a@#	c #D0BF83",
"b@#	c #C2A473",
"c@#	c #7C837E",
"d@#	c #A2C7C7",
"e@#	c #A4C8C5",
"f@#	c #A6C7C6",
"g@#	c #A6C8CA",
"h@#	c #A2C7C9",
"i@#	c #A5C6C5",
"j@#	c #A4C6C4",
"k@#	c #A5C9C5",
"l@#	c #A5C8C5",
"m@#	c #A5C7C4",
"n@#	c #A2C8C7",
"o@#	c #9FC2C3",
"p@#	c #A0C0C6",
"q@#	c #A4C5C7",
"r@#	c #A6C8CC",
"s@#	c #A7CACD",
"t@#	c #A4CACC",
"u@#	c #A3CACE",
"v@#	c #A4C9CF",
"w@#	c #B1CFD0",
"x@#	c #ECF7F8",
"y@#	c #FCFCFF",
"z@#	c #C2E5E5",
"A@#	c #A6CCD0",
"B@#	c #A7D1D1",
"C@#	c #A3C9CF",
"D@#	c #A1C8CD",
"E@#	c #A3C7CD",
"F@#	c #A0C8CD",
"G@#	c #9ECBCD",
"H@#	c #89B5B9",
"I@#	c #658890",
"J@#	c #59788B",
"K@#	c #315A97",
"L@#	c #2D4EA3",
"M@#	c #584A8F",
"N@#	c #E49286",
"O@#	c #FAA775",
"P@#	c #F69F71",
"Q@#	c #F4A072",
"R@#	c #F39E68",
"S@#	c #F89164",
"T@#	c #CBC683",
"U@#	c #CDC984",
"V@#	c #B1B178",
"W@#	c #4A462A",
"X@#	c #4E2D24",
"Y@#	c #63312C",
"Z@#	c #6A3329",
"`@#	c #67332A",
" ##	c #4D2A23",
".##	c #3E2F1F",
"+##	c #94956A",
"@##	c #C4CD84",
"###	c #C5CC7A",
"$##	c #C1C974",
"%##	c #C0C772",
"&##	c #BEC170",
"*##	c #BBBE6E",
"=##	c #BBBF6F",
"-##	c #C0C572",
";##	c #C1C773",
">##	c #BAC46F",
",##	c #BEC471",
"'##	c #C0C375",
")##	c #C0C377",
"!##	c #C3C477",
"~##	c #C4C071",
"{##	c #C5C16E",
"]##	c #C8C370",
"^##	c #CAC370",
"/##	c #CDC672",
"(##	c #D3CC73",
"_##	c #D6D270",
":##	c #E0DD78",
"<##	c #EDE684",
"[##	c #EEE08C",
"}##	c #DBC77C",
"|##	c #CCB777",
"1##	c #715D3E",
"2##	c #4F2821",
"3##	c #5F2B24",
"4##	c #45241E",
"5##	c #4D482C",
"6##	c #AEB56E",
"7##	c #C2C671",
"8##	c #C0C26D",
"9##	c #BFC36D",
"0##	c #C5C970",
"a##	c #C8C86F",
"b##	c #D2D374",
"c##	c #E7E783",
"d##	c #BEB06A",
"e##	c #4A2E22",
"f##	c #642D2A",
"g##	c #612E2B",
"h##	c #652F2C",
"i##	c #66302D",
"j##	c #562C2C",
"k##	c #3E251F",
"l##	c #9C955F",
"m##	c #EDEF8D",
"n##	c #E8EE7F",
"o##	c #EAEA83",
"p##	c #E5E182",
"q##	c #E4E083",
"r##	c #E8E285",
"s##	c #EBE387",
"t##	c #E8E081",
"u##	c #E5DD80",
"v##	c #E1DB82",
"w##	c #E2DA81",
"x##	c #E3DB7F",
"y##	c #E0DC7F",
"z##	c #E1DB80",
"A##	c #E6DE83",
"B##	c #E5DD83",
"C##	c #E1D881",
"D##	c #DED380",
"E##	c #DDD381",
"F##	c #DCD780",
"G##	c #E0DB84",
"H##	c #E4DB84",
"I##	c #E2DA82",
"J##	c #E2DC85",
"K##	c #E2DB83",
"L##	c #E0D77F",
"M##	c #E0D683",
"N##	c #DBD281",
"O##	c #DDD685",
"P##	c #DDD786",
"Q##	c #E1DA89",
"R##	c #DDDA86",
"S##	c #DAD981",
"T##	c #DEE185",
"U##	c #D9DC80",
"V##	c #DADB7F",
"W##	c #DBDC7F",
"X##	c #DEDD82",
"Y##	c #DEDA81",
"Z##	c #E0DB82",
"`##	c #DDDA82",
" $#	c #E0DD83",
".$#	c #DDD97F",
"+$#	c #DDD980",
"@$#	c #DBD781",
"#$#	c #DBD783",
"$$#	c #DAD682",
"%$#	c #DAD583",
"&$#	c #D8D380",
"*$#	c #D9D583",
"=$#	c #DDD887",
"-$#	c #DBD688",
";$#	c #D0CE81",
">$#	c #CBC780",
",$#	c #D0CD84",
"'$#	c #CDCA81",
")$#	c #C7C87F",
"!$#	c #C7CB81",
"~$#	c #C8CD82",
"{$#	c #C8CA80",
"]$#	c #C7C983",
"^$#	c #C7C885",
"/$#	c #CAC886",
"($#	c #C9C085",
"_$#	c #9CA98E",
":$#	c #AAC9BA",
"<$#	c #A9C7C2",
"[$#	c #A9C8C8",
"}$#	c #A6CACA",
"|$#	c #ABCAC9",
"1$#	c #A5CBCA",
"2$#	c #A4C6C8",
"3$#	c #A4C3C7",
"4$#	c #A7C7C9",
"5$#	c #A6C8CB",
"6$#	c #A7C9CC",
"7$#	c #A6CED0",
"8$#	c #A5C9CE",
"9$#	c #BAD3D5",
"0$#	c #F4FBFC",
"a$#	c #F4FDFD",
"b$#	c #BDE3E0",
"c$#	c #A3CACC",
"d$#	c #A5CACE",
"e$#	c #A0C7CC",
"f$#	c #A3CBCF",
"g$#	c #A2C7CC",
"h$#	c #A1C7CC",
"i$#	c #9BC7CA",
"j$#	c #77A1A7",
"k$#	c #6D8290",
"l$#	c #6C808B",
"m$#	c #5D7A8B",
"n$#	c #355E98",
"o$#	c #2B4E9F",
"p$#	c #5E4E92",
"q$#	c #E59287",
"r$#	c #FA9B6F",
"s$#	c #F8A372",
"t$#	c #F4A26C",
"u$#	c #F29A65",
"v$#	c #F07659",
"w$#	c #EE7659",
"x$#	c #F68160",
"y$#	c #FA7C5B",
"z$#	c #F37655",
"A$#	c #CCC283",
"B$#	c #BFB67D",
"C$#	c #655C3A",
"D$#	c #482A20",
"E$#	c #603129",
"F$#	c #643026",
"G$#	c #663329",
"H$#	c #5A3027",
"I$#	c #3A271B",
"J$#	c #847B5C",
"K$#	c #BFBE82",
"L$#	c #DFDC8A",
"M$#	c #E6E492",
"N$#	c #D9DA85",
"O$#	c #D3D37D",
"P$#	c #D0CD79",
"Q$#	c #CAC674",
"R$#	c #C7C271",
"S$#	c #C5C26E",
"T$#	c #C3C270",
"U$#	c #BDC06C",
"V$#	c #BDBF6C",
"W$#	c #BDBD71",
"X$#	c #C0C074",
"Y$#	c #C2C074",
"Z$#	c #C8C270",
"`$#	c #CEC874",
" %#	c #D1CB75",
".%#	c #D7D278",
"+%#	c #DED97B",
"@%#	c #E1DE79",
"#%#	c #E8E580",
"$%#	c #EFE985",
"%%#	c #F4EA8D",
"&%#	c #F2E48C",
"*%#	c #DED07D",
"=%#	c #978752",
"-%#	c #482620",
";%#	c #612D28",
">%#	c #5F3026",
",%#	c #5B3029",
"'%#	c #372316",
")%#	c #747D43",
"!%#	c #BFC771",
"~%#	c #C0C36E",
"{%#	c #C8CF70",
"]%#	c #D1D476",
"^%#	c #E3E683",
"/%#	c #F1F58C",
"(%#	c #C9BF73",
"_%#	c #4E3326",
":%#	c #5D3127",
"<%#	c #632E29",
"[%#	c #5F2D28",
"}%#	c #5E2D28",
"|%#	c #613029",
"1%#	c #622F2B",
"2%#	c #602E29",
"3%#	c #573024",
"4%#	c #3E221C",
"5%#	c #56502D",
"6%#	c #D6D182",
"7%#	c #ECEC8A",
"8%#	c #E5E980",
"9%#	c #E8E883",
"0%#	c #E7E483",
"a%#	c #E7E487",
"b%#	c #E8E187",
"c%#	c #E7E084",
"d%#	c #E6DF86",
"e%#	c #E1DC84",
"f%#	c #DFD881",
"g%#	c #E0D882",
"h%#	c #DAD280",
"i%#	c #DCD082",
"j%#	c #DED784",
"k%#	c #E1DA87",
"l%#	c #E5DE8A",
"m%#	c #E3DA87",
"n%#	c #E2DC87",
"o%#	c #E4DE89",
"p%#	c #E4DE88",
"q%#	c #DEDA80",
"r%#	c #E1DB83",
"s%#	c #DDD47B",
"t%#	c #DDD67D",
"u%#	c #DFD782",
"v%#	c #DDD681",
"w%#	c #DBD681",
"x%#	c #DDD883",
"y%#	c #E1DC87",
"z%#	c #E5E089",
"A%#	c #E2DF88",
"B%#	c #DDDD82",
"C%#	c #E1E283",
"D%#	c #DCDD80",
"E%#	c #DCDC7F",
"F%#	c #DFDD82",
"G%#	c #E0DC82",
"H%#	c #DEDB7F",
"I%#	c #E1DE82",
"J%#	c #E3DE85",
"K%#	c #DFDA82",
"L%#	c #E1DF87",
"M%#	c #DFDD85",
"N%#	c #DEDC85",
"O%#	c #DBD888",
"P%#	c #D5D382",
"Q%#	c #D2CF83",
"R%#	c #D2D083",
"S%#	c #CFCE80",
"T%#	c #D3D287",
"U%#	c #D0CE84",
"V%#	c #CBCA81",
"W%#	c #C9C783",
"X%#	c #CBCA84",
"Y%#	c #C8C781",
"Z%#	c #C8CB84",
"`%#	c #C6CC85",
" &#	c #C5CD84",
".&#	c #C5CA82",
"+&#	c #C7CA84",
"@&#	c #C4C984",
"#&#	c #C5CA87",
"$&#	c #C6C987",
"%&#	c #C9C98A",
"&&#	c #BAC694",
"*&#	c #B5CBA5",
"=&#	c #B2C7B0",
"-&#	c #AEC5BA",
";&#	c #A8C6C1",
">&#	c #A8C9C8",
",&#	c #A9C6C6",
"'&#	c #A8CCCC",
")&#	c #A4C8C9",
"!&#	c #A2C9CB",
"~&#	c #A4C8CA",
"{&#	c #A2C4C6",
"]&#	c #A3C6C8",
"^&#	c #A2C7C8",
"/&#	c #A7C9CB",
"(&#	c #C6DBDC",
"_&#	c #F7FCFD",
":&#	c #FDFCFE",
"<&#	c #F0FDFC",
"[&#	c #B4DDD8",
"}&#	c #A2CCCB",
"|&#	c #A4CDCD",
"1&#	c #A2C8CA",
"2&#	c #A6CCD1",
"3&#	c #A2CACE",
"4&#	c #A1C6CC",
"5&#	c #A2C8CE",
"6&#	c #A0CACE",
"7&#	c #91BDC2",
"8&#	c #6C8B95",
"9&#	c #5F7B8D",
"0&#	c #365E96",
"a&#	c #2B4F9B",
"b&#	c #605292",
"c&#	c #E49486",
"d&#	c #F39D6B",
"e&#	c #F19769",
"f&#	c #F49B6B",
"g&#	c #FC996B",
"h&#	c #ED7357",
"i&#	c #ED7456",
"j&#	c #F47F5F",
"k&#	c #F67757",
"l&#	c #F77858",
"m&#	c #EE6D4F",
"n&#	c #EE694F",
"o&#	c #C8B47D",
"p&#	c #7A6A48",
"q&#	c #452618",
"r&#	c #5D3229",
"s&#	c #63332B",
"t&#	c #64332A",
"u&#	c #5B3330",
"v&#	c #3C241C",
"w&#	c #6E694E",
"x&#	c #BCB881",
"y&#	c #C5BE79",
"z&#	c #CCC375",
"A&#	c #D7CB7C",
"B&#	c #D8CC7D",
"C&#	c #D8CE7C",
"D&#	c #D9D07C",
"E&#	c #DAD07C",
"F&#	c #DACE7C",
"G&#	c #D9CC7A",
"H&#	c #CEC270",
"I&#	c #C8BE6E",
"J&#	c #C3BE6D",
"K&#	c #C1BB6B",
"L&#	c #BEB86D",
"M&#	c #C1BD71",
"N&#	c #BEBB70",
"O&#	c #C3BE71",
"P&#	c #CDC676",
"Q&#	c #EAE586",
"R&#	c #EAE686",
"S&#	c #EEEB86",
"T&#	c #EDE985",
"U&#	c #ECE882",
"V&#	c #F1EB86",
"W&#	c #F5F08B",
"X&#	c #EDE983",
"Y&#	c #C3BB70",
"Z&#	c #4E3026",
"`&#	c #643127",
" *#	c #632F26",
".*#	c #4C2A24",
"+*#	c #565F32",
"@*#	c #BEC971",
"#*#	c #C8CF75",
"$*#	c #D1DC7D",
"%*#	c #E0EA85",
"&*#	c #E6EC87",
"**#	c #ECF189",
"=*#	c #EEF689",
"-*#	c #D1CD77",
";*#	c #4E3926",
">*#	c #5D332A",
",*#	c #612F28",
"'*#	c #5D2D27",
")*#	c #5B2C27",
"!*#	c #62302C",
"~*#	c #62312A",
"{*#	c #672F2C",
"]*#	c #672D2B",
"^*#	c #5C2E25",
"/*#	c #4B2B21",
"(*#	c #595432",
"_*#	c #BABE71",
":*#	c #EAEA88",
"<*#	c #E9E688",
"[*#	c #E5E683",
"}*#	c #E5E484",
"|*#	c #E8E689",
"1*#	c #E9E68A",
"2*#	c #E7E289",
"3*#	c #E7E18B",
"4*#	c #E0DA86",
"5*#	c #D8D07F",
"6*#	c #DAD285",
"7*#	c #D6CE84",
"8*#	c #DBD386",
"9*#	c #DED688",
"0*#	c #E0D78A",
"a*#	c #DED887",
"b*#	c #DFDA88",
"c*#	c #DFDB89",
"d*#	c #E1DC8A",
"e*#	c #DFDC87",
"f*#	c #DEDA83",
"g*#	c #DEDA82",
"h*#	c #E1DE86",
"i*#	c #DED881",
"j*#	c #E4DC86",
"k*#	c #E5DD86",
"l*#	c #E5DF8A",
"m*#	c #E8E38C",
"n*#	c #E3E189",
"o*#	c #DBDA82",
"p*#	c #E0DF85",
"q*#	c #E2E186",
"r*#	c #E3E288",
"s*#	c #E0E184",
"t*#	c #E2E486",
"u*#	c #DEDE82",
"v*#	c #E0DF83",
"w*#	c #DFE083",
"x*#	c #E6E489",
"y*#	c #E4E188",
"z*#	c #E1E083",
"A*#	c #E2E184",
"B*#	c #E3DF86",
"C*#	c #E2DD85",
"D*#	c #DED981",
"E*#	c #DEDC87",
"F*#	c #DCDC87",
"G*#	c #D9D985",
"H*#	c #D6D586",
"I*#	c #D1D085",
"J*#	c #CBCA80",
"K*#	c #CDCB81",
"L*#	c #CCCB84",
"M*#	c #C9CD84",
"N*#	c #C7CB82",
"O*#	c #C8CA83",
"P*#	c #CCCD88",
"Q*#	c #C8CA86",
"R*#	c #C7C884",
"S*#	c #C5C784",
"T*#	c #C8CA88",
"U*#	c #C7C987",
"V*#	c #C4CE89",
"W*#	c #C2CD87",
"X*#	c #C3CA85",
"Y*#	c #C6CC89",
"Z*#	c #C2CB87",
"`*#	c #C1CB89",
" =#	c #C3CC8A",
".=#	c #C8CF8A",
"+=#	c #C5D08C",
"@=#	c #C2CF91",
"#=#	c #BCC59D",
"$=#	c #B4C2AA",
"%=#	c #ABC4BA",
"&=#	c #A3C9CB",
"*=#	c #A2CAC8",
"==#	c #AAC7C7",
"-=#	c #A3C9C8",
";=#	c #A6C9CA",
">=#	c #A3C9C9",
",=#	c #A1C7C6",
"'=#	c #A2C9C7",
")=#	c #AAC9C8",
"!=#	c #D6E8E6",
"~=#	c #FCFCFD",
"{=#	c #EBFCFA",
"]=#	c #ABD5D1",
"^=#	c #A2CFCC",
"/=#	c #A5CBCE",
"(=#	c #A7CCD2",
"_=#	c #A1C9CE",
":=#	c #9FCACF",
"<=#	c #779DA3",
"[=#	c #66848F",
"}=#	c #697F89",
"|=#	c #5F7C8D",
"1=#	c #395F91",
"2=#	c #29539E",
"3=#	c #2D529E",
"4=#	c #2B509A",
"5=#	c #5B508C",
"6=#	c #DF9582",
"7=#	c #F8AA74",
"8=#	c #F8A877",
"9=#	c #EE8D61",
"0=#	c #F59867",
"a=#	c #FC976A",
"b=#	c #ED7257",
"c=#	c #ED7155",
"d=#	c #F37354",
"e=#	c #ED694D",
"f=#	c #927A56",
"g=#	c #44271A",
"h=#	c #5D2D28",
"i=#	c #5F352C",
"j=#	c #5D322E",
"k=#	c #442826",
"l=#	c #615842",
"m=#	c #BCB98B",
"n=#	c #C9C584",
"o=#	c #C8BF77",
"p=#	c #CCBF77",
"q=#	c #CDBD76",
"r=#	c #CEBC76",
"s=#	c #CDBC74",
"t=#	c #CFC275",
"u=#	c #D5C577",
"v=#	c #D6C477",
"w=#	c #D1C175",
"x=#	c #CBBD76",
"y=#	c #C5BD73",
"z=#	c #C2B76F",
"A=#	c #C0B46E",
"B=#	c #C2B972",
"C=#	c #C0BA71",
"D=#	c #C4BD73",
"E=#	c #CDC577",
"F=#	c #D8D181",
"G=#	c #E6E187",
"H=#	c #E7E286",
"I=#	c #E8E387",
"J=#	c #E7E285",
"K=#	c #E3E081",
"L=#	c #EBE985",
"M=#	c #F4F28C",
"N=#	c #DBD489",
"O=#	c #52372A",
"P=#	c #63312F",
"Q=#	c #64312D",
"R=#	c #653028",
"S=#	c #4F2C25",
"T=#	c #62693C",
"U=#	c #D5E184",
"V=#	c #E3EB8A",
"W=#	c #E7F28B",
"X=#	c #ECF68B",
"Y=#	c #ECF287",
"Z=#	c #ECF087",
"`=#	c #EAF287",
" -#	c #DEDC7F",
".-#	c #5A482D",
"+-#	c #59312A",
"@-#	c #623029",
"#-#	c #602E28",
"$-#	c #63322B",
"%-#	c #622E28",
"&-#	c #672F2B",
"*-#	c #65302B",
"=-#	c #542D27",
"--#	c #3E2C1D",
";-#	c #AFAF79",
">-#	c #E8ED8F",
",-#	c #EBEB88",
"'-#	c #E6E28B",
")-#	c #E1E087",
"!-#	c #E1E088",
"~-#	c #E4E18B",
"{-#	c #E3DF8A",
"]-#	c #DFDA89",
"^-#	c #E0DA8A",
"/-#	c #DAD582",
"(-#	c #D8D382",
"_-#	c #D6D284",
":-#	c #D1CF82",
"<-#	c #D2CE83",
"[-#	c #D2CC82",
"}-#	c #D4CD83",
"|-#	c #D5CE86",
"1-#	c #D2CA83",
"2-#	c #D3CD87",
"3-#	c #D3CC86",
"4-#	c #D2CA81",
"5-#	c #D5CD85",
"6-#	c #D5D284",
"7-#	c #D5D486",
"8-#	c #D9D787",
"9-#	c #DBD986",
"0-#	c #DEDA86",
"a-#	c #E4E38E",
"b-#	c #E7E290",
"c-#	c #EAE392",
"d-#	c #EAE391",
"e-#	c #E5E18F",
"f-#	c #E7E18F",
"g-#	c #E9E694",
"h-#	c #E3E490",
"i-#	c #DADC87",
"j-#	c #DBDE87",
"k-#	c #DBDD85",
"l-#	c #DFDF89",
"m-#	c #DCDD87",
"n-#	c #DCDF88",
"o-#	c #DCDF87",
"p-#	c #DFE189",
"q-#	c #DCDF86",
"r-#	c #E5E890",
"s-#	c #E3E38D",
"t-#	c #E2E18A",
"u-#	c #DFDE87",
"v-#	c #DCDA84",
"w-#	c #D7D680",
"x-#	c #D3D582",
"y-#	c #D0D27F",
"z-#	c #CDCF7F",
"A-#	c #CACD81",
"B-#	c #C9CA83",
"C-#	c #C4C67F",
"D-#	c #C9CA82",
"E-#	c #C9CB87",
"F-#	c #C4CA86",
"G-#	c #C5C885",
"H-#	c #C9CB89",
"I-#	c #C8C98A",
"J-#	c #C6C885",
"K-#	c #C6C785",
"L-#	c #C7C988",
"M-#	c #C4C685",
"N-#	c #C4C986",
"O-#	c #C3CD88",
"P-#	c #C5CD89",
"Q-#	c #C6CB89",
"R-#	c #C2CC89",
"S-#	c #C1CB8B",
"T-#	c #C2CC8C",
"U-#	c #C4CE8B",
"V-#	c #C8D28A",
"W-#	c #C7CF8C",
"X-#	c #C6C794",
"Y-#	c #C0C59F",
"Z-#	c #B4C9AE",
"`-#	c #A7CAC2",
" ;#	c #A8C7C7",
".;#	c #A9C8C9",
"+;#	c #A6C9CB",
"@;#	c #A5CAC9",
"#;#	c #A1C7C7",
"$;#	c #A8C9CA",
"%;#	c #A4C7C9",
"&;#	c #A3CAC6",
"*;#	c #A3C9C6",
"=;#	c #A8CDCB",
"-;#	c #ACC9C7",
";;#	c #E3F1F0",
">;#	c #FAFCFC",
",;#	c #E4FBF8",
"';#	c #A6D1CE",
");#	c #A2D0CD",
"!;#	c #A4CFCD",
"~;#	c #A6CCCF",
"{;#	c #A3CBD0",
"];#	c #A1C9CD",
"^;#	c #A4C8CE",
"/;#	c #A2C5CB",
"(;#	c #A3C6CC",
"_;#	c #A7CBD1",
":;#	c #A5CDD3",
"<;#	c #89B4B8",
"[;#	c #63868E",
"};#	c #697A89",
"|;#	c #6D808D",
"1;#	c #677E89",
"2;#	c #688089",
"3;#	c #617F8F",
"4;#	c #3F6391",
"5;#	c #2E53A0",
"6;#	c #2C5198",
"7;#	c #57518C",
"8;#	c #DA9884",
"9;#	c #F9B57B",
"0;#	c #FBB580",
"a;#	c #F7AE7B",
"b;#	c #F59569",
"c;#	c #F99468",
"d;#	c #EF7A57",
"e;#	c #F87F5D",
"f;#	c #F47054",
"g;#	c #EF684F",
"h;#	c #F46C56",
"i;#	c #4A2F1C",
"j;#	c #592F29",
"k;#	c #682F29",
"l;#	c #643126",
"m;#	c #5F332A",
"n;#	c #502D26",
"o;#	c #3F3523",
"p;#	c #AFA97F",
"q;#	c #D0CB90",
"r;#	c #CBC580",
"s;#	c #CBC37C",
"t;#	c #CCC17E",
"u;#	c #D0C180",
"v;#	c #D0BF7F",
"w;#	c #CDBD7C",
"x;#	c #CEC17C",
"y;#	c #CEC37B",
"z;#	c #D2C57B",
"A;#	c #D2C27A",
"B;#	c #D0C17C",
"C;#	c #CBC07E",
"D;#	c #C8C07E",
"E;#	c #C9C07E",
"F;#	c #CCBC7B",
"G;#	c #CBBE7C",
"H;#	c #C9C07A",
"I;#	c #CAC178",
"J;#	c #CDC478",
"K;#	c #D1CA7A",
"L;#	c #D2CC78",
"M;#	c #D3CC7B",
"N;#	c #D2CB78",
"O;#	c #CCC576",
"P;#	c #CEC877",
"Q;#	c #D7D27A",
"R;#	c #BFB578",
"S;#	c #4F3026",
"T;#	c #64312B",
"U;#	c #5E312B",
"V;#	c #492C23",
"W;#	c #8E915C",
"X;#	c #EDF595",
"Y;#	c #F3F993",
"Z;#	c #EFF78C",
"`;#	c #ECF386",
" >#	c #F0F387",
".>#	c #F1F18C",
"+>#	c #EFF38D",
"@>#	c #EBE88C",
"#>#	c #6F633E",
"$>#	c #54302A",
"%>#	c #633029",
"&>#	c #64302A",
"*>#	c #5E302B",
"=>#	c #60312C",
"->#	c #602F2C",
";>#	c #62302A",
">>#	c #612E28",
",>#	c #472625",
"'>#	c #5A5836",
")>#	c #CAD28D",
"!>#	c #D5DB87",
"~>#	c #D7D385",
"{>#	c #D4D181",
"]>#	c #D2CF7F",
"^>#	c #D1CF7F",
"/>#	c #D3CD83",
"(>#	c #D4D085",
"_>#	c #D2CE7F",
":>#	c #D1CE81",
"<>#	c #D1CE87",
"[>#	c #D1CE89",
"}>#	c #CFCE85",
"|>#	c #CFCF85",
"1>#	c #CECD85",
"2>#	c #CECC84",
"3>#	c #D1CE85",
"4>#	c #D1CD84",
"5>#	c #D0CC85",
"6>#	c #CFCC88",
"7>#	c #D2CC89",
"8>#	c #CDC782",
"9>#	c #CBC680",
"0>#	c #D1CB86",
"a>#	c #CFCE84",
"b>#	c #CFD084",
"c>#	c #D1D181",
"d>#	c #D4D081",
"e>#	c #D7D687",
"f>#	c #DAD589",
"g>#	c #D9D287",
"h>#	c #D6CF84",
"i>#	c #D0CC80",
"j>#	c #D3CF81",
"k>#	c #CFCE81",
"l>#	c #D1D386",
"m>#	c #D0D385",
"n>#	c #CFD282",
"o>#	c #CFD280",
"p>#	c #D1D182",
"q>#	c #CFD082",
"r>#	c #D0D384",
"s>#	c #D1D585",
"t>#	c #D2D787",
"u>#	c #CED582",
"v>#	c #D4D886",
"w>#	c #D3D585",
"x>#	c #D3D284",
"y>#	c #CBCD7B",
"z>#	c #C8CB79",
"A>#	c #CACD7B",
"B>#	c #CBCF7F",
"C>#	c #C8CC7D",
"D>#	c #C8CD7F",
"E>#	c #C6CA83",
"F>#	c #C6CA86",
"G>#	c #C3C782",
"H>#	c #C9CC86",
"I>#	c #C9CC89",
"J>#	c #C7CB88",
"K>#	c #C6C986",
"L>#	c #C6C886",
"M>#	c #C8C989",
"N>#	c #C8C889",
"O>#	c #C8C786",
"P>#	c #C9C986",
"Q>#	c #C7C986",
"R>#	c #C8CA87",
"S>#	c #C8CB85",
"T>#	c #C7CF87",
"U>#	c #C6CD86",
"V>#	c #C8CE8A",
"W>#	c #C9CC8B",
"X>#	c #C4CC8B",
"Y>#	c #C3CD8D",
"Z>#	c #C3CC8E",
"`>#	c #C6D091",
" ,#	c #C7D28F",
".,#	c #C8D189",
"+,#	c #CACC8B",
"@,#	c #CCCD94",
"#,#	c #C4CD9A",
"$,#	c #B4CAA9",
"%,#	c #ADC3BE",
"&,#	c #AAC4C4",
"*,#	c #A8C8CA",
"=,#	c #A3C8C7",
"-,#	c #A4C9C9",
";,#	c #A9C9CB",
">,#	c #A4C8C7",
",,#	c #A6C9C5",
"',#	c #B2CCCC",
"),#	c #ECF8F8",
"!,#	c #DEF9F6",
"~,#	c #A4D1CE",
"{,#	c #A2D0CC",
"],#	c #A6D2CE",
"^,#	c #A0C6CC",
"/,#	c #A7CAD0",
"(,#	c #A4CDD3",
"_,#	c #98C6CA",
":,#	c #6C9499",
"<,#	c #697B88",
"[,#	c #607D8D",
"},#	c #456893",
"|,#	c #2C5199",
"1,#	c #E0A28F",
"2,#	c #F6B77D",
"3,#	c #F8B782",
"4,#	c #FDBA85",
"5,#	c #FAAF77",
"6,#	c #FAA16B",
"7,#	c #EF7558",
"8,#	c #FA8261",
"9,#	c #F37356",
"0,#	c #F06651",
"a,#	c #4E2F22",
"b,#	c #64342C",
"c,#	c #673025",
"d,#	c #633225",
"e,#	c #5C3227",
"f,#	c #41291C",
"g,#	c #8F8C69",
"h,#	c #D2D093",
"i,#	c #D2CD83",
"j,#	c #CEC57F",
"k,#	c #CEC581",
"l,#	c #CFC682",
"m,#	c #CFC582",
"n,#	c #D0C281",
"o,#	c #D0C480",
"p,#	c #D0C67F",
"q,#	c #D3C97F",
"r,#	c #D4C77F",
"s,#	c #D0C57E",
"t,#	c #CEC580",
"u,#	c #CFC684",
"v,#	c #D0C784",
"w,#	c #D2C483",
"x,#	c #D2C581",
"y,#	c #D1C47E",
"z,#	c #D1C57E",
"A,#	c #D1C57C",
"B,#	c #D1C77C",
"C,#	c #CFC77D",
"D,#	c #D2C680",
"E,#	c #CCC27B",
"F,#	c #CDC57D",
"G,#	c #CEC77C",
"H,#	c #D4CA7F",
"I,#	c #988D5F",
"J,#	c #4D2C22",
"K,#	c #65332B",
"L,#	c #66322B",
"M,#	c #5D2F2B",
"N,#	c #463525",
"O,#	c #BDBA7F",
"P,#	c #EFEE93",
"Q,#	c #EDED8C",
"R,#	c #EDEF8A",
"S,#	c #E7EA85",
"T,#	c #E9EA8A",
"U,#	c #E8E68E",
"V,#	c #E6E48B",
"W,#	c #EAE490",
"X,#	c #90875C",
"Y,#	c #40261F",
"Z,#	c #5B3427",
"`,#	c #5B2E29",
" '#	c #4F2A24",
".'#	c #532D29",
"+'#	c #5C2F2F",
"@'#	c #622D29",
"#'#	c #603027",
"$'#	c #582C25",
"%'#	c #3F2820",
"&'#	c #9D9C6E",
"*'#	c #D2D98A",
"='#	c #D1D888",
"-'#	c #D1D283",
";'#	c #CFCA85",
">'#	c #CEC984",
",'#	c #D0CC86",
"''#	c #D3D08A",
")'#	c #D1CF89",
"!'#	c #CFCE87",
"~'#	c #D0D089",
"{'#	c #CFCE8D",
"]'#	c #CFCF8D",
"^'#	c #CECE8A",
"/'#	c #CDCD87",
"('#	c #CECE88",
"_'#	c #CCCE87",
":'#	c #CECF88",
"<'#	c #CDCE87",
"['#	c #CECD89",
"}'#	c #CECC8A",
"|'#	c #D1CD8C",
"1'#	c #CEC988",
"2'#	c #CDC885",
"3'#	c #D1CC89",
"4'#	c #D2CE89",
"5'#	c #D1D18A",
"6'#	c #CFD088",
"7'#	c #CFD188",
"8'#	c #CDCE85",
"9'#	c #D0CF81",
"0'#	c #CECC80",
"a'#	c #CDCD83",
"b'#	c #D1CA83",
"c'#	c #CFCA84",
"d'#	c #CBC880",
"e'#	c #CFD089",
"f'#	c #D2D38E",
"g'#	c #D0D189",
"h'#	c #CBCC84",
"i'#	c #CBCD84",
"j'#	c #CBCD83",
"k'#	c #CDCF86",
"l'#	c #CCD086",
"m'#	c #CBD285",
"n'#	c #C9D082",
"o'#	c #CAD084",
"p'#	c #CCCD86",
"q'#	c #C7C981",
"r'#	c #C8CD80",
"s'#	c #CACF82",
"t'#	c #C8CF83",
"u'#	c #C6CE82",
"v'#	c #C5CD82",
"w'#	c #C3CB85",
"x'#	c #C3CB86",
"y'#	c #C7CD8A",
"z'#	c #C8CD8A",
"A'#	c #C8C987",
"B'#	c #C8C787",
"C'#	c #CAC989",
"D'#	c #CBCA89",
"E'#	c #CAC986",
"F'#	c #C6C884",
"G'#	c #C6C883",
"H'#	c #CACA84",
"I'#	c #CBD088",
"J'#	c #C8CC85",
"K'#	c #CBCE8A",
"L'#	c #C9CE8D",
"M'#	c #C5CE8E",
"N'#	c #C2CB8D",
"O'#	c #C3CB8F",
"P'#	c #C6CF90",
"Q'#	c #C8D18C",
"R'#	c #CACC87",
"S'#	c #CFD292",
"T'#	c #CCCF8C",
"U'#	c #C1CA95",
"V'#	c #B6C2AC",
"W'#	c #AFC3BC",
"X'#	c #A8C7CA",
"Y'#	c #A3C8C9",
"Z'#	c #A1C8C5",
"`'#	c #A8CBCD",
" )#	c #A6CAC5",
".)#	c #BCD6D4",
"+)#	c #F1FBFB",
"@)#	c #F7FDFE",
"#)#	c #D5F2F2",
"$)#	c #A0CCC9",
"%)#	c #A8CBCF",
"&)#	c #A5C7CE",
"*)#	c #A4C7CE",
"=)#	c #A4C5CC",
"-)#	c #A4C7CD",
";)#	c #A5C9CF",
">)#	c #A3CCD1",
",)#	c #99CACC",
"')#	c #7EAAAF",
"))#	c #63838E",
"!)#	c #687D89",
"~)#	c #7C8E9A",
"{)#	c #476E8E",
"])#	c #295896",
"^)#	c #2E539E",
"/)#	c #2C5399",
"()#	c #58518A",
"_)#	c #E7AC9A",
":)#	c #F8BB80",
"<)#	c #F4B47C",
"[)#	c #FDBB85",
"})#	c #F5AA71",
"|)#	c #F06851",
"1)#	c #ED604E",
"2)#	c #5A3A2F",
"3)#	c #67362D",
"4)#	c #663124",
"5)#	c #633329",
"6)#	c #532E26",
"7)#	c #605439",
"8)#	c #CBC894",
"9)#	c #D4D28D",
"0)#	c #D5CF83",
"a)#	c #D5CB81",
"b)#	c #D2C87F",
"c)#	c #D4CA83",
"d)#	c #D5CB86",
"e)#	c #D3C983",
"f)#	c #D6CE82",
"g)#	c #D7CD81",
"h)#	c #D5CC82",
"i)#	c #D2C983",
"j)#	c #D1C781",
"k)#	c #D4C782",
"l)#	c #D3C681",
"m)#	c #D3C780",
"n)#	c #D3C77F",
"o)#	c #D4C780",
"p)#	c #D5C980",
"q)#	c #D4C781",
"r)#	c #D2C67E",
"s)#	c #D0C580",
"t)#	c #D3C883",
"u)#	c #D4C883",
"v)#	c #D1C680",
"w)#	c #D3CB85",
"x)#	c #D1C982",
"y)#	c #D3C584",
"z)#	c #695A3D",
"A)#	c #562F27",
"B)#	c #673529",
"C)#	c #61342B",
"D)#	c #48221C",
"E)#	c #685F42",
"F)#	c #CCCA87",
"G)#	c #D4D27E",
"H)#	c #D3D078",
"I)#	c #D3D278",
"J)#	c #D5D47B",
"K)#	c #D5D47D",
"L)#	c #D5D17F",
"M)#	c #DAD383",
"N)#	c #BFB47C",
"O)#	c #4B3E29",
"P)#	c #482A1F",
"Q)#	c #573128",
"R)#	c #4E2B23",
"S)#	c #3C2017",
"T)#	c #312115",
"U)#	c #321D15",
"V)#	c #4C2A28",
"W)#	c #592D25",
"X)#	c #5E2D21",
"Y)#	c #5F3027",
"Z)#	c #552C24",
"`)#	c #47271A",
" !#	c #655C41",
".!#	c #CAC992",
"+!#	c #D5DA8A",
"@!#	c #D2D789",
"#!#	c #D3D489",
"$!#	c #D1CF8A",
"%!#	c #D1CD8A",
"&!#	c #D3CE8B",
"*!#	c #D3CE8C",
"=!#	c #D3D08C",
"-!#	c #D2D28D",
";!#	c #D1D08B",
">!#	c #CFCE8A",
",!#	c #CDCC8C",
"'!#	c #CBCA87",
")!#	c #CECD87",
"!!#	c #D0CF8A",
"~!#	c #CFCE88",
"{!#	c #CECD88",
"]!#	c #CDCC88",
"^!#	c #CFCD8D",
"/!#	c #CFCB8C",
"(!#	c #D1CC8C",
"_!#	c #D1CC8A",
":!#	c #D2CD8B",
"<!#	c #CFCF89",
"[!#	c #D5D38E",
"}!#	c #D6D488",
"|!#	c #CFCD81",
"1!#	c #CECD83",
"2!#	c #CFCC83",
"3!#	c #D0C983",
"4!#	c #CECA83",
"5!#	c #CCC881",
"6!#	c #CFCD86",
"7!#	c #CDCE88",
"8!#	c #D3D48F",
"9!#	c #CDCE89",
"0!#	c #CBCB86",
"a!#	c #CBCD85",
"b!#	c #CACC83",
"c!#	c #CCCD85",
"d!#	c #CDD087",
"e!#	c #C9CF83",
"f!#	c #C7CE81",
"g!#	c #C8CE82",
"h!#	c #CBCD86",
"i!#	c #C8C985",
"j!#	c #CACB87",
"k!#	c #C7CC85",
"l!#	c #C6CD84",
"m!#	c #CAD088",
"n!#	c #C7CF86",
"o!#	c #C6CD85",
"p!#	c #C5CC84",
"q!#	c #C4CB85",
"r!#	c #C2CC86",
"s!#	c #C4CE88",
"t!#	c #C7CD89",
"u!#	c #C7CD88",
"v!#	c #CACC88",
"w!#	c #CAC988",
"x!#	c #CCCB8A",
"y!#	c #CCCB89",
"z!#	c #CDCC86",
"A!#	c #C9C883",
"B!#	c #C7C882",
"C!#	c #CBCB84",
"D!#	c #D1D288",
"E!#	c #CED187",
"F!#	c #CBCE85",
"G!#	c #CCCE89",
"H!#	c #C9CE8C",
"I!#	c #C6CE8D",
"J!#	c #C4CD8F",
"K!#	c #C4CD8C",
"L!#	c #C9D38C",
"M!#	c #CCD286",
"N!#	c #CACC85",
"O!#	c #D0D28F",
"P!#	c #CFD28A",
"Q!#	c #CACD8F",
"R!#	c #C2C99E",
"S!#	c #B9C7AC",
"T!#	c #ADC7BC",
"U!#	c #A7C6C2",
"V!#	c #A7C7CA",
"W!#	c #A5C8CB",
"X!#	c #A3C7C9",
"Y!#	c #A2C9C5",
"Z!#	c #A1C9C7",
"`!#	c #A6CACB",
" ~#	c #A7CACC",
".~#	c #A7CDCB",
"+~#	c #ACCDCC",
"@~#	c #C9DEDD",
"#~#	c #F4FEFD",
"$~#	c #C9E9E8",
"%~#	c #A6CDD0",
"&~#	c #A7CBCF",
"*~#	c #A6C9CE",
"=~#	c #A5C8CD",
"-~#	c #A8CCD1",
";~#	c #A5C7CD",
">~#	c #A1CBCF",
",~#	c #9CCBCE",
"'~#	c #93C0C5",
")~#	c #688C95",
"!~#	c #647986",
"~~#	c #657A86",
"{~#	c #667B89",
"]~#	c #4E728E",
"^~#	c #285894",
"/~#	c #2A519F",
"(~#	c #2E5299",
"_~#	c #58528B",
":~#	c #E6B19E",
"<~#	c #F9C184",
"[~#	c #F2B57C",
"}~#	c #F9B781",
"|~#	c #F0A46D",
"1~#	c #F59F6B",
"2~#	c #FCA173",
"3~#	c #FA9E70",
"4~#	c #F78562",
"5~#	c #F3775C",
"6~#	c #F78061",
"7~#	c #EE614E",
"8~#	c #593830",
"9~#	c #69352D",
"0~#	c #683223",
"a~#	c #683831",
"b~#	c #4B2F23",
"c~#	c #AA9D70",
"d~#	c #DCD694",
"e~#	c #D4D084",
"f~#	c #D4CE81",
"g~#	c #D4CB7F",
"h~#	c #D4C87D",
"i~#	c #D5CA7F",
"j~#	c #D7CC83",
"k~#	c #D9CF86",
"l~#	c #D5CC81",
"m~#	c #D7CF82",
"n~#	c #D9D283",
"o~#	c #D9D083",
"p~#	c #D6CD82",
"q~#	c #D4CC80",
"r~#	c #D6CA80",
"s~#	c #D4C77E",
"t~#	c #D4C87E",
"u~#	c #D6CA7F",
"v~#	c #D5C882",
"w~#	c #D2C57F",
"x~#	c #D3C582",
"y~#	c #D7CA84",
"z~#	c #D3C881",
"A~#	c #D5CC87",
"B~#	c #D4CC8B",
"C~#	c #B7A777",
"D~#	c #442A1E",
"E~#	c #60322C",
"F~#	c #65342F",
"G~#	c #543029",
"H~#	c #4C3B26",
"I~#	c #B8B081",
"J~#	c #D6D48E",
"K~#	c #CFCA7E",
"L~#	c #CFCA7B",
"M~#	c #D2CE80",
"N~#	c #D1CC80",
"O~#	c #D0CA7F",
"P~#	c #D2CC80",
"Q~#	c #D9D18D",
"R~#	c #9F976D",
"S~#	c #473A26",
"T~#	c #392615",
"U~#	c #3A2F1A",
"V~#	c #696648",
"W~#	c #9D9977",
"X~#	c #827C62",
"Y~#	c #35251B",
"Z~#	c #45281F",
"`~#	c #4E3120",
" {#	c #4C2F20",
".{#	c #3A2315",
"+{#	c #564D35",
"@{#	c #BEBA8E",
"#{#	c #D4D695",
"${#	c #D3D78B",
"%{#	c #D4D68A",
"&{#	c #D6D68E",
"*{#	c #D5D28E",
"={#	c #D4CF8D",
"-{#	c #D5D08D",
";{#	c #D4CF8C",
">{#	c #D3D18E",
",{#	c #D4D390",
"'{#	c #D1D08C",
"){#	c #CBC885",
"!{#	c #CAC782",
"~{#	c #CECC87",
"{{#	c #D1CD89",
"]{#	c #D0CB87",
"^{#	c #CFCC87",
"/{#	c #CFCB89",
"({#	c #D3CD8C",
"_{#	c #D1CB88",
":{#	c #D0CD88",
"<{#	c #D2CE8B",
"[{#	c #D8D591",
"}{#	c #DBD88B",
"|{#	c #D3D082",
"1{#	c #CFCE83",
"2{#	c #D2CF86",
"3{#	c #D2CB85",
"4{#	c #CFCB84",
"5{#	c #CECB84",
"6{#	c #CDCE86",
"7{#	c #CFCF8B",
"8{#	c #CCCC87",
"9{#	c #CCCE86",
"0{#	c #CED087",
"a{#	c #CCD085",
"b{#	c #C8CE81",
"c{#	c #CACF83",
"d{#	c #C9CA88",
"e{#	c #C9CD88",
"f{#	c #C6CB85",
"g{#	c #C9CF89",
"h{#	c #C8CD87",
"i{#	c #C7CC86",
"j{#	c #C6CB86",
"k{#	c #C4CB83",
"l{#	c #C9CF87",
"m{#	c #CACE87",
"n{#	c #CACD87",
"o{#	c #CCCE88",
"p{#	c #CBCA86",
"q{#	c #CBCC88",
"r{#	c #CCCB87",
"s{#	c #CFCC85",
"t{#	c #CCC981",
"u{#	c #D2D285",
"v{#	c #CDCE83",
"w{#	c #CBCC86",
"x{#	c #C9CF8A",
"y{#	c #C6CF8D",
"z{#	c #C4CD8D",
"A{#	c #C4CD8E",
"B{#	c #C5CE8D",
"C{#	c #CAD48C",
"D{#	c #CDD387",
"E{#	c #CFCE86",
"F{#	c #D0D18B",
"G{#	c #CFD287",
"H{#	c #CDCD88",
"I{#	c #CCCC8D",
"J{#	c #CBC997",
"K{#	c #BFC4A7",
"L{#	c #B3C3BB",
"M{#	c #A8C5C4",
"N{#	c #A7C8CA",
"O{#	c #A5C8CA",
"P{#	c #A5C9CB",
"Q{#	c #A1CAC7",
"R{#	c #AACDCA",
"S{#	c #A9CECD",
"T{#	c #A7CFCE",
"U{#	c #ACCCCC",
"V{#	c #DAE8E9",
"W{#	c #F3FEFD",
"X{#	c #C0E3E0",
"Y{#	c #A4C8CD",
"Z{#	c #A8CBD0",
"`{#	c #A6CAD0",
" ]#	c #A8CAD0",
".]#	c #9ECACD",
"+]#	c #9ACACE",
"@]#	c #749FA5",
"#]#	c #66858F",
"$]#	c #667887",
"%]#	c #69798A",
"&]#	c #55758F",
"*]#	c #2C5A94",
"=]#	c #57518B",
"-]#	c #E4AE9C",
";]#	c #FAC386",
">]#	c #F8B982",
",]#	c #FAB581",
"']#	c #F6A671",
")]#	c #F19566",
"!]#	c #F49B6A",
"~]#	c #F8A26F",
"{]#	c #F5765B",
"]]#	c #EE7052",
"^]#	c #ED664D",
"/]#	c #F56B54",
"(]#	c #F0644D",
"_]#	c #563330",
":]#	c #6C362F",
"<]#	c #6D3728",
"[]#	c #65352D",
"}]#	c #56402C",
"|]#	c #CDC284",
"1]#	c #DED78A",
"2]#	c #D5CE80",
"3]#	c #D8CE81",
"4]#	c #D5C97D",
"5]#	c #D9CC82",
"6]#	c #D8CB83",
"7]#	c #DBCF84",
"8]#	c #D9D181",
"9]#	c #DED786",
"0]#	c #DBD584",
"a]#	c #D8D381",
"b]#	c #D9D183",
"c]#	c #D7CE80",
"d]#	c #D7CC7E",
"e]#	c #D8CD7E",
"f]#	c #D8CC7F",
"g]#	c #D9CD81",
"h]#	c #D5C77D",
"i]#	c #D4C57E",
"j]#	c #D7CD86",
"k]#	c #D8CE89",
"l]#	c #D5CC8D",
"m]#	c #786A4B",
"n]#	c #4D2725",
"o]#	c #65332C",
"p]#	c #652F2E",
"q]#	c #5C302A",
"r]#	c #402919",
"s]#	c #958E5D",
"t]#	c #D9D292",
"u]#	c #D6D288",
"v]#	c #D5CF86",
"w]#	c #D3CC83",
"x]#	c #D4CD85",
"y]#	c #D6CF87",
"z]#	c #D2CB82",
"A]#	c #D9D68C",
"B]#	c #DBD696",
"C]#	c #C0B884",
"D]#	c #9D9D6A",
"E]#	c #ABAE78",
"F]#	c #D1D498",
"G]#	c #DCDC9E",
"H]#	c #D4D198",
"I]#	c #827D58",
"J]#	c #3C3220",
"K]#	c #312314",
"L]#	c #342A18",
"M]#	c #6E6B4C",
"N]#	c #BEC089",
"O]#	c #DDE0A2",
"P]#	c #D1D48E",
"Q]#	c #D2D38C",
"R]#	c #D5D68C",
"S]#	c #D5D58D",
"T]#	c #D5D18B",
"U]#	c #D4CF8A",
"V]#	c #D4D18C",
"W]#	c #D2D18B",
"X]#	c #D7D791",
"Y]#	c #D1D18B",
"Z]#	c #D0CD87",
"`]#	c #CFCB86",
" ^#	c #CEC985",
".^#	c #D0CC87",
"+^#	c #D4CD89",
"@^#	c #D1CA86",
"#^#	c #D3CC89",
"$^#	c #D1CD8B",
"%^#	c #D0CC88",
"&^#	c #D1CC88",
"*^#	c #D2CB87",
"=^#	c #D3CE8A",
"-^#	c #D0CE89",
";^#	c #D4CE8A",
">^#	c #D4CE89",
",^#	c #D3CE89",
"'^#	c #D6D38A",
")^#	c #D6D08A",
"!^#	c #D4D08A",
"~^#	c #D0CD86",
"{^#	c #CFCF87",
"]^#	c #D0CF8B",
"^^#	c #CFCF88",
"/^#	c #CCCE85",
"(^#	c #CDCF84",
"_^#	c #CAD082",
":^#	c #CACB85",
"<^#	c #C9CA87",
"[^#	c #C9CA86",
"}^#	c #CCCD89",
"|^#	c #CBCB85",
"1^#	c #CACA85",
"2^#	c #C9C884",
"3^#	c #CECF87",
"4^#	c #CACA83",
"5^#	c #C7C47E",
"6^#	c #CDCB84",
"7^#	c #CCCA84",
"8^#	c #CCCC85",
"9^#	c #CECB82",
"0^#	c #D0CD83",
"a^#	c #D5D082",
"b^#	c #D6D483",
"c^#	c #CCCC84",
"d^#	c #C9CF88",
"e^#	c #C5CE8B",
"f^#	c #C7D08E",
"g^#	c #C8D190",
"h^#	c #C9D38A",
"i^#	c #D2CF88",
"j^#	c #D1CF88",
"k^#	c #CED189",
"l^#	c #CDD186",
"m^#	c #CCCF85",
"n^#	c #D4CE88",
"o^#	c #CEC691",
"p^#	c #C0C1A5",
"q^#	c #B1C3B8",
"r^#	c #AAC6C4",
"s^#	c #A7CCCB",
"t^#	c #A5CBC7",
"u^#	c #A7CDCA",
"v^#	c #ACCCCD",
"w^#	c #E8F0F2",
"x^#	c #B8D9D7",
"y^#	c #A1CCC9",
"z^#	c #A4C9CC",
"A^#	c #A6CAD1",
"B^#	c #A5C7D0",
"C^#	c #A6C8D1",
"D^#	c #A5C8CE",
"E^#	c #A9CCD2",
"F^#	c #A8CCD2",
"G^#	c #9BCCCE",
"H^#	c #85B6B9",
"I^#	c #678892",
"J^#	c #687889",
"K^#	c #5A778E",
"L^#	c #305793",
"M^#	c #2C50A1",
"N^#	c #3350A1",
"O^#	c #33519E",
"P^#	c #594D8A",
"Q^#	c #E2A596",
"R^#	c #F9BB81",
"S^#	c #FCB681",
"T^#	c #F8AB7A",
"U^#	c #F59E6C",
"V^#	c #F09864",
"W^#	c #F8865F",
"X^#	c #F4765B",
"Y^#	c #EF7656",
"Z^#	c #EE6F51",
"`^#	c #F36A51",
" /#	c #F1674E",
"./#	c #4D2E29",
"+/#	c #6B372F",
"@/#	c #6E3627",
"#/#	c #603327",
"$/#	c #5C4C34",
"%/#	c #D6CC8D",
"&/#	c #D7D284",
"*/#	c #DAD284",
"=/#	c #DBD385",
"-/#	c #D6CC80",
";/#	c #D9CF84",
">/#	c #E1DB8A",
",/#	c #E0DB88",
"'/#	c #DCD884",
")/#	c #DAD384",
"!/#	c #D8D082",
"~/#	c #D6CE7F",
"{/#	c #D7CF80",
"]/#	c #DACE7F",
"^/#	c #DBCF81",
"//#	c #DCCF81",
"(/#	c #DCD083",
"_/#	c #DCCF84",
":/#	c #D8CB81",
"</#	c #DACC85",
"[/#	c #D8CA82",
"}/#	c #D5C67D",
"|/#	c #D5C67F",
"1/#	c #D7CD82",
"2/#	c #DCD189",
"3/#	c #DBD08E",
"4/#	c #B4A875",
"5/#	c #463221",
"6/#	c #58302A",
"7/#	c #64312A",
"8/#	c #612D2E",
"9/#	c #49271C",
"0/#	c #756D47",
"a/#	c #D3CD8B",
"b/#	c #DBD58E",
"c/#	c #D8D188",
"d/#	c #D3CC84",
"e/#	c #D3CB86",
"f/#	c #D5CE89",
"g/#	c #D3CD84",
"h/#	c #D6D287",
"i/#	c #D7D58B",
"j/#	c #D8D78B",
"k/#	c #DFDD92",
"l/#	c #E2E49A",
"m/#	c #E2E79B",
"n/#	c #E2E398",
"o/#	c #DBDD8E",
"p/#	c #DBDC8E",
"q/#	c #D5D594",
"r/#	c #ACA979",
"s/#	c #979168",
"t/#	c #A7A376",
"u/#	c #CECD94",
"v/#	c #DFE498",
"w/#	c #D9DE8D",
"x/#	c #D1D487",
"y/#	c #D3D38C",
"z/#	c #D7D58D",
"A/#	c #D6D48A",
"B/#	c #D5D28A",
"C/#	c #D7D48C",
"D/#	c #D5D189",
"E/#	c #D4D088",
"F/#	c #D4CF87",
"G/#	c #D5D38A",
"H/#	c #D1D188",
"I/#	c #D8D78E",
"J/#	c #D3D088",
"K/#	c #D1CE86",
"L/#	c #D1CD85",
"M/#	c #D1CD86",
"N/#	c #D0CB85",
"O/#	c #D4D08C",
"P/#	c #D1CC87",
"Q/#	c #D3CD88",
"R/#	c #D3CF8A",
"S/#	c #D2CD86",
"T/#	c #D2CC86",
"U/#	c #D2CF89",
"V/#	c #D1CD88",
"W/#	c #D9D488",
"X/#	c #D7D48B",
"Y/#	c #DAD28B",
"Z/#	c #D7D28B",
"`/#	c #D1CD87",
" (#	c #D2CE88",
".(#	c #CFCE89",
"+(#	c #D2D08B",
"@(#	c #CECC85",
"#(#	c #D0D087",
"$(#	c #CED085",
"%(#	c #CDCD85",
"&(#	c #CCCD84",
"*(#	c #CDD084",
"=(#	c #CBCE83",
"-(#	c #CACC84",
";(#	c #C9C984",
">(#	c #CDCD89",
",(#	c #C9C782",
"'(#	c #CDCD86",
")(#	c #C8C27B",
"!(#	c #CCC780",
"~(#	c #CFCB85",
"{(#	c #D1CF87",
"](#	c #D6D383",
"^(#	c #D6D286",
"/(#	c #D2D088",
"((#	c #CACD85",
"_(#	c #C7CE89",
":(#	c #CBD391",
"<(#	c #C8D08E",
"[(#	c #C9D18B",
"}(#	c #CBD28A",
"|(#	c #CED288",
"1(#	c #D0CE87",
"2(#	c #D1CE88",
"3(#	c #CED188",
"4(#	c #CED287",
"5(#	c #CACE83",
"6(#	c #D2D086",
"7(#	c #D5CD8B",
"8(#	c #CCC795",
"9(#	c #B6BEA0",
"0(#	c #B0C0B8",
"a(#	c #ACC7C7",
"b(#	c #A3CBC4",
"c(#	c #A3C7C8",
"d(#	c #A4C9CA",
"e(#	c #A6CECB",
"f(#	c #B0CFCF",
"g(#	c #F0F7F9",
"h(#	c #B1D4D2",
"i(#	c #A1CACA",
"j(#	c #A5CACB",
"k(#	c #A2C6CA",
"l(#	c #A3CAD0",
"m(#	c #A2C9CF",
"n(#	c #A2C7CF",
"o(#	c #A3C7D0",
"p(#	c #A4C7D0",
"q(#	c #A8CDD2",
"r(#	c #9CCCCE",
"s(#	c #96C5C8",
"t(#	c #6D9098",
"u(#	c #677A8A",
"v(#	c #687A88",
"w(#	c #667A89",
"x(#	c #5D798E",
"y(#	c #345A90",
"z(#	c #3550A3",
"A(#	c #334F9F",
"B(#	c #5A4C8B",
"C(#	c #DE9B90",
"D(#	c #F1AB74",
"E(#	c #F2A472",
"F(#	c #F49F6F",
"G(#	c #F38E61",
"H(#	c #F49769",
"I(#	c #F4A26E",
"J(#	c #F3A36E",
"K(#	c #EF9A65",
"L(#	c #F89563",
"M(#	c #F97D5E",
"N(#	c #F57758",
"O(#	c #F17354",
"P(#	c #EF674D",
"Q(#	c #3E271F",
"R(#	c #66362B",
"S(#	c #6E3528",
"T(#	c #5E3323",
"U(#	c #5F503A",
"V(#	c #D6CD90",
"W(#	c #D6D183",
"X(#	c #D4CF84",
"Y(#	c #D9D285",
"Z(#	c #D8D184",
"`(#	c #D7CF84",
" _#	c #D8CF85",
"._#	c #D8CE85",
"+_#	c #D5CB80",
"@_#	c #D9CF82",
"#_#	c #D7D482",
"$_#	c #D4CD7F",
"%_#	c #D3CC7E",
"&_#	c #D3CB7D",
"*_#	c #D9CD80",
"=_#	c #D9CC7F",
"-_#	c #DACC80",
";_#	c #D7CB83",
">_#	c #D6C981",
",_#	c #D8C983",
"'_#	c #D7C780",
")_#	c #DCD388",
"!_#	c #C9BD87",
"~_#	c #615137",
"{_#	c #492823",
"]_#	c #59332A",
"^_#	c #5A2F26",
"/_#	c #4E2724",
"(_#	c #574732",
"__#	c #C7C28B",
":_#	c #DDD994",
"<_#	c #D8D48C",
"[_#	c #D2CB83",
"}_#	c #D1CA84",
"|_#	c #D3CC87",
"1_#	c #D3CC85",
"2_#	c #D6D389",
"3_#	c #D6D688",
"4_#	c #D9D987",
"5_#	c #E0E094",
"6_#	c #DFDF94",
"7_#	c #DBDA8D",
"8_#	c #D5D686",
"9_#	c #D4D785",
"0_#	c #DDDF90",
"a_#	c #DFDE97",
"b_#	c #E1DE99",
"c_#	c #E0DE98",
"d_#	c #DCDD94",
"e_#	c #DCDD8F",
"f_#	c #D8DC86",
"g_#	c #D3D686",
"h_#	c #D6D68B",
"i_#	c #D9D58D",
"j_#	c #D7D38A",
"k_#	c #D6D28B",
"l_#	c #D4D18A",
"m_#	c #D4D188",
"n_#	c #D4D389",
"o_#	c #D2D187",
"p_#	c #D5D188",
"q_#	c #D2CE86",
"r_#	c #D2CE87",
"s_#	c #D3CD89",
"t_#	c #D2CC88",
"u_#	c #D4CF89",
"v_#	c #D3CF88",
"w_#	c #D4CD87",
"x_#	c #D5CE88",
"y_#	c #D5D089",
"z_#	c #D7D088",
"A_#	c #D7D288",
"B_#	c #D5D187",
"C_#	c #D5D288",
"D_#	c #D8D48B",
"E_#	c #D8D189",
"F_#	c #D7D089",
"G_#	c #D4D18B",
"H_#	c #CDCA84",
"I_#	c #D0D288",
"J_#	c #CFD288",
"K_#	c #CACB84",
"L_#	c #C8C883",
"M_#	c #CCCD87",
"N_#	c #CAC983",
"O_#	c #CCCA83",
"P_#	c #CECE86",
"Q_#	c #D0CB82",
"R_#	c #CEC67E",
"S_#	c #CCC67D",
"T_#	c #CDC982",
"U_#	c #D1CE84",
"V_#	c #D4D284",
"W_#	c #D4D183",
"X_#	c #D5D384",
"Y_#	c #D4CF85",
"Z_#	c #D3D089",
"`_#	c #CACF88",
" :#	c #CCD28E",
".:#	c #C9D08C",
"+:#	c #C8D087",
"@:#	c #C8CE86",
"#:#	c #CED088",
"$:#	c #D1D08A",
"%:#	c #CFD186",
"&:#	c #D0D287",
"*:#	c #D4CC89",
"=:#	c #D0CC89",
"-:#	c #C2C48C",
";:#	c #B8BB9D",
">:#	c #AFC0B3",
",:#	c #A7C5BE",
"':#	c #A5CCC6",
"):#	c #A2CAC4",
"!:#	c #9FC9C8",
"~:#	c #A3C9CC",
"{:#	c #B8D5D5",
"]:#	c #F4FCFD",
"^:#	c #FCFCFE",
"/:#	c #FBFCFE",
"(:#	c #ECF9F9",
"_:#	c #ACCECD",
"::#	c #A2C6C9",
"<:#	c #A1C7CD",
"[:#	c #A3C8D0",
"}:#	c #A0CBCE",
"|:#	c #82A5AC",
"1:#	c #68848E",
"2:#	c #697D89",
"3:#	c #5E798E",
"4:#	c #365D8D",
"5:#	c #3451A3",
"6:#	c #344FA1",
"7:#	c #5B4E8C",
"8:#	c #DD978F",
"9:#	c #F1A772",
"0:#	c #F29E6F",
"a:#	c #F3986A",
"b:#	c #FBAC77",
"c:#	c #F5AA73",
"d:#	c #F0A26A",
"e:#	c #F39D64",
"f:#	c #F99A64",
"g:#	c #F97C5E",
"h:#	c #F77A59",
"i:#	c #EE694C",
"j:#	c #F26A53",
"k:#	c #F06A4F",
"l:#	c #4B3C29",
"m:#	c #5F3529",
"n:#	c #6C3428",
"o:#	c #5D3224",
"p:#	c #5C4D38",
"q:#	c #D3CA91",
"r:#	c #D4D087",
"s:#	c #D3CF87",
"t:#	c #D6CF85",
"u:#	c #D5CD84",
"v:#	c #D5CB83",
"w:#	c #D5CB84",
"x:#	c #D2C881",
"y:#	c #D1C47F",
"z:#	c #D5C981",
"A:#	c #D2C980",
"B:#	c #D1CB80",
"C:#	c #D2CC81",
"D:#	c #D2CA7F",
"E:#	c #D3CC81",
"F:#	c #D4C87F",
"G:#	c #D3C67D",
"H:#	c #D0C47F",
"I:#	c #D2C781",
"J:#	c #D2C77F",
"K:#	c #D3C57E",
"L:#	c #D4C580",
"M:#	c #DBCF8A",
"N:#	c #D0C884",
"O:#	c #7A6E4F",
"P:#	c #41261E",
"Q:#	c #562E28",
"R:#	c #563026",
"S:#	c #4E2B21",
"T:#	c #4D3929",
"U:#	c #B0A27D",
"V:#	c #DBD992",
"W:#	c #D6D086",
"X:#	c #D2CB86",
"Y:#	c #D7D287",
"Z:#	c #D7D387",
"`:#	c #D6D585",
" <#	c #D5D582",
".<#	c #DBD88F",
"+<#	c #DAD791",
"@<#	c #D7D389",
"#<#	c #D6D587",
"$<#	c #D5D687",
"%<#	c #D9D98A",
"&<#	c #DEDC8C",
"*<#	c #DFDC8D",
"=<#	c #DAD989",
"-<#	c #DAD88C",
";<#	c #DCDA8E",
"><#	c #D9D883",
",<#	c #D5D385",
"'<#	c #D8D58A",
")<#	c #D4D287",
"!<#	c #D4D187",
"~<#	c #D5CF87",
"{<#	c #D2CB84",
"]<#	c #D4CC86",
"^<#	c #D5CC86",
"/<#	c #D8D08A",
"(<#	c #D6D088",
"_<#	c #D3CE86",
":<#	c #D5CE87",
"<<#	c #D4D089",
"[<#	c #D4CF88",
"}<#	c #D8D289",
"|<#	c #D6D087",
"1<#	c #D2CF8A",
"2<#	c #CFCC86",
"3<#	c #D0CE88",
"4<#	c #D2D38B",
"5<#	c #CFD187",
"6<#	c #CECF84",
"7<#	c #CECE82",
"8<#	c #CCCC83",
"9<#	c #CFCD87",
"0<#	c #CECD84",
"a<#	c #CFCD85",
"b<#	c #D2CF84",
"c<#	c #CFCB82",
"d<#	c #D1D088",
"e<#	c #CECC81",
"f<#	c #D1CC85",
"g<#	c #D1CB84",
"h<#	c #D0CE83",
"i<#	c #D2D085",
"j<#	c #CDD08A",
"k<#	c #C9D08A",
"l<#	c #C9D08B",
"m<#	c #CACF87",
"n<#	c #CECE87",
"o<#	c #D0D188",
"p<#	c #D4D189",
"q<#	c #D2CA87",
"r<#	c #CCC58A",
"s<#	c #BBC098",
"t<#	c #AFC2AB",
"u<#	c #A9C6BA",
"v<#	c #A5C7C9",
"w<#	c #A6CBC5",
"x<#	c #A4C9C7",
"y<#	c #A2C8C6",
"z<#	c #A9CACD",
"A<#	c #A6CACD",
"B<#	c #A8CCD0",
"C<#	c #A7CCCC",
"D<#	c #A8C9CB",
"E<#	c #CBE1E1",
"F<#	c #E6F6F7",
"G<#	c #A4C7CA",
"H<#	c #A5C8CC",
"I<#	c #A4C8CF",
"J<#	c #A5C8D0",
"K<#	c #A6C9CF",
"L<#	c #A6CCD2",
"M<#	c #A6CBD1",
"N<#	c #A0CCCF",
"O<#	c #97BDC2",
"P<#	c #698992",
"Q<#	c #647A87",
"R<#	c #697C8A",
"S<#	c #6B7E8B",
"T<#	c #60798E",
"U<#	c #3A5F8E",
"V<#	c #3353A4",
"W<#	c #3451A2",
"X<#	c #E49B93",
"Y<#	c #F9AD79",
"Z<#	c #F59C6F",
"`<#	c #F49568",
" [#	c #F6A570",
".[#	c #F3AB71",
"+[#	c #F8AD72",
"@[#	c #F7A669",
"#[#	c #F9A166",
"$[#	c #F27455",
"%[#	c #F67056",
"&[#	c #77704E",
"*[#	c #513023",
"=[#	c #60332A",
"-[#	c #4E3A2C",
";[#	c #C3BA8B",
">[#	c #D3D08B",
",[#	c #D4CB86",
"'[#	c #D4CC84",
")[#	c #D1C881",
"![#	c #D0C681",
"~[#	c #D4CB83",
"{[#	c #D1C780",
"][#	c #D0C57F",
"^[#	c #CFC780",
"/[#	c #D0C77F",
"([#	c #D1C67E",
"_[#	c #D2C57E",
":[#	c #D5C782",
"<[#	c #DBCD8C",
"[[#	c #D8C992",
"}[#	c #93895A",
"|[#	c #442B1C",
"1[#	c #572F26",
"2[#	c #5C3224",
"3[#	c #553123",
"4[#	c #472F1D",
"5[#	c #A1916D",
"6[#	c #CCC48C",
"7[#	c #D7D388",
"8[#	c #D2CC84",
"9[#	c #D4CD86",
"0[#	c #D3CA84",
"a[#	c #D8D287",
"b[#	c #D7D583",
"c[#	c #DAD68C",
"d[#	c #DBD48C",
"e[#	c #D8D288",
"f[#	c #D6D28A",
"g[#	c #DAD58A",
"h[#	c #DED98E",
"i[#	c #DBD88D",
"j[#	c #D9D58C",
"k[#	c #D9D489",
"l[#	c #D6D184",
"m[#	c #D4D086",
"n[#	c #D5D087",
"o[#	c #D6D188",
"p[#	c #D5D086",
"q[#	c #D5CE85",
"r[#	c #D7CE86",
"s[#	c #D6CD85",
"t[#	c #D7CF87",
"u[#	c #D4CE85",
"v[#	c #D6CE86",
"w[#	c #D8D088",
"x[#	c #D4CC85",
"y[#	c #D4CF86",
"z[#	c #CFCC84",
"A[#	c #CFCD83",
"B[#	c #D3D187",
"C[#	c #D1D187",
"D[#	c #D3D48A",
"E[#	c #D0D086",
"F[#	c #D1CF83",
"G[#	c #CECE84",
"H[#	c #D0D085",
"I[#	c #D1CF86",
"J[#	c #D1D086",
"K[#	c #CDCB85",
"L[#	c #CCC982",
"M[#	c #C9C67F",
"N[#	c #CDCD82",
"O[#	c #CBCB81",
"P[#	c #CBCA82",
"Q[#	c #C9CE88",
"R[#	c #C8CE88",
"S[#	c #CACE86",
"T[#	c #D2D28A",
"U[#	c #D3D38B",
"V[#	c #D2CE84",
"W[#	c #CCC98A",
"X[#	c #C2C494",
"Y[#	c #B6C5A9",
"Z[#	c #ADC5BC",
"`[#	c #ACC7C1",
" }#	c #ABC8C8",
".}#	c #A6CDCE",
"+}#	c #A7CACA",
"@}#	c #A8CACC",
"#}#	c #FAFDFF",
"$}#	c #FBFCFF",
"%}#	c #D9F4F2",
"&}#	c #A6C7CB",
"*}#	c #A3C4C8",
"=}#	c #A2C3C8",
"-}#	c #A6C7CC",
";}#	c #A7C9D2",
">}#	c #A0CACC",
",}#	c #A3CBCE",
"'}#	c #9CC5C7",
")}#	c #70969B",
"!}#	c #657C88",
"~}#	c #6A7B8A",
"{}#	c #637A8F",
"]}#	c #3E6290",
"^}#	c #5B4E8A",
"/}#	c #E4938D",
"(}#	c #F59C6B",
"_}#	c #F3A06A",
":}#	c #F9AF75",
"<}#	c #F6A66A",
"[}#	c #FBA56A",
"}}#	c #FCA06B",
"|}#	c #F17252",
"1}#	c #F97258",
"2}#	c #B1AC7C",
"3}#	c #443221",
"4}#	c #5F3331",
"5}#	c #61332F",
"6}#	c #3D251F",
"7}#	c #928969",
"8}#	c #D7D297",
"9}#	c #D4D190",
"0}#	c #D6D18C",
"a}#	c #D5CC88",
"b}#	c #D1CB85",
"c}#	c #D3CE87",
"d}#	c #D3CD86",
"e}#	c #D2CC83",
"f}#	c #D0C880",
"g}#	c #CFC57F",
"h}#	c #D0C680",
"i}#	c #D0C581",
"j}#	c #CFC781",
"k}#	c #D1C57D",
"l}#	c #D5C780",
"m}#	c #DACC90",
"n}#	c #B0A177",
"o}#	c #45331F",
"p}#	c #532A24",
"q}#	c #603028",
"r}#	c #603427",
"s}#	c #442C1C",
"t}#	c #837B57",
"u}#	c #D3CC8F",
"v}#	c #D7CF88",
"w}#	c #D7CF86",
"x}#	c #D5CD88",
"y}#	c #D6CE89",
"z}#	c #DAD38B",
"A}#	c #D9D289",
"B}#	c #DAD488",
"C}#	c #DBD586",
"D}#	c #D9D388",
"E}#	c #DAD388",
"F}#	c #D6D085",
"G}#	c #D8D488",
"H}#	c #DAD387",
"I}#	c #DCD78B",
"J}#	c #DAD48A",
"K}#	c #DAD287",
"L}#	c #DAD286",
"M}#	c #D8D085",
"N}#	c #D6D387",
"O}#	c #D7D087",
"P}#	c #D9CF87",
"Q}#	c #D8CF86",
"R}#	c #D6CC84",
"S}#	c #DAD088",
"T}#	c #D8CF87",
"U}#	c #D8CE86",
"V}#	c #D7D086",
"W}#	c #D8D187",
"X}#	c #D9D288",
"Y}#	c #D3CE84",
"Z}#	c #D3CF85",
"`}#	c #D2CD85",
" |#	c #D3D183",
".|#	c #D4D587",
"+|#	c #D3D588",
"@|#	c #D2D185",
"#|#	c #D6D186",
"$|#	c #D2CD84",
"%|#	c #D0D084",
"&|#	c #D3D488",
"*|#	c #D0CF86",
"=|#	c #CDCC85",
"-|#	c #CACB8A",
";|#	c #C8C986",
">|#	c #C9C985",
",|#	c #C6C67F",
"'|#	c #CBCB83",
")|#	c #C9C983",
"!|#	c #C8C984",
"~|#	c #C7CB85",
"{|#	c #C9CD86",
"]|#	c #CBCE87",
"^|#	c #CCCF87",
"/|#	c #D1D089",
"(|#	c #CCCC86",
"_|#	c #D0CD89",
":|#	c #D1CC83",
"<|#	c #D4C988",
"[|#	c #BEC29E",
"}|#	c #B6C1B1",
"||#	c #AFC3C5",
"1|#	c #AAC7CD",
"2|#	c #A9C7C9",
"3|#	c #A2CACA",
"4|#	c #A6CBCC",
"5|#	c #A7CAC7",
"6|#	c #A7CAC6",
"7|#	c #ABCCCD",
"8|#	c #ECF5F7",
"9|#	c #FCFDFE",
"0|#	c #FCFBFF",
"a|#	c #F8FCFF",
"b|#	c #FAFBFF",
"c|#	c #C9ECE9",
"d|#	c #A2C4C8",
"e|#	c #A3C4C9",
"f|#	c #A5C6CB",
"g|#	c #A5C6CD",
"h|#	c #A2C3CA",
"i|#	c #A3C4CD",
"j|#	c #A7C8D1",
"k|#	c #A6C7D0",
"l|#	c #A1C5CB",
"m|#	c #9FC5CB",
"n|#	c #A2C8CD",
"o|#	c #A2C8CB",
"p|#	c #A2CACD",
"q|#	c #9EC8CA",
"r|#	c #81ACAE",
"s|#	c #67818A",
"t|#	c #687A87",
"u|#	c #6B7C8D",
"v|#	c #667C90",
"w|#	c #446793",
"x|#	c #3053A2",
"y|#	c #594E88",
"z|#	c #DA847F",
"A|#	c #F69063",
"B|#	c #F29D67",
"C|#	c #FAB379",
"D|#	c #FAB078",
"E|#	c #F79C67",
"F|#	c #FDA370",
"G|#	c #F67659",
"H|#	c #F87E5D",
"I|#	c #F26C4F",
"J|#	c #D0D093",
"K|#	c #615F3E",
"L|#	c #542F31",
"M|#	c #613433",
"N|#	c #4C2C24",
"O|#	c #493D29",
"P|#	c #BAB582",
"Q|#	c #D5D194",
"R|#	c #D7D38E",
"S|#	c #D6CD89",
"T|#	c #D1CD83",
"U|#	c #CFC580",
"V|#	c #D2CA84",
"W|#	c #CFC881",
"X|#	c #CEC781",
"Y|#	c #D2C67F",
"Z|#	c #D8CA89",
"`|#	c #C4B787",
" 1#	c #5C4A35",
".1#	c #4D2B24",
"+1#	c #502A1E",
"@1#	c #676142",
"#1#	c #C8C48B",
"$1#	c #D9D58A",
"%1#	c #D8CF88",
"&1#	c #D4CB87",
"*1#	c #D3CA85",
"=1#	c #D6CC86",
"-1#	c #D6CD87",
";1#	c #D9D188",
">1#	c #D9D483",
",1#	c #DBD984",
"'1#	c #D9D384",
")1#	c #DCD588",
"!1#	c #D7D084",
"~1#	c #DAD389",
"{1#	c #DCD58A",
"]1#	c #D6D388",
"^1#	c #DBD38A",
"/1#	c #D8D086",
"(1#	c #D7D184",
"_1#	c #D9D389",
":1#	c #DAD288",
"<1#	c #D8D389",
"[1#	c #DDD58B",
"}1#	c #DBD189",
"|1#	c #D7CD85",
"11#	c #DAD289",
"21#	c #D6CE85",
"31#	c #D3CB82",
"41#	c #D5CD87",
"51#	c #D6CF86",
"61#	c #D1CC84",
"71#	c #D7D587",
"81#	c #D6D686",
"91#	c #D3D787",
"01#	c #D5D789",
"a1#	c #D5D489",
"b1#	c #D9D58B",
"c1#	c #C8C882",
"d1#	c #C8C782",
"e1#	c #C7CA86",
"f1#	c #C8CA85",
"g1#	c #C9C885",
"h1#	c #C6C782",
"i1#	c #C8CB86",
"j1#	c #C8CC86",
"k1#	c #C9CD85",
"l1#	c #CACD86",
"m1#	c #D5CC85",
"n1#	c #D9CC87",
"o1#	c #CFC989",
"p1#	c #C2C49A",
"q1#	c #B4C2AD",
"r1#	c #AEC4C3",
"s1#	c #ABC4C7",
"t1#	c #A3CCCC",
"u1#	c #AECCCC",
"v1#	c #F4FAFB",
"w1#	c #FAFCFF",
"x1#	c #FCFBFE",
"y1#	c #F2FDFD",
"z1#	c #BDE5E2",
"A1#	c #9FC8C9",
"B1#	c #A4CBCD",
"C1#	c #A6C8CE",
"D1#	c #A6C6CE",
"E1#	c #A4C5CD",
"F1#	c #A2C3CB",
"G1#	c #A7C7D1",
"H1#	c #A0C6CB",
"I1#	c #9EC5CB",
"J1#	c #A3CACD",
"K1#	c #A3C7CB",
"L1#	c #A2C9CD",
"M1#	c #A1C9CB",
"N1#	c #93BEC0",
"O1#	c #67888E",
"P1#	c #667988",
"Q1#	c #4D6B90",
"R1#	c #2C529D",
"S1#	c #2F53A0",
"T1#	c #5C4F89",
"U1#	c #DF8983",
"V1#	c #FAA16C",
"W1#	c #F4A36D",
"X1#	c #F9B076",
"Y1#	c #F4AA71",
"Z1#	c #F0955F",
"`1#	c #F79B69",
" 2#	c #F99E70",
".2#	c #F87D5D",
"+2#	c #F06C4F",
"@2#	c #D1D991",
"#2#	c #9EA474",
"$2#	c #412D23",
"%2#	c #5B3431",
"&2#	c #5A332D",
"*2#	c #412619",
"=2#	c #686042",
"-2#	c #CDC794",
";2#	c #DCD793",
">2#	c #D4CB88",
",2#	c #D3CA89",
"'2#	c #D3CF8B",
")2#	c #D2CF87",
"!2#	c #CECC7F",
"~2#	c #D0CC83",
"{2#	c #CCC37E",
"]2#	c #D1C883",
"^2#	c #D5CB88",
"/2#	c #CBBD87",
"(2#	c #766646",
"_2#	c #452419",
":2#	c #5A302D",
"<2#	c #4D2821",
"[2#	c #57452A",
"}2#	c #B9B381",
"|2#	c #D4D08F",
"12#	c #D5D084",
"22#	c #D6CD86",
"32#	c #D1C880",
"42#	c #D5D080",
"52#	c #DEDB88",
"62#	c #DCD786",
"72#	c #DED789",
"82#	c #DFD88A",
"92#	c #DDD688",
"02#	c #DBD387",
"a2#	c #DDD68A",
"b2#	c #D9D487",
"c2#	c #D9D387",
"d2#	c #DDD78B",
"e2#	c #DCD68A",
"f2#	c #DCD488",
"g2#	c #DED589",
"h2#	c #D9D085",
"i2#	c #D7CE85",
"j2#	c #D5CE84",
"k2#	c #DBD58B",
"l2#	c #D6D289",
"m2#	c #D4CE86",
"n2#	c #D4D186",
"o2#	c #D5D386",
"p2#	c #D5D484",
"q2#	c #D2D482",
"r2#	c #D8D689",
"s2#	c #D7D186",
"t2#	c #CEC883",
"u2#	c #C9CC85",
"v2#	c #C7C782",
"w2#	c #C7C785",
"x2#	c #C8CB88",
"y2#	c #C9CC87",
"z2#	c #C8C881",
"A2#	c #C8C884",
"B2#	c #C5C682",
"C2#	c #C6C783",
"D2#	c #C9CB86",
"E2#	c #CBCF86",
"F2#	c #D8CE87",
"G2#	c #D0CD8E",
"H2#	c #C1C896",
"I2#	c #B6C1A8",
"J2#	c #B0C2B8",
"K2#	c #9FC9C7",
"L2#	c #A8CBC6",
"M2#	c #A7C9CA",
"N2#	c #BAD4D4",
"O2#	c #EFFDFC",
"P2#	c #B5DEDC",
"Q2#	c #9FCACA",
"R2#	c #A7CCCF",
"S2#	c #A6C8CF",
"T2#	c #A7C7CF",
"U2#	c #A5C3CB",
"V2#	c #A4C2CA",
"W2#	c #A6C4CB",
"X2#	c #A6C4CD",
"Y2#	c #A7C5CF",
"Z2#	c #A0C6CD",
"`2#	c #A6CBCF",
" 3#	c #A4C7CB",
".3#	c #A4C9CD",
"+3#	c #A2CACC",
"@3#	c #9FCACB",
"#3#	c #73979B",
"$3#	c #617886",
"%3#	c #6A7A8A",
"&3#	c #536E8E",
"*3#	c #2C5299",
"=3#	c #5E528B",
"-3#	c #E9988F",
";3#	c #FC9F70",
">3#	c #F99767",
",3#	c #FAAB74",
"'3#	c #F4AE73",
")3#	c #F7B77B",
"!3#	c #ECA86C",
"~3#	c #EE935D",
"{3#	c #FB9B6E",
"]3#	c #EF7858",
"^3#	c #F07757",
"/3#	c #EC6950",
"(3#	c #F17052",
"_3#	c #D7DB95",
":3#	c #CCD09B",
"<3#	c #5C553E",
"[3#	c #452624",
"}3#	c #5D3230",
"|3#	c #573127",
"13#	c #39241B",
"23#	c #938962",
"33#	c #D7D08D",
"43#	c #D6CE87",
"53#	c #D3CB89",
"63#	c #D1CF84",
"73#	c #D2D084",
"83#	c #D0CE80",
"93#	c #CFCB81",
"03#	c #CCC27D",
"a3#	c #D0C782",
"b3#	c #D1CA82",
"c3#	c #D1C68E",
"d3#	c #8B7F5E",
"e3#	c #442719",
"f3#	c #582C26",
"g3#	c #4F2F29",
"h3#	c #463822",
"i3#	c #AEA473",
"j3#	c #D7D290",
"k3#	c #D6D089",
"l3#	c #D6CD84",
"m3#	c #D3CB84",
"n3#	c #D7CE87",
"o3#	c #D5CC84",
"p3#	c #D0C67E",
"q3#	c #D0C87F",
"r3#	c #D7D182",
"s3#	c #DEDC89",
"t3#	c #DEDD89",
"u3#	c #E1DE8C",
"v3#	c #E0DB8A",
"w3#	c #DFD889",
"x3#	c #DED587",
"y3#	c #DFD789",
"z3#	c #DCD78A",
"A3#	c #DDD68D",
"B3#	c #DCD68C",
"C3#	c #DBD587",
"D3#	c #DBD588",
"E3#	c #DCD688",
"F3#	c #DDD588",
"G3#	c #DCD386",
"H3#	c #D9D184",
"I3#	c #D8CF82",
"J3#	c #DAD185",
"K3#	c #D9D087",
"L3#	c #D9D088",
"M3#	c #D6CF88",
"N3#	c #D6CF89",
"O3#	c #D9D48B",
"P3#	c #D3D081",
"Q3#	c #D2D282",
"R3#	c #D8D588",
"S3#	c #D6D487",
"T3#	c #D7D58A",
"U3#	c #CECA81",
"V3#	c #CAC581",
"W3#	c #C8C783",
"X3#	c #CBCD87",
"Y3#	c #C5C983",
"Z3#	c #C2C881",
"`3#	c #C8CE87",
" 4#	c #C9CD87",
".4#	c #C6C682",
"+4#	c #CACD89",
"@4#	c #CACD88",
"#4#	c #CBCE89",
"$4#	c #C9CB83",
"%4#	c #C8C784",
"&4#	c #CACA86",
"*4#	c #CBCD88",
"=4#	c #CDCC84",
"-4#	c #CECF86",
";4#	c #CFCC82",
">4#	c #DBD186",
",4#	c #D7CE84",
"'4#	c #D0CC8B",
")4#	c #C6C595",
"!4#	c #BBC1A8",
"~4#	c #AFC5B8",
"{4#	c #A7C8C6",
"]4#	c #A9CBCC",
"^4#	c #CDE1E2",
"/4#	c #FAFCFE",
"(4#	c #ECFCFB",
"_4#	c #ADD8D5",
":4#	c #A5C9CD",
"<4#	c #A6C7CF",
"[4#	c #A7C5CC",
"}4#	c #A6C3CB",
"|4#	c #A7C4CE",
"14#	c #A3C8CB",
"24#	c #A3C9CE",
"34#	c #A5CBCF",
"44#	c #83ABAD",
"54#	c #6D7A8B",
"64#	c #6D7A89",
"74#	c #2D5395",
"84#	c #2C549E",
"94#	c #5C518A",
"04#	c #E3938A",
"a4#	c #F69B6B",
"b4#	c #F6A872",
"c4#	c #F4B178",
"d4#	c #FBC183",
"e4#	c #F4B678",
"f4#	c #F16F57",
"g4#	c #B6AC78",
"h4#	c #989069",
"i4#	c #463827",
"j4#	c #311412",
"k4#	c #572F2D",
"l4#	c #5E352F",
"m4#	c #4D2F29",
"n4#	c #43331D",
"o4#	c #A39968",
"p4#	c #D7CF8B",
"q4#	c #D8D48E",
"r4#	c #D4CE83",
"s4#	c #CFC681",
"t4#	c #D2CB88",
"u4#	c #A89C74",
"v4#	c #463524",
"w4#	c #532B28",
"x4#	c #5C2D28",
"y4#	c #572F28",
"z4#	c #453121",
"A4#	c #968F66",
"B4#	c #D7D291",
"C4#	c #D7D48D",
"D4#	c #CFC983",
"E4#	c #D1C984",
"F4#	c #D5CD89",
"G4#	c #D6CD88",
"H4#	c #D3C981",
"I4#	c #CFC77E",
"J4#	c #D9D386",
"K4#	c #DAD785",
"L4#	c #DDDC88",
"M4#	c #E2E08D",
"N4#	c #E1DA8A",
"O4#	c #E0D989",
"P4#	c #DED686",
"Q4#	c #DED78B",
"R4#	c #DDD78D",
"S4#	c #DAD487",
"T4#	c #DAD489",
"U4#	c #D9D286",
"V4#	c #D6D18A",
"W4#	c #D5D186",
"X4#	c #D8D388",
"Y4#	c #D7D487",
"Z4#	c #D3D186",
"`4#	c #CFCD82",
" 5#	c #CAC67E",
".5#	c #CBC985",
"+5#	c #C6C784",
"@5#	c #C7CA85",
"#5#	c #C4C783",
"$5#	c #C4C682",
"%5#	c #C6C984",
"&5#	c #C7C683",
"*5#	c #CCCF8B",
"=5#	c #CACD8A",
"-5#	c #C9CC88",
";5#	c #CCCF8A",
">5#	c #C7C783",
",5#	c #CCCC88",
"'5#	c #D0CE85",
")5#	c #CECF85",
"!5#	c #D6CF83",
"~5#	c #CAC996",
"{5#	c #BDC69F",
"]5#	c #AFC5B1",
"^5#	c #ADC7C4",
"/5#	c #ABC8CA",
"(5#	c #AACCCD",
"_5#	c #A9CCCC",
":5#	c #FBFEFF",
"<5#	c #F9FCFF",
"[5#	c #F9FDFE",
"}5#	c #E8FAF8",
"|5#	c #A7D1CF",
"15#	c #A4C8CB",
"25#	c #A6C7CE",
"35#	c #A4C4C9",
"45#	c #A6C5CC",
"55#	c #A4C4CC",
"65#	c #A6C5CD",
"75#	c #A1C4C9",
"85#	c #92BCBF",
"95#	c #668590",
"05#	c #697A8B",
"a5#	c #6E7C8D",
"b5#	c #6D7B8A",
"c5#	c #58728D",
"d5#	c #305492",
"e5#	c #2C539C",
"f5#	c #3456A0",
"g5#	c #5B4D88",
"h5#	c #DC8780",
"i5#	c #F69F6D",
"j5#	c #F9B179",
"k5#	c #F8BC7F",
"l5#	c #FDC282",
"m5#	c #FCAD73",
"n5#	c #F49460",
"o5#	c #F97B5C",
"p5#	c #F97B5E",
"q5#	c #F26E58",
"r5#	c #53391D",
"s5#	c #4B2B19",
"t5#	c #4C2821",
"u5#	c #3E1D1C",
"v5#	c #5E3530",
"w5#	c #59352D",
"x5#	c #48271E",
"y5#	c #514229",
"z5#	c #BDB081",
"A5#	c #D8CE8C",
"B5#	c #D8D489",
"C5#	c #CDCA80",
"D5#	c #D5CB7F",
"E5#	c #D7CE81",
"F5#	c #D1C97C",
"G5#	c #D1C97F",
"H5#	c #D3CA82",
"I5#	c #D2C580",
"J5#	c #D1C681",
"K5#	c #D3CE85",
"L5#	c #BBB57B",
"M5#	c #52452E",
"N5#	c #4A2C24",
"O5#	c #5A2F2C",
"P5#	c #592D2A",
"Q5#	c #7B704E",
"R5#	c #D0CA8E",
"S5#	c #DAD88D",
"T5#	c #D3D38D",
"U5#	c #D1D087",
"V5#	c #D0CF87",
"W5#	c #D0CF88",
"X5#	c #D3CE8E",
"Y5#	c #D8CF89",
"Z5#	c #D1C980",
"`5#	c #D3CC82",
" 6#	c #D7D185",
".6#	c #D9D485",
"+6#	c #DDDB88",
"@6#	c #DBD885",
"#6#	c #DFD988",
"$6#	c #DFD786",
"%6#	c #E0D685",
"&6#	c #DAD180",
"*6#	c #DAD38A",
"=6#	c #D7D08A",
"-6#	c #DAD68A",
";6#	c #D6D385",
">6#	c #CECC83",
",6#	c #CAC980",
"'6#	c #CDCA86",
")6#	c #C7C784",
"!6#	c #C5C683",
"~6#	c #CBCC87",
"{6#	c #CCCF88",
"]6#	c #CACE85",
"^6#	c #CED089",
"/6#	c #CACB86",
"(6#	c #CACA87",
"_6#	c #CECF8A",
":6#	c #D2D089",
"<6#	c #D1CF85",
"[6#	c #CFCF84",
"}6#	c #D0CF84",
"|6#	c #D7D386",
"16#	c #D5D38B",
"26#	c #CECE8D",
"36#	c #BEC797",
"46#	c #B8C5AC",
"56#	c #B0C7C1",
"66#	c #ABC9C7",
"76#	c #A9C9CD",
"86#	c #ABCECB",
"96#	c #AFCBCC",
"06#	c #EAF5F6",
"a6#	c #FAFEFE",
"b6#	c #F8FDFE",
"c6#	c #E1F8F7",
"d6#	c #A5CFCF",
"e6#	c #A3C6CB",
"f6#	c #A5C6CC",
"g6#	c #A3C5CA",
"h6#	c #A5C7CC",
"i6#	c #A4C7CC",
"j6#	c #A3C5CB",
"k6#	c #A3C4CB",
"l6#	c #A0C2C7",
"m6#	c #A3C6CA",
"n6#	c #A3C8CC",
"o6#	c #9BC5C8",
"p6#	c #6D9199",
"q6#	c #6D7A8D",
"r6#	c #58738C",
"s6#	c #2F578E",
"t6#	c #3959A3",
"u6#	c #5C4E89",
"v6#	c #DD817D",
"w6#	c #FBAB78",
"x6#	c #F8B97F",
"y6#	c #FCC082",
"z6#	c #FBAE74",
"A6#	c #ED6E54",
"B6#	c #EA644E",
"C6#	c #592E25",
"D6#	c #61332D",
"E6#	c #63332E",
"F6#	c #582F2C",
"G6#	c #3A1815",
"H6#	c #59302B",
"I6#	c #60342D",
"J6#	c #5C3029",
"K6#	c #47271C",
"L6#	c #67583A",
"M6#	c #CABB7F",
"N6#	c #D1CD80",
"O6#	c #D5C97B",
"P6#	c #D6CC7C",
"Q6#	c #D4CB85",
"R6#	c #D3C67E",
"S6#	c #D4CB80",
"T6#	c #D5CF84",
"U6#	c #D0C987",
"V6#	c #766F48",
"W6#	c #42261F",
"X6#	c #625946",
"Y6#	c #CCC495",
"Z6#	c #DBD592",
"`6#	c #DDD78F",
" 7#	c #D5CF89",
".7#	c #C5C284",
"+7#	c #C0BC80",
"@7#	c #C2BD82",
"#7#	c #C5C286",
"$7#	c #C2C285",
"%7#	c #C7C78B",
"&7#	c #CDCE94",
"*7#	c #D6D199",
"=7#	c #DAD18F",
"-7#	c #D3CB7F",
";7#	c #D1CB81",
">7#	c #DBD589",
",7#	c #DDD98A",
"'7#	c #DCD987",
")7#	c #D7D580",
"!7#	c #DCD784",
"~7#	c #DFD684",
"{7#	c #E1D783",
"]7#	c #DED483",
"^7#	c #DCD384",
"/7#	c #D5D389",
"(7#	c #D3CF86",
"_7#	c #D8D18B",
":7#	c #D0CC84",
"<7#	c #CACA82",
"[7#	c #C9C981",
"}7#	c #CCCA85",
"|7#	c #C6C983",
"17#	c #C7CA82",
"27#	c #CDCF89",
"37#	c #C8CB83",
"47#	c #CDD187",
"57#	c #CDCE8A",
"67#	c #D0D088",
"77#	c #D0CD82",
"87#	c #D7D589",
"97#	c #D0CE8B",
"07#	c #C6C696",
"a7#	c #B8C5AF",
"b7#	c #B1C9BD",
"c7#	c #ADC9CB",
"d7#	c #AACBCF",
"e7#	c #A9CBC7",
"f7#	c #B7CFCF",
"g7#	c #F2FBFB",
"h7#	c #FEFEFC",
"i7#	c #F8FDFD",
"j7#	c #D3F5F4",
"k7#	c #A7CCD1",
"l7#	c #A7CACE",
"m7#	c #A2C5C9",
"n7#	c #A4C8CC",
"o7#	c #A5C8CF",
"p7#	c #A1C2C7",
"q7#	c #A3C7CA",
"r7#	c #A3C8CF",
"s7#	c #A5CCD0",
"t7#	c #78A2A5",
"u7#	c #6D798A",
"v7#	c #677686",
"w7#	c #597189",
"x7#	c #315B8C",
"y7#	c #2D519C",
"z7#	c #3D59A4",
"A7#	c #5F508B",
"B7#	c #F8A172",
"C7#	c #FCBA82",
"D7#	c #F9B67D",
"E7#	c #E9654C",
"F7#	c #F56F56",
"G7#	c #66322E",
"H7#	c #6A352F",
"I7#	c #653730",
"J7#	c #532822",
"K7#	c #673530",
"L7#	c #5F312C",
"M7#	c #4B2E21",
"N7#	c #A89865",
"O7#	c #D3CE81",
"P7#	c #D6CF80",
"Q7#	c #D6CC7D",
"R7#	c #DDD584",
"S7#	c #D4CC7E",
"T7#	c #D3CB80",
"U7#	c #D0C47B",
"V7#	c #D6CE80",
"W7#	c #9C9365",
"X7#	c #3E271C",
"Y7#	c #562C27",
"Z7#	c #5A2D27",
"`7#	c #4A2523",
" 8#	c #250F09",
".8#	c #756D58",
"+8#	c #B0A97F",
"@8#	c #ACA26F",
"#8#	c #A69B68",
"$8#	c #887C50",
"%8#	c #6A613A",
"&8#	c #5C502C",
"*8#	c #564929",
"=8#	c #5C4F30",
"-8#	c #615435",
";8#	c #5B5130",
">8#	c #68603C",
",8#	c #7E7654",
"'8#	c #A0946F",
")8#	c #C1B783",
"!8#	c #D5CE8E",
"~8#	c #D0CA81",
"{8#	c #DBD58A",
"]8#	c #DAD687",
"^8#	c #DBD886",
"/8#	c #D6D380",
"(8#	c #DED685",
"_8#	c #E0D684",
":8#	c #E3DB89",
"<8#	c #DCD586",
"[8#	c #D2D289",
"}8#	c #D1D189",
"|8#	c #D3CF89",
"18#	c #CFCF86",
"28#	c #D3CD85",
"38#	c #D6D08C",
"48#	c #D4CF8B",
"58#	c #D2CD87",
"68#	c #D0CD85",
"78#	c #C9CC82",
"88#	c #C8CC82",
"98#	c #C8CB82",
"08#	c #D0D389",
"a8#	c #CFD08A",
"b8#	c #D6D588",
"c8#	c #D7D486",
"d8#	c #D9D482",
"e8#	c #D3D18C",
"f8#	c #C7CE9A",
"g8#	c #B8CAA6",
"h8#	c #B6C9BB",
"i8#	c #B1C8C5",
"j8#	c #AACACA",
"k8#	c #AACBC6",
"l8#	c #C3D7D6",
"m8#	c #F7FDFD",
"n8#	c #FEFFFE",
"o8#	c #CAEFED",
"p8#	c #A2C7CA",
"q8#	c #A4CACD",
"r8#	c #A7C9D0",
"s8#	c #A5C7CA",
"t8#	c #86B4B6",
"u8#	c #5E7C84",
"v8#	c #6B7988",
"w8#	c #647484",
"x8#	c #586E85",
"y8#	c #3D6390",
"z8#	c #2F519A",
"A8#	c #3D57A2",
"B8#	c #604F8B",
"C8#	c #E0837C",
"D8#	c #F79766",
"E8#	c #F3AE75",
"F8#	c #EFA56C",
"G8#	c #F38F61",
"H8#	c #F98D63",
"I8#	c #F78962",
"J8#	c #F67E5F",
"K8#	c #F67457",
"L8#	c #FA755B",
"M8#	c #6B352E",
"N8#	c #6C3930",
"O8#	c #673A34",
"P8#	c #69352F",
"Q8#	c #62322D",
"R8#	c #4B2820",
"S8#	c #8C7C52",
"T8#	c #D4CC81",
"U8#	c #D7D181",
"V8#	c #DFD885",
"W8#	c #D3CB81",
"X8#	c #D1C77F",
"Y8#	c #D3C880",
"Z8#	c #D9CD85",
"`8#	c #D9CE89",
" 9#	c #B5AA74",
".9#	c #4D3C23",
"+9#	c #502828",
"@9#	c #5B2D2B",
"#9#	c #552C26",
"$9#	c #361613",
"%9#	c #3B2619",
"&9#	c #3E2D17",
"*9#	c #3D2D13",
"=9#	c #3D2912",
"-9#	c #412518",
";9#	c #49261A",
">9#	c #4B251C",
",9#	c #4D251C",
"'9#	c #4E271E",
")9#	c #4A261A",
"!9#	c #462819",
"~9#	c #422318",
"{9#	c #402616",
"]9#	c #5B4F33",
"^9#	c #A49973",
"/9#	c #CDC88D",
"(9#	c #CFC97F",
"_9#	c #D6D382",
":9#	c #D6D381",
"<9#	c #D8D483",
"[9#	c #E4DD8B",
"}9#	c #D3D289",
"|9#	c #D3D18A",
"19#	c #D5D28C",
"29#	c #D1CE8A",
"39#	c #CFCD89",
"49#	c #D1D28B",
"59#	c #D4D38C",
"69#	c #D3D28B",
"79#	c #D6D68F",
"89#	c #CECB85",
"99#	c #D0CB86",
"09#	c #CECC86",
"a9#	c #D2CD89",
"b9#	c #D4D38A",
"c9#	c #D8D18A",
"d9#	c #CDD086",
"e9#	c #CCCF86",
"f9#	c #CDCF88",
"g9#	c #CFD18A",
"h9#	c #C9CE81",
"i9#	c #CED186",
"j9#	c #CBCC85",
"k9#	c #C9CB84",
"l9#	c #CDCF87",
"m9#	c #CECF89",
"n9#	c #D7D381",
"o9#	c #D5D383",
"p9#	c #D0D18C",
"q9#	c #C7D193",
"r9#	c #BDCA9F",
"s9#	c #B7C7AF",
"t9#	c #ADC9BC",
"u9#	c #ADCAC3",
"v9#	c #D3E3E2",
"w9#	c #C2E8E6",
"x9#	c #A4C4CB",
"y9#	c #A1C4CA",
"z9#	c #A4C6CC",
"A9#	c #A4C5CA",
"B9#	c #A5C7CB",
"C9#	c #99C7C9",
"D9#	c #64888D",
"E9#	c #667986",
"F9#	c #637885",
"G9#	c #5A6E84",
"H9#	c #44658F",
"I9#	c #305096",
"J9#	c #3A549E",
"K9#	c #5E4E8A",
"L9#	c #DF887B",
"M9#	c #F18F61",
"N9#	c #F79F6B",
"O9#	c #F7A06A",
"P9#	c #F69A67",
"Q9#	c #F29E6C",
"R9#	c #F1AD73",
"S9#	c #ECA46B",
"T9#	c #F09362",
"U9#	c #F67B5F",
"V9#	c #63322E",
"W9#	c #67342F",
"X9#	c #6A342E",
"Y9#	c #6F3B30",
"Z9#	c #6E3A34",
"`9#	c #683531",
" 0#	c #68342E",
".0#	c #67352C",
"+0#	c #62352B",
"@0#	c #83734D",
"#0#	c #D5CD83",
"$0#	c #D9D27E",
"%0#	c #D5CD7D",
"&0#	c #DED28D",
"*0#	c #C8BC84",
"=0#	c #605337",
"-0#	c #47221A",
";0#	c #5C2E28",
">0#	c #582F2B",
",0#	c #3E2019",
"'0#	c #3C1D1A",
")0#	c #532D2B",
"!0#	c #552C27",
"~0#	c #512923",
"{0#	c #4F2A20",
"]0#	c #512B20",
"^0#	c #562D26",
"/0#	c #5F2E25",
"(0#	c #602D26",
"_0#	c #602C27",
":0#	c #5D2923",
"<0#	c #5C2822",
"[0#	c #5B2A23",
"}0#	c #5A2F29",
"|0#	c #5A2E2B",
"10#	c #542826",
"20#	c #3C211D",
"30#	c #45382A",
"40#	c #AEA77A",
"50#	c #D1CA80",
"60#	c #D5D183",
"70#	c #D5D282",
"80#	c #E2DC8A",
"90#	c #DBD687",
"00#	c #D5D08B",
"a0#	c #D1CF8C",
"b0#	c #CFCE8B",
"c0#	c #D3D38E",
"d0#	c #D3D28D",
"e0#	c #D2D48D",
"f0#	c #D2D08A",
"g0#	c #D2CE8A",
"h0#	c #D0CF89",
"i0#	c #CECD8A",
"j0#	c #CECC89",
"k0#	c #CECB88",
"l0#	c #D0CD8A",
"m0#	c #D5D28B",
"n0#	c #D3D189",
"o0#	c #CDD188",
"p0#	c #C9CC83",
"q0#	c #C8CC84",
"r0#	c #CCD083",
"s0#	c #CACF81",
"t0#	c #CDD185",
"u0#	c #CACC86",
"v0#	c #C8CA81",
"w0#	c #CBCC89",
"x0#	c #CFCF8A",
"y0#	c #D0CF85",
"z0#	c #CFD083",
"A0#	c #CDD082",
"B0#	c #D2D383",
"C0#	c #D0D588",
"D0#	c #C0CB9C",
"E0#	c #AFCAAF",
"F0#	c #AFCBBE",
"G0#	c #DFECE9",
"H0#	c #FFFBFF",
"I0#	c #FFFCFF",
"J0#	c #BEE2E0",
"K0#	c #A7C6CD",
"L0#	c #A4C3CA",
"M0#	c #A7CED0",
"N0#	c #A0C3C9",
"O0#	c #A3C5CC",
"P0#	c #A4C6CB",
"Q0#	c #A2C4C7",
"R0#	c #A5C9D0",
"S0#	c #A3C7CE",
"T0#	c #9BC9CC",
"U0#	c #749CA0",
"V0#	c #637A86",
"W0#	c #5E7487",
"X0#	c #48678F",
"Y0#	c #345296",
"Z0#	c #39549D",
"`0#	c #E59480",
" a#	c #F59864",
".a#	c #F7A46D",
"+a#	c #FAA770",
"@a#	c #F4A570",
"#a#	c #FBBD7F",
"$a#	c #F4B477",
"%a#	c #F19D6A",
"&a#	c #F18E62",
"*a#	c #F97E63",
"=a#	c #F1765C",
"-a#	c #EE7353",
";a#	c #64332E",
">a#	c #65332E",
",a#	c #693830",
"'a#	c #6B382F",
")a#	c #69372F",
"!a#	c #68332C",
"~a#	c #65352C",
"{a#	c #62372F",
"]a#	c #502D24",
"^a#	c #8D7D57",
"/a#	c #D6D080",
"(a#	c #D5CD7C",
"_a#	c #D4CC7D",
":a#	c #D4CB81",
"<a#	c #D5CD86",
"[a#	c #D5CA88",
"}a#	c #8A7E5A",
"|a#	c #41291B",
"1a#	c #5C2E29",
"2a#	c #361713",
"3a#	c #532C28",
"4a#	c #5B2E2C",
"5a#	c #592D23",
"6a#	c #582C22",
"7a#	c #612C28",
"8a#	c #5D2925",
"9a#	c #62352F",
"0a#	c #5E2E2A",
"aa#	c #552F2C",
"ba#	c #3E2621",
"ca#	c #75704D",
"da#	c #D2CD80",
"ea#	c #D3CF83",
"fa#	c #D6D282",
"ga#	c #D7D383",
"ha#	c #DCD787",
"ia#	c #DED787",
"ja#	c #DDD888",
"ka#	c #D9D48C",
"la#	c #CCCD8A",
"ma#	c #D0CF8E",
"na#	c #CFD189",
"oa#	c #CECE8B",
"pa#	c #D2CF8D",
"qa#	c #CFCD8A",
"ra#	c #CECF8C",
"sa#	c #CCCB86",
"ta#	c #D5D18A",
"ua#	c #D2CF8B",
"va#	c #CECA88",
"wa#	c #D0CD8B",
"xa#	c #D2D18D",
"ya#	c #CFCE8C",
"za#	c #CECE8C",
"Aa#	c #CDCD8B",
"Ba#	c #CDCC8A",
"Ca#	c #CDCD8A",
"Da#	c #CCCE8B",
"Ea#	c #CBCB8A",
"Fa#	c #CBCC8D",
"Ga#	c #C9CB8C",
"Ha#	c #C8CD8D",
"Ia#	c #CCCF83",
"Ja#	c #CBD286",
"Ka#	c #CACF85",
"La#	c #C8CB87",
"Ma#	c #C8CA8D",
"Na#	c #C8CA8F",
"Oa#	c #C6C98A",
"Pa#	c #C7CC84",
"Qa#	c #C7CE83",
"Ra#	c #C8CD88",
"Sa#	c #C7CD8B",
"Ta#	c #CAD090",
"Ua#	c #C9CF92",
"Va#	c #C9CE95",
"Wa#	c #CBCF97",
"Xa#	c #CED194",
"Ya#	c #D0D094",
"Za#	c #D4D599",
"`a#	c #CDD497",
" b#	c #CAD698",
".b#	c #CAD597",
"+b#	c #CAD397",
"@b#	c #CBD397",
"#b#	c #D0D59A",
"$b#	c #D2D69B",
"%b#	c #D1D79C",
"&b#	c #D2D8A0",
"*b#	c #D5DDA5",
"=b#	c #D4E0A6",
"-b#	c #D0D8A0",
";b#	c #CED79F",
">b#	c #CCD8A2",
",b#	c #CDD9A7",
"'b#	c #CFDAA5",
")b#	c #CDD99E",
"!b#	c #D0DE9C",
"~b#	c #CEDBA2",
"{b#	c #CBD9AD",
"]b#	c #C1DABF",
"^b#	c #BDD7C9",
"/b#	c #EAF5F3",
"(b#	c #FDFFFF",
"_b#	c #F4FBFB",
":b#	c #B9D9DA",
"<b#	c #A9CACE",
"[b#	c #A6C6CB",
"}b#	c #A7CACF",
"|b#	c #A1C7CA",
"1b#	c #A1C8CA",
"2b#	c #A1C5CA",
"3b#	c #9DC8CB",
"4b#	c #86B0B3",
"5b#	c #65828A",
"6b#	c #5F7586",
"7b#	c #4E698D",
"8b#	c #325394",
"9b#	c #37549E",
"0b#	c #594F8B",
"ab#	c #E79C86",
"bb#	c #F9A46A",
"cb#	c #F2A26A",
"db#	c #F9A871",
"eb#	c #EE9763",
"fb#	c #F5B178",
"gb#	c #FBBB81",
"hb#	c #F8AA75",
"ib#	c #EB7854",
"jb#	c #63332D",
"kb#	c #6D3B33",
"lb#	c #6A382F",
"mb#	c #69372E",
"nb#	c #6A342F",
"ob#	c #64352C",
"pb#	c #60362F",
"qb#	c #4C3124",
"rb#	c #AA9B70",
"sb#	c #D7CD88",
"tb#	c #D5CE82",
"ub#	c #D6CD80",
"vb#	c #D6CD83",
"wb#	c #D4C980",
"xb#	c #CFCA83",
"yb#	c #BFB77D",
"zb#	c #4E3E27",
"Ab#	c #552F26",
"Bb#	c #612F2A",
"Cb#	c #562A24",
"Db#	c #45201C",
"Eb#	c #5D312C",
"Fb#	c #5E2C27",
"Gb#	c #5B2C25",
"Hb#	c #5B2D27",
"Ib#	c #5A2D26",
"Jb#	c #5A2B27",
"Kb#	c #5E2927",
"Lb#	c #562924",
"Mb#	c #542A26",
"Nb#	c #59312C",
"Ob#	c #5B3129",
"Pb#	c #5F332E",
"Qb#	c #4F2E2B",
"Rb#	c #4F492D",
"Sb#	c #CAC987",
"Tb#	c #D4CD80",
"Ub#	c #D8D282",
"Vb#	c #D9D785",
"Wb#	c #D4D383",
"Xb#	c #D3D285",
"Yb#	c #D4D48A",
"Zb#	c #CDCF8A",
"`b#	c #CFD289",
" c#	c #D3CD8A",
".c#	c #CECD8C",
"+c#	c #CECD8B",
"@c#	c #CFCB8B",
"#c#	c #D0CC8D",
"$c#	c #CECC8D",
"%c#	c #CECE8F",
"&c#	c #D0D090",
"*c#	c #CCCD8B",
"=c#	c #CECF8B",
"-c#	c #CBCB87",
";c#	c #CCCA86",
">c#	c #CDCD8C",
",c#	c #CDCE8B",
"'c#	c #CBCD8A",
")c#	c #CBCD8D",
"!c#	c #CBCC92",
"~c#	c #C8CC8D",
"{c#	c #CBCF8F",
"]c#	c #CCD292",
"^c#	c #CBD292",
"/c#	c #CBD290",
"(c#	c #CBD18F",
"_c#	c #CCD291",
":c#	c #CAD192",
"<c#	c #C8CE8F",
"[c#	c #C9CF8E",
"}c#	c #CAD190",
"|c#	c #C8CF8E",
"1c#	c #CAD18F",
"2c#	c #C9D08D",
"3c#	c #CACE91",
"4c#	c #C8CC91",
"5c#	c #C4CC91",
"6c#	c #C4CD92",
"7c#	c #C6D194",
"8c#	c #C6D08C",
"9c#	c #CACF8D",
"0c#	c #CACF91",
"ac#	c #CCD193",
"bc#	c #CCD195",
"cc#	c #CDD399",
"dc#	c #CBD69B",
"ec#	c #C9D49C",
"fc#	c #CAD49D",
"gc#	c #C9D19A",
"hc#	c #CACF98",
"ic#	c #C9CE99",
"jc#	c #C7D49F",
"kc#	c #C7D7A0",
"lc#	c #CCDEA7",
"mc#	c #CEDDAD",
"nc#	c #D0DEB5",
"oc#	c #D0DFB8",
"pc#	c #CFE0B7",
"qc#	c #D1E0B0",
"rc#	c #D2DEAE",
"sc#	c #D1DDB2",
"tc#	c #D4DDB7",
"uc#	c #D7E0BB",
"vc#	c #D6DFBB",
"wc#	c #D6E4C4",
"xc#	c #DCE9CE",
"yc#	c #DFECD4",
"zc#	c #E0ECD4",
"Ac#	c #E1ECD5",
"Bc#	c #E5EFD8",
"Cc#	c #E5F2DD",
"Dc#	c #E5F4DF",
"Ec#	c #E4F3DE",
"Fc#	c #E6F4E0",
"Gc#	c #E8F4E1",
"Hc#	c #E9F4E1",
"Ic#	c #EBF5E2",
"Jc#	c #EEF6E4",
"Kc#	c #F0F8E8",
"Lc#	c #F0FBEB",
"Mc#	c #EEFCEA",
"Nc#	c #EEF8E8",
"Oc#	c #EEF6E5",
"Pc#	c #E9F6E6",
"Qc#	c #EAF6E7",
"Rc#	c #EBF6E6",
"Sc#	c #EAF6E4",
"Tc#	c #EBF8E1",
"Uc#	c #EBF7E4",
"Vc#	c #EEFAEC",
"Wc#	c #EAFAEE",
"Xc#	c #E7F8F2",
"Yc#	c #F4FCFB",
"Zc#	c #EEFAFA",
"`c#	c #B2D3D5",
" d#	c #A8C9CC",
".d#	c #A6C8CD",
"+d#	c #A1C4C8",
"@d#	c #A2C5CA",
"#d#	c #94BEC0",
"$d#	c #6A8B91",
"%d#	c #516E89",
"&d#	c #305594",
"*d#	c #30529E",
"=d#	c #59518C",
"-d#	c #E49C87",
";d#	c #F49F67",
">d#	c #F39D65",
",d#	c #EB9E63",
"'d#	c #F4A66E",
")d#	c #EC9765",
"!d#	c #F0A16E",
"~d#	c #FCB580",
"{d#	c #FBAC78",
"]d#	c #EC7154",
"^d#	c #EC7555",
"/d#	c #ED865E",
"(d#	c #F89A6F",
"_d#	c #663530",
":d#	c #693831",
"<d#	c #67352D",
"[d#	c #63372F",
"}d#	c #56342B",
"|d#	c #53452F",
"1d#	c #C9BE8B",
"2d#	c #D4CB82",
"3d#	c #D0CA85",
"4d#	c #908B5F",
"5d#	c #462C1E",
"6d#	c #5C2F2B",
"7d#	c #613028",
"8d#	c #622D26",
"9d#	c #5E2D26",
"0d#	c #5D2E2A",
"ad#	c #592C27",
"bd#	c #5A2B28",
"cd#	c #5C2928",
"dd#	c #5D2D2A",
"ed#	c #5D2D29",
"fd#	c #451C18",
"gd#	c #3B1412",
"hd#	c #3B1814",
"id#	c #502E24",
"jd#	c #5D332C",
"kd#	c #63342E",
"ld#	c #5A322E",
"md#	c #443925",
"nd#	c #C6C586",
"od#	c #D6CF81",
"pd#	c #CFD180",
"qd#	c #CFD284",
"rd#	c #D0D387",
"sd#	c #D1D48B",
"td#	c #CBD08F",
"ud#	c #CCCE8E",
"vd#	c #C9CB8A",
"wd#	c #CBC98B",
"xd#	c #CCCB8C",
"yd#	c #CFCD8E",
"zd#	c #CCCD8C",
"Ad#	c #CDCF8E",
"Bd#	c #CED093",
"Cd#	c #CBD092",
"Dd#	c #C8CF91",
"Ed#	c #C8CE90",
"Fd#	c #C6D193",
"Gd#	c #C5D193",
"Hd#	c #C6D295",
"Id#	c #C9D297",
"Jd#	c #CBD196",
"Kd#	c #CCCF98",
"Ld#	c #D1D29E",
"Md#	c #D2D6A0",
"Nd#	c #D3D6A3",
"Od#	c #D0D5A3",
"Pd#	c #D5D9AD",
"Qd#	c #D7DBB8",
"Rd#	c #D6DDB7",
"Sd#	c #D7DFB8",
"Td#	c #D8DFBA",
"Ud#	c #D9E1BD",
"Vd#	c #DAE2BE",
"Wd#	c #DAE5C1",
"Xd#	c #DBE5C1",
"Yd#	c #D9E3BF",
"Zd#	c #DAE4BF",
"`d#	c #D9E4BE",
" e#	c #D9E4BD",
".e#	c #DAE5BD",
"+e#	c #D9E4BC",
"@e#	c #D8E5BF",
"#e#	c #D7E4BF",
"$e#	c #D5E4BF",
"%e#	c #D4E4BF",
"&e#	c #D1E4BF",
"*e#	c #D2E6C1",
"=e#	c #D4E8C4",
"-e#	c #D6EAC3",
";e#	c #DBEBC6",
">e#	c #DFEED2",
",e#	c #E1F0D5",
"'e#	c #E3F0D5",
")e#	c #E8F1D9",
"!e#	c #E8F3DB",
"~e#	c #E9F4DE",
"{e#	c #E8F3DF",
"]e#	c #E4F0DC",
"^e#	c #DFEDD7",
"/e#	c #DEF1DE",
"(e#	c #DEF5DF",
"_e#	c #E1FBE2",
":e#	c #E4FAE3",
"<e#	c #E8FBEA",
"[e#	c #EAFCED",
"}e#	c #EDFCEE",
"|e#	c #F1FBEA",
"1e#	c #EEFAE8",
"2e#	c #EFFAEC",
"3e#	c #F1FBEF",
"4e#	c #F3FCF2",
"5e#	c #F4FDF4",
"6e#	c #F4FDF6",
"7e#	c #F5FEF8",
"8e#	c #F2FDF6",
"9e#	c #F2FCF6",
"0e#	c #F5FCFA",
"ae#	c #F7FBFC",
"be#	c #F4FAFA",
"ce#	c #F6FCFC",
"de#	c #F6FDFC",
"ee#	c #F9FBFD",
"fe#	c #FAFDFD",
"ge#	c #FBFCFD",
"he#	c #FBFBFD",
"ie#	c #FBFBFE",
"je#	c #F7FEFD",
"ke#	c #F7FEFE",
"le#	c #FEFBFF",
"me#	c #E5F6F5",
"ne#	c #ACCFD2",
"oe#	c #A7C9CD",
"pe#	c #A6C6CA",
"qe#	c #A2C2C6",
"re#	c #A4C4C8",
"se#	c #A7C7CC",
"te#	c #A4C6CA",
"ue#	c #A1C5C9",
"ve#	c #9BC5C4",
"we#	c #5A778C",
"xe#	c #345B95",
"ye#	c #E3A08C",
"ze#	c #ED9D63",
"Ae#	c #EFA164",
"Be#	c #F5AA6D",
"Ce#	c #F2A76D",
"De#	c #F7AE77",
"Ee#	c #F09D6B",
"Fe#	c #F5A170",
"Ge#	c #FC916B",
"He#	c #F88660",
"Ie#	c #EE7356",
"Je#	c #ED7A59",
"Ke#	c #663531",
"Le#	c #683731",
"Me#	c #66352E",
"Ne#	c #66342B",
"Oe#	c #66352A",
"Pe#	c #5C372B",
"Qe#	c #422E20",
"Re#	c #8E875F",
"Se#	c #D5CD91",
"Te#	c #D4CA82",
"Ue#	c #D7CD84",
"Ve#	c #CEC683",
"We#	c #615D3C",
"Xe#	c #522F25",
"Ye#	c #623028",
"Ze#	c #66312B",
"`e#	c #632F29",
" f#	c #62322B",
".f#	c #63302A",
"+f#	c #582D27",
"@f#	c #4B211D",
"#f#	c #5E2C2A",
"$f#	c #5E2D2A",
"%f#	c #5C2D2A",
"&f#	c #542825",
"*f#	c #522926",
"=f#	c #48221E",
"-f#	c #381912",
";f#	c #58322C",
">f#	c #5E312E",
",f#	c #3F3321",
"'f#	c #BDBE81",
")f#	c #D4CF83",
"!f#	c #D5D181",
"~f#	c #D1D285",
"{f#	c #D0D38A",
"]f#	c #CFD38D",
"^f#	c #CBD38E",
"/f#	c #CCD18D",
"(f#	c #CCD08D",
"_f#	c #CED090",
":f#	c #D3D194",
"<f#	c #D1D095",
"[f#	c #CFCE92",
"}f#	c #D1D295",
"|f#	c #CED393",
"1f#	c #CACD90",
"2f#	c #CACC91",
"3f#	c #CBCD92",
"4f#	c #CCCF94",
"5f#	c #CAD094",
"6f#	c #CDD098",
"7f#	c #D0D19C",
"8f#	c #CFD19F",
"9f#	c #CED3A3",
"0f#	c #CDD7A7",
"af#	c #CFD5A6",
"bf#	c #CFD4A7",
"cf#	c #D2D5A9",
"df#	c #D6D5AB",
"ef#	c #D4D4AB",
"ff#	c #D6D7AE",
"gf#	c #D7D9B0",
"hf#	c #D7DAB0",
"if#	c #D7DCB2",
"jf#	c #DCE1BA",
"kf#	c #DDE5C0",
"lf#	c #DDE8C5",
"mf#	c #DFECCB",
"nf#	c #DFEECC",
"of#	c #E0F1CD",
"pf#	c #E0F0CD",
"qf#	c #E1EFCE",
"rf#	c #DFEDCB",
"sf#	c #E5EED1",
"tf#	c #EFF1DA",
"uf#	c #F2F5DD",
"vf#	c #F4F7E1",
"wf#	c #F5F7E4",
"xf#	c #F7F9E8",
"yf#	c #F9FAEE",
"zf#	c #F7FBF1",
"Af#	c #F7FCF2",
"Bf#	c #F6FCF2",
"Cf#	c #F4FCF3",
"Df#	c #F5FCF3",
"Ef#	c #F5FCF6",
"Ff#	c #F4FBF4",
"Gf#	c #F5FDF2",
"Hf#	c #F4FCF1",
"If#	c #F1FCF0",
"Jf#	c #F0FDEF",
"Kf#	c #EFFEF0",
"Lf#	c #F0FEF0",
"Mf#	c #F2FEF0",
"Nf#	c #F1FEF2",
"Of#	c #F0FEF2",
"Pf#	c #EFFFF6",
"Qf#	c #F1FEFA",
"Rf#	c #F2FFFB",
"Sf#	c #F3FEFA",
"Tf#	c #F6FDF9",
"Uf#	c #F8FCFA",
"Vf#	c #F7FEFB",
"Wf#	c #F6FEFC",
"Xf#	c #F4FEFC",
"Yf#	c #F3FEFC",
"Zf#	c #F0FEFE",
"`f#	c #F0FFFC",
" g#	c #EFFEF8",
".g#	c #F1FEF7",
"+g#	c #F5FEFA",
"@g#	c #F9FEFB",
"#g#	c #FAFEFC",
"$g#	c #FDFEFC",
"%g#	c #FDFDFB",
"&g#	c #FBFCF9",
"*g#	c #FAFEFA",
"=g#	c #FAFEF8",
"-g#	c #FCFDFA",
";g#	c #FEFCFC",
">g#	c #FEFBFB",
",g#	c #FDFCFB",
"'g#	c #FFFDFB",
")g#	c #FFFDFA",
"!g#	c #FEFEFB",
"~g#	c #FFFCFC",
"{g#	c #FFFBFC",
"]g#	c #FEFDFB",
"^g#	c #FEFDFC",
"/g#	c #FAFEFF",
"(g#	c #DEF5F4",
"_g#	c #A7CCD0",
":g#	c #A8C7CC",
"<g#	c #A7C8CB",
"[g#	c #A5C6C9",
"}g#	c #A7C8CD",
"|g#	c #A7C8CC",
"1g#	c #9CC5C8",
"2g#	c #7AA4A7",
"3g#	c #62808A",
"4g#	c #3E6297",
"5g#	c #56518D",
"6g#	c #E1A993",
"7g#	c #F6B77A",
"8g#	c #F0AB6D",
"9g#	c #F5AD70",
"0g#	c #FAB176",
"ag#	c #F3AC71",
"bg#	c #FCBF84",
"cg#	c #F3A473",
"dg#	c #EE7556",
"eg#	c #F9946C",
"fg#	c #F0684D",
"gg#	c #673632",
"hg#	c #673631",
"ig#	c #66352F",
"jg#	c #65342C",
"kg#	c #65352B",
"lg#	c #633328",
"mg#	c #5F3528",
"ng#	c #46291B",
"og#	c #60563B",
"pg#	c #C9C18A",
"qg#	c #D1CB82",
"rg#	c #D3CA81",
"sg#	c #D1C77D",
"tg#	c #D2C87E",
"ug#	c #D5CA83",
"vg#	c #D1CA81",
"wg#	c #CEC87F",
"xg#	c #C8C17F",
"yg#	c #4E462D",
"zg#	c #5A3427",
"Ag#	c #623329",
"Bg#	c #64332C",
"Cg#	c #603328",
"Dg#	c #64332B",
"Eg#	c #613229",
"Fg#	c #612F2B",
"Gg#	c #592E26",
"Hg#	c #3A150F",
"Ig#	c #592E2B",
"Jg#	c #612E2C",
"Kg#	c #60302D",
"Lg#	c #5C312B",
"Mg#	c #401D1A",
"Ng#	c #4C2B27",
"Og#	c #613330",
"Pg#	c #603330",
"Qg#	c #3D3120",
"Rg#	c #B9B87F",
"Sg#	c #D1D286",
"Tg#	c #D2D387",
"Ug#	c #D3D589",
"Vg#	c #D0D392",
"Wg#	c #CFD495",
"Xg#	c #D0D498",
"Yg#	c #CFD29C",
"Zg#	c #CCD59D",
"`g#	c #CFD7A0",
" h#	c #D0D7A3",
".h#	c #D7DCAC",
"+h#	c #DEDEB2",
"@h#	c #DCDCB9",
"#h#	c #DDDEBC",
"$h#	c #DFE2BF",
"%h#	c #E0E4C0",
"&h#	c #DFE3C1",
"*h#	c #DCE5C2",
"=h#	c #DCE7C4",
"-h#	c #DEE7C6",
";h#	c #DEE7C8",
">h#	c #E3EBCD",
",h#	c #E9EFD5",
"'h#	c #ECF1DB",
")h#	c #ECF4DF",
"!h#	c #EBF6E1",
"~h#	c #EEF4E2",
"{h#	c #F3F5E6",
"]h#	c #F6F7E8",
"^h#	c #F5F7E9",
"/h#	c #F8FAEB",
"(h#	c #F8FAEF",
"_h#	c #FAFBF4",
":h#	c #F5FBF2",
"<h#	c #F5FBF0",
"[h#	c #F3FDF2",
"}h#	c #F3FDF6",
"|h#	c #F2FEF8",
"1h#	c #EEFDF6",
"2h#	c #F0FEF6",
"3h#	c #F1FEF6",
"4h#	c #F1FEF4",
"5h#	c #F3FEF5",
"6h#	c #F8FDF9",
"7h#	c #FCFEFA",
"8h#	c #F9FEFC",
"9h#	c #F9FDFC",
"0h#	c #F9FDF8",
"ah#	c #F9FDF9",
"bh#	c #FAFEFB",
"ch#	c #FBFEFC",
"dh#	c #FDFDFC",
"eh#	c #FCFFFC",
"fh#	c #FBFFFA",
"gh#	c #FAFFFC",
"hh#	c #FBFFFD",
"ih#	c #FCFEFD",
"jh#	c #FDFCFC",
"kh#	c #F7FFFF",
"lh#	c #F7FFFD",
"mh#	c #F8FEFA",
"nh#	c #FCFBFD",
"oh#	c #FFFFFE",
"ph#	c #FDFFFC",
"qh#	c #F9FFFF",
"rh#	c #D7F0EF",
"sh#	c #A8CACF",
"th#	c #A7C7CB",
"uh#	c #A3C6C9",
"vh#	c #A6C6CC",
"wh#	c #9FC7CB",
"xh#	c #8BB5B7",
"yh#	c #436797",
"zh#	c #3154A1",
"Ah#	c #56548D",
"Bh#	c #DCAD96",
"Ch#	c #F8C584",
"Dh#	c #F4BA77",
"Eh#	c #F7B476",
"Fh#	c #F1AA70",
"Gh#	c #EFA971",
"Hh#	c #FCC489",
"Ih#	c #F6AB77",
"Jh#	c #F17E59",
"Kh#	c #EB7B55",
"Lh#	c #EC684B",
"Mh#	c #66342D",
"Nh#	c #65342E",
"Oh#	c #61322E",
"Ph#	c #4F2C23",
"Qh#	c #544534",
"Rh#	c #B5B082",
"Sh#	c #D9D392",
"Th#	c #D1CA85",
"Uh#	c #D1CB83",
"Vh#	c #D1C983",
"Wh#	c #D1CC82",
"Xh#	c #CDC981",
"Yh#	c #CCC585",
"Zh#	c #4C442F",
"`h#	c #583325",
" i#	c #623129",
".i#	c #613224",
"+i#	c #633327",
"@i#	c #5F2E29",
"#i#	c #60302B",
"$i#	c #5E302A",
"%i#	c #5B312A",
"&i#	c #46231D",
"*i#	c #3E1F1A",
"=i#	c #582E2D",
"-i#	c #5F2D2C",
";i#	c #642D2D",
">i#	c #5F332B",
",i#	c #512C29",
"'i#	c #40211D",
")i#	c #633632",
"!i#	c #3C3324",
"~i#	c #B7B886",
"{i#	c #CCC98B",
"]i#	c #D2D298",
"^i#	c #CED09A",
"/i#	c #D3D5A2",
"(i#	c #D5DAA8",
"_i#	c #D7DEAE",
":i#	c #D9DFB5",
"<i#	c #DCE6C1",
"[i#	c #DFEBC8",
"}i#	c #E3ECCD",
"|i#	c #E8EFD4",
"1i#	c #E9F3D7",
"2i#	c #EBF5DB",
"3i#	c #ECF6DE",
"4i#	c #F0F8E4",
"5i#	c #F6FBE9",
"6i#	c #F7FAEF",
"7i#	c #F8FBF1",
"8i#	c #F8FBF2",
"9i#	c #F8FDF4",
"0i#	c #F7FDF4",
"ai#	c #F7FDF5",
"bi#	c #F9FEF6",
"ci#	c #F8FFF8",
"di#	c #F8FEF8",
"ei#	c #F7FDFA",
"fi#	c #F8FDFA",
"gi#	c #F8FEFB",
"hi#	c #F9FFFC",
"ii#	c #F8FEFC",
"ji#	c #F7FFFC",
"ki#	c #F6FFFD",
"li#	c #F5FEFC",
"mi#	c #F7FDFC",
"ni#	c #F7FEFC",
"oi#	c #F8FEFD",
"pi#	c #F8FDFC",
"qi#	c #F9FFFB",
"ri#	c #F8FCFD",
"si#	c #F7FDFB",
"ti#	c #FAFFFE",
"ui#	c #F9FFFD",
"vi#	c #F6FFFE",
"wi#	c #F7FFFE",
"xi#	c #F4FFFC",
"yi#	c #F8FEFF",
"zi#	c #F8FCFE",
"Ai#	c #F7FCFC",
"Bi#	c #FBFEFB",
"Ci#	c #FCFEFC",
"Di#	c #D1EAE9",
"Ei#	c #A4C6C9",
"Fi#	c #A6C7C9",
"Gi#	c #A8CACD",
"Hi#	c #A2C5CC",
"Ii#	c #A8C6CC",
"Ji#	c #9BC2C7",
"Ki#	c #64878D",
"Li#	c #647982",
"Mi#	c #667F89",
"Ni#	c #476B94",
"Oi#	c #32559D",
"Pi#	c #55538B",
"Qi#	c #D8AB96",
"Ri#	c #FBC686",
"Si#	c #FBC37F",
"Ti#	c #F2B174",
"Ui#	c #F3AE74",
"Vi#	c #F9B47B",
"Wi#	c #F9B47C",
"Xi#	c #F6A26F",
"Yi#	c #F48F64",
"Zi#	c #EE7A55",
"`i#	c #F7825F",
" j#	c #F7805F",
".j#	c #F07855",
"+j#	c #FB8A65",
"@j#	c #ED6A4C",
"#j#	c #64342B",
"$j#	c #64332D",
"%j#	c #68362E",
"&j#	c #69352B",
"*j#	c #633631",
"=j#	c #512E2B",
"-j#	c #422E25",
";j#	c #ABA083",
">j#	c #D5D59B",
",j#	c #CCC98E",
"'j#	c #CECB91",
")j#	c #CECC8F",
"!j#	c #CCCB8F",
"~j#	c #CDCB91",
"{j#	c #CCCA92",
"]j#	c #CCCA91",
"^j#	c #CBCB8E",
"/j#	c #C8CA8C",
"(j#	c #C7C88F",
"_j#	c #C7C697",
":j#	c #C9C69A",
"<j#	c #C5C398",
"[j#	c #716E59",
"}j#	c #472D20",
"|j#	c #5B3428",
"1j#	c #5E3228",
"2j#	c #643128",
"3j#	c #643227",
"4j#	c #623226",
"5j#	c #63332A",
"6j#	c #5F312B",
"7j#	c #54322B",
"8j#	c #381B15",
"9j#	c #663030",
"0j#	c #62342C",
"aj#	c #57322D",
"bj#	c #3B1D1A",
"cj#	c #653532",
"dj#	c #61312C",
"ej#	c #4A493D",
"fj#	c #D1D5BA",
"gj#	c #E2E2C1",
"hj#	c #E5E6C8",
"ij#	c #ECEED4",
"jj#	c #EEF0DA",
"kj#	c #F1F2E0",
"lj#	c #F4F7E6",
"mj#	c #F7FBEB",
"nj#	c #F4FCED",
"oj#	c #F2FDF2",
"pj#	c #F3FEF4",
"qj#	c #F7FFF7",
"rj#	c #F7FEFA",
"sj#	c #F8FFFB",
"tj#	c #FCFEFF",
"uj#	c #F8FFFD",
"vj#	c #F6FEFB",
"wj#	c #F5FDFB",
"xj#	c #F5FEFD",
"yj#	c #F5FFFC",
"zj#	c #F4FFFD",
"Aj#	c #F3FFFD",
"Bj#	c #F4FEFE",
"Cj#	c #F9FBFE",
"Dj#	c #F6FFFB",
"Ej#	c #F5FFFA",
"Fj#	c #F5FFFB",
"Gj#	c #F2FEFF",
"Hj#	c #F3FEFF",
"Ij#	c #F3FFFF",
"Jj#	c #F5FFFE",
"Kj#	c #F5FDFE",
"Lj#	c #F3FEFE",
"Mj#	c #F2FEFE",
"Nj#	c #F3FFFC",
"Oj#	c #F2FFFE",
"Pj#	c #F2FFFF",
"Qj#	c #F0FFFE",
"Rj#	c #F1FFFE",
"Sj#	c #F3FFFE",
"Tj#	c #F9FEFF",
"Uj#	c #F6FFFC",
"Vj#	c #FBFEFA",
"Wj#	c #FEFEF8",
"Xj#	c #FDFEFA",
"Yj#	c #FEFDF9",
"Zj#	c #FFFEFB",
"`j#	c #FFFFFC",
" k#	c #FBFDFB",
".k#	c #CBE5E2",
"+k#	c #A0C9C8",
"@k#	c #A9CACF",
"#k#	c #A3C5CD",
"$k#	c #A9C8CD",
"%k#	c #71969C",
"&k#	c #657B84",
"*k#	c #4F6C93",
"=k#	c #34559B",
"-k#	c #534F8A",
";k#	c #D8A492",
">k#	c #F7B97D",
",k#	c #F4B273",
"'k#	c #F7B176",
")k#	c #FEB87E",
"!k#	c #FCB67E",
"~k#	c #F3A16C",
"{k#	c #653629",
"]k#	c #66372B",
"^k#	c #633627",
"/k#	c #57382C",
"(k#	c #43362D",
"_k#	c #999385",
":k#	c #DAD6B5",
"<k#	c #D7DAAB",
"[k#	c #D4D8A8",
"}k#	c #D6D7AB",
"|k#	c #D7D7B4",
"1k#	c #DCDBBA",
"2k#	c #DCDBBC",
"3k#	c #DCDFC3",
"4k#	c #DCE0C2",
"5k#	c #DDE1C2",
"6k#	c #DAE1C4",
"7k#	c #DFE4C8",
"8k#	c #E7E9D9",
"9k#	c #E7EAD8",
"0k#	c #E8EBD7",
"ak#	c #CBCCBE",
"bk#	c #4E4740",
"ck#	c #4A3229",
"dk#	c #583631",
"ek#	c #62342E",
"fk#	c #633227",
"gk#	c #623228",
"hk#	c #5F2E27",
"ik#	c #62312B",
"jk#	c #5F2F29",
"kk#	c #5B342F",
"lk#	c #53302B",
"mk#	c #371916",
"nk#	c #552E2B",
"ok#	c #63302E",
"pk#	c #65332F",
"qk#	c #64352E",
"rk#	c #5E3732",
"sk#	c #3A1D1A",
"tk#	c #653333",
"uk#	c #5A312A",
"vk#	c #697168",
"wk#	c #F0F7F1",
"xk#	c #FBFCF8",
"yk#	c #FAFDF9",
"zk#	c #FCFEF9",
"Ak#	c #FDFEF9",
"Bk#	c #FDFFFA",
"Ck#	c #FDFEFB",
"Dk#	c #FEFFFF",
"Ek#	c #FBFFFF",
"Fk#	c #F9FFFE",
"Gk#	c #FBFFFE",
"Hk#	c #FBFDFC",
"Ik#	c #FDFFFD",
"Jk#	c #F4FDFC",
"Kk#	c #F2FEFD",
"Lk#	c #FCFBFC",
"Mk#	c #F2FDFB",
"Nk#	c #F3FDF8",
"Ok#	c #F3FCF8",
"Pk#	c #F3FDF9",
"Qk#	c #EFFCF7",
"Rk#	c #F0FDF8",
"Sk#	c #F2FEF9",
"Tk#	c #F3FEF9",
"Uk#	c #F3FFF9",
"Vk#	c #F4FDF9",
"Wk#	c #F6FDFA",
"Xk#	c #F6FEF8",
"Yk#	c #F1FDF8",
"Zk#	c #EEFBF4",
"`k#	c #EEFAF3",
" l#	c #EFFBF4",
".l#	c #F2FDF4",
"+l#	c #F3FDF5",
"@l#	c #F1FCF6",
"#l#	c #F0FEF7",
"$l#	c #EFFDF7",
"%l#	c #EEFDF8",
"&l#	c #EEFEF8",
"*l#	c #F0FDF5",
"=l#	c #F0FDF4",
"-l#	c #F1FDF4",
";l#	c #F2FDF3",
">l#	c #EEFCF0",
",l#	c #F0FCEF",
"'l#	c #F3FBF0",
")l#	c #F2FBF0",
"!l#	c #EFF9ED",
"~l#	c #EEF8EA",
"{l#	c #F0F8EA",
"]l#	c #F2FAEE",
"^l#	c #F4FAF0",
"/l#	c #F3F9EF",
"(l#	c #F4FAEF",
"_l#	c #F3FAEC",
":l#	c #F2F9EA",
"<l#	c #F4F7E3",
"[l#	c #F5F7E5",
"}l#	c #F7F8E6",
"|l#	c #F6F7E9",
"1l#	c #F7F9EB",
"2l#	c #F7F9EA",
"3l#	c #F1F5E1",
"4l#	c #F0F2DD",
"5l#	c #F5F5E8",
"6l#	c #F8F7EC",
"7l#	c #F9F9EE",
"8l#	c #F4FBF0",
"9l#	c #F4FCF0",
"0l#	c #F7FBF0",
"al#	c #F9FBEE",
"bl#	c #F6FBF1",
"cl#	c #CBDED0",
"dl#	c #ADCAC4",
"el#	c #A7C8CE",
"fl#	c #A8C9CF",
"gl#	c #A8CDD1",
"hl#	c #80A9AD",
"il#	c #617C85",
"jl#	c #6C7B88",
"kl#	c #556E91",
"ll#	c #335797",
"ml#	c #504F8A",
"nl#	c #D79E90",
"ol#	c #F6B378",
"pl#	c #F1AB6C",
"ql#	c #FDB37A",
"rl#	c #F6A973",
"sl#	c #F19866",
"tl#	c #ED7956",
"ul#	c #EE805B",
"vl#	c #ED7652",
"wl#	c #653626",
"xl#	c #643932",
"yl#	c #53322A",
"zl#	c #51483F",
"Al#	c #ACB1A8",
"Bl#	c #EAECE3",
"Cl#	c #F3F3E1",
"Dl#	c #F4F5E2",
"El#	c #F4F6E5",
"Fl#	c #F6F8E7",
"Gl#	c #F8F9ED",
"Hl#	c #FAFBED",
"Il#	c #F7FDF3",
"Jl#	c #F6FDF5",
"Kl#	c #F5FCF4",
"Ll#	c #F4FCF4",
"Ml#	c #F2FCF5",
"Nl#	c #F4FCF5",
"Ol#	c #F5FCF5",
"Pl#	c #F6FCFA",
"Ql#	c #F8FDFB",
"Rl#	c #F5F9F6",
"Sl#	c #A7ABAA",
"Tl#	c #3E3A38",
"Ul#	c #493032",
"Vl#	c #5D3532",
"Wl#	c #603125",
"Xl#	c #613127",
"Yl#	c #63312B",
"Zl#	c #5F302C",
"`l#	c #5E312D",
" m#	c #5C312F",
".m#	c #442623",
"+m#	c #41201E",
"@m#	c #65362F",
"#m#	c #603832",
"$m#	c #391D19",
"%m#	c #613232",
"&m#	c #4F3129",
"*m#	c #95A19B",
"=m#	c #F4FCF9",
"-m#	c #FEFEFA",
";m#	c #FBFFFC",
">m#	c #F8FFF7",
",m#	c #F9FEF9",
"'m#	c #F8FEF9",
")m#	c #F5FDFC",
"!m#	c #FAFDFB",
"~m#	c #FCFEF8",
"{m#	c #FBFEF8",
"]m#	c #FAFFF7",
"^m#	c #FCFEF7",
"/m#	c #FAFEF3",
"(m#	c #F7FCEF",
"_m#	c #F6FDEF",
":m#	c #F6FCEE",
"<m#	c #F2FDED",
"[m#	c #F3FDEE",
"}m#	c #F3FDEF",
"|m#	c #F7FDEF",
"1m#	c #F9FCEE",
"2m#	c #FCFDEE",
"3m#	c #FAFDEE",
"4m#	c #F9FEEE",
"5m#	c #F3FDED",
"6m#	c #F3FCEE",
"7m#	c #F9FDF2",
"8m#	c #F7FCF0",
"9m#	c #F4FCEF",
"0m#	c #F2FAED",
"am#	c #F2F9EC",
"bm#	c #ECF6E9",
"cm#	c #E8F4E4",
"dm#	c #ECF0E1",
"em#	c #EFEFDD",
"fm#	c #E9F3DE",
"gm#	c #E6F3DB",
"hm#	c #E4F1D9",
"im#	c #E8EFD9",
"jm#	c #E6EDD7",
"km#	c #E4ECD5",
"lm#	c #E4ECD6",
"mm#	c #E0EACF",
"nm#	c #E4EED3",
"om#	c #E7F1D6",
"pm#	c #E8F2D9",
"qm#	c #E7F0D8",
"rm#	c #E8F1DA",
"sm#	c #E6EFD8",
"tm#	c #E5ECD5",
"um#	c #E2E8D0",
"vm#	c #E1E6CE",
"wm#	c #D2DDC4",
"xm#	c #CEDBC0",
"ym#	c #D2DCBD",
"zm#	c #D4DEBF",
"Am#	c #D9E0BF",
"Bm#	c #DBE2C2",
"Cm#	c #DBE4C6",
"Dm#	c #DAE8C9",
"Em#	c #DDEACB",
"Fm#	c #DDEACD",
"Gm#	c #DCEBD0",
"Hm#	c #DFEBD1",
"Im#	c #DEE9D0",
"Jm#	c #E0EBD0",
"Km#	c #E2ECCE",
"Lm#	c #E3ECCB",
"Mm#	c #E0E9C5",
"Nm#	c #DDE6C0",
"Om#	c #DCE3BF",
"Pm#	c #D9E1BA",
"Qm#	c #DADEB7",
"Rm#	c #DAD9B4",
"Sm#	c #D9D9B4",
"Tm#	c #D4D6AF",
"Um#	c #D2D5AC",
"Vm#	c #D4D6AD",
"Wm#	c #D6D8B1",
"Xm#	c #D9DAB4",
"Ym#	c #DBDBB6",
"Zm#	c #DBDBB5",
"`m#	c #DCDCB6",
" n#	c #DADAB1",
".n#	c #D9D8AE",
"+n#	c #D8D2A4",
"@n#	c #D9D4A5",
"#n#	c #DAD4A7",
"$n#	c #D5CFA7",
"%n#	c #D7D1AA",
"&n#	c #D9D4AD",
"*n#	c #D9D3AB",
"=n#	c #D9D5A1",
"-n#	c #D7D29C",
";n#	c #DAD1A7",
">n#	c #DCD2AC",
",n#	c #DED4AE",
"'n#	c #DDDAB3",
")n#	c #DCDAB4",
"!n#	c #DED9B3",
"~n#	c #E1D9B2",
"{n#	c #DFDAB5",
"]n#	c #C8D0AA",
"^n#	c #B4CAB1",
"/n#	c #AACABE",
"(n#	c #A4C5CB",
"_n#	c #A3C5C9",
":n#	c #8EB8BB",
"<n#	c #628188",
"[n#	c #6C7A87",
"}n#	c #577190",
"|n#	c #315893",
"1n#	c #4C4F89",
"2n#	c #D69C8F",
"3n#	c #FAB97E",
"4n#	c #F5B071",
"5n#	c #F3AD71",
"6n#	c #F7A971",
"7n#	c #F5815A",
"8n#	c #F07857",
"9n#	c #EC7957",
"0n#	c #EA7A58",
"an#	c #EC7D5A",
"bn#	c #F47F58",
"cn#	c #EB6E50",
"dn#	c #EC7052",
"en#	c #643728",
"fn#	c #5C3536",
"gn#	c #473B38",
"hn#	c #ABB0A9",
"in#	c #F1F7F2",
"jn#	c #FAFDF7",
"kn#	c #FCFCFA",
"ln#	c #FDFFFB",
"mn#	c #F8FFFC",
"nn#	c #FAFCFB",
"on#	c #F1F3F3",
"pn#	c #A7A8A8",
"qn#	c #4D4948",
"rn#	c #422C25",
"sn#	c #573328",
"tn#	c #602F2A",
"un#	c #61312A",
"vn#	c #61302A",
"wn#	c #632F2B",
"xn#	c #5E2E29",
"yn#	c #5D312D",
"zn#	c #391715",
"An#	c #5F322C",
"Bn#	c #63322F",
"Cn#	c #63362D",
"Dn#	c #59352F",
"En#	c #391C1A",
"Fn#	c #59312F",
"Gn#	c #4D3F3A",
"Hn#	c #C7D1D0",
"In#	c #FCFEFB",
"Jn#	c #FCFDFB",
"Kn#	c #FBFDF9",
"Ln#	c #F4FEFA",
"Mn#	c #F1FDF1",
"Nn#	c #F2FDF1",
"On#	c #F2FCF1",
"Pn#	c #EFFCF2",
"Qn#	c #EBFCF4",
"Rn#	c #EAFDF4",
"Sn#	c #ECFEF3",
"Tn#	c #EFFDF4",
"Un#	c #F1FCF4",
"Vn#	c #F4FDF3",
"Wn#	c #F1FAEF",
"Xn#	c #F1FAEC",
"Yn#	c #F0FAEA",
"Zn#	c #F4FAE6",
"`n#	c #F5F8E5",
" o#	c #F5F6E5",
".o#	c #F2F3DD",
"+o#	c #F1F1D7",
"@o#	c #EBEFD3",
"#o#	c #E7EECF",
"$o#	c #E1E9C8",
"%o#	c #DBE2BF",
"&o#	c #D7DFB9",
"*o#	c #D4DDB5",
"=o#	c #D3DCB4",
"-o#	c #D5E0B6",
";o#	c #D6E3B7",
">o#	c #D5E3B8",
",o#	c #D6E2B8",
"'o#	c #D7E3BA",
")o#	c #D8E1BC",
"!o#	c #DAE0BB",
"~o#	c #DAE0B9",
"{o#	c #DDE1BA",
"]o#	c #DBE1BA",
"^o#	c #DCE5BB",
"/o#	c #DAE6BB",
"(o#	c #D6E1B8",
"_o#	c #D9E1BB",
":o#	c #D8E1BB",
"<o#	c #D5DEB7",
"[o#	c #D1D5AF",
"}o#	c #D0D4AC",
"|o#	c #CCD2AA",
"1o#	c #CCD0A7",
"2o#	c #CCCCA1",
"3o#	c #D0CEA1",
"4o#	c #C8CF9C",
"5o#	c #C5D09A",
"6o#	c #C7CF9B",
"7o#	c #C7CC98",
"8o#	c #C7CB99",
"9o#	c #C8CC9A",
"0o#	c #C7CA98",
"ao#	c #C7C898",
"bo#	c #C8C999",
"co#	c #C3CA95",
"do#	c #C5CE98",
"eo#	c #C6D09A",
"fo#	c #C5CD9C",
"go#	c #C5C99B",
"ho#	c #C6CC9D",
"io#	c #C3CD9A",
"jo#	c #C0CB96",
"ko#	c #C2CA95",
"lo#	c #C1CA94",
"mo#	c #C0C995",
"no#	c #C0C994",
"oo#	c #C8CA95",
"po#	c #C7C893",
"qo#	c #C7C992",
"ro#	c #CBCD97",
"so#	c #C6CD97",
"to#	c #C5CD93",
"uo#	c #C5CC91",
"vo#	c #C8CD93",
"wo#	c #CBCE95",
"xo#	c #C9CC96",
"yo#	c #CACD99",
"zo#	c #CACD98",
"Ao#	c #CDCF9A",
"Bo#	c #CED19C",
"Co#	c #CDCF96",
"Do#	c #CBCD91",
"Eo#	c #CBCC91",
"Fo#	c #C9C98F",
"Go#	c #CACB91",
"Ho#	c #C9CB8F",
"Io#	c #CCC88E",
"Jo#	c #CFC68C",
"Ko#	c #CDC589",
"Lo#	c #CCC68B",
"Mo#	c #CBC68C",
"No#	c #CBC68B",
"Oo#	c #CBC58B",
"Po#	c #CDC98C",
"Qo#	c #D1CC90",
"Ro#	c #D1CA8D",
"So#	c #D4CD8D",
"To#	c #D2CB8B",
"Uo#	c #D3C98A",
"Vo#	c #D4C989",
"Wo#	c #D5CA8A",
"Xo#	c #D2C788",
"Yo#	c #CCC286",
"Zo#	c #CDC487",
"`o#	c #D0C78C",
" p#	c #D0C78D",
".p#	c #D7CE88",
"+p#	c #D5CB8B",
"@p#	c #D1C787",
"#p#	c #D0C687",
"$p#	c #CDC285",
"%p#	c #D1C589",
"&p#	c #D1C68A",
"*p#	c #CEC68A",
"=p#	c #CDCA91",
"-p#	c #C0CA96",
";p#	c #B4C7A5",
">p#	c #ADC9BA",
",p#	c #A5C5CA",
"'p#	c #A6C6C9",
")p#	c #A9C9CE",
"!p#	c #A9C7CD",
"~p#	c #A9C6CC",
"{p#	c #AAC9CE",
"]p#	c #A1C5C7",
"^p#	c #98C5C6",
"/p#	c #64888B",
"(p#	c #667880",
"_p#	c #5B7591",
":p#	c #345993",
"<p#	c #4A4B88",
"[p#	c #D1978B",
"}p#	c #FCC182",
"|p#	c #F8BB79",
"1p#	c #F7AD72",
"2p#	c #EE9460",
"3p#	c #F07A5B",
"4p#	c #EE7F5B",
"5p#	c #E97958",
"6p#	c #ED714E",
"7p#	c #67392A",
"8p#	c #603433",
"9p#	c #473437",
"0p#	c #A2A09E",
"ap#	c #F2F4F2",
"bp#	c #FBFFF5",
"cp#	c #FEFFFD",
"dp#	c #FAFFFA",
"ep#	c #FAFEF4",
"fp#	c #F4F8EE",
"gp#	c #CACCC8",
"hp#	c #62615A",
"ip#	c #3B2A20",
"jp#	c #502E28",
"kp#	c #5C2F29",
"lp#	c #61312B",
"mp#	c #5F2C28",
"np#	c #602C28",
"op#	c #5E2E28",
"pp#	c #5D322C",
"qp#	c #5C312C",
"rp#	c #5C322D",
"sp#	c #3F1E1B",
"tp#	c #5C322A",
"up#	c #63342F",
"vp#	c #60332D",
"wp#	c #3A1F1C",
"xp#	c #51322D",
"yp#	c #626057",
"zp#	c #E4EEE3",
"Ap#	c #F8FBF5",
"Bp#	c #F6FBEC",
"Cp#	c #F1F9E5",
"Dp#	c #EDF5DF",
"Ep#	c #EDF0DA",
"Fp#	c #EBEED7",
"Gp#	c #E8EAD6",
"Hp#	c #E7E9D5",
"Ip#	c #E7E8D3",
"Jp#	c #E9EAD3",
"Kp#	c #E3EACE",
"Lp#	c #DBEBCD",
"Mp#	c #DBE7CA",
"Np#	c #D9E3C6",
"Op#	c #D9E3C2",
"Pp#	c #D5DFBB",
"Qp#	c #D7DDB8",
"Rp#	c #D5DAB5",
"Sp#	c #D9DFBA",
"Tp#	c #D7E2BC",
"Up#	c #D7E3BC",
"Vp#	c #D8E3BD",
"Wp#	c #D9E0BC",
"Xp#	c #DBE4BF",
"Yp#	c #DEE7BF",
"Zp#	c #D9E1B9",
"`p#	c #D6DEB6",
" q#	c #D4DDB4",
".q#	c #D0D7AD",
"+q#	c #D0D6AD",
"@q#	c #D0D6AB",
"#q#	c #D6D6A7",
"$q#	c #D8D6A7",
"%q#	c #D4D3A5",
"&q#	c #D2D09E",
"*q#	c #D1CF99",
"=q#	c #CDCE96",
"-q#	c #CACD92",
";q#	c #CBCA92",
">q#	c #CCC98F",
",q#	c #CFCA8E",
"'q#	c #CFCA8D",
")q#	c #CDC78A",
"!q#	c #CFCA8C",
"~q#	c #CFCC8D",
"{q#	c #CDC98B",
"]q#	c #CCC98D",
"^q#	c #CDC88C",
"/q#	c #CDC88B",
"(q#	c #CEC98C",
"_q#	c #D0CC8E",
":q#	c #D2CF90",
"<q#	c #CECA8E",
"[q#	c #C9C68A",
"}q#	c #CBC98C",
"|q#	c #CCCB8D",
"1q#	c #CACB8D",
"2q#	c #CCCC8C",
"3q#	c #D0C98B",
"4q#	c #D0C889",
"5q#	c #D2CE8D",
"6q#	c #C9CA85",
"7q#	c #CCC985",
"8q#	c #CEC884",
"9q#	c #CDC684",
"0q#	c #CEC785",
"aq#	c #CDC886",
"bq#	c #CBC987",
"cq#	c #CAC883",
"dq#	c #CBCE88",
"eq#	c #C7C687",
"fq#	c #CBC689",
"gq#	c #CACA88",
"hq#	c #CAD089",
"iq#	c #C7CD86",
"jq#	c #CECB87",
"kq#	c #CDCA85",
"lq#	c #CACC82",
"mq#	c #CACA81",
"nq#	c #CDCC82",
"oq#	c #CCCB85",
"pq#	c #D1CF8B",
"qq#	c #CECB80",
"rq#	c #CBC982",
"sq#	c #CDC881",
"tq#	c #D0C783",
"uq#	c #CFC786",
"vq#	c #CEC687",
"wq#	c #CEC685",
"xq#	c #CFC686",
"yq#	c #D6CA83",
"zq#	c #D7CA81",
"Aq#	c #D8CD81",
"Bq#	c #D6CB80",
"Cq#	c #D5CB85",
"Dq#	c #D6CC85",
"Eq#	c #D4CA84",
"Fq#	c #D0C685",
"Gq#	c #D4C982",
"Hq#	c #DBCC87",
"Iq#	c #DDCD88",
"Jq#	c #D7C781",
"Kq#	c #D1C57B",
"Lq#	c #CFC27B",
"Mq#	c #D3C47D",
"Nq#	c #D3C57F",
"Oq#	c #C2C893",
"Pq#	c #B7C7A6",
"Qq#	c #ABC9B6",
"Rq#	c #AACAD1",
"Sq#	c #A7C9CF",
"Tq#	c #A7C6CA",
"Uq#	c #AAC7CB",
"Vq#	c #A9C9CC",
"Wq#	c #A6C9CC",
"Xq#	c #6F9698",
"Yq#	c #637980",
"Zq#	c #5C7692",
"`q#	c #365893",
" r#	c #4E4B8B",
".r#	c #D2968B",
"+r#	c #FABE7F",
"@r#	c #F6BD7A",
"#r#	c #F6B477",
"$r#	c #F0A168",
"%r#	c #F5825D",
"&r#	c #F88C68",
"*r#	c #FA8964",
"=r#	c #603929",
"-r#	c #4C3631",
";r#	c #A9A9A7",
">r#	c #F3F4F3",
",r#	c #FBFBFC",
"'r#	c #FDFFF7",
")r#	c #FEFFFB",
"!r#	c #FDFEF8",
"~r#	c #FDFEF5",
"{r#	c #FCFEF6",
"]r#	c #FCFDF6",
"^r#	c #FBFCF4",
"/r#	c #FAFBF1",
"(r#	c #F6FBEA",
"_r#	c #F6FCEA",
":r#	c #F5F8E7",
"<r#	c #F4F6E4",
"[r#	c #F5F8E6",
"}r#	c #F5F9E2",
"|r#	c #D9E1C2",
"1r#	c #8A8D71",
"2r#	c #3C3023",
"3r#	c #5D342E",
"4r#	c #5D302A",
"5r#	c #5B302A",
"6r#	c #44251F",
"7r#	c #542C23",
"8r#	c #5F3232",
"9r#	c #452322",
"0r#	c #412A24",
"ar#	c #3F2A1F",
"br#	c #818369",
"cr#	c #D8E3BF",
"dr#	c #DADDBD",
"er#	c #D8DBB6",
"fr#	c #D7DBB2",
"gr#	c #CED6A8",
"hr#	c #CAD2A1",
"ir#	c #CACD9A",
"jr#	c #CCCE99",
"kr#	c #CCCE98",
"lr#	c #CACB95",
"mr#	c #CDCC8F",
"nr#	c #CACB88",
"or#	c #CFCA89",
"pr#	c #D0C88A",
"qr#	c #D3C98E",
"rr#	c #D2C78E",
"sr#	c #D1CB92",
"tr#	c #CFC990",
"ur#	c #D0CC91",
"vr#	c #CECD8E",
"wr#	c #CDCB8C",
"xr#	c #CBCB8D",
"yr#	c #C8C98C",
"zr#	c #CAC88C",
"Ar#	c #CFCD91",
"Br#	c #D2CF92",
"Cr#	c #CFCE90",
"Dr#	c #CBCC8C",
"Er#	c #C9C88B",
"Fr#	c #CCCA8B",
"Gr#	c #D0C984",
"Hr#	c #D2CC87",
"Ir#	c #D2CC85",
"Jr#	c #D6CA84",
"Kr#	c #D5C983",
"Lr#	c #D1C782",
"Mr#	c #D1C784",
"Nr#	c #D8CE88",
"Or#	c #CFCB83",
"Pr#	c #CECA80",
"Qr#	c #CDCB82",
"Rr#	c #CFC984",
"Sr#	c #CECB83",
"Tr#	c #CCCB83",
"Ur#	c #CCCB81",
"Vr#	c #CCCC81",
"Wr#	c #CECD82",
"Xr#	c #CFC981",
"Yr#	c #CEC97F",
"Zr#	c #D4CE87",
"`r#	c #D2CD82",
" s#	c #D0CC7E",
".s#	c #D0CC81",
"+s#	c #D0CE82",
"@s#	c #D0CA82",
"#s#	c #D1C882",
"$s#	c #D0CA83",
"%s#	c #D8CD83",
"&s#	c #D7CB80",
"*s#	c #D9D086",
"=s#	c #D0C683",
"-s#	c #D2C880",
";s#	c #D9CC83",
">s#	c #D6C982",
",s#	c #D3C67F",
"'s#	c #D1CB8C",
")s#	c #C6C993",
"!s#	c #B8C89E",
"~s#	c #B4C5B7",
"{s#	c #AEC8C4",
"]s#	c #ABCCCA",
"^s#	c #ABC9CC",
"/s#	c #A9CCD0",
"(s#	c #A2CBCD",
"_s#	c #7CA5A9",
":s#	c #617B82",
"<s#	c #5D7691",
"[s#	c #395793",
"}s#	c #504B8C",
"|s#	c #D39189",
"1s#	c #F7B076",
"2s#	c #FABF7E",
"3s#	c #F3A86E",
"4s#	c #F17558",
"5s#	c #F58F65",
"6s#	c #FA9266",
"7s#	c #F17F59",
"8s#	c #453321",
"9s#	c #8C8A77",
"0s#	c #F0F2DE",
"as#	c #F8FCE9",
"bs#	c #F7FCEA",
"cs#	c #F6FCE8",
"ds#	c #F5FAE5",
"es#	c #F5FAE3",
"fs#	c #F4FAE3",
"gs#	c #F3F8E2",
"hs#	c #F3F7E1",
"is#	c #F1F5DF",
"js#	c #F2F5DF",
"ks#	c #EEF1D8",
"ls#	c #EDF1D5",
"ms#	c #E8ECCF",
"ns#	c #DFE5C3",
"os#	c #D9DEB8",
"ps#	c #D4D9B2",
"qs#	c #D8DEB3",
"rs#	c #D5DAAC",
"ss#	c #D2D7A8",
"ts#	c #CED0A0",
"us#	c #CDCD9D",
"vs#	c #CCCC9A",
"ws#	c #CECF98",
"xs#	c #D3D49D",
"ys#	c #D9DBA4",
"zs#	c #D8DEA5",
"As#	c #CFD19B",
"Bs#	c #949266",
"Cs#	c #463D26",
"Ds#	c #41291E",
"Es#	c #543128",
"Fs#	c #5E3028",
"Gs#	c #5F3029",
"Hs#	c #44261D",
"Is#	c #502B21",
"Js#	c #593229",
"Ks#	c #2E1612",
"Ls#	c #3C281D",
"Ms#	c #53472F",
"Ns#	c #C9CD90",
"Os#	c #CAC887",
"Ps#	c #CBC988",
"Qs#	c #CCCA88",
"Rs#	c #CECF82",
"Ss#	c #CECE89",
"Ts#	c #CBCB88",
"Us#	c #D4CE8B",
"Vs#	c #D3CC88",
"Ws#	c #CEC782",
"Xs#	c #CFC883",
"Ys#	c #D5CF8A",
"Zs#	c #D5CF8C",
"`s#	c #D1CE8B",
" t#	c #CFCF8C",
".t#	c #CCC887",
"+t#	c #CECA85",
"@t#	c #D2CD88",
"#t#	c #D0C985",
"$t#	c #CFD085",
"%t#	c #CFD086",
"&t#	c #D2D28B",
"*t#	c #D4D08B",
"=t#	c #CCCD82",
"-t#	c #CECD86",
";t#	c #CDCB83",
">t#	c #D2D08C",
",t#	c #D0CE8A",
"'t#	c #CFCF83",
")t#	c #D0CA86",
"!t#	c #CFCA80",
"~t#	c #D1CC81",
"{t#	c #CFCA82",
"]t#	c #CEC780",
"^t#	c #D7CC8A",
"/t#	c #D5CA85",
"(t#	c #D5C885",
"_t#	c #D7CA86",
":t#	c #CCCC8E",
"<t#	c #C5C89E",
"[t#	c #B8C6AA",
"}t#	c #B2CAB3",
"|t#	c #ADC8C2",
"1t#	c #AAC7C9",
"2t#	c #A3C8C8",
"3t#	c #85B1B5",
"4t#	c #5E7D84",
"5t#	c #5D7790",
"6t#	c #3D5793",
"7t#	c #4F4A8B",
"8t#	c #D58E87",
"9t#	c #F5A26D",
"0t#	c #F8B276",
"at#	c #FEC083",
"bt#	c #F8AC72",
"ct#	c #EE7A52",
"dt#	c #F47F5D",
"et#	c #F9845F",
"ft#	c #EB7250",
"gt#	c #5A5F45",
"ht#	c #C4CAA2",
"it#	c #E1E4B6",
"jt#	c #DDE2B1",
"kt#	c #D6DFAF",
"lt#	c #D8E2B3",
"mt#	c #D9E3B5",
"nt#	c #D7E0B0",
"ot#	c #D1D8A7",
"pt#	c #D0DAA6",
"qt#	c #D0D9A6",
"rt#	c #CDD5A3",
"st#	c #CCD4A1",
"tt#	c #CED39F",
"ut#	c #CCD199",
"vt#	c #CCD097",
"wt#	c #C6CB8F",
"xt#	c #C4CA88",
"yt#	c #C6C988",
"zt#	c #C3C683",
"At#	c #C4C580",
"Bt#	c #C3C37D",
"Ct#	c #C7C57E",
"Dt#	c #C9C57E",
"Et#	c #CBC67F",
"Ft#	c #B2B182",
"Gt#	c #5C583D",
"Ht#	c #593129",
"It#	c #5B3026",
"Jt#	c #5D312A",
"Kt#	c #41221A",
"Lt#	c #502E23",
"Mt#	c #583528",
"Nt#	c #3E1E20",
"Ot#	c #291E0D",
"Pt#	c #52462E",
"Qt#	c #ADA17B",
"Rt#	c #D4D291",
"St#	c #D0D082",
"Tt#	c #D1D084",
"Ut#	c #D8CF8A",
"Vt#	c #D3D086",
"Wt#	c #D2D386",
"Xt#	c #D2D48A",
"Yt#	c #CED08A",
"Zt#	c #CCCF89",
"`t#	c #D1CE83",
" u#	c #D4D289",
".u#	c #D6D489",
"+u#	c #D2D288",
"@u#	c #D7D48A",
"#u#	c #D3D188",
"$u#	c #D2D385",
"%u#	c #CFD185",
"&u#	c #D0D686",
"*u#	c #D1D489",
"=u#	c #D0D289",
"-u#	c #CECE80",
";u#	c #CECD81",
">u#	c #CECE83",
",u#	c #CBCC82",
"'u#	c #CDCE84",
")u#	c #CCCE82",
"!u#	c #D0D285",
"~u#	c #CED386",
"{u#	c #C7CB7F",
"]u#	c #CCCF84",
"^u#	c #CCCE84",
"/u#	c #CDD088",
"(u#	c #CFD387",
"_u#	c #CCD283",
":u#	c #CDD085",
"<u#	c #DBD288",
"[u#	c #D8D185",
"}u#	c #D5D085",
"|u#	c #CCC984",
"1u#	c #D1C986",
"2u#	c #D2C986",
"3u#	c #D4CC82",
"4u#	c #D7C982",
"5u#	c #D5CA82",
"6u#	c #C7CA93",
"7u#	c #BBC89D",
"8u#	c #B2C6B1",
"9u#	c #AEC6C1",
"0u#	c #A8C7C5",
"au#	c #A5C5C8",
"bu#	c #8FBCBF",
"cu#	c #618289",
"du#	c #5D758C",
"eu#	c #3E5790",
"fu#	c #50488A",
"gu#	c #D48A85",
"hu#	c #F89B69",
"iu#	c #FCB77C",
"ju#	c #F9AB72",
"ku#	c #F39260",
"lu#	c #F19363",
"mu#	c #EB8556",
"nu#	c #EE7952",
"ou#	c #F98860",
"pu#	c #B8C494",
"qu#	c #D0DB94",
"ru#	c #D4D790",
"su#	c #D1D28C",
"tu#	c #D1D590",
"uu#	c #CED08F",
"vu#	c #CCCC89",
"wu#	c #D0D38D",
"xu#	c #CCC581",
"yu#	c #CAC47E",
"zu#	c #C3BD76",
"Au#	c #CCC27C",
"Bu#	c #CEC680",
"Cu#	c #CCC47E",
"Du#	c #CECA84",
"Eu#	c #D3D295",
"Fu#	c #BFBB8C",
"Gu#	c #6B6646",
"Hu#	c #42291C",
"Iu#	c #573225",
"Ju#	c #5F3328",
"Ku#	c #61322A",
"Lu#	c #61322B",
"Mu#	c #5C352B",
"Nu#	c #3D1F19",
"Ou#	c #4F3127",
"Pu#	c #533527",
"Qu#	c #42261C",
"Ru#	c #554A35",
"Su#	c #9C9773",
"Tu#	c #BFBA89",
"Uu#	c #DAD49B",
"Vu#	c #D2D487",
"Wu#	c #CED07E",
"Xu#	c #CFD286",
"Yu#	c #CCCC82",
"Zu#	c #CFD285",
"`u#	c #D0D486",
" v#	c #D0D487",
".v#	c #CCCA82",
"+v#	c #CDCE82",
"@v#	c #D0D386",
"#v#	c #CFD389",
"$v#	c #CFD386",
"%v#	c #CDD184",
"&v#	c #CED285",
"*v#	c #CED286",
"=v#	c #D2D489",
"-v#	c #CEC982",
";v#	c #D8D286",
">v#	c #CBC883",
",v#	c #D0C986",
"'v#	c #D9CC84",
")v#	c #D8C982",
"!v#	c #CACC8C",
"~v#	c #BDC59B",
"{v#	c #B6C4AC",
"]v#	c #AEC8BA",
"^v#	c #ABCACC",
"/v#	c #A9C8CA",
"(v#	c #A5C5C7",
"_v#	c #99C4C5",
":v#	c #6B8E94",
"<v#	c #5D7685",
"[v#	c #40598A",
"}v#	c #524A8A",
"|v#	c #D48983",
"1v#	c #F2A26C",
"2v#	c #F39E69",
"3v#	c #EE8E5B",
"4v#	c #F9A371",
"5v#	c #EC7854",
"6v#	c #F57555",
"7v#	c #D3DF9A",
"8v#	c #D0DC87",
"9v#	c #D6D78A",
"0v#	c #D5D289",
"av#	c #D6D28C",
"bv#	c #D5D38D",
"cv#	c #D7CF8C",
"dv#	c #D6CD8B",
"ev#	c #D0C885",
"fv#	c #D1C886",
"gv#	c #D4CA89",
"hv#	c #D0C584",
"iv#	c #C4BA78",
"jv#	c #CDC381",
"kv#	c #CEC583",
"lv#	c #D2C985",
"mv#	c #D9D394",
"nv#	c #C2BE86",
"ov#	c #62573E",
"pv#	c #3C2517",
"qv#	c #573426",
"rv#	c #60342A",
"sv#	c #5F342C",
"tv#	c #58372C",
"uv#	c #341B16",
"vv#	c #4A3028",
"wv#	c #43291D",
"xv#	c #524731",
"yv#	c #B2B184",
"zv#	c #D9D99F",
"Av#	c #DBDB96",
"Bv#	c #D6D58D",
"Cv#	c #CBCE7D",
"Dv#	c #D0CA84",
"Ev#	c #D1CA87",
"Fv#	c #D5CC89",
"Gv#	c #D0D186",
"Hv#	c #CECF83",
"Iv#	c #CED385",
"Jv#	c #CDCC81",
"Kv#	c #CBCC80",
"Lv#	c #CCCE83",
"Mv#	c #D0D286",
"Nv#	c #CED086",
"Ov#	c #CED185",
"Pv#	c #CECA82",
"Qv#	c #CFC880",
"Rv#	c #D8C984",
"Sv#	c #D3C781",
"Tv#	c #CCCB8B",
"Uv#	c #C5C997",
"Vv#	c #B6C8AB",
"Wv#	c #AECAC0",
"Xv#	c #ACCACC",
"Yv#	c #ACC8C9",
"Zv#	c #A9C7C8",
"`v#	c #A9CBCD",
" w#	c #A8C7C8",
".w#	c #AACBCE",
"+w#	c #779BA1",
"@w#	c #5E7885",
"#w#	c #435C88",
"$w#	c #534B88",
"%w#	c #D68883",
"&w#	c #ED835B",
"*w#	c #F0A16C",
"=w#	c #F6A571",
"-w#	c #FB8964",
";w#	c #D5DE8E",
">w#	c #D2DB87",
",w#	c #D8D78C",
"'w#	c #D9D38C",
")w#	c #D7D18D",
"!w#	c #D9D18B",
"~w#	c #D9D48D",
"{w#	c #D7CF8A",
"]w#	c #D6CC8A",
"^w#	c #D1C786",
"/w#	c #D3C887",
"(w#	c #CFC584",
"_w#	c #D4C888",
":w#	c #CFC383",
"<w#	c #CFC685",
"[w#	c #D1C987",
"}w#	c #D1C885",
"|w#	c #D3CA86",
"1w#	c #D9D690",
"2w#	c #C2BB8E",
"3w#	c #645C44",
"4w#	c #3E271A",
"5w#	c #5B342B",
"6w#	c #4D2E26",
"7w#	c #2C1C11",
"8w#	c #3E301F",
"9w#	c #61553B",
"0w#	c #B1AB81",
"aw#	c #D1D696",
"bw#	c #D5D98D",
"cw#	c #D4D685",
"dw#	c #D2D183",
"ew#	c #CFD07E",
"fw#	c #CDCD7E",
"gw#	c #D2CB89",
"hw#	c #D6CE8A",
"iw#	c #D4D288",
"jw#	c #D0CB83",
"kw#	c #D2CB80",
"lw#	c #D8D387",
"mw#	c #D3D084",
"nw#	c #CECE85",
"ow#	c #CED084",
"pw#	c #D2D186",
"qw#	c #CACB81",
"rw#	c #CCD084",
"sw#	c #CFD087",
"tw#	c #CCC87E",
"uw#	c #CEC882",
"vw#	c #CEC67D",
"ww#	c #CEC47D",
"xw#	c #D5CA84",
"yw#	c #D5CB82",
"zw#	c #D7CC81",
"Aw#	c #C5CC96",
"Bw#	c #BCCBA7",
"Cw#	c #AFC8BA",
"Dw#	c #ACC8C6",
"Ew#	c #ABC8CB",
"Fw#	c #A8C9CD",
"Gw#	c #A8C7CE",
"Hw#	c #A8C8CD",
"Iw#	c #A5C5C9",
"Jw#	c #ABCACD",
"Kw#	c #AAC9CB",
"Lw#	c #ACCACD",
"Mw#	c #A5CACD",
"Nw#	c #7FA5AA",
"Ow#	c #607C86",
"Pw#	c #455F85",
"Qw#	c #514A82",
"Rw#	c #D78482",
"Sw#	c #F88C60",
"Tw#	c #F5A46F",
"Uw#	c #ED6D4D",
"Vw#	c #D6DC8A",
"Ww#	c #D3DA87",
"Xw#	c #D7D88C",
"Yw#	c #DAD88F",
"Zw#	c #D7D58F",
"`w#	c #D8D48D",
" x#	c #D9D58E",
".x#	c #D7D38C",
"+x#	c #D6D38C",
"@x#	c #D8D58D",
"#x#	c #D2C984",
"$x#	c #D2CA85",
"%x#	c #D1C985",
"&x#	c #D3CA87",
"*x#	c #CFC782",
"=x#	c #C0B987",
"-x#	c #5F563E",
";x#	c #3F2916",
">x#	c #402815",
",x#	c #4B3E25",
"'x#	c #958E66",
")x#	c #B1AC7A",
"!x#	c #CCC68E",
"~x#	c #D6D396",
"{x#	c #D4D690",
"]x#	c #D3D388",
"^x#	c #D0D187",
"/x#	c #D1D38A",
"(x#	c #CACB80",
"_x#	c #CCD087",
":x#	c #C9CD82",
"<x#	c #CBCF83",
"[x#	c #D0D488",
"}x#	c #D0CA88",
"|x#	c #D6CB83",
"1x#	c #CFC882",
"2x#	c #CDC57E",
"3x#	c #CDC37E",
"4x#	c #CEC983",
"5x#	c #D6CE88",
"6x#	c #CBCE8D",
"7x#	c #BEC9A0",
"8x#	c #B3C5AF",
"9x#	c #ADC6C2",
"0x#	c #AEC6CD",
"ax#	c #ACC5CC",
"bx#	c #AAC6C9",
"cx#	c #ABC8D0",
"dx#	c #ADC6D0",
"ex#	c #A6C6CD",
"fx#	c #ABC9CD",
"gx#	c #AAC8CB",
"hx#	c #89B1B6",
"ix#	c #607E86",
"jx#	c #486184",
"kx#	c #504A80",
"lx#	c #D68080",
"mx#	c #F79666",
"nx#	c #EE9966",
"ox#	c #EF7E58",
"px#	c #FB9C71",
"qx#	c #D8DD8C",
"rx#	c #D7DA8B",
"sx#	c #D6DA8A",
"tx#	c #D7D890",
"ux#	c #D6D78D",
"vx#	c #D6D38D",
"wx#	c #D7D58E",
"xx#	c #D6D48C",
"yx#	c #D4D48B",
"zx#	c #D7D689",
"Ax#	c #CCC57F",
"Bx#	c #CFC980",
"Cx#	c #D2CB7F",
"Dx#	c #D5D38F",
"Ex#	c #D9D596",
"Fx#	c #C5C093",
"Gx#	c #969660",
"Hx#	c #969363",
"Ix#	c #BAB482",
"Jx#	c #D6D493",
"Kx#	c #DCDC91",
"Lx#	c #DADA8E",
"Mx#	c #D2D28C",
"Nx#	c #D3D18B",
"Ox#	c #D4D387",
"Px#	c #D7D18A",
"Qx#	c #D4CB84",
"Rx#	c #D0CB81",
"Sx#	c #D7D286",
"Tx#	c #D4CC88",
"Ux#	c #CCCE80",
"Vx#	c #CCCA7F",
"Wx#	c #D1D28A",
"Xx#	c #D2D189",
"Yx#	c #CFD487",
"Zx#	c #D2D589",
"`x#	c #CBCE86",
" y#	c #C5CE83",
".y#	c #C6D185",
"+y#	c #C9D085",
"@y#	c #C9CE84",
"#y#	c #D7D083",
"$y#	c #CFC783",
"%y#	c #CEC682",
"&y#	c #CEC783",
"*y#	c #D6CE81",
"=y#	c #C2CB93",
"-y#	c #B6C3AE",
";y#	c #B3C3C5",
">y#	c #B1C5CD",
",y#	c #ACC7C9",
"'y#	c #AFC8D3",
")y#	c #B0C5D3",
"!y#	c #A8C5CF",
"~y#	c #A4C1C8",
"{y#	c #A7C5C8",
"]y#	c #A8C7C9",
"^y#	c #A9CBCE",
"/y#	c #93BEC2",
"(y#	c #628086",
"_y#	c #4F6786",
":y#	c #4F4B7E",
"<y#	c #D77D7D",
"[y#	c #F58562",
"}y#	c #FAA16F",
"|y#	c #F07253",
"1y#	c #DEE19D",
"2y#	c #D9DC90",
"3y#	c #E2E4A6",
"4y#	c #D7DA95",
"5y#	c #DFDFA9",
"6y#	c #D9DA9C",
"7y#	c #D8D998",
"8y#	c #DCDCA3",
"9y#	c #DDDCAC",
"0y#	c #D8D799",
"ay#	c #DAD99B",
"by#	c #DBD79A",
"cy#	c #DEDCA7",
"dy#	c #D6D398",
"ey#	c #D7D298",
"fy#	c #D7D09C",
"gy#	c #D4CF96",
"hy#	c #DCD7A7",
"iy#	c #DBD5A5",
"jy#	c #DBD7A5",
"ky#	c #D1CC91",
"ly#	c #D6D091",
"my#	c #DBD4A0",
"ny#	c #D9D59A",
"oy#	c #D4D489",
"py#	c #DCDBA0",
"qy#	c #DDDE9D",
"ry#	c #DDDD98",
"sy#	c #E2E1A9",
"ty#	c #D8D995",
"uy#	c #D7D88F",
"vy#	c #D3D58A",
"wy#	c #D3D38A",
"xy#	c #D2D48B",
"yy#	c #D6D490",
"zy#	c #D3CE82",
"Ay#	c #D1CD81",
"By#	c #DCDA9E",
"Cy#	c #DCD999",
"Dy#	c #D4D28A",
"Ey#	c #D7D189",
"Fy#	c #D6CF8D",
"Gy#	c #DBD797",
"Hy#	c #D6D399",
"Iy#	c #DCD9A4",
"Jy#	c #D7D191",
"Ky#	c #DBD6A0",
"Ly#	c #D8D495",
"My#	c #D8D595",
"Ny#	c #D5D297",
"Oy#	c #D7D593",
"Py#	c #DDD9A8",
"Qy#	c #D8D49F",
"Ry#	c #D9D6A6",
"Sy#	c #D8D69B",
"Ty#	c #CCC983",
"Uy#	c #CED587",
"Vy#	c #CDD284",
"Wy#	c #CBCF82",
"Xy#	c #CAD086",
"Yy#	c #C7CE84",
"Zy#	c #C7CF84",
"`y#	c #CAD187",
" z#	c #C9CE85",
".z#	c #CCD088",
"+z#	c #CBCF87",
"@z#	c #C8CD85",
"#z#	c #CBD184",
"$z#	c #DAD385",
"%z#	c #D0C886",
"&z#	c #CFC985",
"*z#	c #D9CE85",
"=z#	c #D8D283",
"-z#	c #C5C89A",
";z#	c #BBC4AD",
">z#	c #B3C3BD",
",z#	c #ACC8C8",
"'z#	c #A9C9C9",
")z#	c #ADC8CF",
"!z#	c #B4BED0",
"~z#	c #A8C3CD",
"{z#	c #A7C7CE",
"]z#	c #A8C4CA",
"^z#	c #A7C5C9",
"/z#	c #A9C6CA",
"(z#	c #AACACB",
"_z#	c #A7C5C7",
":z#	c #9BC6C9",
"<z#	c #536C89",
"[z#	c #504C7E",
"}z#	c #D5797B",
"|z#	c #F48263",
"1z#	c #EF815D",
"2z#	c #EF785B",
"3z#	c #F0775C",
"4z#	c #EB8D5D",
"5z#	c #F49C6B",
"6z#	c #F69969",
"7z#	c #E8EABA",
"8z#	c #DFE0A7",
"9z#	c #E6E7BA",
"0z#	c #E9EAC5",
"az#	c #E6E7C0",
"bz#	c #EBECCA",
"cz#	c #E6E8BE",
"dz#	c #EBEDC5",
"ez#	c #E1E2B5",
"fz#	c #E2E3B0",
"gz#	c #E7E5B9",
"hz#	c #D7D69A",
"iz#	c #E6E6BD",
"jz#	c #E1E0B2",
"kz#	c #E2E1B5",
"lz#	c #F0ECD1",
"mz#	c #E5E2BD",
"nz#	c #E8E6C2",
"oz#	c #E4E0B3",
"pz#	c #E3DFB8",
"qz#	c #E0DDAB",
"rz#	c #DDD8A8",
"sz#	c #E0DEAF",
"tz#	c #E5E3B4",
"uz#	c #D7D4A2",
"vz#	c #DED9A4",
"wz#	c #E2DFB2",
"xz#	c #E3DFB9",
"yz#	c #D6D390",
"zz#	c #E0DDA9",
"Az#	c #E2DEB3",
"Bz#	c #E5E1BA",
"Cz#	c #E4DFB5",
"Dz#	c #EBE7C1",
"Ez#	c #E3E0B8",
"Fz#	c #DEDCAC",
"Gz#	c #E8E5C5",
"Hz#	c #DBD8A0",
"Iz#	c #E8E7B8",
"Jz#	c #E8E8BD",
"Kz#	c #E1E1AB",
"Lz#	c #E4E4AF",
"Mz#	c #E2E2AF",
"Nz#	c #E0DFAD",
"Oz#	c #DFDFAC",
"Pz#	c #E4E6B4",
"Qz#	c #ECEBCA",
"Rz#	c #E5E2B5",
"Sz#	c #E1DEB2",
"Tz#	c #E0DDAD",
"Uz#	c #DCD8A2",
"Vz#	c #D6D192",
"Wz#	c #E0DDAA",
"Xz#	c #E6E2B2",
"Yz#	c #DDDCA7",
"Zz#	c #EEEAC6",
"`z#	c #DAD794",
" A#	c #E4E1B0",
".A#	c #E6E3B6",
"+A#	c #E7E4B2",
"@A#	c #E2E1AE",
"#A#	c #E4E3B0",
"$A#	c #DFDDAA",
"%A#	c #E5E2B0",
"&A#	c #E5E3AF",
"*A#	c #E7E5B8",
"=A#	c #E7E3BC",
"-A#	c #E3D9A9",
";A#	c #D8D18E",
">A#	c #E3DFAE",
",A#	c #E3DDAB",
"'A#	c #E2DDAD",
")A#	c #D7D390",
"!A#	c #E4DFAE",
"~A#	c #E9E4C0",
"{A#	c #E0DFA9",
"]A#	c #D7D997",
"^A#	c #E2E1AF",
"/A#	c #E9E6BF",
"(A#	c #D9D698",
"_A#	c #E9E7C0",
":A#	c #E4DFAF",
"<A#	c #E2DFA7",
"[A#	c #DBDBA5",
"}A#	c #E6E4BF",
"|A#	c #E5E5BD",
"1A#	c #EDECCC",
"2A#	c #E7E6BC",
"3A#	c #EAE9C9",
"4A#	c #DDDDAA",
"5A#	c #D5D295",
"6A#	c #CECB86",
"7A#	c #CDD285",
"8A#	c #CACE82",
"9A#	c #CED388",
"0A#	c #C8CE85",
"aA#	c #CBCF88",
"bA#	c #CBD188",
"cA#	c #D0D18A",
"dA#	c #CCD185",
"eA#	c #D5CE83",
"fA#	c #CECA86",
"gA#	c #D9CD86",
"hA#	c #DACE83",
"iA#	c #C8C98F",
"jA#	c #B9C4A1",
"kA#	c #B0C6BB",
"lA#	c #ACC9CB",
"mA#	c #AAC9CD",
"nA#	c #B5B8CA",
"oA#	c #A6C0C9",
"pA#	c #ABC8CD",
"qA#	c #A7C4C8",
"rA#	c #AAC9C9",
"sA#	c #A9CACA",
"tA#	c #A9C5C8",
"uA#	c #A9C3C6",
"vA#	c #A1CACD",
"wA#	c #749394",
"xA#	c #556F89",
"yA#	c #514D7E",
"zA#	c #D6797C",
"AA#	c #EF7D5E",
"BA#	c #F29C6B",
"CA#	c #EA7651",
"DA#	c #E9EBB9",
"EA#	c #E1E3A6",
"FA#	c #DBE0A6",
"GA#	c #EDEEC8",
"HA#	c #DEE2AC",
"IA#	c #EDEDD0",
"JA#	c #EDEDCD",
"KA#	c #EDEECF",
"LA#	c #E0E1AF",
"MA#	c #DEDBA9",
"NA#	c #DFE0B2",
"OA#	c #E1E0B6",
"PA#	c #E3E1BD",
"QA#	c #EAE7C7",
"RA#	c #E9E6C9",
"SA#	c #EBE8CB",
"TA#	c #DBDAA7",
"UA#	c #E7E5C4",
"VA#	c #D4D194",
"WA#	c #E8E6C7",
"XA#	c #E9E7C7",
"YA#	c #E7E5C8",
"ZA#	c #E3E1BF",
"`A#	c #D7D4A1",
" B#	c #E4DFBB",
".B#	c #EDEBC9",
"+B#	c #E4E2BA",
"@B#	c #D7D398",
"#B#	c #E4E1BD",
"$B#	c #EEEAD0",
"%B#	c #E8E5C4",
"&B#	c #EBE8C5",
"*B#	c #EDEBCC",
"=B#	c #ECEAC6",
"-B#	c #ECEBC7",
";B#	c #E3E2BB",
">B#	c #D9D79C",
",B#	c #E0E0AC",
"'B#	c #E2E4B9",
")B#	c #E9E6C0",
"!B#	c #EBE9CC",
"~B#	c #EDEACE",
"{B#	c #E3E1C1",
"]B#	c #EEEDD3",
"^B#	c #DDDEB0",
"/B#	c #E9E9C9",
"(B#	c #ECEBCB",
"_B#	c #EBE8CA",
":B#	c #E0DEB4",
"<B#	c #E2DEB7",
"[B#	c #D9D5A3",
"}B#	c #ECE9CD",
"|B#	c #EBE8C6",
"1B#	c #E9E6C6",
"2B#	c #EBE8C9",
"3B#	c #DEDAA3",
"4B#	c #EDEBCE",
"5B#	c #EAE7C6",
"6B#	c #EFECD1",
"7B#	c #ECEAC7",
"8B#	c #E6E3C0",
"9B#	c #F0ECD0",
"0B#	c #ECE9CB",
"aB#	c #ECEAC8",
"bB#	c #E7E6C1",
"cB#	c #E9E7C2",
"dB#	c #E9E2BA",
"eB#	c #DBD59E",
"fB#	c #E3E0BB",
"gB#	c #EEEBCB",
"hB#	c #DCD79D",
"iB#	c #D7D28D",
"jB#	c #D7D496",
"kB#	c #D4D48D",
"lB#	c #DFDDAE",
"mB#	c #E6E5C8",
"nB#	c #E1DFB7",
"oB#	c #EBEACB",
"pB#	c #D5D293",
"qB#	c #E4DFB3",
"rB#	c #DAD7A1",
"sB#	c #D6D49A",
"tB#	c #ECEBD4",
"uB#	c #EBEAD3",
"vB#	c #E7E6C2",
"wB#	c #ECEAD2",
"xB#	c #DDDCB5",
"yB#	c #D6D4A1",
"zB#	c #D1D38B",
"AB#	c #D1D289",
"BB#	c #CBD089",
"CB#	c #CAD188",
"DB#	c #D0D589",
"EB#	c #D4CF81",
"FB#	c #D6D384",
"GB#	c #D5D184",
"HB#	c #CFCA86",
"IB#	c #D3CD82",
"JB#	c #D9CC86",
"KB#	c #DBCD84",
"LB#	c #DBCE82",
"MB#	c #C6C88C",
"NB#	c #B9C49E",
"OB#	c #B4C6B8",
"PB#	c #AFCBCF",
"QB#	c #AFBDC9",
"RB#	c #A7C3C8",
"SB#	c #ABC6CA",
"TB#	c #A9C6CB",
"UB#	c #A7C7C5",
"VB#	c #ACC7C8",
"WB#	c #ADC6C8",
"XB#	c #A8CDCF",
"YB#	c #84A3A1",
"ZB#	c #534F7E",
"`B#	c #D3757C",
" C#	c #F27A63",
".C#	c #EE7B5F",
"+C#	c #FBA973",
"@C#	c #EFEFCC",
"#C#	c #EAEABC",
"$C#	c #ECECC7",
"%C#	c #E4E4B3",
"&C#	c #EDEDC6",
"*C#	c #E5E7B6",
"=C#	c #E1E3B4",
"-C#	c #EBEBC7",
";C#	c #EAE8C2",
">C#	c #DFDEA6",
",C#	c #DDD996",
"'C#	c #DEDDA8",
")C#	c #E8E3B7",
"!C#	c #E9E5C1",
"~C#	c #E3DFAF",
"{C#	c #E8E4C0",
"]C#	c #ECE8C8",
"^C#	c #E5E3B8",
"/C#	c #E8E6BE",
"(C#	c #D6D394",
"_C#	c #E7E6C3",
":C#	c #E7E5BF",
"<C#	c #EAE5C4",
"[C#	c #DAD69F",
"}C#	c #E5E1BE",
"|C#	c #EBE9C6",
"1C#	c #E2DEB4",
"2C#	c #DFDCAA",
"3C#	c #E8E5BC",
"4C#	c #E5E1BB",
"5C#	c #EBE7C6",
"6C#	c #ECE9C8",
"7C#	c #E8E7BF",
"8C#	c #E4E4B6",
"9C#	c #E8E7C2",
"0C#	c #D6D599",
"aC#	c #E8E6BF",
"bC#	c #E2E1B2",
"cC#	c #EAE8C5",
"dC#	c #E6E6BA",
"eC#	c #EAEAC8",
"fC#	c #E9E9C1",
"gC#	c #E5E4BD",
"hC#	c #E3E0B9",
"iC#	c #DBD9A7",
"jC#	c #E6E4B8",
"kC#	c #DEDAA4",
"lC#	c #EAE9C8",
"mC#	c #E5E2BC",
"nC#	c #ECE9C6",
"oC#	c #D9D699",
"pC#	c #E6E4B3",
"qC#	c #E9E7C1",
"rC#	c #E6E4B6",
"sC#	c #E9E5C0",
"tC#	c #E8E5BA",
"uC#	c #E4E2B2",
"vC#	c #E8E6BC",
"wC#	c #E7E3BA",
"xC#	c #DED89F",
"yC#	c #ECEACC",
"zC#	c #DEDBAF",
"AC#	c #E5E2BB",
"BC#	c #D5D193",
"CC#	c #DBDAA5",
"DC#	c #E8E7C1",
"EC#	c #DDDAAC",
"FC#	c #DCD7A2",
"GC#	c #EAE8C8",
"HC#	c #D8D598",
"IC#	c #DFDBA7",
"JC#	c #D4D090",
"KC#	c #E9E7C3",
"LC#	c #EBE9CA",
"MC#	c #E8E8C5",
"NC#	c #E6E4BD",
"OC#	c #EBE9C7",
"PC#	c #E2DFAD",
"QC#	c #D3D48B",
"RC#	c #D1D588",
"SC#	c #CFCD88",
"TC#	c #CACD83",
"UC#	c #CCD18A",
"VC#	c #CBD189",
"WC#	c #D1CC86",
"XC#	c #D2D18A",
"YC#	c #D1D287",
"ZC#	c #D8D787",
"`C#	c #D4CC87",
" D#	c #D0C785",
".D#	c #D6C984",
"+D#	c #D7CC84",
"@D#	c #D8CC85",
"#D#	c #D9CF88",
"$D#	c #C4C583",
"%D#	c #BBC194",
"&D#	c #B5C7BB",
"*D#	c #ABCBC9",
"=D#	c #ABC7CC",
"-D#	c #A8C5C7",
";D#	c #ABC4C9",
">D#	c #AAC6CB",
",D#	c #ABCACA",
"'D#	c #AAC9C7",
")D#	c #A9C7C6",
"!D#	c #ABC7C7",
"~D#	c #ADC8CA",
"{D#	c #90B0AD",
"]D#	c #5A7789",
"^D#	c #D0717A",
"/D#	c #F17963",
"(D#	c #F47C5F",
"_D#	c #FA8968",
":D#	c #F9AB74",
"<D#	c #DEE197",
"[D#	c #DEDF95",
"}D#	c #DEDE97",
"|D#	c #D8D990",
"1D#	c #D9DA8F",
"2D#	c #D8DA90",
"3D#	c #D7D790",
"4D#	c #DAD692",
"5D#	c #DAD68E",
"6D#	c #D9D48A",
"7D#	c #D9D28B",
"8D#	c #DAD089",
"9D#	c #D7CF89",
"0D#	c #D5CE8B",
"aD#	c #D5CC8B",
"bD#	c #D6CE8C",
"cD#	c #D4CC8C",
"dD#	c #D4CE8C",
"eD#	c #D5D28D",
"fD#	c #D6D691",
"gD#	c #D6D28E",
"hD#	c #D7D18C",
"iD#	c #D7D590",
"jD#	c #D5D591",
"kD#	c #D5D590",
"lD#	c #D5CE8A",
"mD#	c #D4CD88",
"nD#	c #D6D189",
"oD#	c #D8D28C",
"pD#	c #D6D18B",
"qD#	c #D6CF8C",
"rD#	c #D3CE8D",
"sD#	c #D3CF8C",
"tD#	c #D2CF8C",
"uD#	c #D5D58B",
"vD#	c #D2D389",
"wD#	c #CFD388",
"xD#	c #CED18B",
"yD#	c #CBCF85",
"zD#	c #D1D186",
"AD#	c #D0D185",
"BD#	c #D6D17F",
"CD#	c #DAD786",
"DD#	c #CEC684",
"ED#	c #CFC785",
"FD#	c #DCCF87",
"GD#	c #DCCE86",
"HD#	c #D9CD84",
"ID#	c #CFC676",
"JD#	c #CCC480",
"KD#	c #BFC498",
"LD#	c #B2C7B6",
"MD#	c #AFCBCB",
"ND#	c #AAC3C8",
"OD#	c #ADC2C8",
"PD#	c #ACCACA",
"QD#	c #ACCBC9",
"RD#	c #AAC8C6",
"SD#	c #AECCCB",
"TD#	c #ADCBCB",
"UD#	c #ACCCCA",
"VD#	c #9ABDB8",
"WD#	c #5B7E88",
"XD#	c #4E5479",
"YD#	c #CE7078",
"ZD#	c #F2795D",
"`D#	c #F0785C",
" E#	c #FC9A71",
".E#	c #F2A370",
"+E#	c #F7A776",
"@E#	c #EC895C",
"   .  +  @  #  $  %  &  *  =  -  ;  >  ,  '  )  !  ~  {  ]  ^  /  (  _  :  <  [  }  |  1  2  3  4  5  6  7  8  9  0  a  b  c  d  e  f  g  h  i  j  k  l  m  n  o  p  q  r  s  t  u  v  w  x  y  z  A  B  C  D  E  E  F  G  H  I  J  K  L  M  N  O  P  Q  R  S  T  U  V  W  X  Y  Z  `   . .. +. @. #. $. %. &. *. =. -. ;. >. ,. @. '. ). !. ~. {. ]. ^. /. (. _. :. <. [. }. |. 1. 2. 3. 4. 5. 6. 7. 8. 9. 0. a. b. c. d. e. f. g. h. i. j. k. l. m. n. o. p. q. r. s. t. u. v. w. x. y. z. A. B. C. D. E. F. G. H. I. J. K. L. M. N. N. O. P. Q. R. S. L. T. U. I. V. W. L. X. Y. Z. `.  + .+ ++ J. @+ #+ $+ %+ K. &+ *+ =+ -+ ;+ >+ ,+ '+ )+ !+ ~+ {+ ]+ ^+ /+ (+ _+ :+ <+ [+ }+ |+ 1+ 2+ 3+ 4+ 5+ 6+ 7+ 8+ 9+ 0+ a+ b+ c+ d+ e+ f+ g+ h+ i+ j+ k+ l+ m+ n+ o+ p+ q+ r+ s+ t+ u+ v+ w+ x+ y+ ",
"z+ A+ B+ C+ D+ E+ F+ G+ H+ I+ J+ K+ L+ M+ N+ O+ P+ Q+ R+ S+ T+ U+ V+ W+ X+ Y+ Z+ `+  @ .@ +@ @@ #@ $@ %@ &@ *@ =@ -@ ;@ >@ ,@ '@ )@ !@ ~@ {@ ]@ ^@ /@ (@ _@ :@ <@ [@ }@ |@ 1@ 2@ 3@ v  w  x  y  z  4@ o  5@ 6@ E  E  7@ G  8@ 9@ 0@ a@ L  M  N  O  b@ c@ R  d@ e@ f@ g@ W  h@ i@ j@ @.  . .. k@ l@ m@ n@ %. &. o@ p@ q@ r@ s@ t@ u@ v@ w@ !. x@ y@ z@ A@ B@ C@ _. D@ E@ F@ }. G@ H@ I@ J@ K@ L@ M@ N@ O@ P@ Q@ R@ S@ T@ U@ V@ W@ X@ Y@ Z@ `@  # Y@ .# +# o. @# ## $# %# &# *# =# -# ;# ># ,# '# )# !# ~# E. {# H. {# ]# ^# /# /# (# _# _# :# <# [# }# |# 1# 2# 3# 4# I. 5# 6# 7# ]# 8# 9#  + 0# a# a# b# c# d# e# f# g# h# i# )+ j# k# (# l# m# n# o# ]+ ]+ p# (+ (+ q# :+ r# [+ s# t# u# 1+ v# w# x# y# z# A# B# C# D# E# F# G# H# g+ g+ I# J# K# L# M# N# O# P# Q# R# S# T# U# V# W# X# Y# Z# ",
"`#  $ .$ +$ @$ #$ $$ %$ &$ *$ =$ -$ ;$ >$ ,$ '$ )$ !$ ~$ {$ ]$ ^$ /$ ($ _$ :$ <$ [$ }$ |$ 1$ 2$ 3$ 4$ 5$ 6$ 7$ 8$ 9$ 0$ a$ b$ c$ d$ e$ f$ g$ ]@ h$ i$ j$ k$ l$ m$ n$ o$ p$ q$ r$ s$ t$ w  x  y  z  u$ v$ w$ x$ y$ y$ z$ A$ B$ C$ D$ E$ L  M  N  O  b@ c@ F$ G$ H$ I$ J$ K$ L$ M$ N$ l@ O$ P$ Q$ R$ S$ T$ U$ V$ W$ X$ q@ Y$ 2@ Z$ u@ `$  % .% +% @% #% $% %% &% _. *% =% -% ;% >% ,% '% )% !% ~% {% ]% h+ ^% /% (% _% :% <% [% }% |% 1% 2% 3% 4% 5% 6% +# 7% 8% 9% 0% a% b% c% d% e% f% g% h% i% )# !# j% k% l% l% H. I. m% /# /# n% o% p% K. q% r% s% t% u% v% w% x% ]# y% z% A% a# B% C% D% E% F% J. G% H% I% J% K% L% )+ )+ ]# M% N% O% P% l% n# ~+ ]+ Q% R% (+ S% T% U% V% [+ W% X% s# W% Y% Z% `%  & .& +& @& #& $& %& && *& =& -& ;& >& ,& '& )& !& ~& {& ]& *& ^& /& (& _& :& <& [& }& |& ",
"1& 2& 3& 4& 5& 6& 7& 8& 9& 0& a& b& c& d& e& f& g& h& i& j& k& l& m& n& o& p& q& r& s& t& u& v& w& x& y& z& A& B& C& D& E& F& G& H& I& J& K& L& M& N& O& P& Q& R& n$ S& s@ T& s$ M& t$ w  x  y  z  4@ B  U& 6@ y$ y$ V& W& X& Y& Z& `& L  M  N  O  b@  * R  .* +* @* #* $* h@ %* &* l@ ** =* -*  . ;* >* U$ ,* '* )* !* ~* {* K& u@ ]* ^* /* (* _* :* $% <* [* }* |* 1* 2* 3* 4* 5* 6* 7* 8* 9* 0* a* b* c* d* P@ e* f* g* h* i* j* k* l* m* n* o* p* q* r* s* t* u* v* w* x* b+ y* z* A* B* i% )# C* D* k% l% E* F* G* a# /# /# T. p% p% H* I* J* }# S. K* L* M* T. ]# X. N. N* O* P* Q* R* S* T* @+ J. U* V* W* X* =+ =+ =+ Y* Z* `*  = .= += !+ ~+ Q% {+ @= (+ /+ #= $= V% [+ %= &= *= W% == -= ;= >= ,= '= )= != ~= c% {= ]= ^= /= (= _= := <= [= }= |= 1= 2= 3= 4= S# 5= 6= 7= 8= 9= 0= a= ",
"b= c= d= e= f= g= h= i= j= k= l= m= n= #@ T+ o= p= q= r= s= t= u= v= w= x= y= z= A= B= /= C= D= E= F= G= H= I= J= K= L= M= d  N= O= P= Q= R= S= T= U= V= l$ Q& A  W= X= Y= s$ h$ Z= t$ `= n$ 3@  - 4@ :@ P& .- +- @- V& @- #- $- %- &- *- =- N  O  b@ -- ;- >- ,- '- )- q$ !- !- ~-  . {- ]- ^- /- (- >* v  _- :- <- [- }- v  o  |- 1- 2- ^* x@ 3- 4- 5- 6- 7- 8- 9- 0- a- b- b- c- d- e- f- g- t* h- i- j- 9. k- l- m- n- o- p- q- r- s- t- n* u- v- w- x- `@ y- z- A- B- C- D- E- F- G- H- B. C* I- ~# J- K- L- M- N- ]# X. /# x% n% O- P- Q- R- S- t% v% T- U- O* V- /# A% W- X- K. @+ @+ K. F% f# J. 2# Y- Z- `- y% V.  ; .; M% m# i# +; +; @; o# #; $; %; &; *; =; -; ;; [+ [+ s# >; ,; '; ); !; ~; {; ]; ^; /; (; _; :; <; [; !% }; |; 1; 2; 3; 4; 5; 6; _= :; 7; 8; 9; 0; a; b; c; d; e; ",
"f; g; h; i; j; k; l; m; n; o; p; q; r; s; t; u; v; w; x; !$ y; z; A; B; C; D; E; F; G; c* H; I; >$ J; K; /$ L; M; N; O; P; Q; R; S; T; U; V; W; P$ X; Y; Z; `; m$  > .> +> h$ h$ h$ t$ @> @> @>  - A  #> $> %> &> *> V& @- => -> ;> >> ,> =- '> )> !> ~> {> ]> ^> /> (> _> i@ :> l@ <> [> <> }> }> |> 1> {* 2> 3> 4> 5> 6> t$ 7> 8> 9> 0> .% a> 4* x@ b> c> C@ d> e> f> g> h> h> i> j> k> l> A= $# m> n> o> p> q> r> s> t> u> v> w> x> y> z> A> B> C> D> E> F> G> H> I> J> K> L> M> N> O> P> Q> R> S> T> U> V> W> X> Y> 4# Z> n% X- `>  , ., +, S- @, t% #, v% $, ]# %, O* &, W- N* T. T. O* n% X. L. K. *, =, X- M. X. -, ;, h# *+ =+ 5# >, ,, O% o# ', ), !, !, ~, {, ], ^, [+ /, s# (, _, :, <, [, }, |, 1, 2, 3, 4, F# t& t& 5, 6, 7, 1, 8, 9, 0, a, b, {& _= c, d, e, f, g, h, i, j, k, l, ",
"m, n, o, p, q, r, s, t, u, v, w, x, y, z, A, B, C, D, E, F, G, H, I, J, K, L, M, a. N, O, P, Q, R, S, T, U, V, W, X, Y, Z, `,  ' .' +' @' #' $' %' &' *' =' -' ;' >' ,' '' )' )' h$ t$ @> [@ @>  - A  C  Z; !' y$ *> +- V& => ~' {' /> ]' ^' /' (' P  _' 6> F$ ~* :' <' [' }' |' `  |- 1' /- 2' 3' 4' 5' 2@ 6' 7' 8' (' {> 9' 0' a' b' ]* c' d' a> e' f' c> g' h' i' j' k' l' m' n' o' p' q' B> r' s' t' u' v' w' x' y' z' A' B' C' D' E' z> F' G' p* H' I' J' K' t& L' M' N' O' P' Q' R' S' T' B. U' V' W' X' T> Y' Z' 4# `' X. X.  )  , ., .) S. <# %+ +) @) #) $) =+ X. _# W- _# x% T. O* L. N. L. O* &, %) O- N. X. -, ;, &) j# 5# i# *) =) -) ~+ ;) >) ,) ') )) !, !) ~) {) ]) '; ^) :, /) () _) :) <) 3, [) 4, }) F# |) 1) 2) 3) 4) 5) 6) 7) 8) 9) 0) a) b) n+ c) d) e) _& f) g) h) i) j) ",
"k) l) m) n) o) p) q) r) s) t) u) v) w) x) y) z) A) B) C) D) E) F) G) J, H) @@ I) J) K) L) M) N) O) P) Q) R) S) T) U) V) W) X) Y) Z) `) L&  ! .! +! @! #! $! %! )' &! p  *! g$ =! h$ -! @> [@ W= ;! R& P& !' >! E  +- ,! V& => '! )! !! ]' ~! {! ]! ^! :- /! >- (! |@ _! :! <! ~- [! }! |! 1! 2! 3! 4! 5! 6! 7! 8! 8' 9! {> 0! a! b! c! `$ d! +% e! f! g! h! &% _. i! j! k! l' l! m! n! o! p! q! r! s! t! u! v! w! 1) x! y! z! A! B! C! D! E! F! G; G! H! I! J! K! !% L! M! N! O! P! Q! y. R! S! T! U! X> V! W! X! Y! Z! g# ]# z% (# `> >+ `!  ~ .~ +~ W* @~ @) #~ $~ %~ X- _# W- #) &~ 7# N. +; ,, (# O* &, *~ A% A% =~  ; -~ ;, j# *+ h# ;~ =) >~ ,~ '~ )~ !~ ~~ {~ ]~ s# %= ^~ /~ (~ _~ :~ <~ [~ }~ |~ 1~ 2~ 3~ 4~ 5~ x* 6~ 1) 7~ 8~ 9~ 0~ a~ b~ c~ d~ e~ f~ g~ h~ i~ j~ k~ l~ m~ n~ o~ p~ q~ ",
"r~ s~ t~ u~ v~ w~ x~ y~ z~ A~ B~ C~ D~ E~ F~ G~ H~ I~ J~ K~ j& L~ M~ N~ O~ P~ Q~ R~ S~ T~ U~ V~ P) W~ X~ L; Y~ Z~ `~  { .{ +{ @{ #{ ${ %{ &{ *{ ={ -{ ;{ |> >{ W; u  t  ,{ '{ '{ Z= -! @> [@ W= ;! R& P& !' ){ E  +- !{ ~{ => {{ ]{ ^{ ]' /{ ({ _{ ^! :{ <{ [{ }{ 7! |{ 1{ }' P$ 3! |- {- 2{ ]- 3{ 4{ 5{ s@ 6{ 7{ 8{ 9{ {> 0{ a{ c! b{  % c{ !. [. d{ e{ f{ g{ h{ i{ j{ k{ k{ l{ m{ n{ o{ p{ q{ r{ s{ t{ u{ v{ w{ x{ y{ z{ A{ B{ C{ D{ E{ F{ G{ H{ I{ J{ K{ L{ M{ N{ 3= O{ P{ Q{ R{ S{ T{ U{ V{ '# W{ X{ Y{ Z{ %~ `{ -, /# =+  ] A% .] >+ +] @] #] $] %] &] @) Z> *] =] &, N. A% -] T. N. =) ;] >] ,, _# A% ,] W- W- l# '] -, )] *+ 5# !] ~] =) >~ ', '~ {] ]] ^] /] (] }+ _] :] ^~ <] [] }] |] [~ 1] 2] 3] 4] 5] 6] 7] 8] 9] 5, P# 0] a] b] c] J> d] e] f] g] h] i] j] k] l] m] n] o] p] q] r] ",
"s] t] u] v] w] x] y] z] A] B] C] D] E] z, F] G] H] I] J] K] L] M] N] O] P] Q] R] S] T] U] V] W] X] Y] Z] `]  ^ .^ +^ @^ #^ $^ %^ 3! &^ *^ =^ -^ ;^ >^ ,^ '^ >{ $' W= )^ !^ ~^ {^ ]^ y  ^^ [@ [@  - A  P& !' /^ E  @- }> (^ _^ :^ <^ /> [^ }^ |^ _{ 1^ 2^ ~* 3^ 4^ 5^ 6^ *{ 7^ 3{ 3{ 3!  . 1! [! 2! 8^ 9^ =^ 0^ a^ b^ (' c^ d^ e^ f^ g^  % h^ _* i^ j^ k^ l^ m^ d> n^ o^ p^ q^ r^ s^ t^ u^ v^ w^ x^ y^ z^ A^ B^ C^ D^ E^ F^ G^ H^ I^ J^ K^ L^ o* M^ N^ O^ P^ Q^ R^ K' S^ T^ U^ V^ W^ X^ Y^ Z^ `^ A.  / ./ +/ @/ =+ g# `- /# #/ $/ T. N* %/ T- &/ &/ */ Z- w% =/ N. >] -/ ;/ >/ >] ,/ '/ &, >] _# _# A% N% -) *~ )/ #) @/ !/ ~/ {/ '+ )+ ]/ ^/ // (/ O% _/ :/ </ [/ }/ |/ 1/ 2/ 3/ 4/ 5/ 6/ 7/ 8/ 9/ 0/ a/ b/ c/ d/ e/ f/ g/ h/ <; i/ j/ k/ l/ m/ n/ 6; o/ p/ A- q/ r/ s/ t/ u/ v/ w/ x/ y/ z/ A/ ",
"B/ C/ D/ E/ F/ G/ H/ I/ J/ K/ L/ M/ N/ O/ P/ Q/ R/ S/ T/ K] U/ L~ V/ W/ X/ Y/ Z/ `/  ( .( +( I= @( #( $( %( &( *( =( -( ;( >( ,( 1> '( )( !( ={ ~( {( ]( ^( >{ $' @> /( (( _( :( _- s@ u  [@ [@  - B  <( [( /^ E  @- J& f$ }( |( 1( 2( [^ 3( 4( 5( 6( :{ <{ 3^ )- 7( 8( 9( k@ Q$ P$ [! O$ 0( a( 1! b( c( h$ L& d( e( (' c^ f( g( h( g^  % h^ i( ]. j( k( l( m( n( o( p( p( q( r( s( t( u( v( w( x( y( w^ z( A( B( C( D( E( F( G( H( I( F{ o* J( K( L( M( h. N( b) O( P( I# Q( R( S( T( U( Z^ V( A. W( X( Y( p% ]# g# /# /# Z( K. $/ O* w% w% `(  _ w% P- ._ Y- 7# ,, =/ +_ @_ #_ $_ N* X. -) '/ 7# ,, N% N% -) %_ &, &_ *_ V- Z( #/ F* =_ ;] -_ ;_ O% >_ ,_ '_ )_ !_ ~_ s# 2/ /~ {_ ]_ ^_ :, :~ /_ (_ __ :_ <_ [_ }_ |_ 1_ && 2_ ^= P# 3_ 7] 2, 4_ 5_ 6_ 7_ 8_ {& 9_ 0_ a_ k~ b_ c_ d_ e_ f_ g_ ",
"l) h_ i_ j_ k_ l_ m_ n_ o_ p_ q_ r_ s_ 4  t_ u_ v_ K] w_ x_ y_ z_ N] A_ B_ C_ D_ E_ p> F_ G_ H_ I_ J_ K_ L_ M_ N_ O_ P_ Q_ R_ S_ T_ '( U_ [! V_ W_ H  X_ Y_ %! =! %. Z_ `_  : .: .* f( t  Y= W= +: B  C  [( @: E  *> J& J& #: $: %: &: *: =: 4( -: ;: >: ,: ': ): !: ~: {: g( Q$ P$ ]: `  0( 0( 3{ ** ^: $' U; /: (: _: :: <: 9^ [: }: |: 1: 2: 3: 4: 5: 6: 7: 8: 9: 0: a: b: c: d: e: f: g: h: i: j: k: l: m: n: @# o: p: q: r: s: t: u: C> v: w: x: y: 5% z: A: B: /= C: D: E: F: G: H: I: J: :~ K: L: Y( p% G* M: O* x% N: /# f# a# O: w% @) $,  _ P- ._ P: Q: K% R: S: #) T: U: =, 7# %) V: X- N. N% N% -) k# N. n% 6# 6# f# L. *) +; +; ,, `* W: X: Y: )_ Z: `:  < -; .< +< {_ {_ @< :, #< $< %< &< *< =< -< ;< >< ,< '< )< 8* H# 0] !< ~< {< ]< |= ^< /< (< _< :< << [< }< |< 1< p] 2< 3< ",
"4< 5< 6< 7< 8< 9< 0< a< b< c< d< e< f< g< h< i< j< k< l< m< n< o< p< q< r< s< t< w! u< v< w< x< y< z< A< B< C< D< E< F< G< H< I< J< K< '{ L< M< N< O< P< Y_ >{ =! Q< R< S< T< U< V< W< X< Y< @> +: Z< C  >! `< `< ~{ J& f$  [ .[ +[ @[ [^ #[ $[ %[ &[ *[ =[ -[ ;[ >[ ,[ '[ &^ Q$ )[ ![ P$ ~[ ~[ l@ b( {[ ][ ^[ /[ ([ _: c^ f( T= _[ :[ c' !. <[ 3: [[ 5: }[ |[ 1[ 2[ 3[ 4[ 5[ 6[ 7[ 8[ 9[ 0[ A~ J( a[ b[ c[ d[ e[ {% f[ g[ h[ i[ j[ k[ u: C> l[ J( r& m[ F' n[ o[ p[ q[ O@ r[ s[ t[ u[ v[ w[ x[ y[ z[ A[ B[ @/ G* M: O* T. C[ O* O* D[ E[ O* O- =/ M* P- F[ G[ H[ G% Z- %_ $_ I[ J[ K[ -] L[ V: X- A% N% -) N% @) .] X. M[ N[ M. M. O[ +; ;] -) o# {+ P[ `: Q[ R[ S[ T[ -; _] _, U[ U[ T> V[ W[ X[ Y[ Z[ `[  } .} +} @} #} $} %} I# &} *} =} -} ;} >} ,} '} )} !} ~} c% {} ]} ^} /} (} e_ _} :} ",
"<} [} }} |} 1} 2} 3} 4} 5} 6} 7} 8} 9} 0} a} b} c} d} e} f} g} h} i} j} k} l} m} n} o} p} q} r} s} t} u} v} u; w} x} y} z} A} _^ ${ B} C} D} E} F} G} H} I} f$ J} 6! K} L} M} N} O} P} Q} /[ %. R} S} -' T} A$ U} z$ (- (- V} W} X} Y} #[ ,> Z} `}  | O} .| +| !: @| #| $| %| |' &| @. @. )[ *| @. =| -^ -| ;| d( >| !* :{ a^ ,| '| b{ ~. !. )| !| ~| {| }[ ]| ^| /| 0- (| _| :| <| [| }| || 1| 2| 3| j. 4| 5| 6| 7| 8| 9| 0| a| b| c| P^ C> d| x- 7% e| f| g| h| i| j| k| l| m| n| o| p| q| r| s| [] t| {# &_ u| T. M: v| w| O. &, x| y| O- n% k# z| P- J% W* A| B| N. C| D| E| F| G| K[ H| @_ U* N* >] >] ,] I| z% l% J| K| L| ;~ M| I| I| I| N| O| P| Q| R| S| T| #= U| _] _, 4/ W( V| W| W| W| X| Y| Z| `|  1 .1 +1 @1 #1 $1 %1 &1 *1 9~ =1 -1 ;1 >1 ,1 '1 )1 !1 ~1 {1 ]1 ^1 /1 d_ (1 _1 :1 ",
"<1 [1 }1 |1 11 21 31 41 51 61 71 4| 81 91 01 d_ Y, d} v; a1 b1 c1 d1 e1 f1 g1 h1 i1 T~ D= j1 k1 l1 m1 /1 n1 o1 p1 q1 r1 s1 t1 *' u1 #> v1 w1 x1 y1 z1 A1 B1 C1 D1 6! E1 o@ F1 G1 O} .* H1 I1 6! J1 S} K1 >! ){ L1 M1 N1 V&  [ O1 P1 Q1 R1 S1 T1 U1  | V1 W1 +| X1 Y1 Z1 `1  2 <! .2 +2 7^ |' @2 #2 a( ![ -* `) $2 %2 *. c^ &2 %| *2 =2 +% -2 ;2 ;2 >2 ,2 '2 )2 !2 ~2 {2 ]2 ^2 /2 (2 _2 :2 <2 [2 }2 5% |2 12 22 32 42 52 62 72 82 92 02 a2 4% j: o[ b2 c2 R^ d2 d2 e2 f2 g2 h2 i2 j2 k2 l2 m2 n2 s| ^) o2 l% V: #) 7# @+ @+ a# v| &, N% %) _# (# N. _# p2 q2 r2 s2 t2 ,, u2 v2 w2 x2 y2 z2 A2 B2 U- #) %) $_ U: C2 D2 D2 E2 F2 L| G2 H2 .= >~ X: ~+ O| I2 J2 K2 /+ L2 %; L- -; +< :] M2 T> W| (, N2 O2 P2 Q2 R2 S2 T2 e. U2 V2 W2 X2 Y2 3= Z2 `2  3 .3 +3 @3 #3 $3 %3 &3 &} *3 =3 -3 ;3 >3 ,3 '3 ",
")3 !3 ~3 {3 ]3 ^3 /3 (3 _3 :3 <3 [3 }3 |3 13 23 33 d} 43 53 63 73 d1 83 93 03 a3 b3 c3 d3 e3 f3 g3 h3 i3 j3 k3 E< l3 m3 n3 o3 p3 u1 q3 r3 s3 t3 u3 v3 w3 x3 y3 z3 =^ A3 %[ $[ B3 ~* C3 r@ &. s@ J1 D3 E3 >! M1 M1 ){ F3 ,! f$ _^ G3 H3 I3 J3 {! K3 :- L3 M3 <: N3 O3 Z1 P3 q$ !- <! <! :> Q3 R3 S3 ![ T3 -* U3 V3 W3 o@ X3 <: Y3 X; Z3 `3  4 )| #% .4 +4 @4 #4 $4 %4 &4 ]2 *4 /2 =4 -4 ;4 >4 ,4 '4 )4 L@ !4 ~4 E_ {4 ]4 ^4 /4 (4 _4 :4 <4 [4 }4 A: G; |4 i: d2 14 24 34 44 54 64 74 84 94 m2 04 a4 b4 c4 d4 -] #) _# L. @+ J. O* e4 f4 g4 _# (# +; &, h4 i4 j4 k4 l4 X. m4 n4 o4 p4 q4 r4 s4 t4 h4 @_ $_ $_ N% u4 !+ !+ v4 J| w4 x4 H2 y4 -) z4 A4 #; B4 %; C4 D4 L2 E4 F4 G4 ]) H4 I4 _, J4 K4 L4 M4 N4 O4 P4 Q4 R4 S4 T4 }) U4 V4 W4 X4 Y4 Z4 `4  5 .5 +5 @5 #3 #5 $5 %5 &5 *5 =5 -5 ;3 ;5 >5 ",
",5 '5 )5 !5 ~5 {5 ]5 ^5 /5 (5 _5 :5 <5 6$ [5 23 33 }5 |5 d_ 15 25 35 45 55 65 75 85 95 05 a5 b5 C& c5 d5 e5 f5 g5 h5 i5 j5 k5 l5 =* m5 n5 o5 p5 q5 r5 s5 t5 V} J} =^ u5 S< _: v5 V< w5 x5 y5 x  v  B} z5 >! L1 M1 M1 [( A5 Z; B5 C5 D5 E5 F5 ({ 1^ :{ G5 H5 <: I5 J5 K5 L5 M5 N5 O5 !- !- P5 Q5 X; T3 R5 a( S5 T5 U5 V5 }- 7! !( W5 X5 Y5 Z5 $% `5  6 .6 +6 @6 #6 ~2 o^ ]2 $6 %6 &6 *6 =6 -6 ;6 >6 t* q. q& ,6 p> '6 )6 !6 ~6 {6 ]6 ^6 /6 (6 |4 _6 a[ :6 <6 K' 2) [6 }6 |6 16 26 36 46 56 94 66 76 ~# 86 96 V: &, N* n% b# @+ v| l% 06 a6 e4 N. +; U- b6 i4 c6 d6 e6 f6 g6 p2 z| h6 i6 j6 I% k6 l6 H% m6 W- >, ]# .; n6 o6 p6 G2 G2 q6 y4 -) X: A4 #; r6 p# p# /+ L2 s6 L- -; [+ ^~ t6 T> u6 :] W| v6 w6 x6 y6 z6 A6 {= B6 C6 D6 E6 F6 A6 G6 H6 I6 J6 K6 L6 M6 N6 O6 T^ P6 Q6 R6 S6 T6 U6 V6 W6 ",
"X6 Y6 Z6 `6  7 .7 +7 @7 #7 $7 %7 &7 *7 =7 -7 ;7 >7 ,7 '7 )7 !7 ~7 {7 ]7 ^7 /7 4  (7 _7 :7 <7 [7 }7 |7 17 27 37 47 57 67 77 87 U& 97 07 a7 b7 b7 c7 d7 e7 f7 g7 ][ h7 R< i7 j7 k7 l7 m7 n7 o7 p7 %. B} z5 T} T} G  G  q7 *' r7 s7 2' t7 u7 v7 w7 x7 :- w5 y7 d^ z7 A7 B7 L5 C7 D7 E7 F7 G7 H7 Q5 I7 J7 R5 P$ g( K7 L7 M7 N7 6{ *! O7 P7 Q7 R7 $% 9: S7 T7 @4 &2 #6 ~2 U7 V7 W7 X7 Y7 Z7 `7 f-  8 .8 +8 @8 q' #8 $8 %8 &8 *8 =8 -8 ;8 >8 ,8 '8 )8 !8 ~8 {8 ]8 ^8 /8 (8 _8 L{ :8 <8 [8 }8 |8 18 28 38 48 58 68 &, _# &, N. x% J. T. #) 78 L[ A% &, (# #) 88 98 08 a8 b8 J% M* `( M* t4 c8 d8 e8 f8 g8 h8 i8 W- m% Z( =+ n# j8 &/ p6 k8 l8 .= m8 ', ~+ ]+ p# Q% @= /+ D4 ]+ O| n8 o8 p8 t6 K4 q8 r8 u6 s8 t8 u8 v8 w8 x8 7~ y8 z8 A8 B8 C8 D8 3, E8 F8 ];  3 G8 :% H8 ~= P# I8 J8 K8 L8 M8 N8 O8 P8 ",
"Q8 R8 S8 T8 U8 V8 W8 X8 Y8 Z8 `8  9 .9 v= +9 @9 #9 $9 23 %9 j3 &9 *9 =9 -9 ;9 >9 D] ,9 '9 )9 !9 ~9 {9 e5 ]9 ^9 /9 (9 _9 a- :9 <9 [9 }9 b7 |9 19 29 39 49 59 5@ 69 {* u5 79 i7 89 C3 6> 99 09 a9 y  b9 c9 d9 e9 f9 g9 g9 h9 i9 j9 [! k9 l9 m9 n9 ]! :- 6> o9 p9 q9 r9 s9  ! t9 D7 L5 u9 v9 w9 x9 y9 z9 A9 B9 C9 D9 E9 M7 F9 G9 H9 I9 J9 K9 L9 M9 N9 O9 P9 Q9 R9 S9 T9 U9 V9 W9 X9 Y9 Z9 }| `9 `9  0 .0 +0 @0 #0 $0 %0 &0 *0 =0 -0 ;0 >0 ,0 '0 )0 !0 _6 ~0 i| B6 {0 ]0 ^0 +# /0 (0 _0 :0 <0 [0 }0 |0 J- 10 &+ &, &, #) _# 20 U* h4 30 c# 40 A% _# (# _# >+ 50 60 70 q2 80 90 P. 00 a0 b0 c0 d0 e0 f0 g0 g0 h0 m% i0 E4 l# j0 j8 k0 k0 L| l0 m0 n0 o0 p0 D4 L2 /+ D4 q0 R| S% r0 s0 &= t0 u0 v0 }] w0 x0 y0 z0 A0 B0 C0 D0 E0 F0 G0 H0 I0 J0 =& K0 L0 M0 N0 O0 `2 P0 Q0 S^ R0 S0 T0 U0 _1 V0 W0 X0 ",
"Y0 Z0 `0  a .a +a @a #a $a %a `8 &a *a =a -a ;a >a ,a 23 p] 'a )a !a ~a {a ]a ^a /a (a _a :a <a N; -7 [a }a |a 1a 2a 3a 4a 5a 6a 7a 8a 9a 0a aa ba ca da ea l5 69 %. A3 fa &[ ga ha X3 _' ia ja y  <@ ka la e9 ma f9 na oa pa qa ra r9 E5 sa ta !* ua '- va wa ;[ u9 xa W  ya za V3 Aa Ba Ca Da W5 Ea Fa B9 7^ Ga Ha Ia '- Ja Ka La Ma Na Oa N9 [. Pa Qa Ra Sa Ta Ua Va Wa Xa Ya Za `a  b .b +b @b 4| #b $b %b &b *b =b -b ;b >b ,b 'b )b !b ~b A= [  0% Z+ {b ]b ^b /b (b _b :b <b [b }b |b 1b 2b 3b 4b `' 5b @/ 7# _# _# ._ 88 6b 7b 7b 8b _# N. .] 9b 0b l6 70 M* ab bb cb db h0 eb fb gb hb ib jb kb h0 Z( lb mb .; nb ob .~ v% =) A4 pb )~ {] )~ D4 L2 )_ qb rb )_ q0 sb D4 tb ub vb s0 U[ wb xb yb zb Ab Bb Cb Db Eb Fb Fb Gb Hb Ib Jb Kb Lb Mb Nb Ob Pb |; Q0 Qb Rb Sb Tb f_ Ub V0 Vb Wb ",
"Xb Yb Zb `b  c .c +c @c #c $c %c &c *c =c -c ;c >c ,c 'c )c !c ~c {c ]c ^c /c (c _c :c <c [c }c |c 1c 2c 3c 4c 5c 6c 7c -% 8c 9c 0c ac bc cc dc y} ec b7 fc gc ~[ 2@ hc ic V1 jc ha kc _' lc ja y  mc nc ,^ oc 0@ f9 pc qc rc sc 8> tc ,> uc vc O  ~> wc (! xc yc Z1 zc Ac Bc V3 Aa Cc xa Dc Ec 6a Fc Gc Hc a( Ic Jc Kc X3 V$ H9 Lc Mc Mc Nc _* ^. Oc Pc Qc R9 Ta Rc Sc Tc Uc Vc Wc Xc x{ `9 :5 Yc  0 Zc `c  d .d +d @d H( #d $d %d &d *d =d -d }$ ;d >d o* ,d 'd )d !d &8 z: ~d {d :0 ]d ^d /d (d _d :d <d [d @/ l% #) _# =/ h0 }d W- -) N. &, _# O- @) |d 1d $] q2 q2 2d 3d 4d */ 5d 6d 7d 8d 9d jb ;/ 0d ad bd cd dd ed ob fd p6 >~ @; `: {] :/ gd hd D4 )_ id qb C4 L2 D4 /+ jd kd ld s0 md nd od pd qd rd B0 sd td ud r+ vd wd xd yd zd zd Ad Bd Cd Z4 Dd Ed '& Fd Gd Hd Id Jd Kd Ld Md w+ ",
"Nd Od Pd Qd Rd Sd Td Ud Vd Wd Xd &c Yd Zd `d  e .e +e @e #e $e %e &e a; *e =e -e ;e >e ,e 'e )e !e ~e {e ]e ^e /e (e _e :e <e [e }e |e 1e 2e 3e 4e 5e 6e 7e 8e ~[ 2@ A3 9e 0e ae ;. be `} Ia ce 3@ de ee fe ge he ie je ke j9 le me C9 ne oe pe M} c@ wc va wa &2 Aa qe J5 re r9 Cc Ac xa se Da j@ te *2 ue a( ve we xe 3> ye ze Lc Ae 2[ Be Ce De Ee Pc Fe R9 Ge He Ie Je Ke Le Me Ne Oe Pe }3 .d  0 Qe Re Se Te Ue Ve We Xe Ye Ze `e  f .f +f @f #f $f $f %f &f *f =f H! -f ;f >f ,f 'f |b )f !f ,) ~f |0 96 Z. l% V: &, z| 1d {f W- >~ ;] &, _# ]f E[ ^f /f (f _f i4 g8 :f @~ */ <f [f }f |f 1f jb 2f N* J. -+ 3f 4f ed ob 5f (/ =~ l% m0 6f 7f 8f hd /+ 9f R| 0f /+ af `: bf S% ld v0 cf ~) df ef ff gf hf [_ if jf kf lf mf nf Hb of pf qf rf ~1 2, sf tf {& uf X2 `a vf wf U6 xf ,3 Vb A< ",
"yf zf Af Bf Cf Df Ef F+ Ff Gf Hf If Jf Kf Lf Mf Nf Of Pf Qf Rf Sf Tf Uf M; Vf Wf Xf Yf U, Zf `f *(  g =( .g +g @g #g $g %g &g *g =g -g ;g ac >g ,g 'g )g !g ~g de 2@ hc {g ]g V$ ^g /g 1^ Ia ce 3@ (g _g :g <g [g }g |g 1g 2g 3g -{ 4g T< 5g 6g *. c@ wc 7g 8g 9g 0g ag re re bg cg dg eg fg Ec gg f^ hg k@ Q$ ig jg kg c^ V$ lg mg ng og pg qg rg sg tg ug vg wg xg yg zg Ag Bg Cg Dg l> Eg Fg Gg 4| Hg Ig Jg Kg Lg Mg Ng Og Pg Qg Rg Sg Tg Ug Vg Wg Xg Yg Zg j: `g )& |   h .h +h @h #h $h %h &h *h (d X' {# {# m# &, 7# =/ 98 0d W- %) o% &, &, ]f */ */ w% =h _f h4 -h ;h >h 70 ,h 'h )h !h ~h ~h {h ]h L. ^h /h (h _h 5f :h <h O% [h m0 }h 6f |h 1h 2h @= 3h 4h {+ {+ ]+ 5h }/ !) !) 6h 7h 8h 9h 0h ah bh ch if dh eh fh gh hh ih jh kh lh mh nh oh ph qh rh sh th uh vh wh xh yh zh Ah Bh ",
"Ch Dh Eh Fh Gh Hh Ih Jh Kh Lh Mh Nh Oh Ph Qh Rh Sh Th O; ;a Uh Vh Wh 35 Xh Yh d& Zh `h  i .i +i @i H~ #i $i %i &i *i =i -i ;i >i 2* ,i i5 'i )i !i ~i {i ]i te e^ 2@ /( '- 7! ^i /i (i `} _i )^ :i <i [i }i |i 1i 2i 3i 4i 5i g7 6i 7i 8i 9i 0i ai c@ X3 ': bi ci di ei fi gi hi ii ji F7 ki li mi ni oi pi qi ri si ti Q  ui vi wi xi yi zi Ai Bi Ci Di Ei Fi Gi Hi Ii Ji Ki Li Mi e- Ni Oi Pi Qi Ri Si Ti Jg Ui Vi Wi Xi Yi Zi `i  j .j +j S@ @j #j n* $j %j &j *j =j k+ !% -j ;j >j ,j 'j )j !j ~j ~f 3b {j ]j @; ^j [h %) W- %) %) >] *, #) &, z| @) E[ g# M* /j /j (j _j :j <j 1d [j }j |j 1j 2j 3j 4j 5j 0b ;) 6j 7j 8j 9j 0j A4 A4 >) aj bj bj cj dj W: {+ @= #; R% R% ej G4 -; u0 ~j fj gj hj ij jj kj lj mj nj oj pj qj rj E0 sj tj 7~ h~ uj H8 vj wj xj yj zj Aj Bj ~9 Cj Dj Ld Ej Fj ",
"Gj Hj Ij Jj Kj Lj Mj Nj Oj Pj Qj Rj Sj Tj Uj Vj Wj Xj Yj Zj `j n<  k <a f) .k +k Zh @k #k $k %k &k *k =k -k ;k >k ,k -i 'k )k !k ~k {k ]k ^k /k (k _k :k ]i <k )[ 9' [k }k |k ,* 1k 2k ~> fa ja 3k <i 4k 5k 6k 7k 7k 8k 4i -{ 9k 0k X} 8' ak bk ai c@ X3 (! ck dk ek fk gk hk hi ii F7 %| Ga ik jk kk lk zc mk nk ok pk qk .| P3 ~- rk hg sk tk uk vk Di wk xk yk zk Ii Ak Bk Ck Dk Ek Fk Gk Hk Ik Jk Kk Lk Mk Nk Ok m> Pk Qk Rk Sk Tk Uk Vk Wk Xk Yk Zk `k  l .l +l @j @l &} #l $l %l ]d &l *l 5/ '; =l -l ;l >l ,l 'l )l -) *~ A% A% ,, %/ !l h0 98 @) E[ O* ~l t4 {l ]l ^l /l (l _l :l <l [l }l jb F| |l 1l 2l `* 3l 4l 5l 6l $; R% ~+ 7l bf 8f 8l 8f >) o# l0 9l 0l al -) E4 bl n8 s0 8h cl !~ dl el fl Q4 gl hl il jl kl ll F0 ml nl ol pl ql rl sl Ed tl }6 ul vl wl xl m1 !c yl _} a= zl ",
"Al Bl Cl Dl El Fl Gl Hl Il Jl x{ Kl Ll Ml Nl Ol Pl Ql Rl m< Sl n< Tl <a m1 Ul Vl w& Wl Xl Yl Zl `l *k  m .m +m @m bc #m 'k $m N$ a- %m &m *m =m -m ~i :k ]i ;m c( >m ,m ,: 'm G9 .| 2k )m /> a9 !m ~m {m 2g ]m ^m /m (m _m :m <m [m }m |m 1m 2m 3m ua '- <{ 4m 5m 6m 7m _! 8m 9m zc L$ ji 0m am bm cm dm em fm O5 gm hm im S  jm km lm mm nm om Ai pm Oc qm rm sm Hi tm um vm wm xm ym zm a. Am Bm Cm Dm Em Fm Gm Hm `@ Im Jm Km Lm Mm Nm Om Pm Qm m. Rm Sm Tm Um Vm Wm Xm Ym Zm `m  n .n U{ +n @n 48 #n -l $n D| %n &n *n >~ N% =) N. _# =n -n ;n h6 !l G[ $/ z| >n t4 k6 _j :l ,n 1d :l 'n *n )n !n ~n m4 {n ]n )n ^n <h /n P| (n {+ {+ L2 sb _n :n S| >) ', <n 8j [n }n u2 ~+ ej |n T[ 1n cl 2n 3n 4n 5n 6n 7n 8n 9n 0n an bn cn dn dn en fn sh gn hn in jn m- kn Jb ln mn nn b  b1 ,3 on pn ",
"qn rn sn tn un vn wn xn yn zn An Bn Cn Dn En w; Fn Gn }5 Hn In Jn c5 X# m1 y< Kn Ln Q, /c Mn Nn On Pn Qn Rn Sn &i Tn *i Un Vn Wn Xn Yn Zn `n  o i5 .o t3 +o te P$ @o #o $o %o G9 .| 2k &o ^{ *o :i  - =o -o ;o >o ,o 'o )o 0@ !o I  ~o {o ]o vc 3m ^o X3 /o (o _o :o <o [o V3 }o }o %| F7 |o 1o 1o 2o 3o 4o fm 5o v9 6o 7o 8o 9o 0o ao bo co do eo fo go ho si io Hi jo ko lo mo no `/ oo a* po qo ro so to uo vo wo O( xo yo zo Ao Bo Co Do !b Qm @l Eo Fo Go Ho Io Jo Ko Lo Mo No Oo Po Qo Ro So To 6h Uo E. $~ Vo Wo C| N% >] ,, X. _# 9b l6 h6 /j d# M* =+ w% /j >n -n Xo :j |d /f Yo 50 Zo >l `o  p kb .p +p @p #p $p y4 N| %p bl {+ L2 &p [/ *p S| =p 9l y| [n -p -) >] ;) ;p ej %; S% >p )_ ,p 'p )p !p ~p {p ]p ^p /p (p _p :p <p [p }p I> e~ |p 1p 2p 3p 4p 5p 6p 7p 8p 9p u; M8 0p ap ",
"bp cp dp ep fp gp 8& hp ip Hf jp kp lp mp np op pp qp rp sp tp up N; vp wp xp yp zp Ap Bp Cp Ml Dp Ep Fp Gp Hp Ip Jp $g Kp Lp Mp a- Np Op Pp Qp Rp Sp v3 o3 -o 3{ Tp Up $o Vp Wp Xp 2k 79 Yp Zp s$ `p [i  q .q 4i )o +q pc @q #q $q %q &q *q vc b@ =q >: -q ;q >q ,q 'q )q #| !q ~q `1 {q ]q ^q /q (q %4 ag _q :q <q [q V< }q |q 1q 2q 3q 4q 5q 6q 7q 8q 9q 0q aq Hi bq cq dq eq fq gq hq iq jq kq lq mq nq a* oq pq qq rq sq tq uq vq wq xq |% Qm O^ -d yq zq Aq Bq Cq Dq Eq Fq Gq Hq Iq Jq Kq Lq Mq Nq V> Oq $) C2 ,l C| Y. N* [h y% Pq u% ._ 70 h4  _ X- X- M* i4 {l Qq Xo :j Rq |d }n Sq Tq Uq Vq Wq Xq Yq Zq `q Uq 8j  r [n Q| =; &; /+ !~ .r 8f )~ >) dj m0 +r (h dj @r l0 E4 ej ej T[ #r 9f $r %r &r *r =r -r ;r >r ,r 'r )r !r _p ~r }p {r ]r +5 1p ^r /r (r _r :r <r [r }r |r 1r W0 2r ",
"3r 4r 5r 6r 7r 8r 9r 0r l= ar br cr dr er fr op gr hr ir jr kr n< lr mr ~9 nr or pr qr rr sr tr ur vr wr xr yr zr Ar Br Cr Dr Er Fr Gr Hr Ir Jr Kr Lr Mr Nr Or Pr mk Qr Rr _- Sr Tr 2k Ur ia Vr Wr <@ 0( Xr .q ]m ]m Yr he @q Zr `r  s .s *q +s _{ @s #s $s %s &s ,q r9 J5 *s zc xa Aa =s h! -s ;s >s ,s 's )s !s ~s V1 3^ {s ]s ^s /s (s _s :s <s [s }s |s 1s 2s Hi yg ,2 3s 4s 5s h+ +8 s*  # 6s Y@ 7s 'd 8s 9s 0s as bs cs &j s& ds es fs gs @f @f hs is js ks ls J( q* ms ns os ps qs rs ss ts us |0 vs F. m# @r ws xs $~ >] ,, p% k# .] ^f ys /j 98 =/ zs As M* Bs Cs Ds Es :l Fs }n i8 =p Uq Gs Yq ,n Hs Is Js Ks  r  r Ls Ms &; Ns sb Os !~ 8f Ps T| m0 Qs ), Rs '~ Ss o# ~+ Ts Us !_ Vs {, Ws Xs Ys Zs `s ~r ml  t .t E0 +t Rb H0 @t #t $t %t &t J> =1 *t && 'r =t -t ;t >t ,t 't )t !t ",
"7< ~t {t ]t ^t /t (t _t :t <t [t }t |t 1t 2t 3t gr 4t 5t =( 27 6t 7t W# 35 8t 9t 0t at bt Sf ct dt et ft gt ht &i it }9 jt kt lt mt nt ot pt qt rt ,g st tt ut vt _> wt xt _- yt 3^ v5 &o x5 G9 y  zt At Bt Ct Dt Dt Et la Ft V_ Gt Ht It Jt bk _{ Kt qk Lt Mt Nt Ot Pt re Qt z7 xa J5 Rt St c> Tt Ut ,s +6 Vt Wt Xt Yt Zt `t  u .u +u @u #u $u %u &u *u =u -u ;u >u ,u 'u )u !u ~u i+ {u C> A> @f ]u [4 ^u a* /u Yc (u _u :u <u [u 34 a[ _% }u H{ |u 1u 2u 3u n* k. 7% 4u 5u 6u 7u 8u 9u 0u au So Mq bu vs cu [h du ^j Vq O% u2 eu &, N. (# fu Ds _j gu !l b6 98 $] hu iu <l ju :l ~n ku lu mu nu ou pu pu qu ru su tu ku J| Ls >_ uu vu uu !~ wu bj )~ T| A4 xu yu zu zu =p o# A4 uu Au C4 ^] Bu Cu Du Eu Fu Gu Hu Iu Ju Ku 2) Lu Mu Nu c) :; )& Ou Pu E8 Qu Ru Su Tu Uu Vu Ub Wu Xu Yu Zu `u ",
" v .v +v @v #v $v %v &v zn *v =v -v ;v >v ,v 'v )v !v >7 ~v {v ]v ^v /v h, (v _v :v <v T) [v }v |v 1v 2v 3v 4v 5v Sp 6v 7v 8v <e %g 9v 0v av m3 bv bv cv tt dv Hc K$ ev fv gv hv 3^ iv jv {> Wp 3@ K& kv lv mv oa nv ov ,^ ,^ pv qv rv sv 3( tv uv vv wv xv yv zv Ot Av Bv Cv d( u9 Dv Ba Ev Fv Gv Hv ,s Iv !: Jv Kv Lv Mv Nv Ov Pv Qv Rv Sv Tv Uv Vv Wv Xv Yv Zv `v  w .w +w @w #w $w %w &w *w 4% 5% =w q. a* /u Qi -w || ;w >w ,w 'w )w !w ~w J{ 6s {w E! ~b ]w ^w iq /w (w _w :w <w [w }w |w ts 1w }+ 2w cu ]h ]h >] n4 x| g0 <j 6b >] z4 2l 3w 4w 5w 5w 6w @_ _l 7w 8w qu Zq pu n4 ~n m6 '~ 9w  p 0w Hs aw bw cw dw 2l $p Rs ew fw gw m0 9f _n bj hw '~ iw jw kw Y: mu lw A4 X: gd 8f mw Vs 1w nw ow pw qw rw S~ sw tw uw 24 vw q> ml S~ ww xw yw zw Aw Bw Cw Dw Ew Fw Gw Hw Iw Jw Kw U0 Lw ",
"Mw Nw Ow Pw Qw Rw Sw Tw Uw Vw Ww Xw Yw Zw J~ `w  x >7 >7 .x +x @x #x $x %x &x *x =x -x ;x >x ,x 'x )x !x ~x {x ]x ^x /x (x _x :x <x [x }x |x 1x 2x 3x 4x 5x 6x &| 7x f( fi 8x 0{ >- kc 9x {> 0x 2@ K& ax bx cx Ct ke dx ex fx gx hx ix jx kx lx w7 mx nx ox px zv wt qx rx sx >[ tx ux vx Qc wx xx *g ,s yx hv zx Ax Bx Cx Dx Ex Fx Gx Hx Ix Jx Kx Lx Mx Nx Ox Px Qx Rx Sx Tx Ux Vx Wx Xx z( Yx Zx `x  y {% .y +y 81 @y #y $y %y &y *y p. L{ =y Y@ H{ m. -y ;y >y ,y 'y )y !y ~y {y ]y ^y /y (y Lq Mq X! _y {# 06 Y. al lu /n ku :y <j %) <y [j [y }y |y 1y 2y 3y 4y 7w 5y 6y 7y 0w 8y ku 9y 0y ay by Yq cy dy ey fy gy hy iy jy ky Ls ly ', cj cj my pb mu `: ny jw '~ `: uu $~ C2 hw oy py #r fj qy ry sy th ty uy q& vy a) wy xy Nk yy $w zy Ay #3 By Cd Cy Dy Y2 Ey Fy Gy Hy Iy Jy Ky Ly My ",
"Ny Oy Py Qy Ry Sy Ty Uy Vy Wy Xy Yy Zy 2c `y  z .z +z =( @z #z $z %z &z *z =z -z =e ;z >z ,z 'z )z b$ !z ~z {z h5 ]z ^z /z (z  % _z :z I7 <z [z cc }z |z 1z 2z }' 3z 4z L5 s  8o [{ {> ua 5z -[ 6z 7z A5 8z ^( 9z 9z 0z az bz cz dz ez jx fz gz w7 uv hz iz jz kz r9 lz tc Cc >[ mz nz oz xa pz qz :* i{ rz sz tz uz vz wz xz yz zz Az Bz Cz Dz Ez Fz Gz Hz Iz Jz Kz Lz Mz Nz Oz L+ Pz Qz Rz Sz Tz so Uz Vz Wz l> Pi Xz Yz Zz `z  A .A +A 4% ~8 @A #A $A $A %A #3 &A uy *A =A -A ;A >A ,A 'A )A !A ~A {A ]A Z! e4 x| Sq N% 0b }n lu ~n >] ^A <j qu }y |y [y /A (A _A Ds :A <A [A su }A |A  p 1A 2A 3A h8 4A dy qu  r K| 5A 6A 7A 8A 9l ~+ T| (h 9A }h S[ >) R| )~ ,_ X: ', N| >) 6f 0A aA ,_ bA cA dA eA fA ]= gA lh hA @l -d iA jA kA lA mA ^= nA @A oA 8+ pA qA c) rA sA tA uA vA wA xA yA `u ",
"zA AA BA CA DA EA FA GA HA IA JA KA LA +^ MA NA OA e} =( PA Uj '  [5 QA W# :& RA SA TA lr xh UA 'x Ol .m ~z {z VA WA r5 XA YA ZA `A  B .B +B @B #B 'g $B %B &B *B =B Zp $| -B 8o (! X3 ~> 7' Q} K< ;B >B nc ,B 9z 9z 0z 'B )B !B ma ~B {B ]B ^B /B (B hz _B jz :B <B [B }B J5 A7 |B Q9 Ba 1B 2B 3B 4B 5B 6B 7B 8B 9B 0B aB bB cB dB eB fB gB hB iB jB kB lB Iz mB  w nB oB pB qB rB sB tB uB vB wB >d xB yB zB AB 7| BB CB DB EB FB GB HB !w (b w: ,0 Pm !b IB e~ &A P( J0 1~ JB KB LB MB NB OB PB QB ^, RB $) N% }n x| ;) m4 ~n ~n 0b u2 %) [j aw SB <f TB pu UB Xo Ds dy dy VB <A WB }A XB XB YB 1l h8 }n ZB Hs `B 5l  C .C v4 +C ', bl Ts S[ @C pb ;p @= #C _n p0 ;) ', #; uu }h $C oy R[ %C &C *C =C -C 1; d% ;C >C ,C 'C )C !C xy N{ |) ~C {C f~ ]C 8+ ^C 7] /C Wl (C _C }v :C <C [C }C |C ",
"1C 2C 3C 4C 5C A+ 6C 7C 8C Ln 9C 0C Vh `j aC bC cC c  33 dC ]9 o= eC fC /v K= gC k1 hC ~c iC jC kC lC mC nC oC pC qC %B k5 k5 rC sC tC uC e' vC wC ~i Tn xC yC &| zC AC BC CC DC 3^ X3 _' Y$ d@ M& >{ -' nc '^ 9z EC ]( ie FC G  H  GC HC IC JC KC LC MC NC OC PC QC RC Jz SC TC Ba Q9 UC 1B VC B@ WC XC YC ZC `C  D .D +D @D #D $D %D &D *D =D -D ;D >D ,D 'D )D !D ~D {D ]D ^D /D (D Ue _D :D b2 >d p* <D [D Oi }D |D 1D 2D 3D 4D 5D J( 6D _% 7D 8D 9D 0D 5D aD bD sj cD dD eD fD gD hD iD jD kD lD ~j mD A4 y4 nD oD 9l $~ u2 ~n pD 0b qD rD sD tD uD vD wD (l xD Ds yD TB iu zD tu WB Zq AD BD 1A CD }n Gs DD ED K| &/ CD [n FD %p n8 GD S| 8l pb o# f4 ]j lw >) HD ;) R% lw Ps bj :n oy ID &C JD KD LD tf MD ND OD PD QD RD SD M{ TD ms UD %} VD WD XD YD ZD `D  E .E Rf +E i, @E #E $E %E ",
"&E *E =E -E ;E >E ,E 'E )E !E K_ v+ p~ ~E {E ]E ^E /E /E (E _E :E zh <E [E wp }E |E 1E 2E 3E 4E 5E f5 O_ 6E 7E @m 8E ZA 9E 0E Tn aE ]i a( bE cE dE #g eE fE 6a B9 gE hE iE 8x DC 3^ wc :- jE kE :i zt lE $> Z; 9z ,^ ,^ g9 >! mE nE oE pE qE rE sE tE MC NC uE vE RC wE xE yE Ra zE Ra AE l^ BE CE DE EE FE GE HE IE JE KE LE ME NE OE PE QE RE SE TE UE VE WE XE YE ZE `E  F .F +F @F #F $F %F $# ]u &F *F =F Hk -F w, ;F >F ,F 'F )F J{ 5% )8 !F ~F {F ]F ^F /F (F _F :F H> <F [F }F |F 1F 2F 3F 4F 5F 6F hw y4 }n m8 `* 7F Sq n4 DD 2l 8F rD 9F Es <j :y wD 2l 0F Es 6y aF bF cF :j dF tu eF fF 1l $p 4A Es gF $p oD k0 .] hF <n ;p N| T| {] iF 9A jF +; @; kF Q| m8 `* R% lF 8l 8l mF [/ nF oF pF qF rF sF tF uF tl vF b~ wF _6 xF 7, yF zF (w uf AF 4, BF CF vd DF EF FF Cj GF wA HF IF %E ",
"JF 6r KF LF MF NF OF PF QF RF SF TF UF VF WF XF YF Zj ZF `F 'z  G .G +G @G #G $G %G &G *G Pf )c =G -G ;G >G ,G 'G )G _e !G ~G {G ]G f7 7^ ^G /G (G _G )G :G W5 C9 <: <G [G 8x DC R  qk c^ }G -[ |G 1G lE 2G ,B ^( '^ 3G 4G >! !B E} 5G 6G 7G 8G 9G 0G aG bG cG dG eG fG gG hG iG Rt gG Fe jG kG lG mG nG oG pG qG rG sG tG uG vG wG xG yG zG AG BG CG DG EG FG GG HG IG JG KG LG MG NG OG PG QG RG H{ SG M@ TG .@ UG g- VG WG XG YG k[ ZG `G m*  H ^F .H +H @H Io #H $w $H %H &H *H =H -H P> ;H >H ,H 'H )H Y: ky y4 ;_ X: ]h m6 !H ZB n4 `o dF ~H [j <j <j n4 Rq {H }f ]H qu :f cF pu 8y Xq ou ^H  p Gs /H aw (H  r 9l 6# (# I| <n ', ~+ hw :/ _H :H <h 9l -) ', hd o# A4 X: <H o0 [H }H |H 1H 2H 3H 4H 5H 6H 7H 8H 9H 0H aH bH cH B: dH zF eH fH gH hH iH jH kH lH mH nH oH h) Yu pH HF qH rH ",
"sH tH uH q, vH wH xH yH zH AH BH CH DH EH FH GH HH IH +e JH KH 4E T6 LH MH NH OH PH QH RH #e EH SH TH @z UH VH !i WH XH !G )G YH ZH pa `H ^G  I .I +I @I #I $I %I &I [q T5 *I G$ ;- wv c^ F$ H1 ui 1G >{ >B '^ =' '^ =I -I !' !o ;I >I ,I 'I )I !I ~I {I ]I ^I /I (I _I :I <I [I }I |I 1I 2I 3I 4I 5I 6I 7I 8I 9I 0I aI bI cI dI eI fI gI hI iI jI kI lI mI nI oI pI qI rI sI tI uI {4 &b vI wI }% xI yI .@ po Eg zI t* AI BI 82 CI DI jA EI 2% FI ^F GI HI II JI k. gA  t KI LI MI NI OI PI PB QI RI SI TI >_ >_ S[ >~ >] %) %) >/ wD !H [j UI ju <j <j VI 6b tD Es uD WI XI $p YI ZI 0b wD 2l `I  J .J +J @J DD n4 >~ (# ,] >~ <n l0 ;) 8f {] bj #J $J %J 0l 9l &J A4 o# o# (h lw *J [H =J 1H -J ;J >J ,J 'J )J J6 !J ~J {J ]J a) ^J 9_ /J <= S4 (J _J :J <J [J }J j> Bh |J 1J wA 2J U0 3J 4J ",
"5J 6J 7J 8J 9J 0J aJ bJ cJ dJ eJ fJ gJ hJ iJ jJ kJ lJ mJ nJ O; oJ pJ qJ <& w/ rJ sJ tJ uJ vJ wJ jC 5E xJ yJ zJ AJ Ar XH XH BJ BJ CJ DJ }' EJ cE FJ GJ @I #I R3 HJ jc $s IJ JJ ': c^ KJ 2k F$ H1 Sr LJ >{ >B MJ ,B '^ '^ NJ NJ !o OJ PJ QJ RJ SJ TJ UJ VJ WJ XJ YJ ZJ `J 5m we  K .K +K @K #K $K %K &K *K =K -K ;K >K ,K 'K )K !K ~K {K ]K ^K /K (K _K :K <K [K }K |K 1K 2K 3K t( Vw 4K 5K 7| ,w v: Y@ 6K 7K 8K 9K 0K aK bK cK dK eK GB L{ SD A> fK gK hK iK jK kK lK mK nK oK pK qK rK sK tK PB QI kD W> uK Ms zu Vo >~ >] >] %) vK wK 40 [j xK 'n d# h0 }d 40 <f yK <j zK AK  J 4A Wq iy wD 0b 3A fy BK YI CK DD ~n >~ 0y aA #J 8j dj >) 8f :n bj DK 0l >~ EK ky *~ O% `* ;) 9l /h p0 bf [/ nF FK GK HK IK JK KK LK MK NK OK PK QK k+ RK SK eH Ru xw TK UK VK WK XK YK ZK }c `K  L .L +L @L #L ",
"$L %L &L *L =L -L ;L >L ,L 'L )L !L ~L {L ]L Kd ^L /L (L _L :L o1 ;3 <L [L v} }L &x Uf |L |J _C 1L 5E 2L yJ 3L wC ~G 4L 5L j5 6L 7L 8L }' Ai 9L +I +I 0L aL bL cL y5 dL eL [* fL gL hL iL {s Xp -[ jL (@ ;B ^( =' ^( '^ kL ,B mE G} oE lL mL nL oL pL ,I qL rL sL tL uL vL wL sL xL yL zL AL BL CL DL EL FL GL HL IL JL KL LL ML NL OL PL QL RL SL TL UL VL nI WL XL IG YL ZL `L  M .M +M @M #M Zx $# Cm $M %M &M *M =M M@ -M ;M >M ,M R^  @ %# E{ 'M )M !M ~M {M ]M ^M /M (M _M :M <M [M }M |M kD 1M 2M 3M '~ 4M 5M -) >] N% 6M vK 7M 8M {f !l ^f z| As 9M B2 0M aM <j |A bM bM ZB /l cM wD $p 0b 0b 0b iy dM DD  r >~ /h eM fM gM m0 hw hM iM jM 9A += -_ J| BK .= // >~ 9l 9l /h S| py kM ID 1w lM mM nM oM pM qM rM sM tM uM vM wM 2, 7_ xM N# yM #5 zM AM BM CM DM EM FM &9 GM HM Ly IM JM ",
"KM LM MM NM OM PM QM RM SM TM <r UM VM WM XM YM ZM d5 `M  N 53 o1 .N +N @N #N wp h, $N 25 |J %N &N *N =N -N ;N )i ~G >N ,N 'N )N !N ~N {N ]N ^N @m zr xC w@ Q5 /N (N Cv _N :N <N [N }N iL |N 89 .* 1N 2N !{ '^ =' ^( '^ r7 ,B =' 3N 4N 5N 6N 7N 8N 9N 0N aN bN cN dN eN fN gN hN iN jN kN lN mN nN oN pN qN tG rN sN tN uN vN wN xN yN zN AN BN CN DN EN FN GN HN IN IG JN KN LN MN NN +M Pi ON PN QN RN SN TN UN f: $8 VN WN XN C' YN jq vy ZN `N  O .O +O @O JI #O ^M /M $O %O &O *O -H =O |M PB !A ^, -O ;O >O Y. z4 >] N% 7b 40 m6 78 o% &_ U- Y- As wK 3y 0M (l n4 Fs ou [j 2l yD Rq wD 2l $p 2l 2l `B DD ,O ku N% -) Vo o0 'O mu )~ hM )O bj #J n# .] BK !O 5f 9l -) >~ 0l %J )~ Qs ~O {O ]O ^O /O (O _O :O <O [O }O |O 1O 2O 3O 4O O0 5O 5) 6O 7O &A 8O 9O 0O aO bO cO dO }L eO fO }& gO ",
"hO iO jO jO kO lO mO nO oO pO qO rO sO m1 tO uO XM Jd jC o1 >3 vO wO xO yO zO /v AO @G BO c5 U) CO DO EO FO GO 2e WH HO ot IO j5 JO KO LO 2[ MO NO OO PO QO 6a RO SO Y1 TO UO VO WO XO kc 7' F$ YO ZO M& a! `O l5 lv lv  P .P +P 3N @P #P $P mL %P &P *P =P -P ;P >P ,P 'P )P !P ~P {P ]P 6I ^P /P (P _P :P <P [P }P |P 1P 2P 3P 4P 5P 6P 7P 8P 9P 0P aP bP cP FG dP eP fP gP hP e- iP O, }| jP Fg kP 9s F; *F lP /% mP nP r& oP pP qP rP sP tP uP vP wP xP yP 8D F' [u /= zP AP BP CP DP EP FP GP HP IP ~# JP J- F4 KP O% *~ 7b H| LP MP 6M NP `' OP h4 PP QP ,n 2l (l wD ku wD =n 8w :j iy $p FD 0b 8y 1l |d 0b RP %) >~ /h >_ P% #J SP TP UP VP @C WP +; ED XP }n -) -) X: 9l 6l Y: py YP ZP `P  Q .Q +Q @Q #Q $Q [O %Q &Q Ou P{ *Q =Q -Q ;Q n/ 6O !8 >Q ,Q 'Q )Q !Q Vu d5 ~Q t} {Q $E +L ]Q ",
"^Q II /Q (Q _Q :Q <Q [Q }Q |Q 1Q .E &x w+ 2Q 3Q vA M8 4Q 5Q p] o1 )c Ub 6Q %e 7Q 8Q 9Q 73 0Q up aQ `F bQ cQ dQ eQ fQ gQ hQ iQ jQ kQ lQ mQ |* nQ oQ pQ qQ =2 j@ rQ I5 sQ tQ uQ vQ wQ xQ kc yQ jE P} zQ AQ >m 4k U& lv U& lv nc ^( BQ CQ DQ $P EQ FQ GQ HQ IQ JQ KQ LQ MQ NQ OQ PQ QQ RQ SQ TQ UQ VQ WQ XQ YQ ZQ `Q  R .R +R @R #R $R %R &R *R =R -R ;R >R ,R cP WE 'R )R !R ~R {R ]R ym 0. ^R Gg /R (R _R :R <R [R }R $8 |R 1R 2R 3R '8 s' 4R 5R 6R 7R 8R pP 9R 0R aR bR 44 cR dR eR CP fR gR hR iR jR 6h kR vs :d lR %~ z4 -) W- W- ws 0A ^j mR p% 4# ._ vD >/ Yq ,n ZB 2l ku ku 8w nR DD hy $p 0b 2l (l oR (l }n RP %) ;_ )n 0y P% #J cj pR qR rR ,l sR ;] ku `I x| >~ -) N% ;) 0j S[ SP tR uR vR wR xR yR L0 zR AR BR CR DR ER FR GR HR @5 IR JR KR LR +# MR o+ p' NR Uf OR PR A< QR RR SR TR ",
"UR II VR WR XR YR ZR `R  S .S +S @S xp #S $S %S &S *S =S -S ;S o1 }v Qf >S ,S 0Q `f )e RH 'S )S !S ~S {S ]S ^S /S (S _S 'N :S <S kQ [S LO }S |S 1S 3a BJ 2S $I 3S fk 4S 5S 6S 7S iL 8S 9S 0S aS P} zQ *^ bS cS U& dS lv U&  P ,B eS fS gS hS iS jS kS lS IQ mS nS oS pS qS rS sS tS uS vS wS xS yS zS AS BS CS DS ES FS GS HS IS JS KS LS MS NS qm !D OS PS cP QS RS SS {D TS US VS L) WS XS YS ZS `S !0 6.  T .T +T @T #T $T %T &T *T l: t. =T y> -T ;T >T ,T 'T `N )T !T ~T {T ]T ^T -H /T (T _T :T 6h <T [T =l }T $~ =) ,] %) %) LP |T 1T 2T _# G* 3T Rq (l Rq :j DD iy $p Fs ;h nR DD ZB }n 3A  J `I 4T 2l ~n n4 x| }n xs Uq *~ %J hw 5T 6T )O D| +; sR y4 xs N% N% -) -) >~ 9l 0l aj 7T 8T 9T 0T aT bT cT dT eT fT gT hT iT jT kT lT mT L# nT _< oT pT 2p qT rT sT 45 tT uT vT wT Fj xT {Q ",
"UR yT zT AT BT CT DT Y+ AH ^} x+ ET FT GT HT IT JT KT LT 23 MT vO NT OT PT DH QT gJ RT ~c ST 27 TT UT VT WT XT _9 kQ YT ZT m' m' `T KO  U }S f> .U +U <S @U gg #U $U %U &U *U =U 7' -U 9S yQ jE P} zQ !m ;U *| >U U& U& >U Y; ,U 'U )U !U hS ~U {U ]U ^U /U (U _U :U <U [U }U |U 1U 2U 3U 4U 5U 6U 7U 8U 9U 0U aU bU cU dU eU fU gU hU iU jU kU lU IG mU nU oU pU qU rU sU TS tU uU mP vU wU xU yU zU L{ .@ 22 AU BU CU DU sw I! EU FU GU s. HU IU JU 8R KU k[ LU #A EI MU NU OU PU QU ]d RU SU TU :T UU V[ VU lR '_ X: I| >] >] >] ws WU XU [h YU G* $] :j (l yD (H /l J| J| ZB ZU nR DD ZB ku oR oR  J oR 0b 0b ~n // $p F2 Vo >~ 9l oy `U  V )O .V N. ;] oD +V @V O% N% >~ >~ >~ 0l 2h #V $V 9T %V &V *V =V -V ;V >V ,V 'V )V !V ~V L# {V ]V oT D- ^V /V L# (V _V :V <V /v [V }V |V 1V 2V 3V ",
"4V 5V 6V 7V 8V 9V 0V aV bV cV dV vT eV fV gV *z hV iV jV kV y/ 4Q #e Xu lV RH mV WM nV _} oV pV qV rV sV tV .U _9 uV vV wV xV yV zV 9- AV 9- BV CV k! +U DV EV /N FV ig &U 6S k9 |N wv wc |N ga GV f( vi !( HV :@ IV IV lE Y; JV Z& KV LV MV NV OV PV QV RV SV TV UV VV WV XV YV ZV `V  W .W +W @W #W $W %W &W *W =W -W ;W >W ,W 'W ]| )W !W ~W rU {W ]W ^W HN /W (W _W :W <W [W }W |W 1W 2W 3W &M G> 4W 5W 6W 7W 8W 9W #T M@ 0W aW A: '4 bW cW dW eW 8R fW gW Fo hW iW xF jW kW lW mW nW #h oW pW Lq qW 1/ rW sW [/ tW l0 >] >] >] U: ws uW d4 *, 2# _l vW :l <l (H qu YI +C Wq wW YI Yq ,O 0b gM oR F2 ky .= [n -) // 2l oR Ls 9l l0 p0 xW yW jM >_ A% 5l zW Ls M| x| N% 9l >~ N% WP kF AW BW CW DW EW FW GW HW IW JW KW LW 4_ MW GW Nb G# m+ K> 24 AF zF NW OW PW QW RW SW {Q TW UW VW WW XW ",
"YW ZW `W `z  X .X +X @X #X $X dV `u %X &X X# *X =X vJ )c y/ -X a1 ;X z/ >X i, ,X /1 %S p~ Kd 'X qV )X !X ~X {X 5L ]X ^X /X (X _X :X <X Gc [X BV }X k! +U |X 1X La h! 2X .. 3X 4X 5X 6X 7X 5z Y$ F$ &I =B @o Z$ 8X ^- ^- ^- .P Y_ 9X 0X aX bX cX dX eX fX gX hX iX jX kX lX mX nX oX pX qX rX sX sX tX uX vX wX xX yX zX AX BX CX DX EX FX GX HX IX eP JX KX LX MX pU NX OX PX QX RX SX TX 2W Q@ =M UX VX ;6 WX 7W L) 5| Iu $T _R XX &# +A YX ZX `X  Y .Y +Y @Y #Y $Y f~ ,y %Y &Y *Y =Y -Y ;Y >Y ,Y !A 'Y Q% ]+ )Y =p 5M -) %) W- W- %) %) !Y ~Y #) 70 {Y 'n :j :j ]Y ^Y DD /Y DD (Y _Y pu pu }n HD 'O gy 9l -) ;) >~ // n4 dw jy ', :Y <Y )O rR #J -) Y. $p BK J| _Y Fs  r >~ -) >~ e4 4h &; [Y CW }Y |Y 1Y 2Y 3Y 4Y 5Y 6Y 7Y 8Y 9Y iT 0Y aY bY /J cY dY !1 eY fY gY hY iY jY kY lY mY x+ SW nY ",
"oY pY qY rY sY tY uY vY mn wY %E `u xY yY Uf zY AY 73 OT BY >3 CY DY V0 Ld EY FY GY %S HY IY JY KY LY MY ~X jQ 5L NY OY PY QY RY 2* SY &B SY TY UY l! <S VY DV WY XY [9 ~- 3X YY ZY nx `Y  Z im 6> 0x Q< @o K& 7> ^- 2! .Z nc <m D$ +Z @Z #Z $Z %Z &Z *Z =Z -Z ;Z >Z ,Z 'Z )Z !Z ~Z {Z ]Z ^Z /Z (Z _Z :Z <Z [Z }Z |Z 1Z 2Z 3Z 4Z 5Z 6Z 7Z 8Z 9Z 0Z aZ bZ cZ dZ /W eZ ZJ fZ gZ hZ iZ jZ kZ lZ P@ mZ r> nZ oZ pZ AU mP 9[ qZ rZ sZ 7s tZ J( uZ tq vZ wZ xZ yZ zZ D{ AZ BZ jA zP CZ DZ EZ FZ GZ >Y HZ !A IZ E. ]+ ^+ Ms ws W- W- %) W- W- %) J[ JZ KZ h0 -n LZ /l Es dF MZ /H YI aF (Y pD 2l ku /n m0 Rs ky >~ -) N% N% I| RP Vq @p 9A '~ Qs )O rR Y: -) -) $p hy 0b CD 2l $p // -) 9l NZ !Y S% OZ PZ QZ RZ SZ TZ UZ VZ WZ XZ YZ ZZ `Z  ` .` (; +` @` #` $` ~= cY %` &` *` j> =` -` ;` >` ,` '` #S ",
")` !` ~` {` ]` ^` /` (` _` :` <` [` }` |` :a 1` 2` @G *G 15 3` jJ 4` Xu 5` 6` `K 7` 8` 9` p~ 0` a` b` c` d` e` (S f` g` h` i` 1e qQ j` k` l` j' p^ k! jQ m` n` o` p` q` r` K$ s` ZY wv t`  Z u` >: M3 Q< v` a! w` 2! 2! x` A5 y` #q z` A` #Z B` C` D` E` F` G` H` I` J` K` L` M` N` O` P` Q` R` S` T` U` V` W` X` Y` Z` ``   .. .+ .@ .UO # .# .$ .% .rU & .* .= .- .; .> ., .' .) .! .~ .{ .] .^ ./ .( ._ .: .< .iP `/ nK 8s J! v- j. [ .} .r- | .1 .2 .3 .4 .5 .AZ 6 .7 .8 .9 .0 .a .b .c .>Y d .e .f .k% k% g .h .#+ 6b W- %) 7b 7b %) i .YU U- Fs Rq 4A /l Es j .k .nR DD /l (Y >h ku al Y. }T m0 )n -) N% u2 m4 jF ^h l .0y Ps hw <Y m .n ./h -) N% 0b 3A ED &/ cM wD  r 9l >~ A4 (+ K2 o .p .q .r .s .t .u .v .w .x .y .z .A .B .C .D .E .F .h~ G .H .I .o+ J .K .L .M .N .YK O .rH 35 P .",
"Q .R .S .*8 T .U .V .W .6= X .Y .Z .cV xp ` .s}  ..NH 'S ...+..uA #e g) N8 @..#..j) $..%..UF o~  N &..*..Np 5L jQ =..-..;..XT >..,..9- *2 '..)..TY l' !..XH ~..{..[X ]..^..Ac /..(.._..:..gL be <..M3 Q< '{ a{ {@ 2! ^- %! [..Y_ }..|..1..2..3..4..5..6..7..8..9..0..a..b..c..d..e..f..g..h..i..j..k..l..m..n..o..p..q..r..s..t..u..v..w..x..y..9Z $ .z..A..B..C..(W NX D..E..F..G..H..I..J..NG K..VN 8* L..M..q' 8W N..O..!4 P..Q..m> v- R..S..T.. Y U..V..W..X..Y..Z..t* `.. +..+.++.@+.#+.$+.%+.!A &+.7F {j g .ws *+.n4 %) W- 7b 7b W- =+.z4 88 2l :l :j DD :j tu Zq 4A DD 4A (Y ,O u2 O% f4 -+.hd /h -) N%  r  r (/ n%  r ;+.jM oy >+.n .,+.ew -) =~ ED !O Gs  C '+.Gs y4 6l >~ =p sb wu )+.!+.~+.{+.]+.^+./+.(+.`2 _+.:+.<+.{< [+.}+.|+.1+.2+.f2 2+.3+.4+.q[ 5+.6+.7+.8+.9+.0+.a+.b+.u} '` ",
"c+.d+.e+.-L f+.g+.h+.03 i+.j+.[` k+.l+.m+.9C n+.xp o+.p+.q+.[v +E )c OT oV r+.7` s+.O8 i, t+.JY qV u+.v+.w+.x+.0: y+.z+.A+.B+.C+.}. Y5 D+.E+.F+.G+._S H+.I+.J+.K+.L+.M+.N+.O+.P+.Q+.be R+.S+.#s T+.0x zQ U+.V+.~[ -* W+.>{ Y; X+.Y+.Z+.`+. @..@.+@.@@.#@.$@.%@.&@.*@.=@.-@.;@.>@.,@.'@.)@.!@.~@.{@.]@.^@./@.(@._@.:@.<@.[@.}@.|@.1@.2@.3@.m( HX $4 4@.5@.6@.|@.7@.8@.9@.0@.a@.b@.c@.n} d@.e@.mP f@.g@.h@.i@.b* #T dn j@.k@.fY l@.g- m@.n@.o@.p@.q@.r@.s@.t@.u@.v@.w@.x@.y@.z@.A@.B@.C@.0u D@.E@.F@.G@.H@.I@.iw m0 0y *+.qD W- 7b 7b !H du z4 -) <j ZB DD Rq J@.CD :l K@.L@.qu M@.N@.wD Sq du X: q0 m0 Rs >~ y| hy 0b 5l N% >~ O@.>) ew mw jM P@.Q@.N% N% fy 4A cM ZI dw R@.nu #J /h ew )~ S@.T@.Vs U@.V@.W@.X@.Y@.Z@.L0 o/ `@. #.J> *f .#.+#.NW D- @#.fH 3+.j+ ##.$#.kZ %#.&#.*#.=#.-#.;#.uT >#.",
",#.'#.)#.!#.~#.{#.]#.^#.0; /#.K_ (#._#.:#.)L <#.[#.NH }#.|#.[v Qf }v #e +E 1#.Zu s+.2#.Xu 3#.4#.5#.6#.gt 7#.8#.9#.0#.a#.b#.c#.Gr (| d#.e#.f#.g#.h#.3[ i#.j#.k#.l#.m#.n#.N+.o#.p#.v5 8S q#.r#.s#.t#./i 0! &{ u#.)[ Z$ 7z v#.w#.^( x#.y#.z#.A#.B#.C#.D#.E#.F#.G#.H#.I#.J#.K#.L#.M#.N#.O#.P#.Q#.R#.S#.T#.U#.V#.W#.X#.Y#.Z#.`#. $..$.1@.rx +$.HX $ .$4 @$.#$.$$.%$.&$.*$.=$.-$.;$.>$.,$.'$.)$.{ .!$.~$.r> mA h@.k| {$.]$.^$./$.&1 ($._$.:$.<$.[$.}$.|$.1$.2$.3$.4$.5$.6$.7$.iq 8$.9$.0$.a$.b$.c$.E@.d$.&h e$.4M iw /h )n f$.i .7b 7b 7b wD y| z4 /n n4 2l 4A g$.sR -_ :y Wq h$.ey i$.hy 2l =+.N% -) =p >_ Uq -) y4 Wq 0b [n -) N% O@.Y: /h ;p :n VP _/ ,, Sq Yo YI YI j$.}l k$.$C /h P% mu Y: l$.ID &C %V m$.n$.o$.$` p$._J q$.r$.s$.r$.[= (V B6 dH H .I .t$.G .u$.v$.w$.p' x$.y$.z$.A$.B$.w+ C$.D$.",
"E$.F$.G$.H$.I$.J$.K$.L$.M$._& N$.O$.iY BH P$.Q$.^7 /v R$.S$._1 3` T$.+E yl U$.U0 s+.N8 Qf jJ V$.W$.X$.Y$.Z$.`$. %.&...%.9#.+%.@%.G@ #%.$%.%%.&%.*%.}X =%.-%.;%.>%.,%.'%.)%.!%.~%.be {%.]%.^%./%.px xc (%._%.{: :%.At W+.lv <%.dx [%.}%.|%.1%.2%.3%.4%.5%.6%.7%.8%.9%.0%.a%.b%.c%.d%.e%.f%.g%.h%.i%.j%.k%.l%.m%.n%.o%.p%.q%.wc r%.1@.yk s%.HX t%.u%.v%.w%.x%.y%.&$.RS z%.A%.B%.C%.D%.E%.F%.G%.NN H%.I%./= J%.h@.M..K%.L%.M%.N%.*j O%. O P%.Q%.q- R%.S%.8R T%.U%.V%.W%.rh }; X%.Y%.Z%.`%. &..&.E@.+&.@&.#&.LP $&.ws %&.&&.J[ 7b 7b *&.,n ku -) =+.~n }n pu %/ +; -_ }n pD dM =&.zD 3A xs ,] -&.;&.'O 1l C| -)  r >&.>&..= U: P% ,&.$C ew ]j '&.)&.>_ .] y| wD hy !&.~&.BD {&.Y: /h =p %J mu oy '_ cl ]&.^&./&.(&.eH S4 _&.:&.<&.[&.}&.Mb i/ xy |&.1&.%} 2&.3&.4&.5&.6&.7&.8&.9&.0&.a&.2r b&.c&.d&.",
"e&.f&.g&.h&.i&.j&.k&.l&.m&.n&.o&.p&.q&.r&.s&.t&.u&.{c v&.Xu w&.YM Qf ,t 3#.x&.U0 s+.y&.z&.A&.B&.C&.D&.E&.F&.G&.H&.I&. %.J&.K&.L&.p^ M&.N&.O&.P&.Q&.R&.l{ S&.T&.U&.V&.W&.~N 0g X&.{%.Y&.Z&.`&.2k  *.xc (%..*.+*.Fc 4k @*.q3 Z) #*.$*.%*.&*.**.=*.-*.;*.>*.,*.'*.)*.!*.~*.{*.]*.^*./*.(*._*.:*.<*.[*.}*.|*.1*.2*.3*.4*.5*.6*.7*.8*.2@.9*.s%.HX 0*.a*.b*.c*.d*.e*.f*.IX g*.h*.i*.j*.k*.|W +t f: XS 9[ l*.k| J%.h@.m*.n*.o*.p*.q*.}6 r*.s*.t*.eW u*.v*.w*.x*.y*.z*.A*.B*.C*.,& D*.E*.F*.G*.H*.I*.E@.FP J*.K*.L*.M*.N*.,/ wK A2 H| A2 O*.2l al >] %) n4 }n pD l8 @) P*.'+.cy ]H Q*.K@.xs R*.>_ 'O h$.S*.T*.-&.-) }n YI $p u2 /h >_ nu $C U*.V*.W*.X*.Y*.g6 2l ~n fy Z*.`*. =..=.mu #J >_ HD X: p0 #V +=.@=.#=.$=.%=.O6 7] Ku &=.^+.e+ *=.==.5, @M [; -=.;=.2_ >=.,=.'=.)=.!=.~=.{=.]=.^=./=.;#.(=.Fj ",
"_=.:=.<=.[=.}=.|=.1=.2=.3=.n&.4=.5=.6=.7=.8=.9=.gC 0=.a=.VF YM t+.b=.3` T$.c=.Zu d=.e=.t+.f=.g=.h=.i=.j=.k=.l=.m=.n=.o=.p=.q=.r=.3[ 4- N&.O&.s=.t=.u=.v=.w=.x=.y=.z=.QO A=.0g jE B=.Kt C=.wQ D=.E=.p9 F=.q$ _N G=.H=.@*.gc 5i f7 I=.J=.K=.L=.M=.N=.O=.P=.Q=.R=.S=.T=.U=.V=.W=.X=.Y=.Z=.`=. -..-.+-.@-.#-.$-.%-.&-.*-.=-.--.99 ;-.Av w..m^ >-.,-.a*.'-.)-.!-.~-.XE {-.]-.^-./-.(-._-.o! :-.<-.O, [-.|$ }-.mA  0 |-.P@ 1-.2-.q*.K> 3-.&0 Pk 4-.5-.6-.7-.]F 8-.9-.0-.6 .fH I> a-.b-.c-.,A d-.e-.f-.g-.G@.X*.h-.i-.!Y W- kb J[ H| W- %) u2 ;) 6M m6 :y ku $p j-.J@.k-.CK @J l-.m-.n-.Ks Q@.eM 9w XI Q*.1A -&.-)  r K@.iy u2 ,&.0y $C o-.n .p-.q-.r-.k% Sq ou ou hy XB s-. =.t-.Vo #J >_ ;) S[ aj #V u-.v-.w-.x-.y-.z-.A-.ql B-.C-.#t D-.E-.F-.&b G-.H-.I-.J-.H-.$O x8 K-.Ek L-.M-.N-.O-.P-.Q-.R-.S-.",
"T-.U-.V-.W-.u{ }R X-.Y-.Z-.`-. ;.xl .;.-z o&.$( +;.@;.,3 N8 Xu N8 #;.Qf $;.p~ %;.&;.*;._1 =;.-;.;;.>;.,;.8#.';.);.!;.~;.{;.];.^;.p^ /;.(;._;.:;.*%.<;.[;.};.|;.1;.(| 2;.3;.Rt 4;.5;.6;.7;.8;.(i 7' I1 mk ;U !- 9;.wi dS lv 0;.a;.b;.c;.d;.e;.f;.g;.h;.i;.j;.k;.l;.m;.n;.o;.p;.q;.r;.s;.t;.u;.v;.w;.x;.y;.z;.A;.B;.C;.jU D;.E;.>: F;.u..G;.H;.I;.J;.K;.H3 !-.}K L;.XL M;.N;.O;.P;.Q;.)$.Ek f: R;.9W Gk a. }3 S;.RM ] .T;.6&.Q# U;.V;.W;.X;.Y;.V..Z;.0R `;.s*. >..>.+>.4) =V @>.#>.$>.%>.&>.,A *>.=>.->.;>.-l lR >>.lu 8F N*.,>.%) %) >~ @V ws m6 :y }n }n J| J| J| cy @J Is '>.)>.2A !>.~>.{>.]>.^>./>.}n `* oD YI $p /n o0 (>.0A _>.:>.<>.&J $~ Q% XU ;&.3A .J Js 1A xs 1l >) m0 '~ S[ lw [>.ID }>.|>.1>.2>.3>.k/ 4>.5>.'& 6>.dD F# 7>.c* Kg 8>.9>.0>.a>.b>.c>.D8 d>.u( e>.f>.g>.q&.h>.i>.j>.k>.",
"Hh l>.m>.n>.o>.p>.q>.r>.s>.t>.7  NR u>.v>.o&.w>.[#.o+.a=.N8 #e x>.y>.f=.}v z>.A>.EY B>.Kd C>.D>.E>.F>.G>.H>.I>.b` J>.K>.L>.M>.N>.O>.o^ (;.P>.Q>.R>.5[ S>.T>.U>.V>.W>.X>.Y>.Z>.jE 5;.-. `>. ,..,.+,.]g {* .2 @,.9;.#,.$,.lv 0;.%,.PJ &,.*,.=,.-,.;,.>,.,,.',.),.!,.~,.{,.],.^,./,.(,._,.:,.<,.[,.},.|,.1,.2,.3,.4,.5,.wg xE 9x >: 6,.u..7,.^| 8,.9,.0,.a,.b,.#$.c,.d,.e,.f,.g,.h,.Q;.i,.j,.1-.$8 k,.l,.q& : .@b m,.n,.o,.~r w$.gA ;C p,.x: q,.r,.2$.yq s,.t,.u,..>.gs @#.]J v,.w,.x,.^y y,.z,.A,.B,.C,.D,.X*.-+.3b YU 5M I[ E,.W- W- N% >~ U: $_ F,.0b 2l $p 0b $p DD cy G,.H,.I,.oR J,.K,.2A L,.M,.Yo 5j R% // pD }n y| >_ D| U*.N,.O,.P,.{&.X: #; =+.wD h8 Q,.+p R,.T*.S,.zu >) zu Q| p0 l$.T,.U,.V,.W,.X,.Y,.Z,.`,. '.OD .'.G# +'.@'.E_ #'.{1 $'.%'.&'.*'.='.-'. ( ;'.>'.,'.''.)'.!'.~'.[V {'.",
"]'.^'./'.`W F; ('.aO _'.:'.<'.['.}'.|'.iY 1'.$( }E 2'.f_ 3'.4'.5'.6'.7'.8'.9'.0'.a'.b'.c'.d'.e'.f'.g'.,G h'.i'.JH j'.k'.{;.l'.m'.n'.o'.p'.q'.r'.s'.t'.u'.v'.w'.x'.y'.o( z'.A'.aS {%.B'.C'.D'.E'. *.]g mk F'.;U ze G'.H'.lv #{ I'.J'.K'.L'.M'.N'.O'.P'.Q'.R'.S'.T'.U'.V'.W'.X'.Y'.Z'.`'. )..).+).@).#).$).%).&).*).=).-).;).9x >).vg G;.,).').G;.)).K;.c*.!).KX Iz _W ~).{).]).^).Q;.1W /).f: *M O, &M i- kP d2 ()._)._V Eb :).<).CU ( .[).}).|).1).2).3).4).5).6).a2 7).8).9).0).a).,A b).c).d).e).f).g).h).i).j).{j k).l).L[ H| 7b >] >] du N* z| ~n 0b ou $p $p iy /H m).n).AD oR l .o). J WB WB uD L| Q% z4 $p <n x| N% >l $C p).q).r).s).=+.06 p2 h8 CD Q,.tu  J gM `q ws m0 Ms C2 >) hM t).u).v).w).x).y).z).A).B).&3 AF C).D).E).~r N..F).=r G).H).S# I).&} /M iP jf J).''.)'.K).[V L).M).",
"N).O).P).Q).R).S).T).U).Zh V).W).X).Y).Z).`).8=. !.m1 i) ;X 4'..!.+!.@!.FH #!.y&.j3 +!.$!.%!.gr &!.*!.=!.-!.;!.>!.,!.'!.)!.p=.!!.t'.~!.`3 {!.]!.^!./!.(!._!.:!.[;.<!.[!.}!.|!.va {%.B'.1!.2!.3!.u` Wp 4!.F'.@,.9;.5!.4g dS 6!.7!.8!.9!.0!.a!.b!.c!.d!.e!.f!.g!.h!.i!.j!.k!.l!.m!.n!.o!.p!.q!.r!.s!.t!.u!.v!.8G w!.x!.y!.z!.9x iv A!.7,.B!.C!.D!.E!.K;.Jc b,.F!.G!.H!.I!.J!.K!.L!.M!.1W J..Ek AU N!.O!.i- i- N@ h@.8>.G%.Eb P!.Q!.R!.S!.T!.U!.V!.W!.X!.Y!.Z!.`!.6).gs ql 3,  ~..~.+~.@~.#~.$~.%~.&~.*~.=~.%C -~.;~.>~.,~.H| H| A2 A2 %) N% =~ k# */ o4 2l $p J| 0b J| !&.'~.m).dM 2l Vq  r >&.L@.su )~.L| {+ O% !~.<n >] -) mu |T _>.~~.{~.by v2 e4 >+ ]~.&/ Wq h$.;&.'O 'O /h '~ Ms ;) T| ^~.t)./~.(~._~.:~.<~.[~.}~.Qu in S4 |~.1~.2~.3~.4~.L%.F%.5~.6~.7~.j@.8~.N%.9~.0~.a~.b~.c~.d~.$E .L k>.",
"e~.f~.#v g~.%0 8&.DM h~.i~.j~.k~.l~.m~.=` n~.o~.p~.q~.r~.;X s~.t~.!S c'. N u~.v~.}v w~.*N x~.f'.y~.z~.A~.B~.C~.D~.D>.E~.F~.G~.H~.I~.J~.K~.n` L~.M~.N~.O~.P~.Q~.R~.S~.Na Mp $2 T~.U~.LC V~.W~.X~.9S M3 )(  2 %I {m Y~.dS dS 6!.Z~.`~. {..{.+{.@{.#{.${.%{.&{.*{.={.-{.;{.>{.,{.'{.){.!{.~{.{{.]{.^{./{.({._{.PV :{.<{.[{.[B F9 8! vg GX 6Z ,).7Z }{.Fv |{.b,.1{.f*.2{.3{.4{.5{.6{.7{.8{.9{.dn @F k,.mZ x{ 0{.a{.mA b{.dn c{.d{.e{.P( f{.6, g{.h{.i{.j{.k{.l{.8| m{.n{.0, o{.p{.q{.r{.G*.s{.t{.u{.v{.w{.x{.y{.#&.z{.A{.B{.40 H| 7b %&.ws ,] @r k# l6 xK <l C{.tu  J v2  p K@.VB D{.ku y| N%  r L@.DD >h (# s6 Uq $p }n RP +; HD U*._>.E{.F{.;&.ou %_ G{.&] +] CD 4A 0w  J H{.-) =p I{.o0 p0 J{.K{.L{.M{.N{.O{.<~.P{.Q{.L> xj !y R{.S{.T{.,r I).'r 8{.U{.V{.W{.X{.D0 Y{.Z{.`{. ].''..].+].@].#].$].",
"%].&].*].=].-].;].>].t^ ,].'].~=.)].!].~].{].]].^].2Q ;5 /].(].t~._]._L JH :].<].FH [].}].!;.|].1].2].3].4].WF 5].6].6].7].8].9].0].a].b].c].d].e].f].g].h].i].j].=% l` k].cg }G U~.l].m].n].X~.{s H5 iE o].!( {m G'.ra H'.p].q].r].s].t].u].v].w].x].y].z].A].'@.B].C].D].E].F].G].H].+).I].J].K].L].M].JC N].O].~%.P].Q].R].8! <B S].C@ C!.C!.T].U].iz V]./I 'D 'D W].X].Y].Z].7{.`].Rb P!.C8 lP  ^..^.().hq O@ +^.@^.!r WS oo N, q& ^w #^.$^.U!.%^.&^.*^.=^.U!.-^.hH ;^.>^.,^.'^.)^.!^.~^.{^.]^.^^./^.(^._^.-l :^.<^.3y W- A2 7b %) O% Y. =/ l6 4A qu L@.Gs ED n4 v2 Gs DD j$.}n /n N% (/ pu Yq J@..] $~ R*.$p ku y| 9l HD $C [^.}^.|^..J fy 2l @~ >+ &/ h8 Wq <l rD *+.g0 1^.2^.VP 3^.YP 4^.5^.6^.7^.8^.9^.|_ 0^.a^.b^.c^.d^.e^.E6 ,r %'.f^.g^.h^.Z].i^.j^.k^.l^.m^.n^.o^.p^.iY q^.L8 A/ r^.",
"s^.u*.t^.u^.v^.w^.#X x^.y^.z^.A^.B^.C^.D^.E^.F^.G^./v 2< Ld H^.I^.J^.^E K^.L^.M^.N^.O^.e'.P^.Q^.R^.S^.T^.U^.V^.W^.J^.X^.Y^.Z^.`^.k{ a- j{  /../.+/.@/.#/.$/.%/.&/.j{ */.H7 =/.7{ -/.;/.>/.,/.'/.V< Sr )/.[' !/.~/.^..4g 4g {/.]/.^/.//.(/._/.:/.</.]P [/.}/.|/.U'.1/.2/.3/.4/.5/.6/.7/.8/.9/.0/.a/.b/.c/.d/.e/.f/.g/.h/.)D '- YY <B 2s i/.j/.k/.l/.m/._B bN oU GG n/.o/.p/.q/.r/.s/.t/.hh o*.u/.v/.w/.x/.y/.b* }-./M z/.K%.A/.<2 uY B/.(< C/.D/.E/.F/.G/.H/.I/.J/.K/._J L/.M/.N/.O/.P/.Q/.R/.S/.T/.U/.RI V/.&h IZ W/.X/.7b %&.4j J[ >] N% x| {f !l 2l /l pu 2l }n y| }n $p 2l wD  p )n U: m8  p F2 nD M| $~ Y/.+C 8j }n 0l #J nu Z/.}^.`/.BD />.ZI _Y CD ED ou Wq <l  (. J H{..(.+(.@(.#(.$(.%(.5^.]&.&(.*(.=(.e+ ==.-(.;(.>(.,(.'(.)(.!(.~(.gh {(.](.^(.%#./(.((._(.:(.<(.[(.}(.|(.My 1(.xT 2(.",
"3(.4(.5(.6(.7(.8(.9(.0(.a(.>e b(.c(.d(.9(.t&.Xy J= e(.f(.p~ Cj g(.h(.i(.j(.k(.l(.m(.n(.o(.p(.q(.r(.s(.t(.u(.v(.V^.w(.x(.a#.y(.!!.z(.A(.W>.ng B(.C(.1[ D(.E(.F(.G(.j{ H(.I(.!%.J(.iL ;/.K(.L(.M(.V< f@ N(._> ;U O(.bL te 8> P(.Q(.R(.S(.T(.U(.V(.W(.X(.Y(.Z(.`(. _.._.+_.@_.#_.$_.%_.&_.*_.=_.-_.;_.>_.,_.'_.)_.x7 s#.!_.xE hm o9 ok ~_.#6 {_.k/.]_.% .^_./_.(_.__.:_.<_.[_.}_.|_.1_.2_.G).3_.4_.sB 5_.6_.)=.I# 7. 7).7_.8_.14 `G 9_.0_.a_.b_.c_.d_.t> e_.f_.xZ g_.U^ h_.i_.j_.k_.l_.m_.n_.o_.p_.q_.r_.s_.d$.5/ t_.:d 06 m6 u_.v_.%) _# N. w_.h0 88 (l Wq pD fu l8 5j 5j nD }n n4 S,.R*.ws /h P% gM 8j I| o# x_.+C FD 8j mu @C rR Z/.y_.z_.YB 0w qu A_.E2 oR ;&.cM /l tu />. p B_.C_.$C hM YP D_.5^.=>.E_.F_.G_.ww H_.I_.(M J_.K_.L_.Y2 `s xd M_.{(.N_.O_.P_.Q_.R_.S_.Zs T_.U_.V_.O-.W_.X_.Y# Y_.",
"Z_.`_. :..:.+:.@:.#:.$:.%:.&:.*:.=:.-:.;:.>:.#k ,:.yA f(.:C VF ':.):.!:.~:.{:.]:.^:./:.(:._:.::.<:.i` [:.JH }:.|:.D>.H&.1:.2:.3:.m'.3[ 4:.5:.6:.7:.8:.D(.9:.u=.0:.Lp Q7 a:.b:.$o -/.c:.K(.d:.e:.V< f:.g:.W  .2 P5 <9 h:.i:.~g j:.&' k:.l:.m:.n:.o:.p:.q:.r:.s:.t:.u:.v:.w:.x:.y:.z:.A:.B:.C:.D:.E:.F:.G:.H:.I:.J:.kc mz @4 o7 K:.L:.M:.$4 N:.O:.}{.P:.Q:.R:.S:.nI T:.U:.V:.W:.X:.8{.Hb Y:.3~.Z:.`:.yy [R  <..<.q[ ww ;(.ww zy +<.@<.[).#<.$<.%<.V^ &<.*<.=<.j* -<.lK o+ ;<.><.,<.'<.9u )<.!<.~<.{<.]<.^<./<.(<._<.:d ]h !H :<.4j N% ,, ,, fu ys 98 50 iy 60 fu @) L| @) al al lu gM Y: _/ ew P% 'O /n ,, >~ <<.gy 0b !~.mu |T $C [<.}<.z_.|<.1<.6y 2<.`q 3<.;&.pD aF Zq +p S,.4<._/ _/ 8f 5<.6<.7<.8<.9<.0<.a<.7~ b<.c<.zj Fu ~p (M Hu d<.e<.f<./(.g<.h<.i<.j<.k<.l<.Z:.m<.n<.o<.p<.q<.^1 wY $X ",
"r<.s<.t<.^ .[< vh u<.v<.w<.a3 b(.x<.T).y<.z<.A<.B<.C<.D<.E<.VF F<.G<.H<.I<.J<.K<.L<.M<.N<.O<.P<.Q<.R<.S<.T<.U<.8'.T<.V<.p=.p=.W<.R<.]2 {2 &4 X<.Y<.VC Z<.`<.!!.a:  [.[e .[.b:.+[.(..@[.#[.$[.%[.V< &[.*[.=[.&^ lg :> l@ :x -[.Q(.;[.>[.,[.'[.)[.![.~[.{[.][.^[./[.([._[.:[.<[.[[.}[.|[.1[.2[.:W 3[.4[.5[.8N 6[._{ E=.-).7[.8[.va 9[.0[.a[./. 7:.b[.xE ;-.c[.d[.e[.f[.g[.h[.i[.*3 j[.H0 'r 3_.k[.l[.sj z/.m[.n[.o[.p[.MU 3) S^ q[.r[.s[.uf t[.{; ~V u[.v[.w[.x[.js Q..y[.z[.A[.B[.C[.D[.E[.F[.G[.T/.H[.I[.(<.1M J[.mD *] ~n K[.4j LP 0y U: fu ys $, p2 L[.fu p2 .] `> l8 RP u2 v2 M[.rR VP 8l /h N[..= L[. r O[.}n wD <h T| P% $C yW P[.Q[.R[.XI )>.S[.T[.n-.pu pD L@.U[.+p YB V[.|T ,_ )~ W[.X[.Y[.SI Z[.`[.2~ /8 o[. }..}.+}.~r D8 y8 E_ Nu @}.#}.$}.%}.&}.*}.=}.l<.-}.;}.>}.,}.'}.)}.O$.^1 !}.",
"~}.{}.]}.[-.^}./}.(}._}.:  :}.<}.[}.^#.}}.|}.|}.1}.7` j) _} H^.2}.3}.4}.5}.6}.7}.8}.cC 9}.0}.a}.b}.c}.d}.e}.f}.u~.:].g}.h}.i}.Z^.j}.4[ &4 ,%.k}.{N l}.m}.n}./!.CV  [.*g o}.p}.Rr q}.r}.s}.t}.u}.V< v}.|k =[.[' lg :> P$ X; w}.2S x}.y}.z}.A}.B}.C}.D}.E}.F}.G}.H}.I}.J}.K}.L}.M}.N}.O}.P}.Q}.R}.S}.T}.U}.V}.W}.X}.Y}.x..Z}.`}.0S qx Gi  |./. .|.1[ +|.t7 @|.d[.#|.$|.%|.&|.*|.=|.-|.j[.;|.;|.>|.Kb sj ,|.'|.P# T^ )|.EI !|.s/ j- R!.~|.s[.{|.]|.xw ^|./|.D' | .(|.7 ._|.Iu :|.<|.[|.}|.||.1|.A,.2|.}w 3|.4|.5|.~f :d 7F >] K[.u_.u_.6|..V w_.9M 7|.$, ^h eu eu Fs nD L[.eu }n }n 8|.9|.0|.a|.@p 'O EK l .'O )n ku RP *~ mw pb $C b|.c|.d|.e|.^>.f|.]>.g|.K@.,O Yq L@..J h|. =.{&.$n ,_ py 7T i|.2H j|.k|.l|.m|.n|.h~ t& 8. Hu ,|.'=.s/ x/.o|.hh p|.q|.r|.s|.t|.u|.v|.w|.<p SX 7{.x|.y|.z|.A|.=` ",
"B|.C|.D|.E|.F|.vh G|.H|.:  :}.I|.J|.L$.K|.)L .k bO L|.M|.N|.0` |:.O|.P|.Q|.R|.S|.T|.U|.V|.W|.X|.Y|.Z|.`|. 1.uA .1.U<.+1.@1.#1.G~.$1.4[ 4[ &4 %1.|o l}.&1.*1.=1.Xn -1.;1.O:.ag $o -/.c:.>1.,1.XO [{ v}.*[.'[ ,| ji .2 S5 '1.)1.`3 !1.~1.{1.]1.^1./1.(1._1.:1.o!.<1.[1.}1.|1.11.21.31.41.51.61.71.81.91.01.V}.a1.-. b1.~_.>q c1.d1.2@.B7 e1.7:./. f1.g1./! h1.i1.oU j1.k1.l1.m1.n1.p' P!.o1.p1.q1.S2 r1.s1.t1.##.L! u1.v1.8~ w1.6_.x1.Rb K-.nZ y1.z1.A1.B1.C1.D1.&j L@ $H E1.F1.G1.H1.I1.J1.K1.L1.M1.N1.O1.P1.e .Q1.J- g4 6M 7b %) R1.S1.&J >/ :y =) _# N% u2  r ~n // al .=  r `B YB T1.U1.{&..J `B V1.`q s)._/ /n z4 @r [/ oy $C @(.y_.W1.X1.^>.Y1.}A j .DD aF /l Rq ED oR Z1..=._/ oy `1.rb  2.>p RI .2.+2.@2.#2.$2.%2.S^ Su &2.*2.=2.5_.-2.'r ;2.*}.>2.,2.'2.)2.ch !2.Rb w! g^.~2.vh {2.]2.^2.",
"/2.(2._2.:2.<2.[2.}2.|2.12.22.32.42.52._& 62.72.82.92.02.Xu a2.b2.c2.d2.e2.f2.g2.V<.e'.::.h2.i2.j2.k2.l2.m2.Qf n2.CO o2.p2.q2.r2.s2.p^ 0- {2 t2.u2.v2.6- w2.x2.Ce y2.z2.VC ag (> U~.tE A2.B2.C2.[{ v}.|k W  @,.;U +. D2.'1.Gc `3 E2.F2.G2.H2.I2.J2.K2.L2.M2.N2.O2.P2.Q2.R2.S2.T2.U2.V2.W2.X2.Y2.Z2.`2. 3..3.+3.@3.#3.$3.%3.&3.*3.=3.=s FX 7:./. K;.-3.}- ;3.1{.>3.,3.'3.)3.!3.j~ _V F6 ~3.J .j@.{3.]3.^3.N@ N@ K) q. *F %H /3.(3.<p c{.O, AU _3.:3.^; <3.[3.}3.|3.l- 13.qT 23.33.43.53.J1.63.73.83.93.03.a3.G@.I@.b3.c3.o4 %) -) >] zu @r P% ^j z4 (# A% xs gM 1T d3.:Y ;_  r l .{&.6|.e3.f3.XB iy V1. =.g3.U*.-) $~ 4h K2 py h3.rR rR f3.i3.XI =&.aF ]Y wW aF /l <j g$.L[.8j Uq /h S| py j3.k3.l3.m3.n3.o3.p3.q3.r3.s3.t3.*& sj u3.v3.@T w3.'r -r x3.Q6 ,}.y3.z3.a>.A3.:p B3.;2.C3.V_.D3.E3.F3.",
"g&.G3.)C H3.|2.I3.J3.K3.L3.M3.N3.O3.52.P3.Q3.R3.S3.T3.U3.M8 V3.b2.W3.X3.Y3.Z3.`3.M<. 4..4.+4.@4.#4.$4.%4._1 yl p] 8'.&4.*4.=4.-4.;4.b: j' i' >4.7:.,4.'4.)4.}s !4.~4.{4.+/.]4.$o ^4.*P /4.(4._4.<{ v}.:4.N(.za ;U `H ~- <4.&B 0> [4.}4.|4.14.24.34.44.54.64.74.84.94.04.a4.b4.c4.d4.e4.f4.g4.h4.i4.j4.k4.l4.m4.vv n4.o4.p4.q4.r4.s4.}o c> t4..|.u4.v4.w4.x4.y4.>3.z4.A4.B4.C4.D4.6_.9~.E4.F4.G4.yy H4.I4.J4.K4.^= L4.M4.N4.s/ y[.F6 O4.N!.R;.P4.Q4.R4.S4.T4.h| I%.nK !% U4.V4.W4.H1.X4.Y4.Z4.`4. 5..5.+5.@5.-l #5.78 E| 40 N% _/ LP >] =~ ws ^j N* x| u2  r v4 gy =+.]h ;) `* ;_ 8l 7f $5.F{.%5.K@.gy &5.*5.4<.^+ d3.D4 =5.~~.y_.VP U*.-5.~&.A_.D{.N@.4A aF /l ;5.|d D[ J@.$p /h >_ 4<.>5.#V ,5.'5.)5.!5.~5.{5.]5.^5./5.(5.C- _5.D8  t :5.sB j@.<5.[5.}5.L!.|5.15.25.35.45.E_ 4~.55.65.75.O$.85.",
"95.05.a5.b5.c5.d5.e5.f5.g5.h5.i5.j5.}2.k5.l5.,` m5.n5.$..t+.a2.o5.p5.q5.r5.s5.t5. %.K<.u5.v5.i2.w5.x5.e=.y5.3` (L z5.A5.B5.C5.D5.E5.5[ ]2 F5.Ut G5.H5.wg Yv I5.J5.k( K5.L5.N3 M5._..N5.O5.P5.Q5.o9 &[.7( R5.S5.F7 I(.)1.b! ut T5.U5.V5.W5.X5.Y5.Z5.`5. 6..6.+6.@6.#6.$6.^1.%6.&6.*6.=6.-6.;6.Nx i4.>6.,6.'6.)6.x7 !6.~6.v4.{6.]6.0q Q9 c> ^6./6.(6.,- _6.:6.y4.<6.[6.}6.|6.16.26._).)=.C: nK 36.46.56.~3.d>.d2 K4.N@  T K@ mA 66.76.p*.N!.Nk 86.G! }3.G; ^u o> d2  T 7~ v$.96.06.a6.b6.c6.d6.1|.e6.f6.@5.g6.h6.i-.LP i6.8b %) ^j u_.>] >] _/ U: N* }n  r iy j6.o6 ku du -) O% -) 8l $C [>.BD k6.U[.ku Rs D| |T >l mu /h $C l6.m6.n .U*.n6.1<.zD o6.8A 4A zD L@.vD |d _# %_  r /h >_ aA R[ K2 p6.q6.r6.s6.t6.u6.v6.w6.x6.y6.z6.G_..t $w R!.sB A6.B6.C6.D6.E6.F6.G6.H6.B8 35.I6.J6.K6.L6.M6.N6.85.",
"O6.P6.$T Q6.R6.S6.!E T6.U6.w{ w' V6.p^.W6.X6.ET P .TF Y6.Ub (].Z6.`6. 7..7.+7.@1.@7.#7.$7.%7.&7.*7.p~ %..w&.Ub  G =7.v(.-7.;7.>7.,7.$6 H+.'7.i! )7.v2.!7.1@.O3 ~7.{7.]7.^7./7.(7._7.:7.<7.[7.Q5.yQ -[ 5^ 7- }7.Y  `H yC I7 Or s5 |7.17.27.37.47.57.67.77.87.97.07.a7.b7.c7.d7.e7.f7.g7.h7.i7.j7.k7.l7.m7.n7.o7.x7 w4.p7.q7.r7.cG s7.gG t7.C(.u7.v7.w7.x7.g/.y7.}K z7.A7.B7.C7.K%.Nk D7.E7.b* R@ F7.N%.J_.G7.'Q g@.Oe h@.i@.d2 d2  ( H7.K-.nK I7.J7.K7.L7.F> M7.N7.L4.O7. }.P7.Q7.++.R7.S7.T7.U7.V7.W7.X7.Y7.Z7.q-.D| (>.%&.%&.%&.'/ N. N. U: %&.9y }n  r ZI YI /Y  r ku ~n O*.Y. =p /h o0 `7. 8..8.}n m8 >_ P% t-.1A 'O 6f y_.)O n .$C `7.ey DD +8.Gs Yq qu dy @8.^f O- 7|.;_ /h ,] >_ :Y &; #8.L{.M{.$8.%8.&8.*8.=8.-8.Z,.;8.-=.Su D8 < .ml >8.8n ,8.'8.)8.!8.0n ~8.~p k^.{8.s1.]8.^8./8.(8._8.",
":8.<8.[8.}8.91 |8.18.28.38.<5 Nk 48.58.68.78.$X P .TF )t Ub (].88.98.08.y+.X|.a8.b8.c8.d8.M>.e8.f8.s+.2J 5` Qf e_ g8.h8.{E i8.j8.,7.k8.H+.'7.i! 5B Ic l8.rx }B m8.n8.o8.p8.N3 /i ^4.q8.r8.P5.s8.t8.8g fi |q S5..2 ki yC u8.Or v8.w8.x8.y8.z8.A8.B8.C8.D8.E8.F8.G8.H8.I8.J8.K8.L8.M8.N8.O8.P8.Q8.R8.S8.1q T8.U8.O].+,.V8.W8.{6.8*.X8.Y8.b*.Z8.Ie `8. 9..9.+9.@9.Iz #9.$9.%9.&9.*9.#8 -F n[ =F J$.E1.h+ th =9.5_.c* c* VN .b }3 xy gq &1 [; L! -9.#j ~8 v- ;9.G> a{.>9.,9.'9.)9.!9.~9.{9.]9.^9./9.H[.(9._9.:9.<9.[9.}9.}^.:<.J[ =, #) N. N. N* %&.^j }n ku 2l 0b J| }n 8y wD n4 |9.P% Vo HD  p E2 /l 0b .= l .v2 `q `q S,.ew @(.)O ,+.$C |A 19.zD 7A wD pu qu dy 29.39.@) N* du 9l 9l /h m0 }/ #8.lD 49.59.69.79.89.b/ 99.09.a9.&& :< X2 R~ dn b9.c9.d9.e9.f9.f9.g9.l<.~p h9.#T d2 I8 i9.j9.k9.l9.",
"m9.n9.o9.p9.q9.r9.s9.t9.u9.v9.w9.x9.y9.z9.78./=.'` A9.-3 _1 B9.C9.D9.E9.y+..4.1:.F9.G9.J&.H9.I9.J9.K9.L9.M9.Qf $;.(L TT N9.O9.P9.Q9.R9.-1.S9.>4.T9 j/.T9.U9.V9.}[ W9.X9.Y9.Z9./i `9. 0.n7..0.+0.@0.#0.$0.|q %0.;U }' W5 X; ut &0.*0.=0.-0.;0.>0.,0.'0.)0.!0.~0.{0.]0.^0./0.(0._0.:0.<0.[0.}0.|0.10.20.30.T8.40.50.x7.V8.60.70.8*.0q 80.90.00.a0.b0.v4.im w4.%$.#$.c0.d0.e0.f0.Eb j- oq wI %w F; g0.!% x8 Dw h0.0K &M i0.}3 Wz j0.1) 44 k0.l0.m0.P{ n0.]u D> M{ o0.p0.a5.P# q0.r0.s0.t0.u0.v0.w0.x0.y0.z0.I{.#&.A0.B0.E{.MP %&.YU #) e4 _# A% LP $_ }n }n -&.N% y4 2l DD YI 2l W- N% >~ m8 `B J,./A ku y4  r }n l .J,.ky ,] rR n .,+.C0.YB D0.U[.j6.;5.Hs [y aw E0.^f @) =, Y. 9l F0.ew p0 K2 BW lD G0.H0.I0.J0.K0.L0.M0.N0.O0.P0.fn Q0.R0.S0.T0.U0.V0.W0.X0.Y0.Z0.`0.I). a.nK [; 0. .a.+a.@a.#a.",
"$a.'0 %a.&a.H|.*a.n} =a.-a.;a.>a.H; ,a.'a.)a.nY !a.Ah ~a.{a..!.]a.^a./a.(a._a.:a.<a.[a.}a.|a.1a.2a.3a.4a.Wh LH p~ Ub 5a.w(.6a.7a.8a.9a.`5 0a.aa.ba.E!.ca.Xt &s m/.da.ea.fa.ga.3^ ha.ia.ja.ka.+0.la.ma.na.oa.pa.@,.qa.LO ra.sa.ta.ua.va.wa.xa.ya.za.Aa.Ba.Ca.Da.Ea.Fa.Ga.Ha.Ia.Ja.Ka.La.Ma.Na.Oa.Pa.Qa.Ra.Sa.!I Ta.3!.Ua.Va.Wa.Xa.Ya.)4.Za.`a. b.NS .b./! +b.y%.gN @b.#b.$b.%b.&b.ty mA a. *b.=b.q[ pl c, -b.0{.;b.&M R!.k| nZ >b.,b.'b.)b.!b._8 ~b.E{ {b.,& ]b.^b./b.(b.G_._b.:b.<b.[b.}b.|b.1b.2b.3b.4b.5b.6b.7b.8b.6|.i6.[9.ws LP P% W- du ]h YU -) y4 -) N% ku DD DD +J pD *&.>_ >_ >_ &5. =.Js s-.fy }n -&.ky s-.@C >_ U*.:/ bj 9b.1A l-.WI I,.yD qu 0b.aw /l :y ~n lu u2 >~ 6l `* &J kM ab.&C bb.cb.db.eb.I-.fb.gb.(; hb.ib.s/ jb.^& f^.-r uh kb.lb.mb.nb.ob.X{.S{.9>.pb.^= R~ qb.t^ y9.L6.",
"rb.sb.tb.ub.vb.wb.xb.5K yb.zb.Ab.Bb.58.^} 2r |C Cb.Db.@..Eb.5a.Fb.Gb./a.Hb.Ib.:a.<a.Jb.Kb.Lb.g#.Mb.Nb.Ob./} Pb.i) t+.g=.Qb.Rb.Sb.Tb.*4 )..=g Ub.ba./. MS Y1 Vb.Wb.Xb.3o Yb.cg 7{ Zb.`b. c..c.n].+c.@c.#c.[* v9 5o $c.%c.&c.*c.=c.-c.;c.>c.,c.'c.)c.!c.~c.a..{c.]c.^c./c.(c._c.:c.<c.[c.}c.|c.1c.2c.3c.4c.5c.rE 6c.7c.x4.8c.^o r4.9c.0c.ac.bc.cc.dc. K 5z ec.fc.gc.hc.ic.$b.jc.H4.N%.5. iq z: ^w uy UX kc.lc.mc.SN nc./ .d2 ( .VX oc.SD pc.)d qc.P{ rc.M( sc.tc.uc.vc.wc.c^.xc.yc.zc.Ac.Bc.Cc.Dc.Ec.Fc.Gc.S1.&J Hc.Ic.A0.Jc.z0.&J P% >_ U: %) U: %) N% }n al $~ ,n DD /l Kc.DD o4 ,l /h >_ .=.Lc.Mc.XB s-.2l 'O t-.Nc.Oc.Y: |T U*.U*.9w .J l-.WI I,.Hs @J 0b.aw yD <j ~n ku .= Vo >~ Pc.u4 S% T@.cl Qc.Rc.Sc.Tc.J%.Ku Uc.qA Vc.Wc.Xc.F).T0.-r 'r s/.6{.d- Yc.z$.Zc.X{.Jb `c. d.2_ [-..d.*@ +d.@d.",
"#d.$d.%d.&d.zp >}.*d.Hk =d.-d.;d.>d.d(.X6.#S b+.,d.$..'d.^L Z6.)d.6].!d.~d.{d.:a.<a.]d.^d./d.(d._d.Nb.:d.NH Vb 8` <d.[d.Qb.}d.|d.1d._| 2d.=g k}.>4.3d.Wb.Xt 4d.5d.6d.7d.8d.9d.p#.C=.0d.ad.bd.cd.dd.ed.fd.gd.Rt VC $c.7a hd.id.jd.kd.ld.md.nd.%@.W5.)*.od.pd.qd.rd.sd.td.ud.vd.wd.xd.yd.zd.Ad.Bd.Cd.7P 4c.5c.8G Dd.Ed.Fd.Gd.K3 Hd.Id.Jd.Kd.Ld.Md.Nd.Od.wc Pd.Qd.Rd.Sd.Td.Ud.Vd.:(.&1 8* L@ wB Wd.Xd.K' Yd.Zd.(b $# 86.S~ E1.5. K) `d. e..e.M# wF /V H{ +e.@e.#e.%H <; L@ $e.%e.&e.*e.=e.-e.Cc.Dc.;e.>e.,e.'e.)e.K*.!e.~e.Jc.z0.6f P% /h >] al =+.x| n4 ku u2 // ,n DD /l aF 0w ~n :Y /h /h 0y {e.]e.j$.YI j6.R,.9w ^e.jM 8l 6|.rR $C -5.`q 6A /e.I,.dM @J [y 1y :j yK n4 ~n  r /h *~ `- D2 (e._e.1H :e.<e.[e.`| }e.t$.|e.1e.2e.3e.4e.c{.H0 3_.H0 M!.5e.6e._8.7e.8e.`0.9e.0e.+` L' #T ae.i9.+d.be.",
"ce.de.ee.fe.ge.he.Fk ie.je.ke.le.me.ne.)a.Wb oe.TF $..V0 pe.V^.qe.v(.re.se.te.ue.<a.^d.ve.we.xe.ye.ze.m1 /v Ae.Be.@..Ce.De.Ee.Fe.Ge.He.R9.4:.Ie.Je.n^ c> Y1 rm nz Ke.Le.Me.Ne.Oe.Pe.Qe.Re.Se.Te.Ue.Ve.We.B7 Xe.5o Y<.H(.Ye.Ze.`e. f..f.+f.@f.#f.$f.d!.%f.&f.*f.=f.-f.;f.ud.>f.,f.'f.)f.!f.~f.{f.]f.^f./f.(f._f.:f.<f.^%.[f.1^ iv Id.}f.|f.1f.2f.3f.Jc :- 4f.5f.f[.6f.7f.8f.9f.Fu i+ g0.ie.0f.( .xy af.bf.aW cf.df.hA O@ N@ }-.j- 4u &F }; ef.ff.T!.7s gf.hf.if.D8 !% jf.kf.lf.mf.nf.of.pf.qf.Z4.rf.sf.tf.<9.i).uf.vf.wf.xf.5b._/ ws >_ %) m4 ku }n }n 0b 0b 8j DD DD 4A Q,.2l z4 mu mu /h XU  =. =.+p yf..8.zf.M[.Af.C0.VP Bf.VP $C 9w `q ]H Cf.Zq 4A qu qu :j :j :j ~n ku l .P% mu X. o# 2n ]] &C :e.Df.Ef.Ff.i/ [= Gf.Hf.+1 If.Jf.Kf.Lf.T0.-r Mf.Nf.1=.Of.Pf.Qf.Rf.Sf.R4 Tf.K0 7. Uf.Vf.I3.Wf.",
"J$.Xf.Yf.zp Zf.*v `f. g.wB SM |2..g.+g.@g.xY P .<a uJ a=.#g.$g.%g.&g.*g.=g.Ib.b8.-g.;g.0].CV >g.,g.'g.)g.!g.~g.Be.{g.]g.kJ ^g./g.(g._g.*4 :g.=g <g.[g.}g.}o 6,.--.|g.1g.2g.lz 3g.4g.5g.6g.7g.8g.9g.0g.ag.<q O5 h@ FX bg.ve cg.dg.eg.I` fg.gg.hg.ig.jg.kg.lg.&f.mg.ng.og.ud.pg.qg.rg.sg.tg.ug.vg.wg.xg.yg.zg.Ag.Bg.Cg.Dg.Eg.P  ;-.QC Fg.Gg.Hg.Ig.Jg.a,.>: :..Kg.Lg.Mg.Ng.Og.vd F6 S~ Ju Pg.t' M@ |$ uc.0% lq Qg.Rg.Sg.<; ^= ty I6.*F Tg.J# 7~ #t Ug.Vg.>Q Wg.S0.Xg.<; as Yg.Zg.`g.nf. h..h.+h.@h.#h.$h.%h.&h.I@.*h.=h.-h.;h.R[ ;l >] U: %) /n al N% 8j Wq j$.fy S*.0w XB }n x| ;) }h ;+.>l XU BD >h.Q,./Y Zq Nc.,h.'h.)h.Qs !h.P,.0|.U*.`B `*.k .1<.ZI 4A zD :j ~h.0w ku ~n v2 XU {h.>~ `: ]h.]] cA ^h./h.(h._h.uf :h.#1 <h.[h.}h.|h.1h.2h.-r 3h.4h.5h.6h.7h.8h.9h.0h.ah.bh.ch.dh.J4.eh.pO I3.vh ",
"&b fh.gh.hh.:}.ih.v( jh.kh.lh.hh.mh.nh.oh.eV S3.<a |L 8= .G ph.w(.&g.qh.rh.sh.th.uh.vh.wh.H~.xh.yh.[C zh.Ah.*z Bh.Ch.Dh.C>.6a.Eh.Fh.Gh.Hh.r^ Ih.~k Jh.Kh.Lh.&2 Mh.6d.Nh.Oh.Cc Ph.Qh.Rh.Sh.Th.Uh.Vh.Wh.Xh.Yh.{q %0.Zh.S&.<* `h. i..i.+i.@i.#i.$i.%i.@{.&i.*i.=i.-i.;i.>i.,i.'i.)i.!i.~i.{i.]i.^i./i.(i._i.:i.<i.[i.;/.}i.lL |i.1i.2i.Ei 3i.4i.E(.5i.6i.kc 7i.8i.9i.0i.ai.bi.ci.di.8. G> ei.m> fi.gi.q[.Sg.!w hi.ii.ji.(= ;& ki.li./8 mi.[u S~ ni.oi.d% bD pi.G%.yy !% >9.hH qi.ri.nf.si./9.ti.ui.3F tf.vi.*h wi.xi.X*.e$.yi.5b.P% N% N% %) N% >~ Y. [n Wq dM />.zi.+p `q F2 ;_ #J 8l 9b.{&.{&.Ai.Bi.gy >&.eF Ci.Di.Ei.z_.>+.<Y xW n .nu gM `*.Fi.g|.ZB ZI DD ju h$.h$.g0 n4 ~n v2 Bi.#J mu hw oF Gi.Hi.Ii.Ji.Ki.&A Li.5>.Mi.:3.Ni.Oi.Pi.Qi.Ri.Si.Ti.5h.Ui.y|.Vi.Wi.Xi.Yi.Zi.!< iH |R `i. j.>]..j.",
"+j.@j.#j.$j.wb.%j.&j.*j.=j.D> -j.;j.>j.,j.'j.m5.)j.!j.O8 V0 ~j.{j.]j.^j.rh.sh.(:./j.(j._j.:j.<j.[j.}j.fV |j.1j.L).wh Jd 'X 2j.`3.3j.4j.R9.W7 1* 5j.Jh.6j.}o #4 7j.8j.9j.0j.aj.bj.cj.dj.ej.fj.gj.hj.ij.jj.kj.lj.{q mj.nj.oj.pj.qj.rj.sj.tj.,c.%i.$f.d!.lg.*i.uj.vj.wj.xj.yj.zj.Aj.Bj.Cj.Dj.Ej.Fj.Gj.e[.Hj.Ij.Jj.Kj.@[.Lj.Mj.Nj.Oj.di wk Gg.Pj.E(.Qj.Rj.Y}.7i.8i.Sj.Tj.Uj.Vj.&` [p /M q. Q..Wj.Xj.,Q Yj.Zj.`j. k..k.+k._5.@k.sB li.#k.$# jf.%1 lh B6 $k.4u I6.*9.M%.[; %k.&k.*k.=k.-k.;k./9.>k.,k.8T BW H@.%h.'k.)k.~~ !k.<9.5b.5M -) -) N% ,] N% *~ .= Wq dM .p 1A `*.T*.'O fw mu BD R[.~k.$C Ls ;_ 8j v4 {k.]k.^k.o-.)O >+.<Y /k.n .eM 'O (k._k.:k.`q YI /l <k.h$.tu :y Xq eu 9b nD mu m0 hw ]] L{.[k.}k.|k.1k.2k.9~.N%.3k.4k.5k.6k.Su F4.4_.7k.8k.9k.0k.ak.bk.R_.ck.dk.ek.fk.gk.hk.ik.jk.kk.lk.",
"mk.nk..a.V).ok.e[ pk.Rz js qk.rk.sk.tk.`-.)a.uk.)j.[E j) q] ~j.{j.vk.wk.xk.sh.th./j.yk.zk.Ak.Bk.Ck.Dk.Ek.Fk.Gk.P .%x Hk.Ik.B&.Jk.Kk.Lk.Mk.Nk.,%.<X Ok.Pk.Qk.Rk.Sk.Tk.Uk.Kh.3@.Vk.Wk.Xk.Yk.Zk.'0.`k. l..l.+l.@l.h! mQ #l.$l.%l.Ov &l.*l.=l..i.-l.%i.;l.&i.>l.,l.'l.)l.!l.~l.{l.]l.^l./l.(l._l.:l.<l.z%.[l.}l.Jj.Kj.@[.|l.1l.2l.3l.4l.5l.[4.6l.7l.Qj.6i.Y}.:..8i.8l.9l.0l.al.<p 5_.T] bl.so G' N, @e.t& K4.h- cl.dl.K' y8 Y2 el.fl.gl.I! q. N@ $w qT hl.il.`/ jl.~3.5&.%k.U;.kl.ll.ml.nl.1b.ol.pl.ql.rl.sl.tl.ul.OZ ~~ vl.wl.&J '~ N% N% -) >_ LP /h  r Wq 6A .p .J oR gM t-.C0.6f &5.9|.+(.7f o# `* gM J,.Q*.YB rR n .,+.VP VP xl.n .0A XU yl.Y1.zl.FD YI 'n <k.tu tu (l wD 0b h8 ED Rs mu bf T@.Al.Bl.Cl.Dl.El.h/ Fl.Gl.Hl.Il.Jl.Kl.e+ m[.Ri.3h.8k.Ll.Ml.jk.Nl.Ol.Pl.Ql.Rl.Sl.Tl.CU Ul.Vl.DF Wl.",
"Xl.Yl.c(.qb.Zl.`l. m..m.+m.@m.#m.$m.V).%m.:` &m.!a.*m.s+.e=.=m.-m.;m.>m.xk.,m.(:.'m.zJ )m.!m.~m.{m.]m.^m./m.45 nY |j.(m.y&._m.:m.Sb.<m.[m.}m.|m.1m.2m.cm 3m.)- Q].u7._;.4m.5m.6m.7m.8m.9m.0m.U(.kg.am.bm.cm.dm.St k/.em.fm.gm.hm.im.jm.8..b!.km.lm.&l.mm.*i.nm.om.pm.qm.rm.sm.tm.um.vm.wm.xm.ym.zm.Am.Bm.Cm.Jj.+3.@[.Dm.Em.Fm.Gm.Hm.Im.Jm.Km.2f.Qj.a,.Y}.Lm.Mm.Nm.Om.Pm.Qm.Rm._).v3.Sm.so F' 7% E1.Oe y/.Tm.Um.Vm.#M !p ~r -2.jb.>Q BB Wm./= [; kc.$k.u1.b{.u/.~3.7~ N, fH Xm.Ym.Zm.`m.Z4.ui. n..n.SI Mq tl.~j sl.H@.<9.:9.pb _/ U: N% // fw >_ mu [n pD +n.fy `q 1l R*.&5.8l }h o0 @n.#n.U*.E* I| Uq 9w )>.3<.VP {] $n.xl.h3.l6.rR U*.Wo R[.%n.&n.&/ *n.4A ]Y j .tu ,O Gs 0b ou  J /h #J 5h _e.=n.-n.;n.>n.,n.'n.hH )n.%& K0 !n.~n.{n.]n.G).^n./n.(n._n.:n.<n.Kb [n.}n.jW |n.1n.%5 2n.3n.4n.6h.",
"5n.-4 -d.6n.7n.8n.9n.0n.an.B/.uI bn.cn.i9.dn.&m.)j.en.Yu fn.gn.hn.LY in.S|.jn.kn.::.PY ln.mn.nn.f_ on.pn.qn.[#.Ek.Y# QT |#.f}.rn.sn.tn.H~.p( un.vn.wn.Me.l^ xn.yn.Tk.}S pz Ox We.zn.An.Bn.Cn.Dn.En.Fn.Gn.Hn.In.Jn.Kn.Ln.Mn.Nn.On.Pn.Qn.Rn.Sn.Tn.Un.Tn.Vn.Wn.Xn.Yn.Zn.`n. o..o.+o.@o.#o.$o.%o.&o.*o.=o.-o.;o.>o.,o.'o.)o.!o.4c.~o.{o.]o.^o.Le./o.Jm.(o.Y}._o.:o.Nm.<o.[o.6+.}o.S] %` t& Tz 4R -f }3 |o.Oe 5| 7| /` j- Pi.F).@^.th >Q bf.1o.J%.|$ Yj.lc.9] < .d<.k@.#t 2o.&# 3o.4o.5o.6o.JD 7o.8o.9o.5|.jR HP PZ sl.Z7.S1.*5.ay 4<.Tq XU 1l V1.0y '~ <h ED J| >&.hy 0b mu 6f $C mu C0.VP }9..V =) >~ ,&.0o.(k.YB ;+.:/ VP m6.h3.Bf.ao.@C i3.]>.bo.co./l do.wW ]Y eo.cw =&.j$.4A 2l ED ky N| fo.go.ho.io.jo.ko.lo.mo.Gf.no.oo.#8 7~ c,  1 po.#}.qo.ro.so.to.Ul.uo.J0 3] vo.wo.xo.yo.v3.zo.Ao.Bo.Co.",
"uI c@.ok.Si Do.s' t. Eo.Fo.b[ Go.Ho.Y+ @k Io.X .t} *m.a=.,t Jo.Ko.Lo.Mo.No.b8.Oo.Po.]S Qo.Ro.So.Y# To.$G |}..k Uo.b&.i3 |#.Vo.Wo.Xo.Yo.m'.UY v=.Zo.T>.`o.}o  p.s7..p.+p.@p.#p.$p.%p.'0.&p.*p.a..=p.-p.;p.>p.,p.'p.)p.!p.~p.{p.]p.^p./p.(p._p.:p.<p.[p.}p.|p.),.1p.2p.3p.4p.5p.6p.7p.8p.9p.0p.ap.bp.cp.dp.ep.7G fp.gp.hp.ip.jp.kp.4l.lp.mp.np.op.pp.qp.]I rp.sp.tp.up.vp.uh $8 [p O..E1.wp.g- xp.|o.d2 yp.Ui .@ 9s R!.zp.Ap.+t th 6% b) ,& UX L! lc.Bp.}e.=M Qi.r1.Ku |6 Cp.Dp.Ep.Fp.Gp.Hp.7o.Ip.Jp.Kp.Kp.->.nF H@.Lp.,_ MP eM U*.,l .V 1l >&.y4 )n }n 2l $p J| 0b 0b Rs nu 8l Y: nu VP e3..V ,, *~ nu ~>.Mp.h|.8l jM n .m6.>+.=5.ao.oD /Y Np.Op.Fi.:j wW DD dF h$.Zq Zq Hs cM wD 2l -&.>) GD Pp.Qp.Rp.Sp.Tp.Up.:&.Vp.Wp.6&.Xp.&1 %H Yp.Zp.`p.y3. q..q.+q.@q.-r if.fb.zM hH i2 #q.i+ 55.$q.%q.q>.",
"D_ &q.&7 *q.=q.-q.;q.>q.,q.'q.)q.!q.~q.{q.]q.^q./q.(q.S$.+E _q.:q.X^.<q.in.[q.}q.|q.1q.2q.3q.4q.5q.)L 6q.7q.8q.9q.%E 0q.v} aq.bq.cq.dq.eq.fq.gq.hq.iq.jq.~q R9 D;.kq.lq.mq.nq.oq.pq.qq.rq.sq.sj.tq.uq.vq.wq.xq.yq.zq.Aq.Bq.Cq.Dq.Eq.Fq.Gq.Hq.Iq.Jq.Kq.Lq.Mq.Nq.Oq.Pq.Qq.Rq.Sq.Tq.Uq.Vq.Wq.Xq.Yq.Zq.`q. r..r.+r.^B 'o.hp.@r.$[./_.;u 8,.#r.$r.%r.&r.*r.=r.-r.;r.>r.,r.'r.)r.BU !r.Hm d2 zB ~r.h- r> S~ X2 j- nc.!4 #T sB <p :p sj h] {r.]b [; ]r.^r.p[.5. |R /r.&2.c, (r.{8 _r.:r.<r.[r.}r.|r.1r.2r.Mq 3r.$h.4r.5r.Lp.S1.MP zu xs uW D| 1l h8 $p L[.vD wD 0b J| 0b 8j @p jM jM mu >+.6r.C_.eM =) ,] |T 7r.8r.9r.0r.8l VP =5.,_ VP 1^.j-.ar.MZ br.su 0w 'n /l h$.dM cy =&.yD Yq cr.*+.0y p0 dr.^] er.fr.gr.hr.ir.jr.kr.<&.4~.lr.mr.nr.or.pr.qr.rr.sr.tr.R# ur.b9.vr.6, l0.[= wr.xr.i/ yr.zr.Ar.k&.",
"Br.u< Cr.Dr.Er.Fr.Gr.Hr.G/.Ir.Jr.Kr.Lr.Mr.|(.:#.=z Nr.Or.;3 Pr.Qr.Rr.Sr.Tr.Ur.Vr.Wr.>G Xr.Yr.O .Zr.`r. s.7q.N$.J_ }` .s.+s.@s.#s.v(.UT $s.%s.gq.He.&s.#/.*s.R9 s4.Ae =s.-s.;s.>s.,s.'s.I` )s.hg.!s.~s.{s.]s.^s./s.(s._s.:s.<s.[s.}s.|s.1s.2s.3s.4s.5s.6s.7s.8s.9s.0s.as.bs.cs.ds.es.fs.gs.hs.is.js.ks.ls.ms.ns.os.ps.Lj.qs.rs.ss.ts.us.vs.ws.xs.ys.zs.As.Bs.Cs.Ds.Es.Fs.9~.J%.l,.Gs.Nk : .Am zB g@.Hs.Is.d>.K' lc.s[.K-.:p 9{.^& ~C l0.Js.hf.-b.Ks.}e.d2 Oe yy fl.:; 0, c~ Ls.Ms.Ns.Os.Ps.Qs.Rs.Ss.g).Ts.Us.Vs.</ Ws.#&.0A @r }n i8 D| S,.T- +] Xs./l ,n 0b J|  r <n gM a|.$C >_ ,_ ,h.ay Y: >~ _/ Ys.Zs.`s.8r.$C $C $C VP S| _/  t..t.+t.<A [y L@.h$.DD /A DD 4A [y @t.Hs :l uW 'O Y/.oy {, ^] #t.$t.%t.&t.*t.=t.-t.T2 t/.;t.>t.5p ,t.Sb 't.y3.)t.Fb b9.!t.25.Kb c, &=.E# ~t.{t.:; ]t.^t.8&.=t ",
"4K /t.(t.^` _t.:t.<t.[t.}t.|t.%y 1t.2t.3t.;:.4t.5t.L|.lV U6 6t.7t.8t.9t.0t.Ur.&..1].at.bt.ct.!].52.C^.dt.#( 9=.et.ft.gt.ht.*;.it.jt.kt.lt.mt.nt.ot.pt.qt.rt.st.tt.ut.vt.wt.xt.yt.zt.'s.=l.At.+i.)c..i.Bt.Ct.Dt.Et.Ft.Gt.Ht.It.Jt.Jt.Kt.Lt.Mt.Nt.Ot.Pt.Qt.Rt.St.Tt.Ut.Vt.Wt.Xt.Yt.Zt.`t. u..u.+u.@u.5%.#u.$u.%u.&u.*u.=u.-u.;u.>u.,u.'u.)u.!u.~u.{u.]u.^u./u.(u._u.:u.<u.5. [u.$T }u.T] mA |u.1u.J%.@k.Y{.O@ 34 2u.3u.4u.5u.6u.7u.M..8u.3u.Iu K' }e.7. r> }-.,|._F zy $1 9u.0u.au.bu.cu.du.eu.fu.gu.hu.iu.ju.ku.,e.lu.S1.eM )Y >_ =+.aA Y/.h8 ar.8w j$.j$.$p $p FD .= l .F{.Ys.aA aA f3.U1.S| -) _/ {&.~>.mu.nu.nu >l eM ou.@C Ms ^j pu.qu.ru.:A <l g|.~h.rD !O L@.sD su.pu n4 H{.'O C0.6f vl.gj tu.uu.vu.wu.xu.yu.zu.S{.Au.Bu.Cu.z8 Du.Eu.Fu.Gu.=}.{p Hu.Iu.Ju.Ku.Lu.P0.Mu.ZD 0] Nu.Ou.Pu.Qu.Ru.",
"$0 Su.Tu.Uu.Vu.Wu.Xu.Yu.Zu.`u. v..v.+v.@v.#v.4t.$v.%v.b; M8 #g.&v.*v.L<.=v.!;.-v.;v.>v.,v.'v.)v.!v.NR ~v.{v.]v.mn A|.^v./v.@..(v._v.:v.<v.[v.j2.}v.|v.};.1v.2v.Px 3v.4v.5v.6v.7v.8v.I` a..9v.0v.km.av.bv.cv.dv.ev.fv.gv.hv.iv.jv.jv.kv.lv.mv.nv.ov.pv.qv.rv.sv.tv.uv.vv.wv.xv.yv.zv.Av.Bv.Cv.Dv.Ev.Fv.Gv.Hv.EQ Iv.Jv.Kv.Lv.Mv.Nv.Ov.Pv.Qv.Rv.Sv.Tv.Uv.Vv.Wv.Xv.Yv.Zv.`v. w. @ {b .w.UX gi.+w.M@ M..nK O..}-.@w.&# 44 #w.@F $w.S0.%w.&w.*w.Hs.$w fY =w.5, ~n.-w.Q0.;& {V 6k.;w.>w.,w.'w.)w.!w.~w.{w.]w.^w./w.tf.(w.ab._w.o0 g .R1.R1.5b.ws 8y dM /A tu D{.hy J| :w. r xs a|.VP <w.5b.,_ >+.>+.N% >_ qD 1l [w.BD /h /h /h /h ;l ;l U: }w.+t.gF |w.tD .p 4T 4T fy [y 1w.}A :l wD }l  p nu oy [/ nF fj 2w.3w.4w.5w.yu.5p 6w.7w.8w.9w.0w.aw.bw.cw.'8.)t.dw.7k.[5.Ju.ew.fw.gw.hw.iw.jw.4&.K-.R0 kw.lw.",
"p{ mw.nw.C|.ow.pw.>T qw.rw.sw.tw.uw.vw.'$.I3.ww.xw.yw.s+.zw.Aw.pe.Bw.Cw.Dw.Ew.&..Fw.Gw.Hw.Iw.Jw.X-.Kw.Lw.Mw.Lw.Nw.]2.CH Ah GF Ow.Pw.:v.Qw.l=.j2.j2.Rw.Sw.Tw.Uw.gG Vw.Ww.Xw.Yw.Zw.`w.@{. x.*i.nm..x.nm.+x.@x.#x.$x.%x.&x.*x.=x.-x.;x.>x.,x.'x.)x.!x.~x.{x.]x.^x./x.(x._x.:x.<x.[x.}x.|x.1x.2x.3x.4x.5x.6x.CX 7x.8x.9x.0x.ax.bx.cx.dx.ex.fx.gx.hx.ix.jx.kx.lx.mx.nx.ox.px.%& Bp.(r.$k.3u.6(.;6 qx.rx./u mA k| i] K# 1o.12 sx.tx.ux.CU !% vx.gA wx.xx.ww yx.zx.x8 kh ]= v$.Ax.Bx.Cx.Dx.Ex.Fx.Gx.Rs.Hx.Ix.Jx.Kx.Lx.J{.Mx.Lp.d3.Ms R1.,] oy LP xs AD .p oR iy 2l 0b J| zW Nx.Ox.Qs <w.Px.`1.>+.R[ >] :Y 0y J,. =.9b.,&./h /h d3.4M *~ 5M <j _Y L@.Qx.j ./>.`o `o ;5.DD [A cw h$..p J,.J,.jM _n )_ nF Al.Rx.Os.Sx.Tx.Ux.Vx.Wx.Xx.Yx.Zx.`x.8w. y.;].h^..y.vd Si.qj +y.z6 @y.'=.#y.iw.6] n+ C: N..$y.@j.",
"%y.&y.:Q *y.=y.{6 -y.;y.>y.,y.Fo 'y.oZ Xf.T).)y.^m.!y.c&.~y.{y.]y.^y./y.Lo.&..L>.(y._y.:y.<y.[y.}y.|y.1y.2y.<'.3y.4y.5y.6y.*m.7y.8y.N9.<v.9y.0y.ay.by.cy.dy.Z}.L:.ey.fy.gy.hy.iy.Vn.av.I` @{.Bt.jy.nm.ky.ly.my.ny.oy.py.qy.ry.sy.sy.ty.uy.vy.wy.xy.yy.zy.Ay.By.Cy.Dy.Ey.Fy.Gy.Hy.Iy.Jy.Ky.Ly.My.Ny.Oy.Py.Qy.Ry.Sy.Ty.Uy.Vy.Wy.Xy.Yy.Zy.`y. z..z.+z.@z.#z.$z.%z.&z.*z.=z.mh ( .O7.{0 /= -z.vI ;b.oZ ;z.d2 VN kc.z- ^b.i- >z.lZ d>.{b Yd.,z.5, 'z.)z.!z.~z._J Nu.6, {0 {z.]z.^z./z.(z._z.:z.<z.[z.}z.|z.1z.>e.2z.<>.<9.5b.LP P% i .qD R[ ew &5.3z.`7.oR $p 2l 2l }n gM 1^.P@.U1.e3.P% &J U*.oy HD O% >] }n {n `7.Rs /h *~ >~ N% y| du *+.9M 4z.AK 5z. p H{.*+.6z.0w s-.1<.by `o 7z.'O ;+.)~ !k.[Y 8z.9z.0z.az.bz.cz.dz.ez.fz.mf gz.hz.iz.jz.zr.kz.lz.mz.Ti.nz.oz.pz.qz.e^.hz.rz.sz.fY (3.tz.uz.vz.",
"wz.xz.yz.zz.Az.Bz.DI Cz.Dz.^4 Ez.GU Fz.>}.jk.Gz.Hz.Iz.Jz.U3.Kz.9'.Lz.Mz.YF Nz.L>.Oz.Pz.Qz.Rz.Sz.]} Tz.Uz.Vz.Wz.Xz.Yz.Zz.`z.oe. A..A.+A.>;.l=.@A.#A.$A.%A.Ev -).&A.*A.=A.-A.;A.;A.>A.,A.Xn.Xn..i.'A.,l.)A.!A.~A.{A.]A.^A./A./A.(A._A.:A.<A._A.[A.}A.|A.1A.2A.3A.4A.5A.6A.7A.8A.9A.0A.aA.bA.cA.dA.eA.fA.gA.hA.iA.jA.kA.lA.mA.nA.oA.e7.pA.pA.qA.rA.sA.tA.uA.vA.wA.xA.yA.zA.AA.Z{.%` ^= y/.Hk vI rx.g@.BA.$w J%.|) ]b CA.@8 DA./).N, EA.FA.GA.HA.SD  e.Yk x: Zd.u* Yj.lc.m0.IA.JA.KA.LA.MA.NA.OA.PA.QA.QA.RA.SA.TA.<w.!h.1^.UA.ws xs /n aA eM eM BD -5.*+. r $p J| ku t-.f3.0o.9|.~k.'O xs 0A ,_ >~ X: Sq 2l {n S,.*~ P% *~  r 0b fu VA.,l VI WA.XA.YA.*+.1T C| ~h.K@.'O 'O WU ZA.>_ ;l }h )~ `A.8T  B..B.+B.@B.#B.$B.%B.&B.*B.kf =B.-B.;B._p >'.>B.,B.'B.)B.!B.~B.{B.]B.~(.E).^B./B.$H [R (B.H3._B.",
":B.T .<B.[B.}B.|B.1B.2B.IU &w 3B.4B.5B.6B.7B.o~.8B.9B.0B.aB.bB.cB.Pr.dB.T<.eB.fB.gB.hB.iB.jB.kB.lB.mB.nB.oB.pB.qB.rB.sB.tB.uB.vB.wB.Jk.xB.yB.zB.AB.BB.CB.DB.EB.FB.GB.HB.IB.JB.$f.KB.LB.R'.)A.MB.NB.kg.OB.PB.QB.RB.SB./A.TB.UB.!x.VB.!x.WB.XB.XB.YB.ZB.`B. C..C.+C.@C.#C.$C.%C.&C.*C.=C.-C.;C.>C.,C.'C.)C.!C.~C.{C.]C.^C./C.(C._C.:C.<C.[C.}C.|C.1C.2C.3C.4C.5C.6C.7C.8C.{B.c* Hu 66.9C.Tm.0C._D %0 aC.bC.cC.dC.&=.eC.fC.4K gC.g- hC.iC./V jC.kC.-^.E! lC.{r 9_ C*.r& #f d~ mC.nC.oC.pC.qC.OA.rC.sC.tC.uC.iu.vC.z0.R[ {&.wC.H{.Vq 7|.*~ y4 -5.9w 1^.)l u2 @C ;+.WU n6.xC.ay -5.2A .V |T $n '~ =p ;) u2 3A YB WU u2 u2 }n 2l 4A CD yC.|T Nx.;&.zC.AC.,l Y. >~ Xq  r /h /h .V 0A $C |T 8l )~ `1.BC.CC.DC.Fp.EC.FC.GC.HC.IC.JC.6~.KC.LC.MC.!p NC.OC.PC.QC.y3.RC.SC.TC.UC.e, VC.;B.89.1h.WC.XC.I|.YC.",
"ZC.`C. D..D.+D.@D.#D.$D.%D.&D.*D.>6 =D.o} ~=.-D.55 72.b&.e(.&S ;D.>D.,D.Qb./:.'D.)D.Qo.!D.~D.{D.o^.]D.^D./D.U~ #( (D.sB.55 _D.:D.<D.[D.}D.|D.1D.1D.2D.3D.m/.4D.5D.6D.7D.8D.9D.I` 0D.)A.aD.LB.c!.bD.~c.cD.dD.eD.fD.gD.hD.UB.iD.jD.kD.lD.XB.|A.mD.nD.oD.pD.qD.rD.sD.tD.uD.vD.wD.xD.yD.zD.AD.BD.CD.DD.ED.FD.GD.T'.HD.ID.JD.KD.LD.MD.ND.OD.PD.QD.RD.SD.TD.UD.VD.WD.XD.YD.ZD.Qi.E_ :5.4. `D.Jk  E..E.+E.@E.#E.j- ^= dh.tw uo NG n^.6. v- 2= $E.%E.&E.*E.7D J7.kC.^V =E.-E.;E.<) >E.,E.-k.'E.qC.OA.)E.T/.!E.~E.iu.{E.Z: R[ U*.1^.s).]E.O*.-) }n s).s).a|.Zo LP *5.7f rR ^E./E.Ys.V[.xC..V U*.nu /h /h HD Uq `7.(E.0A =+.>~ (/ pD dM '+.dw WU H{.XP AK _E.:E.N% m4 (l ~n )n mu |T U*.$C U*.U*.pb ,_ l3.<E.fu.[E.}E.|E.1E.HC.JC.2E.3E.4E.5E.6E.k@.x1.7E.8E.9E.0E.aE.bE.3~.cE.dE.%'.eE.R4 F4.F).fE.gE.hE.",
"iE.jE.kE.v*.~F *w lE.| .mE.nE.oE.pE.qE.rE.sE.tE.l~ .k uE.vE.wE.f_ xE.yE.Bw.%g.zE.AE.BE.CE.DE.EE.Ew FE.GE.HE.IE.JE.KE.LE.ME.]q.~'.NE.OE.PE.QE.AB.RE.SE.Ae TE.UE.VE.WE.XE.YE.;l.!s.0D.)A.R'.LB.c!.&f.ZE.`E. F..F.+F.@F.#F.$F.%F.}A.}A.&F.*F.=F.=F.%F.oD.-F.;F.>F.,F.'F.)F.!F.~F.{F.]F.^F./F.(F._F.:F.<F.[F.}F.|F.1F.2F.3F.4F.RD.5F.6F.7F.8F.9F.0F.aF.bF.cF.dF.eF.fF.gF.hF.PW 8W G4.iF.jF.k,.kF.Hf S] lF.9W q' $T 2= L{ ie.R;.mF.56.nF./= oF.z[.pF.qF.rF.sF.tF.iC.uF.vF.g] wF.xF.yF.`m.zF.AF.OA.rC.BF.CF.~E.DF.{E.5b.$n |T -5.1^.8F x| N% n4 v2 7z.@C [9.S1.EF.(>.r).FF.GF.r).$C g3.wC.1^.V[.WU $C ,&.@C @C g3.HF.U: >~ 8j 4A dM zD pu J,.J,.~h.IF.dF JF.n4 ;5.vD Xq 1T /h U*.VP $C U*.|T 6f ,_ ~~ KF.LF.MF.NF.OF.PF.Xx.QF.RF.SF.4E.TF.UF.VF.WF.C= XF.YF.ZF.`F. G..G.M!.+G.ci.@G.#G.~|.7* $G.%G.&G.",
"*G.=G.-G.;G.>G.cs ,G.jO 6V A+ 'G.)G.!G.~G.{G.]G.^G./G.(G.!y.T3.8Q _G.:G.<G.{E [G.Vr.}G.|G.1G.2G.3G.t< 4G.5G.w& 6G.7G.8G.ME.]2.9G.0G.aG.bG.cG.dG.eG.fG.gG.hG.iG.jG.kG.lG.mG.:/.I` nG.LB.oG.LB.MB.pG.qG.rG.sG.pv.tG.xy.ZB.uG.oD.nD.|A.&F.}A.&F.vG.&F.wG.xG.yG.zG.AG.BG.CG.DG.EG.FG.GG.HG.IG.JG.KG.LG.MG.NG.OG.PG.QG.RG.SG.TG.UG.VG.6F.WG.8F.XG.YG.ZG.`G. H..H.+H.@H.#H.$H.%H.}o.7W &H.*9..T .M NG _V *H. ( d2 <$ 0W -9.=H.-H.Nu rj ym Iu /w R0.U4.;H.>H.,H.'H.Q4.wM N^ )H.{8 !H.~H.{H.]H.^H.OA./H.Rx.(H._H.:H.<H.7b.5b.WU 1^.-5.N[.-&.-) ku v2 zW gM [H.}H.|H.(>.rR }^.}^.,_ 4<.WU 1H.Wo g3.wC.-5.M[.nu oy |T 0A g0 0b $p Hs 2H.3H.4H.+n.5H.1<.IF.4H.tD ;5./A {H ;5.`o ,] $C VP 0A |T 8l 8l S| ~~ 6H.[z.7H.8H.9H.0H.aH.JC.2E.bH.<< TF.;B.M%.cH.Eu.dH.eH.fH.gH.hH.iH.jH.]p kH.:F $'.Ne lH.mH.gE.YC.",
"nH.oH.pH.qH.rH.sH.tH.uH.vH.wH..X q{ xH.yH.zH.AH._& BH.:` CH.TF &e vJ pe.DH.[G.EH.FH.GH.HH.IH.JH.KH.LH. M MH.NH.OH.]v.SA s&.PH.Cb.QH.RH.SH.TH.UH.VH.WH.XH.YH.ZH.`H. I..I.+I.@I.%@.MB.|U oG.#I.$I.%I.&I.*I.=I.-I.ry.&F.;I.`B.>I.,I.'I.)I.vG.!I.~I.#F.{I.]I.^I./I.(I._I.:I.<I.[I.}I.|I.1I.2I.3I.4I.5I.6I.7I.8I.9I.0I.aI.bI.cI.dI.eI.fI.WG.gI.hI.iI.jI.kI.lI.mI.nI.oI.pI.qI.rI.$8 {} ;r %H.Rb }o.Ek 8{.Ri.14 TG ,d o* sI.ie.tI.mF.uI.k,.h@.vI.Db wI.D> [4 R4.xI.^V yI./V zI.L# AI.BI.CI.DI.qC.EI.FI.GI.HI.II.JI._^.Z: 5b.e3.KI.~>.xC.1T >~ u2 n4 }n n4 )l LI.MI.HF.E{.rR U1.Ys.0A nu (E.(E.Wo T1.T1.0o.$C NI.D| g3.pu DD YI ey OI.PI.6y D{.XB 1<.QI.1y ]Y vD (H RI.4A fy >_ ew nu XU %n @C >) T| SI.TI.)E.UI.VI.WI.IC.XI.YI.ZI.`I. J..J.C0 J .j<..F +J.@J.#J.$J.%J.&J.J8 >B.*J.=J.jl.-J.;J.>J.Ru.,J.",
"'J.)J.!J.~J.{J.]J.^J./J.(J._J.YN :J.<J.[J.}J.|J.}}.8q.BH.1J.Fk.2J.3J.Aw.8'.4J.rV 1].5J.6J.7J.%J.8J.9J.0J.aJ.bJ.ge.cJ.=e dJ.}E q~.eJ.FF fJ.gJ.hJ.iJ.jJ.kJ.lJ.mJ.nJ.oJ.pJ.ky.@I.lX MB.qJ.rJ.sJ.tJ.uJ.vJ.wJ.xJ.yJ.VB.#F.zJ.AJ.BJ.CJ.DJ.EJ.FJ.;I.GJ.HJ.IJ.JJ.KJ.LJ.MJ.NJ.OJ.PJ.QJ.RJ.SJ.TJ.UJ.VJ.WJ.XJ.YJ.ZJ.`J. K..K.+K.@K.#K.MJ.$K.%K.fI.&K.*K.=K.-K.;K.>K.,K.'K.)K.!K.~K.{K.]K./r.{} ^K./K.Rb Rb F%.(K.y/._K.:K.<K.[K.}K.lP }R |K.1K.2K.4u.3K.+k.4K.k: o* 5K.*j 6K.SK 7K.8K.9K.0K.CI.aK.NA.bK.cK.dK.eK.<>.>5.)_ )_ ;h.z0.~k.fK.gK.R@.>] >] -&.Vq ~n xs V[.6|.0A hK.iK..(.~k.1^./h BD 2A (E.(E.jK.T[.*n D| 1T H{.!O :j %5.1w.1w.1w.G,.@J L@.cw kK.SB [j 50 ]n lK.Hs Yq Uq >_ Rs 'O Bi.mK.', C2 H@.nK.oK..h.pK.qK.rK.sK.Gb tK.uK.vK.+t (p ((.wK.xK.yK.zK.-3 AK.BK.tU CK.DK.EK.;}.FK.Zl.GK.yr.HK.IK.",
"@  JK.KK.LK.MK.NK.sI.OK.PK.QK.RK.SK.TK.UK.VK.WK.XK.YK.w>.ZK.Zz.N] ~7 z/ `K.:]. L..L.+L.@L.#L.$L.%L.&L.*L.=L.-L.;L.I; >L.,L.83 Tf 'L.&N m(.)L.!L.~L.{L.]L.^L./L.(L._L.b!.:L.lX <L.[L.oG.}L.|L.1L.2L.3L.4L.5L.6L.kD.7L.qD.8L.9L.0L.DJ.+C.;I.tv.MJ.-F.aL.bL.cL.dL.eL.fL.gL.hL.iL.jL.kL.lL.mL.nL.oL.pL.qL.rL.sL.tL.&x.uL.@F.vL.wL.xL.yL.zL.AL.BL.CL.DL.EL.FL.GL.HL.IL.JL.KL.LL.f^.v' dn 2_.ML.NL.>a.Dg +M .@ <u u- Z..OL.}K.@T :-.[-.`9 af.PL.+M QL.l@.+A wB 'd 5u eH QD U2 wF RL.SL.TL.UL.VL.WL.XL.YL.eK.vi.'_ K2 [/ <9.<w.~k.ZL.`L. M.ws LP xs 'O *+.H{.K,.Wo Ys..M.FF.+M.fK.~>.H{.!>.@M.(E.2A #M.Mc.`o 0y Rs Ks Yq DD 4A 1w.Is ]H $M.0b.<A %M.&M.*M.2y lu ;&.K@.YI 2l )n ws ,&.-5.t-.>l m0 zu =M.-M.oK.;M.>M.,M.'M.yd )M.!M.-|.;}.~M.{M.[5.]M.^M./M.(M._M.:M.<M.[M.}M.|M.1M.2M.Eb 3M.85 4M.3G.5M.",
"6M.7M.8M.9M.0M.aM.bM.cM.dM.eM.fM.gM.hM.iM.`8 jM.kM.lM.mM.nM.Xw oM.pM.(m.3` qM.)X rM.sM.tM.uM.vM.}W wM.VK.xM.yM.zM.D= AM.Nw.BM.CM.DM.EM.FM.GM.HM.IM.JM.KM.LM.MM.NM.OM.PM.QM.<L.-l.RM.aD.SM.TM.UM.VM.WM.XM.YM.ZM.kD.`M. N..N.+N.@N.#N.$N.%N.&N.*N.=N.-N.;N.>N.,N.'N.)N.!N.~N.{N.]N.^N./N.(N._N.:N.<N.[N.}N.|N.1N.2N.3N.4N.5N.6N.7N.8N.9N.0N.aN.bN.xd.cN.dN.eN.fN.gN.hN.iN.jN.+y.9C.kN.lN.:p mN.>a.NG Ui #b 1  Wj.'0 }$ h|  ( nN.oN.aK 9% pN.wo E> qN.g- i. !0 rN.WD {& /b SK ;w.0K.sN.tN.uN.vN.wN.xN.yN.OZ Mx.<9.[/ Z: P,.~k.}9.`L.0A $n *5.)l s).Nx.*n zN.AN..(.BN.FF.CN.DN.EN.*+.wC.1^.WU n6.co.Mc.g0 ,] /n Wo :l /l L@.l-.1w.FN.GN.0b.HN.IN.JN.KN.LN.1j  (./l Yq ku )n LP ,&.1^.g3..V S| &J ID fj MN.NN.ON.PN.QN.'M.RN.&B.g^.SN.TN.'r ((.UN.VN.WN.XN.3Q YN.ZN.nh.`N.&G.zo.;}. O..O.D%.eh.$G.`a ",
"+O.@O.#O.$O.%O.&O.*O.=O.-O.;O.>O.,O.'O.)O.!O.~O.>  {O.]O.^O./O.(O._O.<& IY !S :O.FH.<O.tM.[O.}'.}O.|O.1O.yH.2O.3O.4O.5O.*#.qO 6O.7O.%4.8O.9O.0O.aO.bO.cO.dO.eO.fO.gO.hO.iO.rj.@{.jO.aD.kO.;A.lO.mO.nO.oO.pO.qO.VB.}A.rO..N.sO.tO.uO.vO.%N.wO.xO.yO.zO.AO.BO.CO.DO.EO.FO.GO.HO.IO.JO.KO.LO.MO.NO.OO.PO.QO.RO.SO.TO.^A.UO.;I.VO.WO.XO.YO.ZO.`O. P..P.+P.@P.#P.$P.%P.&P.*P.=P.-P.{8.`/ ;P.Q!.>P.&L.K..,P.'P.,w Tz )P.!P.~P. ( ;P.nK J' P..wI {P.,d tw p*  g.]P.^P.%3 zF /P.(P._P.:P.MF.tN.<P.[P.}P.|P.1P.2P..r Lp.)e.'e.3P.~k.E{.(>.HF.HF.0A k$.g3.WU 4P.5P.6P.7P.8P.9P.0P.aP.bP.)l cP.Nx.WU (E.Fi.Gs n4 -) C| BD QI./l Hs $M.dP.l-.D0.eP.IN.fP.gP.hP.iP.jP.RI.vW ZB }n Uq LP &5.KI.KI.U*.,_ R[ ID cA kP.lP.mP.nP.d^.oP.pP.(p qP.rP.<< ~(.7k.sP.tP.uP.vP.HY wP.xP.Zr.yP.zP.AP.k] BP.CP.fE.DP.EP.]8.",
"FP.$O.GP.HP.IP.JP.KP.%b LP.MP.NP.FA OP.&v PP.cJ QP.>9 RP.SP.TP.UP.VP.WP.XP.YP.ZP.`P. Q..Q.+Q.lk.}o.@Q.#Q.$Q.%Q.&Q.*Q.=Q.mh.-Q.R-.;Q.>Q.,Q.'Q.)Q.!Q.~Q.{Q.aD.]Q.^Q./Q.[L.(Q.jO.RM.#I.aD.~Q._Q.:Q.<Q.[Q.}Q.|Q.!I.1Q.}A.AJ.8L..N.2Q.3Q.4Q.%N.5Q.6Q.7Q.8Q.9Q.0Q.aQ.bQ.cQ.dQ.eQ.fQ.gQ.hQ.iQ.jQ.kQ.lQ.mQ.nQ.oQ.pQ.qQ.FJ.rQ.sQ.tQ.uQ.vQ.wQ.xQ.yQ.zQ.AQ.BQ.CQ.DQ.EQ.FQ.GQ.HQ.IQ.JQ.KQ.$w g2 W4 5_.LQ.k,.Pi v) MQ.NQ.OQ.PQ.aR TN 'Q QQ.TG RQ.`j.SQ.cs TQ.UQ.VQ.K7.{r WQ.j+ o[ qo LR XQ.YQ.ZQ.`Q. R..R.+R.@R.#R.=M.$R.)_ J{.z0.%R.V[.U*.1^.4P.&R.wC.wC.*R.*R.=R._k.-R.;R.>R.,R.'R.)R.gK.2A g0 v2 1^.!R.]n BK 8F >_ .=.~R.@t.lK.lK.Zq {R.L,.]R.^R./R.(R._R.:R.<R.[R.}R.yD ,n 9b L| >] Rs Wo |R.$C NI._w.1R.PZ 2R.3R.4R.5R.6R.[_ 7R.8R.9R.gC.!r el.I..0R.aR.bR.uO cR.dR.A|.[M.eR. ].fR.gR.hR.iR.Mf.>'.jR.n} ",
"kR.lR.mR.nR.oR.pR.qR.kF.rR.sR.tR.ZC.&  uR.vR.wR.xR.yR.zR.AR.BR.CR.DR.(q.5` Hw ER.FR.GR.HR.IR.hZ JR. 0 KR.LR.$0 MR.E%.NR.sT OR.PR.QR.RR.SR.TR.RM.rJ.UR.VR.WR.cO.XR.'c.oG.^L.YR.jO.YR.aD.ZR.`R. S..S.+S.@S.#S.rO.}A.vG.#F.$S.8L./x.%S.4Q.&S.*S.=S.-S.;S.>S.,S.'S.)S.!S.~S.{S.]S.^S./S.(S._S.:S.<S.[S.}S.|S.;F.ZB.1S.2S.3S.4S.5S.6S.7S.8S.9S.`G.0S.aS.bS.cS.dS.eS.fS.gS.hS.iS.jS.zy q[ kS.m^.9[ k| /u )6 lS.mS.nS.oS.F{ J$.8. +y pS.L7.qS.rS.xq sS.tS.uS.fs vS.wS.xS.9% 1u $& yS.zS.AS.BS.CS.DS.ES.FS.GS.2P.$R.<9.id HS.IS.6|.WU ay JS.KS.LS.`L.*R.MS.@M.NS.:k.OS.PS.QS.RS.DN.fK.BD -5.1^.1^.wC.oR SS.Y/._/ WU Lc.AD =&.7y 7y Zq (k.Fi.TS.US.VS.WS.XS.YS.ZS.`S.eo.[j 5j eu >] /h g3. T.e3.5b.R| 1R.3r..T.+T.@T.#T.=(.qf $T.8_.6_.%T.Eb G).&T.*T.68.=T.-T.;T.>T.A|.,T.X-.Ew 'T.2-.)T.!T.~T.5M.{T.]T.",
"^T./T.(T._T.:T.<T.[T.}T.|T.1T.2T.3T.4T.5T.uB y, 6T.7T.8T.9T.0T.s; aT. k bT.cT.dT.FR.eT.fT.gT.hT.iT.`f.jT.vI kT.5| SX fh.lT.m&.mT.nT.oT.pT.qT.rT.R'.oG.qT.sT.XR.tT.aD.|U YR.YR.YR.uT.aD.ZR.oG.vT.wT.xT.yT.gL.zT.AT.vG.#F.AT.qD.zJ.BT.CT.DT.ET.FT.GT.HT.IT.JT.KT.LT.MT.NT.OT.PT.QT.RT.ST.TT.UT.VT.WT.XT.#K.ZB.YT.ZT.`T. U..U.+U.@U.#U.$U.%U.&U.*U.=U.-U.;U.>U.,U.'U.)U.!U.~U.{U.]U.p[.^U.g@./U.N7.f{.TN (U.E{ _U.oS.mS.:U.mA _ .1| c2 ,G.<U.[U.}U.|U. Y 1U.RD 2U.3U.9* {w <= 4U.5U.6U.7U.8U.DS.9U.0U.aU.bU.cU.<9.^~.dU.eU.(>.0A |R.fU.yl.gU.|R..(.fK.JS.yl.hU.iU.jU.kU.lU.mU.9|.2A T1.+M.T1.K,.Ai.gM 'O R*.qD 1A nU.Zq 7y [A [A oU.pU.qU.rU.sU.tU.uU.vU.wU.xU.yU.zU.l .8F ,] /h AU.BU.6|.5b.)_ CU.G@.DU.EU.FU.GU.r1.HU.lh }-.J) IU.N!.o|.s|.JU.KU.LU.Sf W0 MU.NU.ak.cw.OU.7* :(.Db PU.gR.p' 3O.]T.",
"QU.RU.SU.TU.}$.UU.VU.8* WU.XU.YU.ZU.`U. V..V.+V.@V.#V.$V..9 %V.0T.&V.WP.*V.=V.-V.FR.eT..Q.;V.>V.,V.5W ]4 'V.m,.Qi )V.'].!V.+g.~V.{V.]V.^V./V.(V.uT.rT.!Q._V.YE.:V.aD.|U <V.VR.[V.uT.aD.}V.!c.|V.1V.*x.2V.3V.4V.AT.qD.qD.pD.;I.PO.%S.5V.6V.7V.8V.9V.0V.aV.bV.cV.dV.eV.fV.gV.hV.iV.jV.kV.lV.mV.nV.oV.pV.qV.rV.sV.tV.uV.vV.wV.xV.yV.zV.,3.AV.BV.CV.DV.EV.FV.GV.HV.IV.HV.JV.KV.;<.]U.LV.uy  ( LQ.Oe -b.MV.NV.OV.PV.QV.RV.SV.;z.Pg.TV.Er.UV.VV.WV.^6 1 .vP 1U.wF.XV.P0 YV.ZV.Tf.`V. W.Fp..W.+W.@W.#W.$W.%W.bU.@&.)e.&W.*W.=W.Bf.|T 1H.|<.-W.;W.Wo .(.BU.|<.gU.>W.,W.,W.'W.)W.!W.~W.{W.~W.]W.^W.K,.>l mu xs zW 9y `B +n.C{./W.=&.Zq Y1.(W._W.:W.<W.[W.}W.|W.1W.2W.3W.@M.K,.)l /h /h 7r.4W.5W.z0.)_ </ 6W.7W.8W.9W.0W.KI aW.bW.Nu.cW.dW.3K.t/.6{.eW.fW.gW.CM.yY hW.iW.jW.=Q.kW.lW.br h0.mW.nW.R0 !=.oW.",
"5V pW.NM qW.rW.sW.tW.n+ uW.vW.wW.xW.yW.zW.AW.BW.6T.CW.DW.EW.FW.GW.HW.IW.xh b'.[].JW.KW.LW.MW.NW.OW.Jg Um.PW.81 PW.QW.L, RW.SW.TW.UW.VW.WW.XW.YW.ZW.`W.'c.'c. X..X.+X.@X.#X.$X.%X.^L.LB.rJ.&X.*X.=X.-X.:I.;X.>X.AT.qD.qD.YB.)I.rO.AT.,X.'X.)X.!X.~X.{X.]X.^X./X.(X._X.:X.<X.[X.}X.|X.1X.2X.3X.4X.5X.6X.7X.8X.9X.0X.aX.bX.cX.dX.eX.PS fX.gX.hX.iX.jX.kX.lX.mX.nX.oX.pX.qX.rX.sX.M{ ie.7. O!.tX.uX.8O jq P^ vX.oS.wX.|D oZ xX.yX.z^ zX. l AX.w[.BX.DI CX.DX.6_ EX.FX.GX.5u HX.IX.JX.KX.LX.MX.NX.OX.PA.PX.QX.RX.wl.<w.SX.TX.:>.U*.1H.UX.VX.WX.*R.Wo XX.|<.;R.YX.ZX.PS.`X.'R. Y.+M.JS.by .Y.(E.by 1T Rs l .T*.i8  r !&.XB +Y.co.2<.f|.@Y.#Y.$Y.%Y.&Y.*Y.=Y.-Y.;Y.>Y.yl.3<.g3.@C /h KI.,Y.E{.<w.'Y.)Y.!Y.~Y.{Y.]Y.^Y./Y.(Y._Y.o[.:Y.^R p*.-2.<Y.[Y.)y.}Y.|Y.1Y.2Y.3Y.4Y.5Y.uo.6Y.!r.7Y.s1.:(.8Y.>a.T_.",
"9Y.0Y.aY.bY.cY.dY.eY.fY._D gY.WR hY.XR iY.ip ;e jY.kY.:}.lY.mY.nY.oY.pY.qY.jJ rY.sY.tY.uY.vY.|2.6| wY.UG Ok }T.xY.yY.:c zY.AY.BY.CY.DY.EY.FY.NB.GY.`W.HY.IY.JY. X.'c.KY.LY.MY.NY.OY.!s.PY.oG.QY.RY.SY.TY.UY.BT.VY.AT.qD.WY.qD.XY.YY.ZY.`Y. Z..Z.+Z.@Z.#Z.$Z.%Z.&Z.*Z.=Z.-Z.;Z.>Z.,Z.'Z.)Z.!Z.~Z.{Z.]Z.^Z./Z.(Z._Z.:Z.<Z.[Z.}Z.|Z.#9.1Z.2Z.3Z.4Z.5Z.6Z.7Z.8Z.9Z.0Z.aZ.bZ.cZ.Xd.86.dZ.14 O!.eZ.P!.rw wp.fZ.Cz.fK K7.gZ..^.hZ.ON iZ.jZ.kZ.,T t*.y> 3R lZ.1U.'1 #5 ^J mZ..w.Hs.nZ.oZ.(z.pZ.qZ.rZ.sZ.tZ.uZ.vZ.tW >_ }^.wZ.wZ.m6.$C xZ.CN.BU.yZ.7r.Nx.n6.BD T1.zZ.AZ.BZ.CZ.PS.,R.;R.gU..p AN.K,. J 1A $p $p 0b wD }n ~&.~&.DZ.EZ.EZ.]>.FZ.GZ.HZ.IZ.JZ.KZ.LZ.MZ.NZ.OZ.PZ.-R.^H >_ :Y HF.U*.,_ Qs QZ.ZP RZ.PB SZ.TZ.UZ.VZ.WZ.XZ.YZ.>=.ZZ.`Z. `..`.l] U# +`.5q.N .@`.#`.$`.%`.R0 br 9W c* &`.R0.*`.I8 =`.",
"-`.;`.>`.,`.'`.)`.!`.~`.{`.]`.k; ^`./`.F+ (`.;e _`.$j.:`.i1 <`.[`.}`.|`.n1 1`.2`.3`.4`.5`.a; |J.6`._D Cm wo x/.7`.8`.9`.0`.a`.b`.c`.tT.d`.NB.e`.f`.g`.h`.i`.i`.IY.j`.av.O'.k`.l`.}L.K` tJ.tJ.m`.n`.o`.p`.q`.r`.}A.AT.s`.t`.$S.u`.v`.w`.x`.y`.z`.A`.B`.C`.D`.E`.F`.G`.H`.I`.J`.^u.K`.L`.M`.N`.O`.P`.Q`.R`.S`.T`.U`.V`.W`.X`.Y`.Z`.``.  +. ++ +@ +# +$ +% +& +* += +- +; +~p > +lP d>.c* y/.$H SC.Pz , +XX '0 ' +I! ) +22 !r.wo Mk Uw ! +l* ~ +.A wq { +AZ ] +^ +/ +( +mA .}._ +: +< +[ +} +| +PA.1 +2 +3 +D| eM y_.4 +wZ.Bf.rR +(.5 +XX.ay ~k.H{.Wo fF 9|.6 +7 +8 +9 +0 +a +b +gU.3z.c +4T />./>.VB VB L@.aF ,O DD XB d +e +{>.f +g +h +i +j +k +l +m +n +o +p +pU.Fi.wC.Tq LP Tq _/ $n 5b.JI.q +nK.r +s +t +u +v +$O QN..1 w +x +DK.Q;.K .,'.}2.y +z +hZ A +vM.Y0.B +Rb C +c* D +E +F +dn P!.1W ",
"G +H +I +J +'8 K +L +M +{}.N +O +P +Q +R +S +T +U +F|.V +W +X +Y +Z + i /1 ` + .+..++.+@.+#.+3  $.+ m.%M .@ %.+6W &.+*.+d5.=.+-.+;.+>.+,.+e`.'.+f`.).+!.+IY.JY.~.+{.+A}.].+^.+/.+(.+!s._.+:.+<.+[.+}.+|.+1.+2.+!I.3.+3.+4.+5.+XY.6.+7.+8.+9.+0.+a.+b.+c.+d.+e.+f.+g.+h.+i.+j.+k.+l.+m.+n.+o.+p.+q.+r.+s.+t.+u.+v.+w.+x.+y.+z.+A.+B.+C.+D.+E.+Q}.F.+G.+H.+I.+J.+K.+L.+M.+`s N.+j,.O.+iP #T s1.~(.di.yX.2u.l. P.+*F Fl.w9.(3.H%.Q.+Q.+UG R.+rP rP lE.S.+T.+lc.+` _F #E.U.+tj V.+W.+X.+`Q.Y.+Z.+`.+ ++.+++++6|.U*.y_.@++#++$++6|./E.%++ T.g3.1^.Vq t-.2A {>.&++*++7P.=++CZ.-++mU.;++3W.6P.rD Js h$.cy VB qu qu L@.tu Js Af.>++,++'++)++!++~++{++]++k +JZ.^++/++(++pU.c +{W.k$.3j >_ mu Ms _9._^._++:++nK.<++[++}++|++9^.w8 1++2++Mf.3++fR.2n.4++5++hT.{=.5= yP.6++7++8++9++4. 9~.D +0++a++p>.td p' ",
"b++c++d++e++f++g++h++i++j++k++l++^Q m++n++o++p++lB.q++r++s++t++u++v++w++x++y++z++A++B++C++D++E++F++s' *T a. 7Y.G++he.@j.H++I++J++mG.+f.K++e`.e`.f`.).+L++M++i`.N++O++av.P++Q++R++NY.K` S++:.+T++U++V++W++X++Y++&F.FJ.Z++`++ @+.@++@+@@+#@+$@+%@+&@+*@+=@+-@+;@+>@+,@+'@+)@+!@+~@+{@+]@+^@+/@+(@+_@+:@+<@+[@+}@+|@+1@+V}.6[.2@+uE [{.Qx 3@+4@+5@+6@+7@+8@+9@+0@+a@+b@+c@+FK.d@+Rb F%.S] e@+fl.qj n*.f@+q* Rg.4% K4.#E.56.g@+h@+Q!.WF.i@+RV.Dr.j@+m* k@+l@+dH S4 -& Hs.P0.m@+n@+o@+p@+q@+r@+s@+t@+u@+v@+w@+x@+rR 2^.y@+#++z@+A@+d|.W1.B@+g3.s).zW J,.Lc.{>.*R.9|.*R.GF.C@+D@+;R.;++Np.E@+h$.h$.+p zD dM aF dM >&./>.F@+Ci.G@+H@+I@+J@+K@+L@+M@+N@+N@+O@+P@+Q@+R@+Op.pU..(.0A u_.*~ *~ v_.S@+T@+t)._H.U@+V@+W@+X@+R# Y@+Z@+`@+ #+.#++#+OC.@#+##+L$.A +$#+9; q>.ne.%#+&#+i,.*#+Z{.CU 22 tx.=#+)Q rP.",
"-#+;#+>#+,#+'#+)#+!#+~#+{#+]#+f&.^#+/#+(#+#c _#+>'.zr.:#+&b SQ.<#+[#+}#+(D.|#+1#+2#+3#+4#+5#++F PN so 6#+`9 7#+I) yM.v< 8#+9#+0#+ZW.a#+a#+b#+b#+c#+d#+e#+f#+N++g#+'A.h#+tT.i#+j#+LM.K` !s.k#+l#+m#+^[.n#+uO.o#+tv.3Q.4A.1.+p#+q#+r#+s#+t#+u#+v#+w#+x#+y#+z#+A#+B#+C#+D#+E#+F#+G#+H#+I#+J#+K#+L#+M#+N#+O#+P#+Q#+R#+S#+^' T#+U#+V#+W#+X#+Y#+Z#+`#+ $+.$++$+@$+Xv.#$+$$+%$+&$+iP p>.*$+=$+DU J_.^$.*9.86.i| )8 '8 z[.v/.K%.-$+;$+p*.9J.>$+,$+=j.'$+)$+!$+~$+{$+<= hq }e.]$+^$+/$+($+_$+'E.:$+<$+-n.[$+}$+|$+1$+3^.2$+3$+#++5W.$+++(.EN.&R.wC.Ks 1l  J 2A BD {W.{W..(.4W.5 +&n _k.OS.eF eF cw su [A +p fy 2l }n 4$+5$+Ci.6$+N,.}^.7$+8$+9$+0$+a$+b$+k +c$+d$+e$+f$+g$+^>.UX.ay h$+K[.3j i$+j$+=M.iu.k$+l$+qf.m$+n$+o$+p$+/p q$+r$+pj s$+t$+%`.u$+:V v$+w$+x$+/}.y$+z$+6$ A$+cE.&2.d2 mA }R B$+C$+D$+",
"`W E$+F$+%L G$+H$+I$+J$+K$+L$+M$+N$+O$+P$+Q$+R$+kw.ae.S$+wo G{ T$+Ig U$+V$+W$+X$+Y$+Z$+`$+ %+.%+)6 +%+@%+p! #%+$%+%%+c@.&%+*%+=%+-%+;%+;%+>%+=%+,%+'%+)%+JY.!%+~%+ X.{%+]%+^%+/%+ZR.K` MB.$I.(%+_%+:%+<%+[%+Cy.}%+|%+1%+1%+:I.RO.HT.2%+3%+4%+5%+6%+7%+8%+9%+0%+a%+b%+c%+)@+d%+e%+f%+g%+h%+i%+j%+k%+l%+m%+n%+o%+p%+q%+r%+/' s%+Oj.<I t%+Y#+u%+v%+w%+x%+y%+z%+A%+B%+C%+D%+E%+F%+uo.G%+H%+T] 56.c{.@F q& 5K.Zk I%+J%+d<.K%+iP L%+b{..M $0 M%+N%+yq O%+P%+Q%+R%+S%+bl.T%+_6 '9.U%+V%+W%+X%+Y%+Z%+-n.`%+ &+.&+1$++&+@&+#&+#++5W.^k.Q[.*R.g3.$&+`o by 4T fF (E.UX.'l 'l %&+&&+&n gU.yl.+p C{.cw cw Zq Js gy }n 8j *&+=&+-&+{e.y_.@(.;&+>&+,&+'&+)&+!&+~&+{&+]&+^&+/&+pU.pU.UX.KI.g3.(&+0A _&+:&+nF <&+PX.`.+[&+m$+}&+1_.|&+1&+2&+`0./n.3&+4&+IK.&G.5&+X-.6&+7&+v$+`-.8&+9&+&#+/(.0&+a&+t& b&+c&+d&+e&+",
"Go {M f&+g&+h&+i&+j&+k&+l&+J/ m&+n&+o&+p&+q&+wR.r&+b3 #m.s&+t&+c2 42 u&+v&+w&+x&+y&+z&+A&+B&+#%+C&+%y D&+E&+F&+y, G&+H&+I&+J&+K&+L&+M&+N&+'%+)%+'%+O&+P&+)%+Q&+Q&+hO.R&+S&+T&+U&+V&+|U KB.W&+X&+Y&+Z&+`&+ *+.*++*+@*+#*+$*+%*+&*+**+=*+-*+;*+>*+,*+'*+)*+!*+~*+B#+{*+]*+^*+/*+(*+_*+g%+:*+<*+[*+k%+}*+|*+1*+2*+3*+4*+bk 5*+6*+]6.4l.fX.t%+7*+`#+8*+9*+0*+:*+a*+b*+c*+d*+e, *$+e*+I8 f*+@T (K.<).+M 9% H! 1u v- g*+p> (3.Nk e@+q' J) +b h*+`;.i*+3 .j*+k*+l*+rl m*+n*+&# o*+p*+q*+r*+s*+t*+<$+Rs.u*+ &+v*+w*++&+[<.x*+wZ.5W.Bf.7P.UX.Wo 1H.(E.(E.fF jK.2A ~W.~W.~W.y*+WX.&n zN.g|.Js 1<.=&.WB ^Y XB gy }n EK z*+A*+B*+{e.n .Di.C*+D*+E*+F*+G*+H*+I*+J*+K*+L*+f$+M*+N*+ZL..(.$&+h$+LI.O*+Jc.=M.P*+Q*+R*+qf.S*+T*+7k.B8 pP.U*+I).A3.Hb V*+W*+X*+Y*+Z*+&}.`*+ =+.=+8B.j+.+=+}J @=+#=+1) uX.H..$=+Y*+",
"%=+;F &=+~F *=+==+-=+;=+>=+,=+'=+)=+!=+CT ~=+{=+5n.]=+^=+/=+(=+QN f@._=+:=+<=+[=+}=+|=+1=+(c 8`.2=+3=+4=+5=+6=+7=+8=+9=+0=+a=+b=+M&+N&+N&+'%+O&+O&+O&+c=+jg.MB.[L._V.>Z d=+e=+f=+g=+h=+kX i=+uS j=+k=+l=+m=+n=+o=+p=+q=+r=+s=+t=+u=+v=+w=+x=+y=+z=+A=+B=+C=+D=+E=+F=+G=+H=+I=+J=+K=+q8.L=+M=+N=+O=+P=+Q=+W].R=+S=+T=+U=+V=+8S y7. {.Im.W=+Y#+X=+Y=+Z=+`=+ -+.-++-+@-+#-+$-+%-+t/.&-+f*+&-++^.*-+kA =-+N( --+wp.sj Wg.().Oe nc.;-+0* bf.>-+,-+'-+d. )-+!-+~-+{-+]-+nq ^-+/-+(-+_-+:-+<-+[-+Z.+}-+|-+1-+v*+2-+3-+N,.4-+.M.l6.l6.VX.5-+jK.jK.jK.jK.fF (E.6-+9|.~W.EN.7-+ Y.gK.@M.(l eF =&.eF h$.tu XB 8j 8j  r 'O M[.-5.-5.H@+8-+GF.9-+0-+a-+b-+c-+d-+e-+f-+g-+'W.mU.f +XX.1H.$&+!R.h-+i-+_9.@&.j-+k-+`.+l-+m-+n-+o-+9e.Ku.p-+q-+q1.r-+t/.s-+t-+E%+u-+qr.v-+w-+x-+Gz.y-+Z).z-+A-+1) |R N!.B-+C-+L!.",
"D-+E-+F-+G-+H-+I-+J-+K-+L-+M-+N-+O-+P-+Q-+R-+S-+T-+U-+y, V-+WX M, W-+D= X-+Y-+Z-+`-+ ;+.;++;+r; @;+#;+$;+%;+/a &;+*;+=;+-;+;;+>;+,;+M&+';+);+O&+!;+~;+{;+jg.-l.sJ.9%.];+^;+/;+(;+_;+:;+<;+0#+[;+};+|;+1;+2;+3;+4;+5;+6;+7;+8;+9;+0;+a;+b;+c;+d;+e;+f;+g;+h;+i;+E=+j;+k;+H=+l;+m;+n;+o;+p;+q;+i%+k%+r;+s;+t;+u;+v;+w;+vc Nj.x;+y;+z;+Jd.Za.A;+X=+B;+C;+D;+E;+F;+G;+H;+I;+QC.5M.J;+yy f*+g@+J4.+E.|$ Uz K;+g: s&+y8 Oe wI L;+PN M;+N;+($.O;+1D P;+Q;+R;+~M fs Yk cH S;+L{ !z.T;+U;+V;+W;+X;+Y;+FI.Rs.`.+eK.Z;+`;+ V  >+.>++>+@>+#>+7P.]W.$>+'l fF T1.{e.%>+9|.UX.EN.#>+5 +MS.^H 2l +p ^Y ^Y +p  J s-.gy <n 0b v2 -5.|R.)h.'++&>+*>+`X.=>+->+;>+>>+,>+'>+)>+!>+~>+CN.{>+]>+LI..(.^>+/>+(>+_>+T@+:>+<>+dK.[>+}>+|>+1>+2>+3>+4>+5>+6>+7>+|&+8>+9>+Eb 0>+3++w-+a>+b>+o~.c>+68.C%.}R xX.^ .9J.d>+e>+ ].",
"Wk f>+7D g>+h>+i>+j>+k>+l>+m>+_U.n>+o>+p>+q>+r>+s>+t>+u>+ 9 v>+MG w>+x>+y>+z>+A>+B>+C>+D>+E>+zH F>+1| T$+G>+H>+3  I>+J>+K>+L>+M>+N>+O>+P>+Q>+P>+R>+@f.md.P&+.f.Bt.rJ.9%.S>+T>+U>+V>+W>+X>+CL Y>+Z>+`>+ ,+.,++,+@,+#,+$,+%,+&,+tm *,+=,+-,+;,+>,+,,+',+),+!,+>@+~,+{,+],+}@.^,+l;+/,+(,+_,+:,+<,+[,+},+|,+1,+F.+2,+3,+4,+U=+5,+6,+z;+}f.kU 7,+8,+9,+0,+a,+b,+c,+d,+e,+f,+g,+h,+0>+i,+`/ ^R BA.l*.j,+#y k,+KR.< .c* |o.ON ;b.l,+m,+n,+A> D&+o,+p,+q,+r,+s,+t,+@l }u H! u,+B).v,+w,+x,+y,+z,+A,+B,+C,+`.+D,+E,+F,+G,+H,+wZ.#++#++I,+J,+K,+L,+M,+1H.n6.N,+O,+n6.fK.P,+Q,+R,+VX.Wo S,./>.i3.AD XB 7z.`q `q S,+cM 1l Wo ~k.{~.T,+U,+V,+W,+X,+Y,+Z,+`,+ '+.'++'+@'+#'+wZ.$'+$++$++%'+&'+*'+='+2$+-'+CW ;'+(H.>'+,'+''+)'+!'+~'+{'+]'+R2 xx.aC.FK.o1.-r ^'+/'+16.7{.('+_'+G^.:'+^8.jZ ] .<'+['+}'+|'+(` ",
"F{ 1'+2'+3'+4'+)b.5'+6'+7'+8'+9'+k* 0'+a'+b'+c'+p9.d'+e'+f'+g'+U6.a3 h'+i'+q~.On j'+k'+l'+m'+n'+o'+p'+q'+r'+/a s'+t'+u'+v'+w'+c#+x'+y'+z'+A'+R>+R>+md.B'+P&+@{.av.)A.sJ.NY.C'+D'+E'+a..F'+oG.G'+H'+I'+J'+oD.K'+L'+M'+N'+O'+P'+xC iQ Q'+R'+S'+T'+U'+V'+W'+X'+Y'+Z'+`'+ )+.)++)+@)+#)+$)+_,+%)+&)+*)+=)+|,+W].5@+-)+;)+>)+,)+')+@9.))+C.+!)+~)+7*+{)+0,+a,+])+^)+/)+()+_)+:)+h,+<)+uI.`/ +M yp.g0.|2 L;+-w zm pi.56.O@ %0 [)+})+|)+n,+J{ :J.1)+2)+3)+4)+5)+~b G; 1u 6)+z# 7)+8)+9)+nf.pf.0)+Z.+a)+|P.b)+%W.c)+d)+e)+y@+y@+#++#++f)+J,+g)+T[.^W.n6.9w h)+N,+{>.nu. Y.Q,+R,+]>+WU )n cr.1A `*./W.R,.`q s-.i)+YI oR fF BD Lc.zZ.j)+k)+^k.l)+m)+n)+o)+p)+q)+r)+s)+t)+wZ.hK.l6.5W.$++u)+v)+vf.w)+x)+y)+;'+z)+A)+B)+C)+D)+E)+F)+G)+H)+I)+J)+K)+Y2 L)+b9.-r 2M.3E.kz.M)+N)+O)+4J L$.4M.P)+Q)+['+R)+eh.S)+",
"T)+U)+;w V)+W)+i~ X)+Y)+Z)+`)+ !+.!++!+@!+#!+$!+%!+&!+*!+=!+c< -!+;!+>!+,!+'!+)!+!!+~!+{!+]!+^!+/!+(!+_!+pk.:!+<!+[!+}!+|!+1!+2!+3!+y'+4!+O>+R>+P>+R>+5!+!;+@{.~c.Xn.oG.rJ.6!+7!+8!+tq.9!+LB.0!+a!+b!+c!+d!+e!+f!+g!+h!+i!+j!+S^.k!+-g l!+m!+n!+o!+p!+q!+r!+s!+t!+u!+v!+w!+x!+y!+z!+A!+B!+N=+C!+D!+E!+F!+G!+H!+I!+J!+K!+,)+L!+%$.M!+!)+N!+O!+P!+Q!+0,+D;+R!+S!+/)+e,+T!+'8.U!+~ .Eb @T 0K K' V!+a. #b hZ.^R 9W yy T] (u Xx W!+o* n,+X!+u: Y!+Z!+*8 >T 8R hs I! 1u Eo `!+ ~+.~++~+Gp.ES.@~+#~+$~+%~+b)+%W.&~+*~+=~+wZ.y@+wZ.#++I,+-~+y*+L,+(E.!>.xC.6$+;~+>~+W,+7-+,~+'~+VX.n6.xs `I s-.`*.[A Z*.`q `q 8A !&.)~+fF n6.9|.{>+!~+~~+}^.{~+]~+^~+/~+(~+_~+:~+<~+[~+wZ.}~+l6.$++|~+1~+2~+3~+4~+5~+6~+7~+8~+9~+0~+a~+b~+-8.c~+E .Z2 d~+e~+f~+g~+h~+7n I).i~+j~+k~+&}.l~+:M.m~+n~+o~+GK.Q)+p~+r&+c@.q~+",
"r~+s~+t~+u~+v~+:).w~+x~+y~+z~+A~+B~+C~+D~+S;.-$ E~+F~+G~+H~+I~+J~+/D.K~+y>+L~+M~+N~+O~+P~+%7 Q~+R~+jZ.S~+T~+U~+V~+r>+W~+X~+Y~+Z~+`~+ {+ {+R>+R>+P>+.{+md.P&+rj.@{.5I +{+@{+#{+${+%{+#i.#i.ky.&{+*{+={+-{+;{+>{+,{+'{+){+!{+~{+{{+]{+^{+/{+({+_{+:{+<{+[{+}{+|{+1{+F=+2{+3{+3{+4{+5{+6{+7{+%)+8{+9{+Z=+0{+a{+b{+c{+d{+>)+U=+8;.7@.5d.e{+'-.f{+g{+h{+i{+a,+j{+k{+l{+e,+m{+}J n{+2M.o{+`D.f- p{+`9 p! 1K.f*+q{+c* !r.}3 ON wI %w >d 6s h. r{+s{+t{+u{+LU -T v{+s& 6s H{ w{+x{+y{+z{+A{+B{+C{+D{+E{+`%+F{+&~+G{+H{+I{+#++#++J{+K{+L{+-~+M{+N{+fF O{+1^.P{+Q{+~>.9r.P,+R{+'~+!W.fU.Js su S{+C{.Zq 7y .J 1A T{+Z*.`7.U{+5W.l6.5W.V{+[w.W{+X{+Y{+Z{+`{+ ]+.]++]+@]+#]+wZ.A@+$++$]+%]+&]+*]+=]+-]+;]+>]+HI.,]+']+)]+!]+~]+{]+Z2 ]]+^]+/]+(]+_]+:]+<]+[]+.1 4~.}]+|]+bw.1]+2]+3]+4]+5]+6]+6]+i5.T_.32..d.",
"7]+8]+9]+0]+a]+b]+c]+d]+e]+f]+hY.g]+h]+i]+j]+k]+l]+g+.m]+n]+o]+{O.p]+r< rr q]+r]+s]+t]+u]+v]+Q~+w]+x]+y]+z]+A]+B]+C]+D]+E]+F]+G]+H]+I]+5!+B'+B'+R>+P>+P>+P&+ky.J]+!s.K` +{+K]+L]+]L.M]+N]+O]+P]+Q]+R]+S]+T]+U]+V]+MY.W]+X]+Y]+Z]+`]+ ^+.^++^+@^+#^+$^+%^+}{+&^+*^+=^+-^+;^+>^+,^+'^+6{+)^+!^+~^+{^+]^+^^+/^+(^+_^+:^+4,+{! /g <^+[^+%% }^+|^+1^+2^+3^+4^+5^+6^+7^+8^+9^+0^+a^+b^+Ne _3.c^+Xj.vI d^+[-.[R E_ 0K zI 9s oq QG Vz UQ.r. C> t- e^+f^+yT g^+`N Ko ($.lq h^+/6 s& i^+j^+k^+l^+m^+n^+o^+[$+F{+p^+q^+r^+s^+4 +wZ.J{+N,.t^+u^+M{+;R.v^+dw KI.,++Q{+]k.mU.w^+x^+Q,+y^+z^+/W.G,.1w.@t.S{+A^+}A by {n B^+gK.C^+D^+E^+(>.,Y.,++F^+G^+H^+I^+J^+K^+L^+M^+N^+O^+3$+P^+z@+Q^+R^+S^+S^+T^+U^+V^+W^+X^+Y^+Z^+`^+ /+./++/+@/+#/+$/+%/+&/+*/+=/+[) -/+*} ;/+>/+,/+XF.'/+)/+!/+~/+{/+]/+$8 ^/+//+eh.(/+",
"8C _/+:/+0]+</+|K.[/+}/+|/+1/+2/+3/+4/+5/+6/+s~+7/+8/+9/+0/+a/+b/+c/+d/+e/+f/+>@ g/+h/+i/+j/+k/+l/+m/+n/+o/+vW.p/+q/+r/+s/+t/+/V.u/+v/+w/+w/+w/+w/++x.R>+x/+,c.J]+0D.y/+kX z/+A/+B/+C/+D/+E/+F/+G/+H/+I/+J/+K/+L/+!Q.M/+N/+O/+P/+_G j=.Q/+R/+S/+#^+T/+lx.}{+Z'+U/+G`.V/+W/+X/+Y/+Z/+`/+ (+.(++(+@(+#(+$l.$(+oB %(+&(+4,+{! {%.*(+[^+}^+pz =(+1^+-(+;(+>(+,(+'(+)(+!(+~(+{(+](+2M.26.^(+/(+p* n> yb.((+AU E_ 22 9s `9 zI wI ~r.cl.~r.vy _(+:(+<(+[(+}(+)8 mq jA |(+r& s& H' 1(+2(+k^+3(+4(+5(+o^+6(+7(+8(+*~+r^+9(+H,+#++J{+_>.0(+I,+M{+;R.v^+ J *R.,++P{+>~+jU.a(+b(+c(+d(+yl.{k.e(+lK.lK.S{+f(+c +AN.Wo M*+DN.p).D^+E^+e3.xZ.4-+g(+h(+i(+j(+k(+l(+m(+n(+o(+p(+}~+A@+q(+r(+s(+t(+u(+v(+3$+w(+x(+#R.RA.y(+z(+A(+3~ B(+C(+D(+E(+F(+G(+H(+GW I(+Ru J(+Sf.K(+L(+9&.M(+N(+O(+P(+D$+Gu 4u.iP Q(+R(+S(+",
"T(+U(+V(+W(+Ok X(+Y(+Z(+`(+ _+._++_+7]+@_+#_+zH $_+%_+&_+*_+=_+-_+;_+>_+Cp ,_+'_+j'+)_+!_+~_+{_+]_+^_+/_+(_+__+:_+<_+[_+}_+|_+1_+2_+3_+4_+5!+5_+5_+.{+.{+9!+tq.ky.5I K` 6_+7_+8_+;Z 9_+0_+a_+b_+c_+d_+>I.e_+f_+g_+/V.h_+i_+j_+k_+l_+m_+HH.n_+o_+9%+p_+q_+C=+j;+r_+s_+t_+u_+X/+v_+w_+x_+y_+z_+A_+B_+C_+G!+D_+E_+F_+G_+H_+{! I_+J_+K_+t7.Jn.L_+M_+N_+O_+T1 P_+'(+Q_+R_+S_+T_+U_+M!.5u.nZ :6 V_+;-+W_+X_+}R S] c* /U.Fg Um.wI Y_+n> qx.^-+Z_+`_+ :+Az..:+|D :8 }K.y- tw UD qN.+:+@:+k^+qZ.#:+$:+%:+&:+PX.*:+*~+=:+#++-:+y_.Bf.#++#++I,+y*+gU.{W.4T ZL.@n.U*.7r.DN.I,+'++GF.%++UX.zU.;:+Zq =&.Q*.oU.Np..Y.Wo pU.DN.4 +D^+6T rR I{.>:+,:+':+):+!:+~:+{:+]:+^:+/:+(:+hK.$++q(+i6.P^+-~+&'+&'+y@+p)._:+::+<:+[:+}:+|:+1:+A .2:+3:+4:+_+.:+.5:+6:+7:+8:+Mu.9:+0:+,8.a:+b:+IR.c:+Wc d:+!p KI e:+:).f:+g:+",
"h:+i:+j:+k:+x{ l:+m:+n:+o:+p:+$F q:+r:+s:+t:+u:+v:+w:+x:+y:+z:+A:+B:+C:+D:+}r E:+F:+G:+H:+I:+J:+%;++D.>T K:+L:+M:+N:+O:+P:+Q:+R:+2_+S:+4_+.{+T:+R>+P>+T:+9!+U:+V:+W:+X:+Y:+Z:+`:+;Z  <+.<+y].+<+@<+/A.tv.#<+$<+%<+:.+&<+*<+=<+-<+;<+><+,<+'<+)<+!<+~<+{<+D=+]<+^<+V/+/<+(<+/<+_<+:<+<<+[<+}<+|<+1<+2<+3<+4<+oB 5<+6<+7<+vc 8<+K:.9<+`v 0<+1Z.a<+b<+c<+d<+/U e<+f<+R_+S_+g<+h<+kb.:-.,Q i<+j<+Wm.26.-J.k<+l<+-$+Ui oq 0f.%w Y_+*b 5W >9.m<+n<+o<+|$.p<+Tz [2 !4 ^U.MU q<+SD r<+2(+s<+t<+u<+v<+w<+x<+F{+*:+y<+z<+$'+HF.6|.rR #++FF.FF.UX.A<+~W.fF  Y.o-.6|.U{+B<+I,+/E.C<+4W.EN.by K@.Zq eF zK Fi.Fi.(E.1^.pU.-W.wZ.#++qR ~~.D<+E<+F<+G<+H<+I<+J<+K<+L<+M<+N<+O<+$'+P<+(>.-:+Q<+'~+R<+J,+t^+J{+S<+T<+U<+V<+W<+X<+Y<+Z<+`<+ [+.[++[+@[+#[+$[+%[+c] &[+*[+,r =[+y|.:& vP.-[+;[+Tu F4.I-.>[+-r 55.,[+",
"'[+)[+![+~[+YS {[+][+^[+/[+([+r> _[+|T.a& :[+<[+_c [[+{_+}[+|[+1[+2[+3[+4[+5[+6[+7[+8[+t&.oO 9[+0[+a[+b[+c[+._+d[+e[+f[+g[+W(.h[+i[+S:+5!+.{+md..{+.{+T:+j[+k[+l[+=p.m[+n[+o[+p[+q[+r[+s[+t[+u[+v[+[A.w[+x[+y[+ZH.BL Vh.z[+A[+B[+C[+(9 D[+E[+F[+G[+H[+I[+J[+K[+L[+W/+(<+/<+M[+N[+O[+P[+[<+}<+Q[+R[+S[+T[+U[+S}.V[+W[+X[+Y[+Kt Z[+)4.0<+`[+ }+.}++}+mm @}+[<+#}+f<+H;+$}+%}+ ].>B.b]+&}+<K.E-+86.&-+@T O, ym -$+%w.oq *}+j@+$#  # hA v9.=}+-}+;}+wZ >}+s' ,}+}e.>b.'}+)}+^J !}+~}+{}+]}+^}+/}+(}+_}+7(+:}+<}+[}+xZ.*5.U*.rR wZ.t^++(.~W.zN..(.fF 5-+}}+6|.]>+CN.|}++(.+(.FF.{~.K,./>.Js Js -R.L,+N{+9|.!>.b +!W. >+ >+yW @>+1}+2}+3}+4}+5}+6}+7}+8}+9}+0}+a}+I{+l6.5W.e3.(>.Q<+%&+b}+c}+FF._>.:H.%W.d}+e}+f}+g}+b^.4Y h}+i}+j}+k}+l}+m}+n}+o}+p}+q}+;<.O4.r}+s}+=T.t}+m~+u}+v}+~3.w}+$'.x}+y}+z}+",
"+@ A}+B}+C}+D}+8} E}+F}+G}+H}+I}+J}+r:+K}+L}+M}+N}+O}+P}+Q}+|[+-@ R}+S}+mp T}+U}+V}+W}+mh.X}+Y}+Z}+`}+ |+.|+$;++|+@|+#|+$|+%|+&|+K++3_+md.R>+@f.md.md.*|+=|+.{+-|+;|+>|+,|+'|+)|+!|+.{+rT.~|+{|+]|+M8.sD.^|+/|+(|+_|+:|+<|+[|+}|+||+1|+2|+3|+4|+5|+6|+7|+8|+9|+0|+a|+b|+c|+d|+e|+f|+g|+h|+i|+Q[+i{+j|+k|+l|+m|+n|+o|+p|+q|+r|+@9.s|+t|+U[+u|+v|+w|+x|+y|+z|+A|+B|+C|+D|+E|+pr.F|+G|+H|+I|+/(+7. Iu Wg.22 lh.Gs._).J|+K|+s! L|+M|+[; x{ U)+N|+P%+T.+A> 0* VN 2) p[.&F O|+P|+Q|+R|+S|+T|+U|+:z.V|+aU.W|+q^+=W.X|+P<+Y|+Z|+)h.`|+t^+#>+^>+jK.`I 4T Nx.rR e3.`L.B@+*R.|R. 1+z<+Zs.{>.NS.~&..C g|.:k..1+AU.}9.|}++1+@1+<}+}<.#1+$1+%1+&1+*1+=1+-1+;1+>1+,1+'1+)1+J{+Bf.#&+P<+A0.h$+B@+!1+~1+0(+{1+]1+G{+^1+/1+(1+_1+7, :1+<1+[1+3k.}1+|1+11+21+31+41+~= 51+2-.61+71+81+_G.91+ak.01+~r E0 8Y.<< H; a1+",
"<3 b1+c1+d1+e1+f1+g1+h1+i1+j1+k1+(`.l1+m1+n1+o1+p1+:/+q1+r1+s1+Ek.t1+u1+v1+w1+x1+y1+2'.z1+A1+B1+C1+D1+82 y*.E1+F1+G1+H1+I1+J1+S:+K1+B'+.{+.{+L1+fg..{+.{+)*.T:+M1+N1+O1+P1+Q1+R1+S1+FY./Q.T1+U1+V1+W1+X1+Y1+Z1+`1+ 2+.2+i{++2+@2+#2+$2+%2+&2+*2+=2+-2+;2+8|+>2+,2+'2+0|+)2+!2+~2+{2+]2+^2+/2+(2+i{+_2+:2+<2+[2+}2+|2+12+{! 22+@9.32+2^+42+A;+52+2^+62+72+82+92+02+a2+b2+E|+c2+F|+d2+qw Xd.e2+K4.f2+w9.Hm Gs.&b [p 4| g2+h2+i2+<D d2 Re j2+k2+l2+m2+n2+o2+p2+Js.q2+L^ r2+#3 s2+t2+u2+v2+w2+vN.x2+]w.y2+z2+A2+=:+B2+Y|+,Y.,Y.wZ.L{+5 +C2+.Y.bM Ks XU n .VP xZ.B@+ T.ZL.FF.x^+FF.*R.|A zi.1A AN._k.-++D2+3$+SX.9(+@++@1+E2+F2+G2+H2+I2+J2+K2+L2+M2+N2+O2+P2+Q2+_>.5W.y@+R2+S2+wC.4P.!1+T2+.>+IS.U2+V2+W2+X2+Y2+Z2+C- `2+ 3+.3+@[++3+@3+#3+$3+%3+&3+XV.*3+/C =3+n~.*z ~y.zl -3+Y*+:).Y2 6&.Rb (` ;3+",
">3+,3+'3+)3+U6.!3+~3+{3+]3+^3+/3+(3+_3+:3+(5 <3+[3+}3+|3+13+B; ;#.23+;t 33+43+53+63+C& 73+_7 83+93+03+a3+b3+$f 1O.lY.c3+d3+u/+e3+e3+B'+R>+P>+n:.f3+@f.g3+)*.=f.h3+i3+j3+k3+l3+m3+n3++x.o3+p3+q3+r3+s3+t3+u3+~|+{%+v3+w3+x3+y3+z3+A3+B3+|G.C3+D3+E3+F3+G3+8|+H3+I3+J3+K3+L3+M3+N3+4g.O3+P3+/2+Q3+i{+R3+S3+T3+U3+V3+W3+X3+{! ^! Y3++ +4@+w|+Z3+`3+ 4+.4+y|++4+@4+#4+a2+$4+E|+%4+&4+*4+=4+L! h2 hq -4+;4+hZ.Jk &b di.Hm >4+,4+'4+8s b* )4+*j.^` !4+~4+{4+`@ Li.(w ]4+^4+-`./4+(4+t2+_4+<-+:4+z,+<4+GS.[4+e)+}4+|4+14+P^+2^.[<.4 +u^+24+34+e|.(E. =.WU ,+.,+./E.44+54+&&+VX.#1+J,+!R.3A 1A  =.R[.'R.~>+64+74+84+SX.t^+TX.94+04+a4+b4+c4+d4+e4+f4+g4+h4+i4+j4+k4+[<.5W..M.Q<+l4+!R.B@+44+/>+Bf.SX._:+m4+n4+X2+o4+p4+q4+r4+s4+t4+u4+v4+w4+x4+|1+C(+y4+uF.z4+jh A4+u>.X# #..{Q JU.S).B4+C4+w}++t (/+D4+",
"E4+F4+G4+H4+I4+C~ J4+K4+L4+M4+N4+O4+P4+d< Q4+R4+S4+T4+U4+V4+W4+X4+Y4+Qf N_ Z4+x1+it.`4+4++ 5+.5++5+@5+#5+$5+c2 %8 %5+&5+*5+=5+-5+;5+`~+R>+R>+gg.>5+>5+g3+)*.vj.,5+'5+)5+!5+~5+{5+]P ]5+^5+/5+(5+_5+iD.:5+<5+[5+d!.}5+|5+15+25+35+45+55+65+75+85+95+05+a5+b5+c5+,2+d5+e5+f5+g5+h5+i5+j5+P3+/2+k5+l5+m5+n5+o5+p5+q5+r5+s5+Em.t5+A.+u5+v5+w5+x5+a<+1^+y5+2l.}@.92+z5+A5+B5+C5+D5+5h.fq d<.E> C> >6 0K 22 Jk E5+Kg (D .:.F5+G5+ZR f- L@ H5+l* I5+J5+8'+K5+_$.2= g~ 1% `k SU.cW L5+M5+N5+O5+P5+Q5+R5+S5+T5+=W.U5+V5+W5+H,+#++#++#++f)+X5+jU.e|.BD 9b.WU n .rR Z|+&&+R,+&&+&&+c(+FF.Wo ED >h.Y5+DN.~>+Z5+`5+ 6+.6++(.^E.9(++6+@6+#6+$6+%6+&6+*6+=6+-6+;6+>6+,6+'6+eU.Bf.[^.)6+!6+!R. T.44+%&+}^.SX.~6+G{+{6+]6+^6+/6+(6+_6+|1+:6+<6+[6+}6+|6+16+26+0~ 36+46+!p Eu.56+66+76+fV (}.2n.B4+zj VF.nl _-.AP.",
"86+96+06+a6+T4+b6+c6+d6+e6+f6+g6+h6+i6+.9 j6+k6+_c l6+m6+n6+ET SR o6+4E _E x_ 53+p6+kB.q6+r6+s6+t6+u6+v6+w6+Uz =d.x6+y6+z6+A6+2_+K++S:+`~+5_+gg.B6+>5+fg.C6+D6+E6+F6+G6+H6+I6+J6+K6+JY.L6+M6+N6+ry.O6+P6+Q6+R6+d!.S6+T6+U6+V6+W6+X6+Y6+Z6+`6+ 7+.7++7+@7+#7+$7+,2+%7+&7+*7+=7+-7+j5+O3+;7+>7+,7+'7+)7+!7+~7+{7+]7+^7+/7+w!.^! Z[+(7+_7+:7+<7+x5+`[+[7+}7+|7+17+27+37+47+57+w-+67+5s Rm.L4.77+$F &M l> 87+zm 0s #w.q' )6 97+Xx 07+ # rS.v. l* _!+a7+b7+YV.OD q* sq c7+d7+E' e7+f7+g7+h7+i7+j7+R5+k7+l7+m7+n7+o7+p7+q7+x*+hK.#&+.M.D2+PS.r7+7r.n6.s7+}<.$'+#n.WX.t7+P,+y*+%++u7+*R.l .Bi.v7+W,+YX.w7+x7+y7+z7+B0.~k.G,+A7+B7+C7+D7+E7+F7+G7+H7+I7+J7+K7+L7+M7+D<+[<.}<.B0.N7+.(.1H.O7+!1+|T P7+*W.Q7+R7+S7+T7+U7+V7+W7+X7+Y7+Z7+`7+ 8+_O .8++8+@8+#8+uw 6&.$8+%8+&8+<& eO *8+=8+d, -8+;8+oo.>8+*J.",
"OR.,8+'8+)8+!8+~8+{8+]8+^8+/8+(8+_8+S4+E] :8+<8+[8+z^.}8+|8+b:+*m.V0 18+Pn l< 28+QH.38+48+-!+48.58+68+78+: ..@ 88+|_.98+08+a8+~.+,.+3_+v/+w/+5!+n:.n:.=f.b8+c8+d8+e8+f8+g8+h8+i8+j8+k8+l8+m8+n8+2Q.o8+p8+q8+r8+s8+t8+u8+[^+v8+w8+x8+CB.CE.y8+z8+A8+B8+C8+9;+D8+E8+F8+G8+H8+I8+J8+K8+L8+M8+;P j|+N8+O8+P8+Q8+R8+S8+T8+U8+5( 22+Z[+V8+W8+X8+Y8+Z8+`8+ 9+.9+.0.+9+@9+#9+$9+%9+&9+67+5s d@.< .;z.oZ Eg Pe .@ wo /u K' Gk Dm QG _ .D +*9+~b >d v- }K.86.O( =9+yj -9+;9+o>+>9+,9+'9+)9+!9+~9+{9+]9+^9+/9+z2+n7+(9+_9+9(+:9+<9+$++$++l6.#n.[9+8 +VX.6|.:9+f)+#1+{>+}9+|9+19+`X.5-+/E.~k.N[.Bi.`/.+M.29+x7+,~+O<+rR g3.Wo 39+49+59+69+79+89+99+09+a9+b9+c9+d9+e9+f9+g9+y@+h9+4<.N7+i9+ T.j9+O7+ M._>+)&.]1+k9+l9+m9+n9+o9+p9+q9+r9+s9+t9+u9+v9+w9+x9+N# in y9+K-.z9+A9+B9+wp [` C9+D9+-'.E9+F9+G9+H9+kb.",
"I9+J9+K9+L9+M9+N9+O9+P9+Q9+R9+S9+T9+U9+V9+W9+X9+Y9+Z9+>!+`9+ ..8Q M8 18+ 0+np  e .0++0+q~+48.@0+#0+:}.$0+%0+&0+*0+q>.=0+h=+-0+;0+>0+,0+4_+v/+B'+f3+I]+'0+)0+!0+~0+{0+]0+^0+>X./0+(0+_0+:0+<0+[0+}0+|0+10+20+30+40+M=.50+1B 60+I9 70+80+j=.90+00+a0+b0+c0+d0+e0+f0+g0+h0+i0+j0+k0+l0+m0+n0+o0+p0+q0+r0+s0+t0+u0+v0+w0+8c.N} -U x0+y0+f1.z0+A0+B0+w|+Yv.C0+D0+E0+F0+G0+H0+%9+I0+J0+K0+L0+Db _3.M0+`9 #b 1K.@b bl.N0+}K.O0+kP P0+=M Q0+R0+{4+$M M..S0+xX.!4 T0+U0+yq V0+W0+OV.X0+Y0+Z0+`0+{9+ a+.a++a+@a+#a+$a+%a+_9+C^+<9+-:+5W.5W.&a+*a+8 +|}+P,.H,+c}+PS.>W.=a+-a+;a+>a+-W.~k.xC.Bi.N[.1^.ZL.-~+,a+c(+.M.Ys.b +CN.'a+)a+!a+~a+{a+]a+^a+/a+(a+_a+:a+<a+[a+}a+|a+1a+E{.!h.!6+2a+ T.t7+^>+LP I{.xu 3a+X^+4a+5a+6a+a, E(+7a+8a+9a+Bw 0a+aa++` Kl.ba+D- ca+7).~M.da+ea+ET fa+ga+ha+ia+ja+ka+Su la+e<.",
"ma+na+oa+pa+qa+ra+sa+ta+ua+va+wa+xa+ya+za+Aa+Ba+jY.]O.Ca+Da+1E Ea+Wu 23  0+Fa+Ga+Ha+Ia+GE.Mr.Ja+Ka+La+Ma+%5+Na+Oa+Pa+Qa+Ra+Sa+Ta+Ua+Va+Wa+4_+B'+P>+NB.NB.Xa+Ya+Za+`a+ b+.b++b+@b+#b+9D.$b+%b+&b+*b+=b+-b+;b+UR.>b+,b+'b+)b+!b+mQ ~b+{b+]b+^b+/b+(b+_b+:b+<b+[b+}b+|b+1b+2b+3b+4b+5b+6b+Hz 7b+8b+9b+0b+ab+bb+cb+db+eb+fb+`} gb+yv --.5l.hb+ib+jb+b{+kb+lb+mb+nb+ob+pb+qb+rb+sb+tb+ub+vb+7k.(D / .M7.`9 /u `9 wb+|)+wB M@ q& PL.@T xb+)T yb+~r./u zb+Ab+Bb+Cb+B1.x[.Db+QV.Eb+Fb+Gb+Hb+Ib+{9+ a+Jb+Kb+Lb+Mb+=W.e)+eU.x@+A@+l4+l6.5W..>+Nb+C@+.M.3 +Ob+&]+Pb+D@+Qb+Rb+Sb+Tb+Ub+f3.9w N[.gM 1^.AU.wZ.|4+#++Vb+B_.9 +Wb+Xb+Yb+Zb+`b+e4+ c+.c++c+@c+#c+$c+%c+&c+*c+=c+-c+h9+3P.Y|+;c+B@+>c+*R.=+.*5.T@+3b.hu.,c+'c+)c+!c+~c+{c+]c+^c+Qu /c+*O.vl mK sc.p[./8 (c+_c+:c+<c+9C [c+}c+tK.|c+R2 G_.Q# :(.1c+",
"2c+3c+oa+4c+5c+b'+6c+7c+8c+9c+0c+ac+bc+cc+dc+06+ec+fc+gc+hc+ic+#N jc+-S kc+lc+mc+nc+oc+GE.5G.pc+w>+NH.NH.qc+c'+y:+rc+sc+tc+uc+vc+wc+xc+yc+v/+B'+P>+zc+Ac+Bc+Cc+Dc+Ec+4s.Fc+Gc+Hc+Ic+j`.Jc+Kc+Lc+&N.Mc+Nc+Oc+pG.Pc+Qc+Rc+Sc+mQ Tc+Uc+Vc+Wc+Xc+q(.Yc+Zc+`c+ d+.d++d+@d+#d+$d+%d+&d+*d+=d+-d+;d+>d+,d+'d+)d+!d+~d+{d+]d+^d+K3 +b./d+(d+Kz _d+:d+`3+<d+[d+}d+|d+1d+2d+3d+4d+rb+5d+6d+7d+8d+!M.~r 8_.9d+-z.M0+Wz 0d+ad+bd+s* k0.J4.O, v' MU >d n@.TG cd+-}+dd+ed+fd+6$.gd+b++DB hd+id+jd+kd+i7+ld+md+nd+<}+@1+od+#a+9(+x@+5W.l4+A@+A@+pd+qd+rd+x*+4~+G,+4 +0(+WX.iU.;R.sd+td+6$+h)+.=.-5.B*+f3.}9.IS.y@+.M.5W.(>.ud+vd+wd+xd+yd+zd+Ad+Bd+Cd+Dd+Ed+Fd+Gd+Hd+Id+Jd+Kd+Ld+}9.6|.AU.`L.2a+>c+xC.U: h .-h.Md+Nd+/1+Od+Pd+Qd+Rd+Sd+Td+7Y Ud+)& Vd+I-.:5.Wd+Xd+}-.Yd+XC.Zd+^c `d+#X tI  e+.e++e+@e+#e.oo.e^.",
"#e+$e+%e+L9+&e+*e+=e+-e+;e+>e+,e+'e+)e+!e+~e+{e+]e+^e+/e+Yy (e+_e+:e+<e+[e+}e+|e+1e+2e+mB.:}.mB.3e+4e+5e+6e+7e+8e+9e+0e+ae+be+ce+de+ee+`~+v/+R>+P>+FY.fe+ge+he+ie+je+ke+le+me+ne+oe+Bt.pe+qe+re+se+te+ue+ve+we+xe+ye+ze+&1.G=.Ae+Be+Ce+De+Ee+Fe+Ge+He+Ie+Je+Ke+Le+Me+Ne+Oe+Pe+Qe+Re+Se+Te+Ue+Ve+We+Xe+Ye+Ze+`e+ f+.f+|K +f+@f+uE yE .f+#f+ib+$f+U[+%f+&f+^*+1d+*f+=f+4d+-f+;f+>f+,f+'f+&B.Fu d2 )f+g: !f+V!+~f+j<+B= N0+^8 {f+S0+k,.]f+^f+/f+97+(f+rS._f+:f+<f+[f+k* !F vq }f+Gb+|f+h7+1f+E{+2f+3f+=W.4-+4f+5f+eU.hK.}^.h9+#(.Bf.2^.%++[}+6f+7f+8f+I{+!~+9f+0f+7P.Ub+Q{+mF 8f m0 {&.{e.{&.!6+Bf.af+.>+B0.LI.bf+cf+df+ef+ff+e4+gf+hf+if+jf+kf+lf+Gd+mf+nf+of+pf+qf+5W.6|.e3.0r.1^.g3.U1.ws $_ rf+)&.w)+sf+tf+uf+nT vf+wf+xf+yf+e2 zf+fY H4.;r Af+ty k,.h@+d&+V_.z< :#.Bf+Cf+1_.vr.Df+Ef+Y2 fl.9>.",
"Ff+Gf+Hf+If+Jf+Kf+Lf+Mf+Nf+Of+Pf+Qf+dJ Rf+Sf+Tf+fc+Uf+;_+Vf+Wf+Rf Xf+Yf+Zf+`f+ g+.g+Mr.A1+w>+w>+;L.+g+Ln z^.@g+#g+%V.$g+%g+&g+`C >0+*g++f.`~+5!+4_+=g+-g+;g+>g+,g+'g+)g+!g+~g+{g+'0+oG.]g+^g+/g+(g+_g+:g+<g+[g+}g+C#.|g+1g+2g+3g+4g+5g+6g+[v.@7.7g+8g+9g+0g+ag+bg+cg+dg+eg+fg+gg+hg+ig+jg+kg+lg+mg+ng+og+pg+qg+rg+sg+tg+ug+D5 vg+wg+Kz .w xg+yg+zg+Ag+lS Bg+Cg+Dg+Eg+Fg+Gg+Hg+Ig+Jg+Kg+Lg+!(.().Mg+tB <$ Ng+/6 Og+]u s* G> T] mZ +T <$ ' +Pg+Qg+2u Rg+Sg+4u =9+e] Tg+Qg.#3 Ug+Vg+Wg+h7+1f+Xg+Yg+Zg+`g+e)+4-+ h+84+.M.l6.E{.yW yW [<.FF.X|+<9+.h++h+@h+#h+LS.M*+{~.0r.$h+%h+Qs oy U1.2A U1.q(+}^.H@+E{.}9.q^+&h+*h+=h+hf+-h+F7+;h+>h+,h+'h+)h+!h+~h+{h+]h+^h+/h+(h+R2+q(+q(+Ys.{&.g3.B_.D| (&+Y7.xu _h+:h+<h+[h+4; }h+pF.|h+:&.qT 1h+$T.2h+o1.3h+cC.A/.4h+5h+V_.6h+:#.7h+^}.x}+4e.$T.th m[.C4+C0 ",
"8h+9h+`F.0h+ah+bh+ch+dh+eh+fh+gh+hh+ih+jh+kh+lh+mh+nh+#k oh+ph+'a qh+~v rh+sh+th+uh+<3 vh+GE.wh+xh+!E yh+zh+@g+Ah+Bh+Ch+Dh+Eh+Fh+Gh+Hh+`~+zc+5_+Ih+Jh+Kh+Lh+Mh+Nh+Oh+Ph+Qh+Rh+Sh+Wa+#b+Th+Uh+Vh+Wh+Xh+Yh+Zh+`h+ i+.i++i+@i+#i+$i+%i+&i+*i+=i+-i+;i+>i+,i+'i+)i+!i+~i+{i+]i+^i+/i+(i+_i+:i+<i+[i+}i+|i+1i+2i+3i+4i+5i+6i+7i+8i+jg l( 9i+0i+ai+bi+zg+Ag+ci+di+ei+fi+gi+hi+ii+ji+ki+li+mi+'2.[R pq : .ni+g- BB oi+pi+E-+_b {% qi+_).ri+t* si+ti+ui+`X 0-.p0.gq {f+)< MR _= }6 vi+wi+xi+qC.yi+E{+zi+Ai+F,+`g+4-+Bi+Ci+wZ.IS.l6.N,.E2+p).#++W5+Di+T5+$a+@++EN.UX.LS.Ys.>+.Ei+Fi+Gi+Qs 6r.JS.ay P<+}<.rR e3.C^+Hi+Ii+Ji+Ki+Li+F7+Mi+Ni+Oi+Pi+Qi+Ri+Si+Ti+F7+Ui+Vi+Wi+Xi+h-+Yi+Zi+0A |T 0A |T 0A 3P.`i+'e.-~. j+.j++j+@j+#j+$j+%j+S~ )y )y &j+*j+nW.s1.[p ^R NG =j+0(.-j+R3.;j+>j+u-+5+.8~.Q0.>r fl.,j+",
"'j+)j+!j+E~ ~j+Lr.{j+]j+^j+Q9+/j+(j+_j+:j+<j+[j+}j+|j+1j+a; vJ n2.2j+E& 3j+4j+=a mY./a 58+5j+c1+6j+7j+8j+nY.c< 9j+0j+aj+bj+cj+$f.dj+ej+fj+!;+w/+gj+hj+ij+jj+kj+lj+'g+mj+nj+oj+pj+qj+rj+sj+tj+uj+vj+wj+xj+yj+pd.zj+Aj+dk m}.Bj+$i+Cj+Dj+Ej+Fj+Gj+Hj+Ij+Jj+Kj+Lj+Mj+Nj+Oj+Pj+Qj+Rj+Sj+Tj+Uj+Vj+Wj+Xj+Yj+f).Zj+`j+ k+.k+[d++k+@k+#k+ug $k+%k+&k+*k+=k+-k+;k+|d+>k+,k+gi+'k+)k+h<.!k+~k+UN.Mf.Q!.%b Fg QL.{k+u) VQ.]k+^k+#y <u Gg x/.p> 0[ /k+(k+_k+ O D|.Wj.hf.Hu KI )y :k+#t <k+[k+}k+|k+NX.Xg+1k+2k+3k+4k+ud+5k+6k+f)+y@+l6.7k+_9+K{+J{+8k+9k+0k+ud+74+~k.@M.LS.D| oy YP `;+3-++&+{~.ak+AU.y_.c|.Bf..M.bk+ck+dk+ek+fk+gk+F7+hk+d4+ c+ik+jk+kk+lk+mk+nk+ok+pk+qk+rk+sk+Yi+Zi+0A HF.HF.U*.e3.5W.kw )e.tk+ j+uk+vk+1+.h/ #t gq wk+*`.xk+yk+zk+ a.8~.|K.k| Ak+Bk+Ck+Dk+,` Ek+k~ ]p Fk+Zs Gk+Hk+=r 4_.",
"Ik+Jk+Kk+|y.Lk+Lk Jh Mk+Nk+Ok+Pk+Qk+Rk+Sk+HW.Tk+Uk+Vk+Wk+TA oH Xk+Yk+Zk+`k+ l+.l+_5 +l+@l+#l+#m.4e+&:.$l+%l+&l+Mr.*l+=l+-l+;l+uj.>l+,l+ {+uj.'l+)l+!l+~l+{l+]l+9L.^l+mj+/l+(l+_l+:l+<l+[l+}l+|l+1l+2l+3l+4l+@I.5l+6l+7l+se 8l+9l+0l+al+bl+cl+Xk+dl+el+fl+gl+hl+il+jl+kl+ll+ml+nl+ol+pl+ql+rl+sl+tl+ul+vl+wl+xl+yl+zl+Al+Bl+Cl+#k+Dl+_!.El+Fl+Gl+3[.Hl+Il+D0+Jl+Kl+Ll+Ml+Nl+Nf.Ol+Gu.ha+@}.R;.Fk o> gl.r. Pl+Ql+Rl+3'+Sl+QG Fg @0 -$+Tl+Ul+Vl+&y |u Wl+Xl+.b j] `:.rj |&+1h.Yl+Zl+`l+h7+ m+.m+1k+b)+3k++m+e)+K{+x*+K{+wZ.qR @m+D<+#m+$a+$m+s^+@m+`;+L{+Wo bM zU.D| {] 3^.8f+`;+5k+GF.r7+VX.2^.l6.#n.t)+%m+&m+*m+=m+-m+;m+e4+hk+>m+,m+'m+)m+!m+~m+=1+{m+]m+^m+/m+(m+@M.EF._m+*5.[9.MP eM e3.C^+:m+<9.4M <m+[m+}m+|m+1m+##.Iu 2m+G%+F).=r 3m+jb.9O 32 2) g2 4m+5m+-#.jY )'.6m+kz.H0 nz.7m+&` )% -|.",
"8m+9m+0m+am+bm+cm+r<.dm+em+fm+gm+hm+im+Oh jm+km+Jf lm+mm+2J.nm+Gj+om+f5 pm+qm+,8+rm+sm+tm+n} um+s'+vm+P4+wm+wm+xm+ym+zm+Am+Bm+Cm+,l+w/+~;+od.-|+Dm+Em+Fm+Gm+BJ.'I.2V.Hm+Im+Jm+Km+Lm+Mm+Nm+Om+Pm+4Z Qm+Rm+Sm+`h+Tm+Um+Vm+F7 3S Wm+Xm+Ym+Zm+`m+ n+.n++n+@n+#n+$n+%n+&n+*n+=n+-n+;n+>n+,n+'n+)n+!n+~n+{n+]n+^n+^1+/n+(n+_n+Up :n+<n+[n+|f.}n+|n+1n+2n+3n+4n+^,+5n+6n+7n+8n+8e.h^.}J n1.nf gh T;.&M 9n+L{ 0n+<$ C&+O;+j: an+pS.bn+n> cn+0[+:J.j++Pg+dn+en+fn+[3 i~ H4.hh `].~p gn+hn+]6+in+jn+kn+zi+Ai+ln+mn+=W.nn+=~+on+_9+pn+7f+7f+qn+ud+}4+rn+ud+E^+Q<+EN.Ks oR XU <Y Qs #(.3-+5k+L{+sn+FF.|}+h9+xZ.tn+un+vn+wn+xn+yn+zn+F7+An+Bn+Cn+Dn+En+Fn+Gn+K2+L7+Hn+In+Jn+Kn++M.HF.Yi+0A EF.HF.g3.U*.h3.:m+<9.rf+Ln+Mn+Nn+:Y.On+sc. t Pn+Qn+{ .Xp.F6 sj sj 0_ :; lA B-+Rn+]q.Sn+Yc.Tn+H&+Un+Au.-r Vn+b^+Wn+",
"Xn+Yn+Zn+`n+f1+%y. o+.o++o+@o+#o+$o+%o+&o+*o+=o+oY.m& -o+;o+lJ >o+,o+'o+)o+!o+&;+~o+{o+]o+^o+/o+(o+_o+:o+<o+[o+}o+|o+1o+2o+3o+4o+5o+6o+fg.7o+8o+9o+0o+ao+bo+bo+nD.=F.Ey.co+do+eo+fo+go+ho+io+jo+ko+lo+mo+`w.no+oo+po+lz lg Da qo+ro+so+to+uo+vo+wo+xo+yo+zo+Ao+Bo+Co+Do+Eo+Fo+Go+Ho+Io+Jo+Ko+Lo+Mo+No+Oo+Po+Qo+Ro+So+To+Uo+Lt H3 Vo+Wo+Xo+Yo+Zo+`o+ p+.p++p+@p+vs.#p+$p+%p+h^.SF.}J &p+*p+=p+9[ -p+4W `@ <u =O.xp.Z@ ;p+=q.h- QN >p+,p+qP 'p+Yx dn+)p+}=.!p++^.~r =J.!B.=r ~p+{p+]p+S7+jn+#~+E{+^p+2-+/p+ud+ud+ud+(p+{1+7k+.h+_p+:p+e)+<p+[p+nn+K{+.M.7r. =.K,.{&.}p+h3.yW 3-+7f+f)+C@+FF.s7+hK.+++|p+1p+2p+3p+4p+5p+6p+F7+Mi+7p+8p+9p+0p+ap+ok+bp+cp+dp+ep+fp+gp+hp+Zi+Zi+0A Zi+|T V[.U*.,_ i).ip+<9.jp+kp+lp+mp+np+op+C: OW.pp+<-.qp+J4.Q0.sj u3.2k.P( :(.rp+O-.sp+tp+up+vp+wp+Nu {} xp+yp+zp+",
"Ap+Bp+Cp+Dp+Ep+d| Fp+Gp+Hp+Ip+Jp+Kp+Lp+Mp+Np+Op+Pp+Qp+Rp+f/+Dp Sp+kC Tp+Up+Vp+Wp+Xp+Yp+b& Zp+`p+ q+.q++q+@q+%V.#q+$q+%q+&q+*q+=q+-q+;q+=g+Wa+>q+,q+'q+)q+!q+nQ./x.TO.pD.~q+{q+]q+^q+/q+(q+_q+o#.aS :q+<q+[q+}q+|q+1q+2q+3q+Ec qo+4q+so+5q+6q+7q+8q+9q+0q+aq+bq+cq+dq+eq+fq+gq+hq+iq+jq+kq+lq+mq+nq+oq+pq+qq+rq+sq+tq+uq+vq+wq+xq+yq+3B zq+Aq+Bq+Cq+Dq+Eq+Fq+Gq+Hq+Iq+Jq+$}.h^.Kq+|5.Lq+s/.{ .S0+kA Mq+m> E&+l:+rZ #O Nq+q'+*b.m@.5K k,+Oq+Pq+K|+G; hW Qq+.0 Dg F%. `.gR.w3.Rq+Sq+Tq+Uq+8U.Vq+2f+^p+2-+e)+%a+ud+`g+ud+e)+(p+.h+.h+Wq+#a+@h+af+af+#++0(+MS.Xq+{>.P{+Yq+Bf.qR 3-+7f+GF.Pb+#1+Ys.`|+Zq+`q+ r+.r+yn++r+%6+@r+ff+K2+mk+#r+$r+%r+&r+&6+*r+`b+e4+=r+-r+;r+>r+[H.k$.h$+V[.V[.ay ;l 5M 6F p-.-'+,r+'r+)r+G9+!r+~r+8_.{r+iT.:5.v3.N{ I-.C4+C4+c, ]r+^r+p|./r+(r+_r+z$.:r+<r+[r+}r+|r+1r+TN.",
"2r+3r+4r+5r+6r+7r+8r+9r+0r+ar+br+cr+dr+er+0h+fr+gr+Yl hr+Rf ir+jr+c  kr+lr+mr+nr+or+pr+b'+qr+rr+sr+tr+ur+vr+wr+xr+yr+zr+Ar+Br+Cr+Dr+;q+Er+Fr+Gr+Hr+Ir+Jr+Kr+!5+Lr+Mr+Nr+Or+Pr+;A.Qr+Rr+Sr+!b+Tr+ga Ur+Vr+Wr+Xr+Yr+Zr+`r+ s+.s++s+:G @s+#s+$s+|].%s+&s+*s+=s+-s+;s+>s+,s+'s+)s+!s+~s+{s+]s+^s+/s+(s+_s+:s+<s+[s+}s+|s+1s+2s+3s+4s+5s+6s+zq+7s+Bk 8s+9s+0s+as+K#+bs+cs+ds+es+X:.|5.|5.fs+gs+*$+f@.|R #M Xx 5=+E5+a* hs+Xg is+M%+Em H%.js+ks+ l ls+Vg ms+ns+os+ps+ML.gR.qP.3~.qs+rs+ss+7U.ts+us+vs+ws+w*+4k+(p+`g++m+4k+4k+F^+Wq+xs+ys+e)+zs+As+Bs+Cs+Ds+^E.Es+u7+Fs++&+y_.N,.D^+Gs+&a+V,+9 +eM Hs+Is+Js+Ks+Ls+Ms+Ns+Os+Ps+Qs+{h+Rs+Ss+Ts+Us+Vs+d4+An+Ws+Xs+Ys+Zs+`s+ t+2a+k$.wC.ay wC.-5.LP ]h lu.{E.x)+.t++t+@t+cD #t+{V lA b&+x1.lA $t+L! I-.C4+$T.s[.1+.%t+&t+*t+=t+tp+-t+8+.}M.'$.mN.;t+>t+,t+",
"'t+K3.)t+!t+~t+{t+]t+>a.^t+/t+(t+_t+:t+<t+[t+/e+-t }t+|t+1t+k3 2t+3t+4t+5t+6t+7t+8t+9t+Kf+0t+at+bt+ct+dt+et+ft+gt+ht+it+jt+kt+lt+mt+nt+ot+pt+qt+rt+st+tt+ut+vt+CJ.wt+xt+yt+zt+At+Bt+Ct+Dt+G7 Et+im Ft+Gt+Ht+It+Jt+Kt+Lt+Mt+Nt+Ot+Pt+Qt+Rt+$s+`P.St+Tt+Ut+Vt+Wt+Xt+Yt+Zt+`t+ u+.u++u+@u+#u+$u+%u+&u+*u+=u+-u+;u+>u+,u+'u+)u+!u+~u+{u+]u+^u+/u+(u+_u+:u+<u+[u+xL }u+|u+1u+Nf.X:.2u+6p X*+X:.e,  ^.%` ( ..y 7K ;z.gZ.Q..! +3u+4u+wY.5u+n,+6u+7u+8u+|U.4).:J.9u+0u+ `.o|.9R.k^.au+bu+cu+du+Uq+eu+fu+ws+gu+`g+hu+iu+mn++m++m+Wq+7f+5f+ju+$m+8P.ku+Bs+lu+mu++(.GF.FF.8-+on+nu+_>.{1+Gs+4f+>R.ou+aA pu+qu+ru+nf+su+Ps+tu+uu+tu+vu+wu+xu+yu+zu+Au+Bu+Cu+Du+Eu+-h+Fu+Gu+Hu+Iu+Ju+h$+zN.Ku+0P.2A :E.%) &W.ju.3a+Lu+Mu+Nu+Ou+$e.Pu+l*.O!.P@ y/.Qu+Nu.s/ ,|.@e+Ru+Su+Tu+dw.nb.Uu+Vu+-#.Xn+C%.Wu+4h+Xu+Yu+Zu+",
"Bp ]O.`u+ v+.v++v+Ho.7* @v+#v+$v+%v+&v+*v+=v+-v+;v+Nr.>v+,v+'v+MA )v+!v+~v+{v+~J.]v+^v+/v+(v+_v+:v+<v+[v+}v+|v+1v+2v+3v+4v+5v+6v+7v+8v+9v+0v+av+bv+cv+dv+ev+fv+gv+qy.hv+iv+jv+.i.kv+lv+mv+dg nv+wc ov+pv+>l.qv+rv+sv+tv+uv+vv+wv+xv+yv+zv+Av+|].Bv+Cv+Dv+Ev+Fv+Gv+Hv+Iv+Jv+Kv+Lv+Mv+Nv+Ov+Pv+Qv+Rv+Sv+Tv+Uv+Vv+Wv+Xv+Yv+Zv+)u+`v+{u+L_+ w+.w++w+@w+#w+$w+%w+:,+&w+*w+=w+-w+X:.;w+fR./'+X:.e, >w+sw p. J$.,w+8s g| 'w+)w+!w+3B.~w+kT.M^ {w+]w+^w+/w+(w+Y@ <t 9J.e*+1_.o|.VC._w+:w+<w+du+[w+}w+%:+^p+T5+z2+hu+|w+d)+Ob+z2+7f+7f+1w+Gs+hu+ku+2w+I@+4f+c(+#n.I,+GF.f)+4-+3w+J{+4 +5f+74+^E.4w+rn+5w+6w+7w+8w+9w+79+]h+0w+89+aw+bw+cw+dw+ew+fw+gw+hw+Du+-h+iw+jw+kw+lw+mw+_E.V[.zN.8 +mu.!>.:E.ws &W.nw+vZ.ow+pw+qw+,r D0 |K.7. VN rw+k,.sw+tw+1h.6&.G9+z/.-8+fb.@}.mb.uw+vw+eO P-.Wl.ww+xw+Zl.VS ]R ",
"yw+zw+Aw+Bw+Cw+Dw+8w.Ew+Fw+Gw+Hw+Iw+Jw+Kw+#L Lw+Mw+Nw+63 Ow+|v [e+Pw+Qw+Rw+42 Sw+Tw+Uw+Vw+uR.Ww+Xw+Yw+Zw+`w+ x+.x++x+@x+#x+$x+%x+&x+*x+=x+-x+;x+>x+Hm+dv+,x+'x+)x+!x+~x+{x+]x+bv.^x+/x+(x+_x+:x+Kc <x+[x+}x+|x+1x+2x+3x+4x+{!.5x+M+.6x+7x+8x+n=.9x+0x+ax+bx+cx+dx+ex+fx+gx+hx+ix+jx+kx+lx+mx+nx+ox+px+qx+rx+sx+tx+ux+vx+wx+xx+yx+0{+zx+Ax+Bx+Cx+Dx+Ex+Fx+<u+j%+Gx+Hx+Ix+sP.}J h^.5M.Jx+Kx+Lx+Mx+cW.Nx+Ox+u) Px+<u c[ Qx+uB l: Rx+Qi ]|.Sx+Tx+Ux+Vx+Wx+J{ 7Y.*$+Xx+8; V*+Yx+Zx+`x+ y+.y++y+@y+#y+$y+y2+z2+hu+%y+&y+=W.G,+.h+.h+1w+*y+F^+=y+=y+-y+4 +[^.#++ >+;y+BN.@h+af+t^+#++>y+I,+7r.]>+,y+'y+)y+!a+!y+~y+b4+{y+]y+^y+/y+(y+_y+:y+<y+[y+>m+}y+|y+ff+ff+1y+2y+3y+4y+M,+h$+@M.#h+&++*R.Zo P% wl.(w.:H.[b.5y+6y+vr.e:++M *F ( .^R h@+)=.{f+c) F4.sj F6 li.y8 v}+56+7y+%X CH 8y+9y+0y+ay+by+$0+cy+",
":j+z, dy+ey+fy+gy+hy+iy+jy+ky+ly+my+ny+oy+py+qy+ry+A>.sy+ty+uy+vy+wy+xy+yy+P.+zy+Ay+By+QF Cy+Dy+Ey+Fy+Jh Gy+Hy+Iy+Jy+Ky+Ly+My+Ny+Oy+Py+Qy+Ry+Sy+Ty+cv+Uy+Vy+Wy+wO.Xy+Yy+Zy+`y+@f. z+.z++z+@z+<: `} #z+$z+`h+%z+&z+1I *z+=z+-z+q` Pt+(S ;z+>z+D&.FR.,z+'z+)z+!z+~z+{z+]z+^z+/z+(z+_z+:z+<z+[z+}z+|z+1z+2z+3z+4z+5z+6z+7z+8z+9z+0z+az+bz+cz+dz+ez+fz+gz+hz+iz+:,+jz+kz+lz+mz+h^.;w+('.k*.7{.;}.+T cW.nz+n<+oz+c2 pz+qz+rz+sz+tz+uz+vz+wz+xz+yz+zz+Az+Bz+;}+Cz+Dz+C7.QC.Ez+Fz+Gz+Hz+Z0+Iz+Iz+Jz+Kz+Lz+gu+z2+4k+=W.Mz+Nz+D<+.h+.h+*y+Oz+Pz+Qz+Rz+Sz+D^+2^.4-+4-+Bs+@h+As+af+74+f)+3$+7-+R{+Tz+Uz+Vz+Wz+Xz+Yz+Zz+%c+`z+vu+ A+.A+c4++A+@A+#A+$A+Gn+%A+&A+*A+=A+-A+2y+;A+>A+jK.h$+(E.,A+,Y.}9.|T R[ i).,e.'A+)A+!A+~A+d^.ww gi.{A+Yj.-4+^R #8 Hs./$.F4.X2 lP 46.K%+KC.o~.;#.,d.Gw ]A+me.^A+/A+(A+_A+:A+",
"<A+[A+lY.}A+|A+1A+2A+Xx+3A+4A+5A+6A+7A+8A+9A+0A+aA+bA+x_ cA+dA+eA+fA+gA+hA+iA+jA+kA+lA+[`.mA+{j+<#+nA+oA+pA+qA+rA+sA+tA+uA+vA+wA+xA+yA+zA+AA+BA+CA+DA+>x+EA+FA+GA+HA+IA+JA+KA+7o+LA+MA+rI '1.7x NA+OA+PA+QA+RA+SA+TA+UA+VA+WA+KO 4q+XA+]b+YA+ZA+`A+ B+.B++B+@B+#B+$B+%B+&B+*B+=B+-B+;B+>B+,B+'B+)B+!B+~B+{B+]B+^B+/B+(B+_B+:B+<B+[B+}B+|B+1B+2B+3B+4B+5B+H#+6B+7B+8B+9B+0B+g9.aB+OU.iZ 6+.p>.0. ie.bB+cB+dB+eB+fB+_k+gB+hB+iB+jB+kB+lB+Dl mB+nB+oB+Qk :t.pB+I8 qB+g,+rB+sB+tB+uB+vB+wB+Y.+xB+yB+zB+AB+/p+/p+#a+Mb+BB+CB+Gs+Wq+Wq+T5+DB+EB+Qz+FB+$a+SX.on+2w+2w+2w+GB+@h+ >+u^+R{+W,+HB+IB+JB+KB+LB+MB+NB+OB+PB+uu+{a+QB+RB+SB+TB+UB+VB+WB+XB+YB+ZB+cp+`B+ C+.C++C+@C+sk+1H.(E..M.Bf.iK.e3.ZA.:9.,e.:H.#C+$C+%C+&C+@` ]& 7K.:= -4+^R j- 7).@k.*C+/M CU y/.p> =C+-C+6y.;C+>C+[` ,C+'C+)C+!C+~C+C3.",
"{C+Hf+]C+K..^C+/C+(C+_C+:C+<C+[C+}C+|C+1C+2C+3C+4C+5C+Ql 6C+7C+8C+9C+0C+aC+bC+cC+dC+'[+eC+fC+gC+hC+g2+iC+o2+jC+kC+lC+mC+nC+oC+pC+qC+rC+sC+tC+uC+vC+wC+xC+yC+zC+AC+BC+CC+DC+EC+&f.FC+GC+HC+IC+JC+KC+LC+MC+NC+OC+PC+QC+RC+SC+TC+UC+5L 7L VC+WC+}=+XC+YC+ZC+`C+ D+.D++D+@D+#D+$D+%D+&D+*D+=D+-D+;D+>D+,D+'D+)D+!D+~D+{D+]D+^D+/D+(D+_D+:D+<D+[D+}D+|D+1D+2D+3D+4D+5D+6D+7D+fs+8D+3G.9D+k*.0D+aD+a++bD+cD+dD+eD+fD+k2+gD+hD+nR.iD+%b jD+kD+lD+mD+nD+oD+z+  X '4 QQ.d2+lH pD+qD+rD+sD+tD+uD+vD+wN.wD+xD+yD+$m+eU.p7+*~+Nz+m7+G,+`g+zD+iu+AD+BD+=y+hu+1w+3 +on+CD+DD+ED+FD+r^+I{+4W.GD+e|.DD+HD+ID+JD+KD+0w+LD+MD+ND+OD+Os+Ls+PD+QD+RD+SD+TD+UD+VD+WD+E7+XD+vu+YD+ZD+`D+ E+7-+^H `o l4+h9+IS.6|.ws p-.Kx.:H..E++E+@E+-(.#E+p[.e] %} $E+(D K-.%` 5. mA 14 Nk y[.E_ %E+&E+S3.M|.`K *E+=E+-E+;E+>E+,E+'E+",
")E+km+!E+~E+{E+]E+^E+/E+(E+_E+:E+<E+[E+}E+|E+1E+2E+3E+4E+5E+6E+w1+7E+8E+9E+0E+aE+Pq+{o+bE+cE+0C.dE+eE+z( fE+gE+hE+iE+jE+kE+lE+mE+nE+oE+pE+qE+rE+sE+vC+tE+uE+vE+wE+jb+xE+yE+5I =i.zE+AE+nj.BE+CE+DE+|l+EE+FE+GE+HE+IE+JE+TC+KE+Vn (S LE+ME+NE+OE+PE+QE+RE+SE+TE+UE+VE+WE+XE+YE+ZE+`E+ F+.F++F+@F+#F+$F+%F+&F+*F+=F+-F+;F+>F+,F+'F+)F+!F+~F+{F+]F+^F+/F+(F+_F+:F+5D+<F+Jq+*3 8D+fR.=`.lH.e, [F+;'.}F+UV.|F+1F+2F+3F+4F+HP.5F+^J.6F+7F+a) 8F+9F+0F+aF+bF+{}.Xz l> jc.lH Jg+cF+dF+eF+fF+gF+#W.hF+iF+jF+^p+s^+{1+=W.kF+lF+ys+4k+ud+&y+Mz+AD+BD+mF+(p+nF+7f+$a+oF+pF+qF+rn+[p+74+~k.V,+rF+sF+tF+uF+vF+wF+xF+]m+yF+zF+AF+Os+BF+CF+DF+EF+FF+GF+HF+IF+yd+JF+e9+KF+LF+^y+MF+NF+M{+fF H{.$_ 0A h9+6|.D| Qs OF+:H.PF+QF+RF+}; SF+oi.T%+44 Hu ml d>.:; ,Q K' #T lA TF+UF+e&+VF+b&.i, WF+XF+YF+X-.ZF+/D.`F+A4+",
" G+.G++G+@G+#G+$G+%G+&G+*G+=G+-G+;G+>G+,G+'G+)G+!G+~G+{G+]G+^G+/G+(G+_G+:G+<G+[G+(2.Lk }G+]_+|G+1G+1G+2G+Ue :2.3G+5= 4G+5G+6G+7G+8G+9G+0G+aG+bG+cG+dG+eG+fG+gG+hG+iG+jG+kG+%i.$i.lG+mG+nG+oG+pG+qG+rG+sG+av.tG+uG+vG+SC+vv+}!.wG+(S xG+yG+zG+AG+BG+CG+DG+EG+FG+GG+HG+IG+JG+KG+LG+MG+NG+OG+PG+QG+RG+SG+TG+UG+VG+WG+XG+YG+ZG+`G+ H+.H++H+@H+#H+$H+%H+&H+*H+7{+=H+-H+;H+>H+,H+'H+)H+i,.Mu cE.G%+.M j0.!H+~H+{H+]H+^H+/H+(H+_H+^J.E&+:H++>.<H+[H+}H+|H+1H+2H+bK +y d2+lH 3H+4H+5H+6H+vB+7H+#W.hF+^9+8H+9H+0H+{1+=W.Mb+AD+ys+T5+hu+$m+aH+AD+BD+bH+mF+cH+:p+dH+eH+fH+gH+rn+Mb+9k++(.1a+hH+iH+jH+kH+lH+{m+Ns+F7+JF+tu+BF+Os+mH+=1+nH+oH+pH+qH+rH+E7+d4+.r+sH+tH+OB+OB+uH+vH+D2+O{+*+.U: _/ 6|.6|.|T $C OF+wH+xH+yH+8d+/M dh.44 $0 j- zH+jF.Iu g/ a5.AH+BH+Hs.tw+CH+2M.9(.|C DH+EH+M .FH+GH+HH+IH+_B.JH+",
"KH+P~ +@ LH+Xd MH+NH+OH+PH+QH+RH+SH+TH+UH+VH+WH+XH+YH+ZH+`H+ I+.I++I+)q.@I+#I+$I+%I+r~+#!+]_+&I+7]+*I+=I+Mh v>+9J.-I+;I+>I+</.,I+'I+)I+!I+~I+{I+]I+^I+/I+(I+_I+:I+<I+[I+}I+Ht+|I+1I+2I+]b+3I+4I+5I+6I+7I+8I+9I+0I+Nt+aI+KE+vv+bI+XH cI+dI+eI+fI+gI+hI+iI+jI+kI+lI+mI+nI+oI+pI+qI+rI+sI+tI+uI+vI+wI+xI+yI+zI+AI+BI+CI+DI+EI+FI+GI+HI+II+JI+KI+LI+MI+NI+OI+I#+PI+-H+QI+RI+,H+=8+SI+Dz+0~.TI+Mu %T.AB UI+VI+WI+XI+HP.YI+ZI+`I+ J+~o+.J++J+@J+#J+$J+%J+&J+*J+p'+j- '2.(n.=J+-J+;J+>J+,J+'J+#W.)J+yB+!J+D,+e)+_9+=W.0H+lF+D<+D<+s^+@1+[p+zD+AD+0k+~J+{J+4k+2 +]J+^J+/J+(J+zD+_J+I{+:J+<J+[J+}J+|J+1J+2J+3J+4J+BF+BF+5J+Ps+6J+YD+7J+8J+9J+0J+aJ+QB+&6+zF+bJ+Ks+cJ+C7+dJ+eJ+-~+wC.fJ+u_.B_.6|.6|.B_.$C )&.ju.gJ+hJ+iJ+9W jJ+K4.N.+Nk {f+iF.zH+fH K> kJ+I# N%.Pu+R!.kb.~v.%X GF 2J lJ+mJ+M)+Ab.j~.nJ+&}.",
"oJ+pJ+h:+#7 qJ+rJ+sJ+tJ+uJ+vJ+wJ+xJ+yJ+zJ+AJ+BJ+CJ+DJ+EJ+FJ+GJ+HJ+IJ+JJ+KJ+LJ+MJ+NJ+OJ+PJ+QJ+vW.k/+RJ+SJ+Lk+83+FK.TJ+UJ+VJ+WJ+XJ+YJ+ZJ+ie+`J+ K+.K++K+@K+#K+$K+%K+&K+*K+=K+-K+;K+>K+,K+'K+)K+!K+~K+{K+]K+^K+/K+(K+Er _K+:K+<K+9E [K+}K+|K+1K+2K+=k 3K+4K+5K+6K+7K+8K+9K+0K+aK+bK+cK+dK+eK+fK+gK+hK+iK+jK+kK+lK+mK+nK+oK+pK+pK+qK+rK+sK+tK+uK+vK+wK+xK+yK+zK+AK+BK+CK+DK+EK+>B.01+C7.jl Q;.;}.Q(+Pi FK+GK+HK+IK+n&+JK+KK+NJ+LK+sa+Xd ;}+'#.pw.N).MK+NK+OK+u9.-r PK+QK+5h.*4+RK+SK+TK+UK+VK+WK+@R.XK+F,+YK+t)+y@+$m+lF+%y+s^+od+ZK+`K+2w+[p+As+-y+ L+Z;+7(+.L++L+Tz+@L+#L+$L+ud+%L+&L+*L+=L+-L+;L+9w+>L+Du+K2+uu+JF+JF+Ns+,L+'L+)L+!L+~L+{L+]L+^L+tu+/L+(L+_L+:L+<L+[L+}L+(>.Tq Zi+|L+(>.0A (>.Ys.1L+2L+3L+4L+5L+6L+gA 5. 7L++M p> 8L+pl 9L+0L+aL+##./ .ty <-.DP.bL+*e (m.c&.*8+cL+dL+eL+3G+Pu.dL+",
"fL+gL+hL+iL+jL+kL+lL+|U mL+nL+oL+Q9+pL+qL+rL+sL+tL+uL+vL+wL+xL+yL+zL+AL+BL+CL+DL+8r EL+FL+GL+HL+IL+T4+T4+JL+KL+LL+ML+NL+OL+PL+QL+RL+SL+TL+UL+VL+WL+XL+YL+ZL++I `L+ M+.M++M+@M+#M+$M+%M+&M+*M+=M+-M+;M+>M+sq.,M+'M+)M+!M+&g ~M+{M+_9 ]M+^M+ Q./M+(M+_M+:M+<M+[M+}M+|M+1M+2M+3M+4M+5M+6M+7M+8M+9M+0M+aM+bM+cM+dM+eM+fM+gM+hM+iM+jM+kM+lM+mM+nM+oM+pM+xK+qM+rM+sM+tM+uM+vM+bw.>B.wM+'8.&4+t$+xM+yM+l:+zM+(_+AM+BM+o&+HP.CM+DM+(Q EM+FM+GM+rb.HM+IM+JM+KM+LM+`/ {M.MM+!k+9E.NM+OM+PM+QM+RM+SM+TM+UM+c)+&y+VM+-c+6f+ >+|w+Mb+[p+@1+WM+XM+YM+ZM+`M+Sz+ L+ N+.N++N++L+@N+#N+#L+$N+%N+&N+*N+=N+-N+;N+>N+,N+'N+>m+K2+tu+)N+!N+tu+~N+{N+]N+^N+/N+(N+_N+:N+tu+89+<N+-h+[N+}N+|N+1N+(>.-/ HF.HF.HF.q(+l4+rR 2N+3a+3N+4N+5N+6N+7N+I# g@.VN oN.K@ }; 8N+9N+7s 0N+k| y8 S] yr.N) aN+ k bN+cN+=8+=`.m<.dN+0~.>8+",
"eN+L, Na+fN+gN+hN+iN+jN+kN+lN+mN+nN+oN+pN+qN+rN+sN+tN+uN+vN+wN+xN+yN+zN+AN+BN+CN+DN+EN+FN+GN+HN+a& %l+IN+JN+_=+KN+LN+sj.mt+MN+NN+ON+PN+QN+RN+SN+TN+UN+uL+CB.-<+S^.VN+WN+XN+YN+ZN+`N+ O+.O+ s++O+@O+#O+Bt+$O+%O+&O+A=.*O+&g ra.{M+=O+-O+;O+>O+,O+D&.'O+)O+!O+~O+{O+]O+^O+/O+(O+_O+:O+<O+[O+}O+|O+1O+2O+3O+4O+5O+6O+7O+8O+9O+0O+aO+bO+cO+dO+eO+=Y.fO+gO+hO+iO+jO+kO+lO+mO+]1 nO+oO+C4.F|+pO+E%.qO+|-.o_ ,O.or+rO+sO+^_+or+tO+uO+u{ vO+wO+xO++Y C{ yO+zO+AO+E_ tK.Vj.QK+BO+K0+CO+DO+EO+FO+GO+HO+1 +.N+&y+IO+JO+c(+o7+Hs+Mb+Mb+r^+Mz+KO+LO+MO+NO+OO+`g+`g+AD+PO+QO+RO+SO+TO+UO+VO+WO+XO+YO+ZO+`O+ P+.P+H<+xF+cp+vF++P+@P+&6+#P+$P+%P+&P+*P+mf+=P+-P+]h+;P+>P+,P+'P+)P+!P+~P+{P+K[.Yi+0A aA EF.3P.=5.x)+]P+^P+/P+(P+ur._P+:P+<P+N7.h@.<P+[P+}P+|P+<K.L! O..O..`/ 1P+<'.rO MH z< -3+2P+1W o! x1.e- 3P+",
"h1 4P+5P+6P+7P+O!.8P+9P+0P+aP+bP+w].cP+dP+eP+nG fP+gP+hP+iP+jP+kP+#Y lP+mP+nP+oP+pP+Ff qP+rP+sP+tP+uP+vP+wP+xP+yP+zP+AP+BP+CP+DP+AA+EP+FP+GP+HP+IP+JP+KP+LP+MP+NP+OP+PP+QP+RP+SP+TP+UP+VP+WP+XP+YP+wa.ZP+`P+ Q+.Q+<e +Q+@Q+@Q+$m #Q+$Q+%Q+&Q+*Q+=Q+-Q+;Q+>Q+,Q+'Q+)Q+!Q+~Q+{Q+]Q+^Q+/Q+(Q+_Q+:Q+<Q+[Q+}Q+|Q+1Q+2Q+aO+3Q+4Q+5Q+6Q+7Q+8Q+9Q+0Q+9Q+aQ+bQ+cQ+dQ+eQ+fQ+gQ+hQ+iQ+M!.jQ+-w+9E.W*+!=.iT.7| kQ+dB+lQ+mQ+nQ+oQ+pQ+qQ+:J.rQ+eB+^_+sQ+tQ+uQ+vQ+NK+wQ+K%.xQ+yQ+li+67+Jg+zQ+AQ+BQ+wB+GO+CQ+DQ+EQ+Hs+FQ+JO+.6+8k+Kb+Mb+t)+r^+Mz+GQ+HQ+HQ+IQ+JQ+%y+`g+AD+KQ+LQ+MQ+NQ+OQ+PQ+QQ+RQ+SQ+TQ+UQ+VQ+WQ+XQ+YQ+xF+L7+vF+ZQ+!N+ef+`Q+ R+.R++R+@R+ok+cp+OB+#R+LB+)P+jw+[N+KD+$R+%R+&R+*R+HF.HF.:/ 5b.z0.>+.'A+=R+-R+;R+>R+,R+G9+VF.'R+)R+_).9C.U4.!R+GX.~R+:; $w [; {R+AU fh.]R+>C+^R+q>./R+J@ << *M q> (R+",
"_R+:R+lY.SJ+<R+1-.[R+}R+|R+1R+2R+3R+4R+5R+VE.6R+7R+8R+9R+0R+aR+bR+cR+dR+eR+fR+q, yW.gR+hR+iR+jR+kR+vP+lR+mR+nR+oR+pR+qR+rR+sR+h8+tR+uR+vR+{I+wR+xR+yR+=g kQ H>.=,+zR+AR+BR+CR+DR+ER+FR+GR+HR+IR+JR+KR+LR+MR+NR+OR+aL PR+QR+@Q+:G RR+SR+TR+UR+ZA+VR+WR+XR+YR+ZR+`R+ S+.S++S+@S+#S+$S+%S+&S+*S+=S+-S+;S+>S+,S+'S+)S+!S+~S+{S+]S+^S+/S+(S+_S+:S+<S+[S+}S+|S+1S+2S+3S+4S+5S+iQ+DK.6S+^).7S+C-+C$+L) LR.8S+9S+0S+z^ aS+uO+bS+cS+dS+eS+&y.fS+FI gS+hS+iS+jS+kS++t fq lS+mS+nS+oS+OM+pS+BQ+wB+qS+rS+FS.sS+tS+uS+vS+wS+xS+AD+[p+A2+rn+g9+EB+yS+yS+zS+AS+|w+AD+[p+aH+BS+CS+DS+@N+ES+FS+GS+HS+Id+IS+JS+KS+LS+MS+NS+tu+*1+OS+I2+PS+QS+RS+SS+TS+US+cJ+LD+Hd+MD+LB+VS+,P+WS+XS+YS+ZS+!n 2j HF.HF.I{.[9.A0.xu `S+bU. T+.T++T+@T+9>.#T+Is.$T+%T+NG &T+/J *T+}  j| {$.}e.=T+;4+-T+<r CH ;T+1=.>T+,T+;J.0. NG !$.",
"'T+R)+qc+)T+!T+~T+{T+]T+^T+/T+my+(T+_T+W:+:T+<T+[T+}T+|T+1T+}o.2T+3T+4T+5T+6T+7T+8T+9T+0T+aT+bT+cT+dT+eT+fT+gT+hT+iT+ot+jT+kT+lT+mT+nT+oT+pT+qT+rT+sT+,N tT+uT+vT+I>.wT+xT+yT+zT+AT+BT+CT+DT+ET+FT+GT+HT+IT+JT+_W KT+LT+MT+!M+NT+OT+PT+QT+RT+ST+TT+WR+UT+VT+WT+XT+YT+ZT+`T+ U+.U++U+@U+#U+$U+%U+&U+*U+=U+-U+;U+>U+,U+'U+)U+!U+~U+{U+]U+^U+/U+=S+(U+_U+:U+<U+[U+}U+|U+2C+EK+iZ T_+K .oO+fE.[r+&L./R dE+jZ.FA 1U+2U+3U+4U+5U+}=.6U+gY.7U+8U+9U+0U+aU+bU+cU+Mu 5s dU+eU+nS+fU+gU+hU+iU+jU+3(+kU+DQ+lU+mU+nU+5W.oU+}4+Rz+Rz+0H+pU+OQ+qU+rU+rU+zS+sU+tU+u@+BD+lF+@L+uU+vU+wU+xU+ZE+yU+zU+-m+AU+BU+CU+DU+>P+Ui+EU+FU+nk+JD+2p+GU+HU+IU+JU+KU+%c+LU+OB+OB+`z+MU+MB+NU+OU+PU+QU+RU+D| 0A (>.3P.i$+`i+kw SU+TU+UU+VU+WU+H7.XU+9O N4.26.GK.*v h@.(J /b YU+ZU+S~ ,6 i- `U+Wu+ V+t} TW vM..V++V+jZ Q@ @V+<  ",
"#V+$V+%V+&V+*V+=V+-V+;V+>V+,V+'V+)V+!V+~V+{V+]V+vc+^V+/V+(V+bR+tO+_V+:V+<V+[V+}V+|V+1V+2V+3V+4V+:/+5V+lY.<2.6V+8h+7V+Py+8V+9V+0V+aV+gL.eL.bV+cV+dV+h> eV+fV+gV+hV+iV+jV+kV+lV+mV+nV+oV+pV+qV+Q  rV+sV+tV+uV+vV+wV+9E xV+UC+yV+zV+AV+BV+CV+DV+EV+FV+GV+HV+IV+JV+KV+LV+MV+NV+OV+PV+QV+RV+SV+TV+UV+VV+WV+XV+YV+ZV+`V+ W+.W++W+@W+#W+$W+%W+&W+*W+=W+-W+;W+>W+,W+.$+'W+)W+!W+EK+k*.~W+01+kb.{W+^/+L) 9W Dm =q.u. ]W+^W+/W+GP.5U+(W+_W+:W+<W+P%+[W+}W+|W+1W+2W+3W+j<.ob.4W+5W+6W+gU+7W+3w.[P.8W+rS+9W+0W+aW+bW+5W.uS+0H+BS+g9+Qz+cW+dW+qU+rU+rU+eW+fW+gW+hW+u@+aH+iW+vU+jW+kW+lW+mW+nW+oW+pW+qW+rW+sW+tW+uW+uu+QB+vW+wW+]h+xW+yW+zW+AW+BW+CW+OB+DW+Ui+EW+]h+xF+]m+-h+FW+GW+HW+Ju+0A 6|.(>.6|.Jc.;h.IW+[Y JW+KW+LW+MW+^M H# NW+S!.jp NG f*+K) OW+iA PW+4u o> Gg LR.QW+aV RW+%E -t+SW+$q.TW+C$+;'.,V.R)+",
"UW+VW+WW+XW+YW+ZW+`W+ X+.X++X+oN+@X+#X+$X+%X+&X+*X+=X+-X+;X+>X+,X+'X+)X+!X+~X+=G.{X+]X+^X+/X+sP+(X+_X+*7 :X+<X+[X+}X+|X+1X+Vy+2X+lj+3X+4X+5X+6X+_| 7X+8X+9X+0X+aX+bX+cX+dX+eX+fX+gX+hX+iX+jX+kX+lX+sS mX+nX+oX+(7+pX+qX+rX+sX+(S tX+by.uX+vX+wX+xX+yX+zX+AX+BX+KV+CX+DX+EX+FX+GX+HX+IX+JX+KX+LX+MX+NX+OX+PX+QX+RX+SX+TX+UX+VX+WX+XX+YX+ZX+`X+ Y+.Y++Y+@Y+#Y+$Y+%Y+&Y+*Y+h,.Z9 ,T+kw.=Y+rP.G%+.M R~ `9 %M -Y+4U+;Y+Ih >Y+!=+,Y+.v.'Y+$y )Y+!Y+~Y+x] C' {Y+9J.ha+~k+4W+]Y+^Y+/Y+(Y+3w.vN.us+_Y+#u+:Y+ju.<Y+y@+xS+BD+LQ+%N+|w+[Y+[Y+}Y+EQ+7(+|Y+1Y+kU+V|+x<+pU+NQ+2Y+3Y+4Y+5Y+6Y++r+7Y+8Y+9Y+0Y+aY+bY+cY+6J+dY+eY+fY+/y+gY+hY+iY+jY+kY+.C+#R+su+zn+ff+gf+F7+3J+=P+lY+mY+nY+oY+S2+l4+l4+6|.A0.kw %C pY+qY+rY+sY+tY+)< zM c<.c, }e.g@+jp 44 nA K5+@f uY+O0+Qi  E.Jk Q~ vY+wY+xY+yY+zY+&}.XC..M AY+BY+",
"CY+DY+EY+FY+GY+HY+IY+JY+KY+LY+MY+NY+#X+OY+pL+PY+x].QY+RY+r! SY+TY+UY+u] VY+WY+XY+YY+ZY+`Y+)J. Z+.Z+_).Gs.+Z+@Z+#Z+>0+$Z+%Z+&Z+*Z+=Z+-Z+;Z+>Z+,Z+{k 'Z+AV+)Z+!Z+aX+~Z+{Z+]Z+^Z+/Z+(Z+;O+_Z+w8+:Z+<Z+[Z+`h+}Z+|Z+9i+1Z+2Z+kQ sX+kQ 3Z+by.4Z+5Z+6Z+7Z+8Z+9Z+0Z+aZ+bZ+cZ+dZ+eZ+fZ+gZ+hZ+iZ+jZ+kZ+lZ+mZ+nZ+oZ+pZ+qZ+rZ+sZ+tZ+uZ+vZ+wZ+xZ+yZ+zZ+AZ+BZ+CZ+DZ+EZ+FZ+$Y+GZ+HZ+IZ+EK+%L.ae.JZ+KZ+LZ+/).rw+MZ+`f.;-+ k.NZ+Mj T .OZ+PZ+AI QZ+RZ+Z_.Go SZ+TZ+UZ+VZ+WZ+ps+ha+yQ+XZ+YZ+ZZ+`Z+ `+X%+OA..`++`+@`+#`+$`+%`+}L+/p+KQ+&`+&`+nd+*`+=`+-`+v@+PX.;`+>`+,`+'`+[Y+[Y+)`+!`+~`+{`+]`+^`+/`+(`+_`+:`+D7+XS+<`+NB+PD+[`+}`+|`+1`+2`+3`+4`+5`+6`+7`+89+5J+8`+;h+9`+;h+dp+0`+a`+b`+c`+d`+e`+z@+f`+(>.`i+T@+g).g`+h`+i`+j`+k`+2u.Ru l`+2) /= ri+ ( kc.m`+S4.H{ uY+bn+bn+[)+n`+Q@ o`+p`+=#.q`+r`+s`+J@ ym !=.t`+",
"u`+v`+w`+x`+y`+z`+A`+B`+C`+D`+E`+F`+G`+H`+I`+J`+K`+L`+M`+N`+O`+7V P`+Q`+R`+S`+T`+U`+x]+V`+*G.W`+X`+Y`++b Z`+``+  @. @+ @@ @>I.cv+# @$ @% @& @* @A~.= @- @; @uT+> @+1., @' @) @! @~ @{ @] @^ @O} #z+Fh+/ @( @_ @ho : @4L qX+< @77 tX+G&.[ @} @| @1 @2 @3 @4 @5 @6 @7 @8 @9 @0 @a @b @c @d @e @f @g @h @i @j @k @l @m @n @o @p @q @r @s @t @u @v @w @x @y @z @A @B @C @D @E @F @G @H @H..NC.lZ +T E; v^ [)+I @J @(J.K @L @M @N @O @&w r{+c[+P @Q @R @S @T @h5.U @V @YZ+W @=J+`Z+X @Y @Z @` @VK+Io+ .@Ci+$]+Di+e)+lF+/J+/J+..@>:++.@yS+@.@#.@=`+$.@%.@zB+&.@*.@=.@-.@;.@>.@F7+,.@'.@).@!.@~.@{.@].@e9+zU+yn+^.@/.@(.@_.@:.@<.@[.@}.@|.@1.@jw+2.@8`+3.@4.@Xs+Ps+5.@:`+6.@7.@8.@9.@z@+l4+*5.0.@i$+a.@pY+b.@c.@d.@e.@l+ #5 ^+.i+ g@. ( S~ (= b) )}+a[ 8% [u.f.@g.@h.@i.@j.@k.@a`.l.@m.@n.@mH.j,.o.@p.@",
"1y.q.@r.@s.@t.@u.@v.@w.@x.@y.@z.@A.@B.@C.@D.@E.@F.@gh+G.@H.@I.@dB+J.@K.@L.@M.@N.@O.@NZ+lR.>E J/ P.@An Q.@R.@'Z jm.S.@T.@U.@pD.>x+V.@W.@X.@Y.@Z.@=,+`.@ +@.+@++@@+@#+@$+@%+@&+@*+@=+@-+@;+@jX+}k >+@sV+,+@'+@)+@Jx !+@W&.qX+~+@kQ LP+nt.{+@]+@^+@/+@(+@_+@:+@<+@[+@}+@|+@1+@2+@3+@4+@@U+5+@6+@7+@8+@9+@0+@a+@b+@c+@d+@e+@f+@g+@h+@i+@j+@k+@l+@m+@n+@o+@p+@q+@A @r+@s+@t+@iQ+Aw+$=+dN+mP Rm.N!.p> Qi u+@E&+cl.v+@w+@x+@qQ+y+@:J.O @z+@A+@B+@C+@D+@E+@F+@F! G+@xM+:)+H+@8C.I+@J+@K+@L+@M+@C{+N+@Io+O+@P+@z@+14+}4+Q+@=`+R+@>:++N+S+@rU+@L+T+@94+U+@V+@W+@rU+X+@Y+@Z+@`+@99+ @@.@@OS+).@~.@+@@<N+NB+vF+@@@#@@$@@%@@&@@*@@=@@-@@;@@>@@,@@'@@ C+)@@;h+Ad+!@@~@@{@@]@@^@@Qs+/@@(@@_@@z@+l4+0A EF.:@@@&.<@@.T.[@@}@@|@@1@@jn _; }e.{$.8. ni.E1.2@@}$ i: 34 Yj.=b.3@@hq 4@@5@@6@@6* 7@@8@@9@@<_+-J.0@@a@@",
"b@@c@@d@@e@@f@@Be.g@@h@@i@@j@@k@@l@@m@@n@@o@@p@@q@@r@@s@@t@@'J.u@@v@@w@@x@@y@@z@@A@@B@@o&+C@@J/ wQ+u9.D@@E@@w/+F@@G@@nj+U.@H@@I@@J@@K@@L@@M@@+L.N@@O@@P@@Q@@R@@S@@T@@U@@V@@W@@X@@Y@@Z@@`@@ #@!K+.#@LA+'s.+#@@#@]_.Kp ##@yv+$#@%#@&#@*#@to+=#@-#@;#@>#@,#@'#@)#@!#@~#@{#@]#@^#@/#@(#@_#@:#@<#@[#@}#@|#@1#@2#@3#@4#@5#@6#@7#@8#@9#@0#@a#@b#@c#@d#@e#@f#@g#@h#@i#@j#@k#@l#@,}.m#@a_ [F+n#@xU o#@$8 p#@Kg m,.q#@OQ.r#@;q.s#@t#@nS.Ox+Rl+8D u#@v#@w#@x#@y#@;}+^o+J..pO+z#@A#@B#@C#@D#@E#@7H+F#@G#@H#@I#@J#@A@+y@+xS+(J+=`+>:+{6+K#@L#@M#@N#@%N+O#@U+@P#@gu+dW+Q#@R#@S#@T#@U#@V#@RB+W#@X#@~.@Y#@D7+Z#@nW+`#@ $@^.@.$@+$@@$@#$@$$@%$@&$@*$@WD+Fu+Ad+;h+ZB+=$@-$@;$@>$@,$@'$@)$@!$@_@@%]+f`+l4+bW+~$@@&.{$@]$@^$@/$@($@_$@sh h~ h| q[.[; BH+5. S;+b) :$@!z.=9+,Q h| Eg <$@OH.*#.[$@}$@/A+S)+<(.|$@1$@G..",
"2$@3$@4$@5$@6$@7$@8$@9$@0$@!C.a$@b$@m@@c$@d$@e$@f$@g$@h$@i$@~}.l: j$@k$@l$@m$@n$@o$@MK+!$+gK A~+p$@q$@r$@s$@*x+t$@u$@v$@w$@x$@y$@z$@A$@B$@C$@D$@eT.E$@F$@^{+G$@z&+H$@I$@J$@K$@L$@M$@N$@O$@P$@Q$@R$@S$@tc+T$@In.G5.bI+U$@V$@CB.W$@X$@Y$@Z$@`$@ %@.%@+%@@%@#%@$%@%%@&%@*%@=%@-%@;%@>%@_#@,%@'%@)%@!%@~%@{%@]%@^%@/%@(%@_%@:%@<%@[%@}%@|%@1%@2%@3%@4%@5%@{).6%@7%@8%@9%@0%@a%@#l+k*.9++Vi b%@*-+c%@d%@XS >w+:5 (!+t. e%@q{ f%@g%@Ox+r! J^ h%@i%@j%@k%@l%@m%@n%@C^ TN.qB+o%@p%@q%@r%@s%@t%@u%@v%@w%@mn+Di+A@+@++9(+Mz+/J+[Y+[Y+x%@CS+y%@z%@A%@x<+Hx.P#@hu+pU+B%@C%@D%@|J+E%@F%@yn+G%@Ls+=P+H%@$6+I%@J%@K%@L%@M%@N%@O%@P%@Q%@R%@S%@T%@U%@Gn+V%@W%@;h+;h+=$@X%@Y%@Z%@`%@ &@.&@+&@X5+@&@z@+A@+#&@~e.$&@g`+%&@&&@*&@=&@-&@!T 9% N0+h2 @e.7).}-.)T 0n+51+;&@K# MU fi.zI >&@,&@)].(-.'&@h1 T6.<(.)&@|$@!&@",
"~&@{&@]&@^&@/&@(&@_&@:&@<&@[&@}&@|&@1&@2&@3&@4&@5&@6&@PN 7&@8&@9&@0&@a&@b&@c&@d&@e&@f&@g&@t*.h&@i&@j&@k&@l&@m&@n&@o&@H6+sE+p&@q&@r&@s&@t&@u&@&Q+v&@w&@x&@^{+y&@z&@kr A&@B&@C&@D&@E&@F&@G&@H&@I&@J&@K&@tc+L&@M&@a:.N&@O&@P&@Q&@R&@S&@i` Z$@T&@U&@V&@W&@X&@Y&@Z&@`&@ *@.*@+*@@*@#*@$*@%*@&*@**@=*@-*@;*@>*@,*@'*@)*@!*@~*@{*@]*@^*@/*@(*@_*@:*@<*@[*@}*@|*@1*@2*@3*@4*@5*@Nl.T-+kw.k> 6*@vR.zm @F }r+7*@NG 1K.QN +A b2 N( 8*@! +w( nS.9*@0*@a*@b*@c*@d*@ A mA+yb.e*@s$+rT %b.f*@g*@h*@i*@j*@k*@bf+l*@}L+3$+ >+nn+Qz+m*@n*@AS+o*@NQ+p*@q*@r*@s*@t*@xD+0k+u*@v*@w*@x*@y*@F%@z*@A*@OB+B*@C*@D*@E*@F*@G*@K%@H*@$@@I*@J*@K*@L*@M*@N*@O*@P*@Q*@ C+ZB+e4+R*@S*@T*@U*@V*@W*@O%@X*@Y*@J,+*]+Z*@14+e`+`*@)k. =@.=@+=@@=@#=@l/ ##.,w+$=@&A %=@[; 44 SD Vg.r/ NW ] +#k.+b oo &=@$j.F..*=@q~+==@-=@p~+8L+f*+by+",
";=@>=@h3 ,=@'=@)=@!=@~=@{=@]=@^=@/=@(=@_=@:=@<=@[=@}=@J%.|=@1=@2=@3=@4=@5=@6=@7=@8=@5(.9=@Yu.^w+0=@a=@b=@B'+c=@d=@e=@f=@g=@h=@i=@j=@k=@l=@tM.z&+m=@n=@ +@o=@p=@q=@a1 r=@s=@t=@u=@v=@w=@x=@y=@z=@A=@B=@0#+C=@D=@E=@mt F=@G=@H=@R&@I=@J=@K=@L=@M=@xX+N=@O=@P=@Q=@R=@S=@T=@U=@V=@W=@X=@Y=@Z=@`=@ -@.-@+-@@-@#-@$-@%-@&-@*-@=-@--@;-@>-@,-@'-@)-@!-@~-@{-@]-@^-@/-@(-@_-@:-@<-@c1+fR.d@.+b [-@.^.O, ym 3P+0. xX.}-@t* M;+&y aS+|-@1-@2-@3-@4-@.v 5-@6-@7-@8-@C~ 9-@0-@e*+o|.wd a-@b-@c-@d-@e-@f-@g-@@m+qf+-c+t)+[p+|w+Zg+h-@i-@j-@F2+pF+pF+&:+yB+DQ+zB+GQ+k-@l-@SE+d9+m-@c4+E*@D7+IF+uu+wu+zU+ZQ+n-@^`+o-@K%@p-@q-@r-@s-@t-@u-@v-@w-@x-@]a+-h+-h+)@@y-@z-@A-@B-@=N+C-@D-@E-@F-@vS+*]+14+14+G-@xf.H-@C,.nK.I-@J-@K-@kr.eC.^u bR 0n+^b.N{ #=+_< e2 L-@M-@m`+N-@hZ.)=.O-@P-@' .Q-@KH.'].r6+]R T] f*+(7 ",
"R-@S-@T-@U-@V-@W-@X-@Y-@Z-@`-@ ;@/=@.;@+;@@;@#;@$;@%;@&;@sR.!q.r~+;p+4=@*;@H/ #d.=;@-;@;;@>;@,;@';@);@!;@~;@{;@];@^;@mj+/;@(;@_;@:;@<;@[;@};@|;@1;@2;@3;@4;@5;@6;@7;@8;@9;@0;@a;@b;@c;@d;@e;@f;@g;@h;@$@.i;@j;@k;@l;@F=@U$@m;@n;@o;@p;@q;@L=@r;@;#@s;@t;@u;@v;@w;@x;@y;@z;@A;@HG+B;@C;@D;@E;@F;@G;@H;@I;@J;@K;@L;@M;@N;@O;@P;@Q;@R;@S;@T;@U;@V;@W;@X;@Y;@Z;@`;@ >@.>@+>@@>@ps+XK $y.: .#>@ZS $>@%>@&>@>a.Ui :5 g| *}+*>@&y =>@QK.->@;>@>>@,>@'>@)>@!>@~>@v^ ~o+{>@WS [t aw.]>@^>@/>@(>@_>@:>@n4+F,+kF+y<+-c+WM+<>@[>@xD+}>@|>@@N+1>@pF+2>@3>@fW+4>@5>@6>@7>@8>@9>@0>@a>@E*@KD+NB+NB+b>@~a+IS+c>@d>@&c+z*@e>@f>@g>@h>@i>@j>@k>@l>@7p+m>@F7+K2+Mi+n>@o>@p>@q>@r>@(.@s>@t>@u>@v>@*]+14+14+z@+w>@x>@$h.TI.y>@z>@c/ A>@2@@`G ^-+J7.=9+5, }p &k.OD (P.!1 K# B>@E_ }R C>@D>@Ao.6{.KC.E>@g5.'$._).;'.ay+",
"F>@G>@H>@I>@J>@K>@L>@M>@N>@`-@O>@P>@Q>@R>@S>@%v+T>@U>@V>@QQ.81 W>@f%@X>@Y>@0U+Z>@vX.nS.`>@ ,@vo .,@+,@@,@#,@$,@%,@NJ.&,@*,@eG+=,@-,@;,@>v.sM.>,@6;@,,@',@),@!,@~,@{,@],@^,@/,@(,@_,@:,@<,@[,@},@|,@1,@2,@3,@4,@mi vv+'..KO 5,@6,@hq.7,@8,@9,@0,@a,@b,@c,@d,@e,@f,@g,@h,@i,@j,@k,@l,@C;@m,@n,@o,@p,@q,@r,@s,@t,@u,@v,@w,@x,@y,@z,@A,@B,@C,@D,@E,@F,@G,@H,@1*@c{+I,@J,@K,@t/.Qi L,@x`+%w.oq [8.M,@N,@-H.|W R;.Ui c* .@ uo tz+oA+O,@%J+P,@Q,@R,@S,@T,@U,@V,@v( W,@X,@rw+Q!.e*+Y,@Z,@`,@_Y+ '@.'@n4++'@@'@ZK+ZK+#'@$'@%'@;`+&'@*'@='@-'@;'@pF+>'@X+@fW+,'@''@)'@!'@~'@{'@+r+]'@KD+^'@/'@('@_'@:'@<'@^`+E*@['@}'@F7+|'@1'@2'@5`+3'@4'@5'@HS+*r+xF+6'@dp+}'@7'@8'@9'@0'@a'@b'@c'@d'@14+14+14+e'@<>.5~+P*+f'@g'@h'@i'@4) a[ @f j'@k'@l'@m'@n'@o'@sh `g ,& t& !% tz.Jx+p'@[}.q'@r'@s'@t'@u'@.( .M v'@-!+",
"w'@x'@y'@z'@A'@B'@C'@)V+<&@D'@ ;@P>@.;@E'@F'@G'@H'@I'@J'@K'@~$.jB+L'@s) M'@N'@O'@P'@4/+Q'@R'@S'@T'@08+U'@V'@W'@X'@Y'@Z'@`'@ )@.)@+)@@)@#)@$)@%)@&)@*)@j=.=)@-)@;)@-V.>)@,)@')@))@!)@~)@2q+{)@])@^)@/)@()@_)@:)@Wn <)@[)@})@|)@J=@1)@2)@3)@4)@5)@6)@7)@8)@9)@0)@a)@b)@c)@d)@e)@f)@g)@h)@i)@j)@k)@l)@m)@9#@n)@o)@p)@q)@r)@s)@t)@u)@v)@w)@x)@y)@z)@A)@B)@C)@D)@E)@F)@G)@H)@d>.I)@J)@K)@L)@|-.M)@N)@O)@P)@Q)@Ek G4.<-.}| }3 %F R)@S)@T)@U)@V)@W)@X)@Y)@Z)@`)@*q.E; ^ .A/.<).-2. !@.!@+!@1f+@!@#!@$!@nd+%!@%!@%!@&!@*!@6(+*!@=!@w%@-!@;!@;'@>!@GQ+,!@'!@)!@!!@~!@{!@~'@E%@).@/y+KD+/'@]!@('@MU+[a+F*@[a+6Y+vF+^!@Gn+/!@(!@_!@:!@<!@[!@5'@^'@}!@wu+|!@bp+V#@9Y+1!@2!@3!@4!@5!@6!@7!@14+<9+<9+e'@)&.3a+8!@9!@0!@a!@b!@+8+K5+c!@d!@e!@f!@[$ g!@n[.yo.h!@PL.%.+Ui =p+8&.i!@j!@P_.4M.|W k!@u'@@0+l!@m!@n!@",
"o!@p!@q!@r!@s!@t!@u!@v!@w!@x!@8c+y!@z!@A!@S>@B!@C!@D!@E!@F!@26.n,.RK.G!@H!@I!@J!@fn+K!@L!@M!@N!@O!@P!@Q!@R!@S!@T!@U!@V!@W!@X!@Y!@Z!@`!@-k  ~@D$@.~@+~@@~@#~@$~@%~@&~@*~@=~@)s.-~@;~@>~@,~@'~@)~@!~@~~@{~@_)@]~@ra.Ye.^~@/~@T7 (~@_~@:~@<~@[~@}~@|~@1~@2~@3~@4~@5~@6~@7~@8~@9~@0~@a~@b~@c~@d~@e~@f~@g~@h~@i~@j~@k~@l~@m~@n~@o~@p~@q~@r~@s~@t~@u~@v~@w~@x~@y~@CC+z~@A~@B~@i. C~@D~@W_+xU ;-+[K.vw.'0 E~@F~@K6.uh k> $8 MR.QG G~@T`+6T+Ow H~@I~@J~@K~@L~@M~@k,+&b $8 q{+6_.P!.N~@O~@P~@Q~@R~@S~@$!@iu+T~@ED+T~@U~@s*@=.@='@bf+Q#@V~@Jo+W~@X~@1>@Y~@Z~@`~@ {@.{@+{@@{@#{@ZQ+/y+LF+${@%{@&{@*{@={@-{@;{@>{@,{@'{@){@!{@~{@{{@]{@^{@/{@({@_{@:{@cp+<{@{a+5J+JD+Y%@[{@}{@|{@1{@2{@3{@14+B2+4{@5{@:m+6{@]w.9!@7{@8{@9{@z1.0{@a{@b{@c{@AZ d{@e{@,y q<+VX 3W 0u+f{@]8.g{@5m+h{@o~+|r+<'+i{@5n.b3 j{@k{@:}.",
"l{@'  m{@n{@o{@p{@q{@r{@s{@t{@u{@y!@v{@w{@x{@y{@z{@A{@B{@&'.C{@QW+D{@E{@F{@G{@H{@%;+I{@S;.J{@K{@L{@M{@N{@O{@P{@Q{@R{@V!@S{@T{@U{@V{@W{@.m  ~@>,@X{@Y{@@~@Z{@`{@ ]@.]@+]@@]@W>+cm.#]@$]@%]@&]@*]@=]@-]@;]@>]@,]@~b+']@S5.)]@!]@~]@{]@]]@^]@/]@(]@_]@:]@<]@[]@4~@}]@|]@1]@2]@3]@4]@5]@6]@7]@8]@9]@0]@a]@b]@c]@d]@e]@f]@g]@h]@i]@j]@k]@l]@m]@n]@o]@p]@q]@r]@s]@t]@u]@v]@w]@x]@y]@z]@A]@8K k: B]@C]@HK+B]@l> K6.Q;.LZ+o! /% Hg D]@>#+E]@F]@G]@H]@I]@J]@K]@L]@GU M]@Ne [R x/.!r N]@O]@P]@Q]@R]@S]@*!@iu+ZK+T]@T~@R+@U]@&:+V]@='@*'@W]@X]@Y]@Z]@`]@ ^@.^@+^@@^@#^@$^@%^@&^@+r+*^@=^@Z#@-^@CF+<N+)P+;^@>^@;{@KD+tu+,^@'^@)^@!^@~^@{^@]^@*{@^^@XD+{a+cp+wu+{a+{a+oW+/^@[{@(^@_^@:^@<^@J#@<p+[^@|~+}^@|^@3k+1^@2^@3^@4^@5^@6^@7^@8^@c{@vZ 9^@0^@a^@p[ %} k| Oe b^@SN.c^@d^@e^@F_ *L.w! ps+gE+5n.}W f^@g^@",
"h^@i< i^@<c+j^@k^@l^@m^@n^@o^@p^@q^@r^@s^@t^@08+u^@v^@w^@x^@2W y^@z^@A^@Z0 B^@*D.C^@D^@E^@F^@G^@H^@I^@J^@K^@L^@M^@N^@O^@P^@Q^@R^@S^@y8+T^@ Q.U^@V^@W^@X^@%~@Y^@Z^@`^@ /@./@)Z +/@@/@#/@$/@%/@&/@*/@=/@-/@;/@>/@,/@'/@y5+)/@!/@~/@{/@]/@^/@//@(/@_/@:/@</@[/@}/@|/@1/@2/@3/@4/@5/@6/@7/@8/@9/@0/@a/@b/@c/@d/@e/@f/@g/@h/@h]@i/@j/@k/@l/@m/@n/@o/@p/@q/@r/@s/@t/@u/@v/@w/@x/@y/@z/@A/@Jr.P..B/@C@@2H+ Y PW.K6.t$+H @9++j,.C/@-q.D/@E/@F/@G/@R @H/@I/@J/@K/@}-@Ok Dg L/@6_.dn M/@N/@O/@qS+P/@Q/@R/@S/@T/@T~@T~@pU+%'@U/@V/@*'@W/@X/@Y/@Z/@`/@ (@.(@+(@@(@#(@#^@+{@$(@%(@&(@&(@K%@*(@&(@=(@$6+KF+`O+sH+sH+/y+zF+-(@;(@>(@,(@'(@)(@<L+!(@~(@XD+{a+cp+wu+{a+vu+{m+{(@](@](@^(@/(@((@_(@W5+:(@3$+3 +#`+D<+<(@[(@}(@|(@1(@2(@8a+3(@4(@5(@6(@7(@8(@9(@0(@wS.9_ }-.a(@b(@c(@d(@m<.B3.Br.i5.#l+#l+e(@X}+f(@",
"g(@|7 Mn f1 jm+h(@i(@j(@k(@l(@p^@m(@n(@o(@p(@08+q(@r(@s(@t(@u(@M]@v(@w(@x(@y(@z(@C^@2o.A(@B(@C(@D(@E(@F(@G(@H(@I(@J(@K(@L(@M(@N(@sM.LW.O(@>O+P(@Q(@R(@S(@T(@2;@U(@6)@V(@W(@)Z X(@Y(@Z(@`(@ _@&/@._@+_@@_@#_@$_@%_@&_@*_@=_@-_@;_@>_@,_@'_@)_@!_@~_@{_@]_@^_@/_@(_@__@:_@<_@[_@}_@|_@1_@2_@3_@4_@5_@6_@7_@8_@9_@0_@a_@b_@c_@d_@e_@f_@g_@h_@i_@j_@k_@l_@m_@n_@o_@p_@q_@r_@s_@t_@u_@Bq v_@w_@x_@y_@z_@A_@B_@C_@7{.D_@1W G%+>$+Vm.]H++7 E_@F_@G_@H_@I_@J_@DM+}-@&b Ne kN.iP FK.K_@L_@M_@N_@O_@P_@Q_@R_@S_@T_@T~@@L+;`+K#@U_@U_@U_@U_@V_@W_@X_@Y_@Z_@`_@ :@.:@+:@@:@#:@$:@%:@UQ+['@&:@*:@$:@=:@-:@;:@>:@,:@^`+uW+':@):@!:@~:@{:@]:@^:@Fu+lH+/:@{a+cp+(:@_:@0w+=(@::@<:@[:@y-@}:@|:@1:@W5+2:@84+C^+wH+3:@W|+4:@5:@6:@f/ WQ.7:@8:@^|.E~@vZ  O EA.TK 9:@0:@~< Js.a:@3y.b:@Q, T_.c:@d:@!=.e:@f:@sE.g:@h:@",
"i:@j:@k:@l:@_`.m:@n:@o:@p:@q:@r:@s:@_=@t:@u:@v:@F#.w:@x:@y:@z:@}R A:@B:@C:@D:@E:@F:@hA G:@H:@I:@PY+J:@K:@L:@M:@N:@O:@P:@Q:@R:@S:@T:@U:@V:@hV+W:@X:@Y:@Z:@`:@ <@.<@+<@@<@#<@5%.$<@%<@&<@*<@=<@-<@;<@><@,<@'<@)<@!<@~<@{<@]<@^<@/<@K]+(<@_<@:<@<<@[<@}<@|<@1<@2<@3<@4<@5<@6<@7<@8<@9<@0<@a<@b<@c<@d<@h)@e<@f<@g<@h<@i<@j<@k<@l<@m<@n<@o<@p<@q<@r<@s<@t<@u<@v<@w<@x<@y<@z<@J> A<@B<@C<@D<@E<@F<@G<@Z_+kT.3W *Q.2M./'+{W+G%+9[ 8% b++H<@I<@J<@K<@L<@M<@N<@ :+X`+PW.5u.]/+<-.Eb O<@P<@Q<@]6+R<@S<@T<@*.@U<@V<@%!@M#@R+@R_@A%@U_@W<@r*@X<@Y<@Z<@`<@ [@.[@dp+-N++[@@[@#{@!:+%:@#[@#[@$[@%[@&[@*[@=[@:'@>:@>:@0Y+-[@;[@>[@,[@'[@)[@![@~[@{[@:{@][@~a+L7+^[@(:@].@Ki+RB+[:@/[@([@_[@:[@1:@<[@:(@H,+:9+[[@CF.}[@|[@1[@o{.2[@3[@4[@5[@6^@6[@7[@A/@8[@9[@0[@$t a[@b[@c[@d[@K|.q9.!&@&>@! .e[@KC.5M.>'.Wy f[@",
":e+g[@h[@i[@rB j[@f1+aB+k[@l[@m[@n[@o[@p[@q[@v:@r[@s[@t[@u[@v[@e:@w[@x[@y[@z[@A[@5u B[@C[@D[@E[@F[@G[@H[@I[@J[@K[@L[@M[@N[@O[@P[@|=+C>+Q[@@+@[;@R[@S[@T[@Y^@R(@U[@2q.V[@W[@*q+X[@Zr+Y[@Z[@`[@ }@.}@ 2++}@@}@kp.#}@$}@%}@&}@*}@=}@-}@;}@>}@,}@'}@)}@!}@~}@{}@]}@^}@/}@(}@_}@:}@5~@<}@[}@}}@|}@1}@2}@3}@4}@5}@6}@7}@8}@9}@0}@a}@b}@c}@d}@e}@f}@g}@h}@i}@j}@k}@l}@m}@n}@o}@p}@Z_.q}@r}@s}@e^+mE.u,.,9+Qj W_+NN u( t}@I..5_.xy u}@v}@w}@x}@y}@z}@A}@B}@C}@D}@vB E}@26.o|.<p 5_.F}@G}@H}@]6+in+I}@o^+%'@J}@WM+K}@L}@M}@L}@>!@N}@O}@P}@O}@Q}@R}@S}@T}@U}@(`+a>@m-@V}@qW+AU+=[@.A+*:@>$@+r+W}@=[@X}@KF+sW+Y}@Z}@<N+`}@ |@.|@+|@@|@#|@$|@ZD+H<+%|@MU+`B+wu+&|@Ki+qW+|{@*|@=|@-|@K;@;|@u(+-~+>|@A@+,|@'|@|P.)|@!|@~|@{|@]|@^|@/|@(|@_|@H8 :|@:|@&t <|@[|@pF._8 `S {q.}|@||@1|@/A+^t.2|@_R+_R+55.*6 3|@F|.",
"4|@5|@;_+uh+6|@D_ GK.[(.7|@8|@9|@0|@a|@b|@b|@q[@c|@s[@d|@e|@f|@rB g|@h|@i|@j|@k|@%E.l|@m|@nd.n|@o|@p|@q|@r|@G6+s|@t|@u|@v|@w|@x|@|=+y|@@+@z|@A|@R[@rM.B|@C|@D|@U[@E|@F|@G|@Om+H|@I|@J|@K|@hV+L|@M|@N|@O|@P|@Q|@R|@S|@T|@U|@V|@W|@X|@Y|@Z|@`|@FC+ 1@.1@+1@@1@#1@$1@%1@&1@*1@=1@-1@;1@>1@,1@'1@)1@!1@~1@{1@]1@^1@/1@(1@_1@:1@<1@m<@[1@}1@|1@11@21@31@41@51@61@71@81@91@01@*O.E1+a1@b1@c1@d1@e1@f1@g1@h1@xU f{@i1@e&+cH.22 #k.j1@VQ.;}+a&@k1@l1@m1@n1@o1@`)@p1@q1@Af+dn Dg 5| r1@s1@t1@u1@v1@I}@w1@x1@y1@pU+M}@L}@L}@L}@>!@1>@z1@z1@A1@B1@C1@D1@E1@F1@m-@&(@:`+qW+zU+G1@%:@fk+%[@(^@&:@H1@I1@J1@^`+;{@&(@&^@K1@L1@M1@N1@O1@P1@Q1@R1@9w+^`+H<+aw+S1@wu+T1@zU+9Y+:N+U1@B-@V1@W1@X1@v>@-~+Vb+Y1@Z1@`1@ 2@Jz+.2@+2@@2@Rd+#2@$2@%2@b, Qd+f!@-E.&2@*2@sl =2@+3 r* -2@ne.>].;2@>2@,2@'2@)2@*:.!2@a@@~2@vb.",
"{2@]2@A:+z, ^2@6]+.( /2@(2@_2@:2@<2@[2@q[@}2@|2@K$@12@22@32@42@lA+93+52@62@72@82@92@02@zT+a2@b2@c2@d2@e2@G6+f2@g2@h2@i2@j2@k2@l2@m2@n2@o2@z|@p2@X^@q2@X^@Y^@r2@s2@t2@u2@*q+v2@w2@x2@y2@CV+z2@A2@B2@6I+C2@D2@E2@F2@G2@H2@I2@J2@K2@L2@M2@N2@O2@]Q.P2@Q2@R2@S2@T2@U2@V2@W2@X2@Y2@Z2@`2@ 3@.3@+3@@3@#3@$3@%3@&3@*3@=3@-3@;3@:1@>3@,3@'3@)3@!3@~3@{3@]3@^3@/3@(3@_3@:3@<3@[3@}3@|3@13@23@33@43@53@63@7R 73@xU .M 0u+~M.iy+oN.D> a2 ^k+83@93@03@a3@b3@n1@c3@Pq+d3@e3@xr.ww [-.5W +l f3@g3@h3@i3@_>@j3@fW+ws+k3@L}@F2+&`+&`+L}@&`+l3@l3@,!@m3@n3@o3@p3@q3@r3@s3@Y#@XD+t3@u3@v3@w3@%[@%[@%(@x3@y3@z3@A3@>^@z*@B3@C3@D3@E3@F3@G3@H3@I3@Vs+J3@$6+K3@L3@*r+(:@&|@T1@c4+PD+M3@E%@N3@O3@P3@Q3@R3@|~+$]+|~+S3@;'+B{+T3@U3@V3@~V W3@X3@Y3@Z3@`3@ 4@.4@sl S..+4@@4@#4@VX $4@0(.b~.%4@!&@G @f:@(/+nJ+pc+<}.;2@7  ",
"1< &4@*4@=4@95 kB+%5+-4@;4@>4@,4@'4@K$@)4@}2@!4@~4@{4@]4@^4@/4@(4@_4@:4@A^@<4@[4@}4@cr+|4@14@24@34@44@54@f2@64@64@74@84@94@04@a4@b4@c4@%~@d4@++@e4@f4@g4@h4@i4@W^@j4@k4@l4@m4@n4@o4@p4@q4@r4@s4@t4@u4@v4@w4@x4@y4@z4@A4@B4@C4@D4@E4@F4@G4@MR+H4@I4@J4@K4@L4@M4@N4@O4@P4@Q4@R4@S4@T4@U4@V4@W4@X4@Y4@Z4@`4@ 5@.5@+5@@5@;3@#5@$5@%5@&5@*5@=5@-5@;5@>5@,5@'5@)5@!5@~5@{5@]5@^5@/5@(5@_5@:5@I +R;+<5@[5@}5@P@ o#@<'+|5@15@xX.25@35@45@-Y+Wk z! 55@65@75@85@!M f| j| 95@05@#M g: &# a5@b5@c5@d5@e-@N+@e5@f5@X+@M}@&`+1>@pF+L}@1>@g5@O}@h5@i5@j5@k5@l5@m5@m-@n5@o5@zU+>{@AU+v3@p5@.A+.A+p5@q5@I1@-:@r5@s5@t5@u5@v5@w5@x5@9J+y5@z5@Zs+A5@xF+$6+B5@C5@`B+}!@Ki+Ki+2J++P+Z%@D5@E5@F5@G5@H5@I5@J5@K5@O<+S3@4>@L5@T3@M5@N5@Vg :+.O5@P5@Q5@R5@D- vF.|p S5@T5@U5@V5@BH+lB.W5@M-.X5@Y5@Z5@`5@jf :}.:}./A+}$@&#+",
" 6@.6@+6@@6@CW.i{@jR.#6@$6@%6@&6@*6@=6@-6@;6@>6@,6@'6@)6@!6@~6@.m.m&+o$@{6@]6@^6@/6@(6@_6@#;@:6@<6@[6@4.+}6@|6@16@26@36@46@56@66@76@86@96@06@a6@b6@c6@d6@e6@f6@g6@h6@i6@j6@k6@l6@m6@Sw.n6@o6@p6@q6@r6@s6@t6@u6@v6@w6@x6@y6@z6@A6@B6@G4@$x+C6@D6@E6@F6@G6@H6@I6@J6@K6@L6@M6@Q4@N6@O6@P6@Q6@R6@S6@T6@U6@V6@W6@X6@Y6@Z6@`6@ 7@.7@+7@@7@#7@$7@%7@&7@*7@=7@-7@;7@>7@,7@'7@)7@!7@~7@{7@]7@^7@[V+w[./7@(7@w[@7*@h@+_7@@v.D_ xX.)4 hi.:7@<7@[7@}7@|7@17@27@37@S@ 47@iq 57@67@j. )6 BB 77@b5@87@97@07@a7@b7@c7@2>@M}@1>@&`+d7@e7@f7@g7@h7@i7@j7@0}+k7@l7@m7@n7@n5@o7@ZQ+E*@Z}@#[@#{@RB+p7@B3@q7@r7@s7@t7@x3@=N+u7@v7@*5@w7@x7@y7@z7@A7@B7@{.@D7+Z#@C7@a`+D7@zU+XD+9Y+Id+E7@F7@G7@H7@I7@J7@X5+&]+K7@#&+S3@Ai+L7@M7@N7@O7@P7@Q7@R7@S7@T7@U7@V7@W7@X7@Y7@Z7@`7@j'@ 8@.8@+8@lB.!&@AY+e- @8@T_.w>+_7 #8@$8@%8@",
"&8@*8@&V.=8@8j+|'+=C+-8@;8@>8@,8@'8@)8@!8@~8@{8@]8@^8@/j+/8@(8@_8@:8@<8@s: [8@}8@|8@18@28@38@48@58@68@78@88@98@08@a8@b8@c8@d8@e8@2#+i=.f8@f8@g8@h8@i8@j8@k8@l8@m8@n8@iG.:T+o8@p8@q8@r8@.+@s8@t8@u8@v8@w8@x8@y8@z8@A8@B8@C8@D8@E8@F8@G8@H8@I8@J8@K8@L8@M8@N8@O8@P8@Q8@R8@S8@T8@U8@V8@W8@X8@,1@Y8@Z8@`8@ 9@.9@+9@@9@#9@$9@%9@&9@*9@=9@-9@;9@>9@,9@'9@)9@!9@~9@{9@]9@^9@/9@(9@_9@:9@<9@[9@}9@|9@19@29@39@o#@mZ $Q.v>+49@Fg x- A= h: 59@HK+69@79@89@99@09@l* a9@kS+b9@c9@d9@xp.Q..e9@f9@g9@h9@ '@i9@W]@j9@W/@L}@&`+e7@k9@O}@O}@l9@m9@n9@o9@p9@q9@r9@s9@v3@$:@%:@I1@v3@t9@,$@u9@v9@w9@x9@t9@y9@z9@A9@B9@C9@D9@E9@F9@G9@H9@I9@J9@K9@{.@L9@`z+0w+M9@M9@%|@zU+XD+@@@N9@9Y+O9@P9@'N+Q9@R9@d'@_@@~1+3$+`g+%W.S9@T9@U9@V9@W9@vF =2@X9@kT Y9@Z9@`9@.5 F8  0@.0@+0@@0@zr.#0@X5@$0@F +;'.ps+#m.bJ.%5+xb.B3.%0@",
"&0@*0@U, =0@zp -0@;0@>0@,0@'0@)0@!0@~0@{0@]0@^0@/0@(0@_0@:0@<0@[0@}0@|0@10@20@30@!;@40@50@60@70@80@90@I(@00@I[@a0@b0@c0@d0@e0@f0@g0@P[@f8@h0@i0@h8@j0@j0@k0@1Z+l0@m0@n0@o0@p0@q0@r0@s0@t0@u0@v0@w0@2U x0@y0@-,.z0@A0@B0@C0@D0@E0@U|@F0@G0@H0@D6@I0@J0@K0@L0@M0@N0@O0@P0@Q0@R0@*1@S0@T0@U0@V0@W0@X0@Y0@Z0@`0@ a@.a@+a@@a@#a@$a@%a@&a@*a@=a@-a@;a@>a@,a@'a@)a@!a@~a@{a@]a@^a@/a@(a@_a@:a@<a@[a@}a@|a@1a@2a@[8.mA+3a@4a@Oe r[ 0% 5a@6a@]W+7a@8a@9a@0a@N).Fr.aa@jZ.ba@ca@<7@3=@r. da@ea@fa@ga@ha@ia@ja@;!@bk+ka@la@k9@g-@z1@ma@l9@na@oa@pa@qa@ra@sa@ta@n-@&[@=:@n-@=[@t9@ua@va@wa@{!@xa@ya@za@Aa@yn+Ba@Ca@Da@Ea@Fa@Ga@Ha@Ia@Ja@Ka@A*@La@]h+Ma@Na@Oa@Pa@XD+zU+@@@Id+c4+e>@Qa@69+Ra@Sa@Ta@Ua@Va@uS++m+yD+Wa@Xa@Ya@Za@bH 1, `a@2).4(@ b@j* .b@S7@+b@@b@+J+RQ.w{ D4+#b@*:.$b@F +vz+xb.%b@%5+a++}T.Wg.8J.",
"&b@*b@=b@-b@;b@>b@,b@'b@)b@!b@~b@{b@]b@^b@F#./b@(b@_b@:b@<b@[b@%].}b@DL+|b@1b@2b@3b@4b@5b@6b@7b@8b@9b@0b@ab@bb@cb@db@eb@fb@gb@6;@%)@hb@ib@jb@kb@Q@@lb@mb@nb@ob@pb@qb@rb@sb@tb@ub@vb@wb@xb@yb@zb@Ab@r(@Bb@Cb@Db@-/@Eb@Fb@Gb@=}@Hb@=~@Ib@Jb@Kb@Lb@Mb@Nb@Ob@Pb@Qb@Rb@Sb@Tb@Q4@Ub@Vb@Wb@Xb@Yb@Zb@`b@ c@.c@+c@@c@#c@$c@%c@&c@*c@=c@-c@;c@>c@,c@'c@)c@!c@~c@{c@]c@^c@/c@(c@_c@:c@<c@[c@}c@|c@1c@2c@3c@4c@5c@6c@rj 7c@8c@I) < .5. |2 9c@0c@PZ+ac@bc@cc@dc@ec@fc@gc@oA+8U+yq c2 F5+wB hc@ic@jc@kc@X]@lc@lc@lc@Tz+L}@mc@X<@nc@X<@oc@pc@qc@rc@sc@tc@uc@vc@wc@xc@#[@xc@v3@yc@$[@,$@@{@zc@&@@Ac@Bc@z9@$[@3p+y3@Cc@Dc@Ec@Fc@Gc@Hc@Ic@Jc@OB+wn+PD+L7+Kc@-L+Lc@[a+u3@Ki+XD+Ki+c4+e>@Mc@Nc@Oc@Pc@Qc@Rc@~1+y@+zD+W^+Sc@Tc@Uc@Vc@Wc@Xc@Yc@Zc@E~@`c@T.. d@.d@0:@+d@@d@F; #d@2n.Ul.RX jZ S] LQ.4h+%0+#d@nP i+ y8 ^t.",
"L~ U+ G_ |8+$d@%d@x< &d@*d@=d@-d@;d@>d@,d@'d@)d@!d@~d@{d@]d@^d@/d@(d@_d@:d@<d@[d@}d@|d@1d@2d@3d@4d@5d@9b@9b@6d@7d@8d@9d@0d@ad@bd@cd@KW.dd@ed@fd@gd@lb@hd@id@jd@kd@ld@md@sb@tb@nd@od@gq.pd@qd@rd@sd@k;.td@ud@vd@wd@xd@yd@zd@Ad@Bd@Cd@Dd@Ed@Fd@Gd@Hd@Id@Jd@Kd@Ld@Md@Nd@T4@Od@Pd@Qd@T4@Rd@Sd@Td@Ud@Vd@Wd@Xd@Yd@Zd@`d@ e@.e@+e@@e@#e@$e@%e@&e@*e@=e@-e@;e@>e@,e@'e@)e@!e@~e@{e@]e@^e@/e@(e@_e@:e@<e@[e@}e@|e@1e@7C /!+2e@3e@F7.$T TN ^k+4e@5e@6e@7e@8e@fD+pk.9e@g2+8*@'8 K;+0e@yX.ae@be@ce@v%@de@ee@ee@fe@,!@&`+ge@he@ie@je@ke@le@me@ne@~(@oe@q9@pe@qe@xc@re@se@%:@te@$[@,$@@{@ue@ve@we@xe@ye@ze@z9@Ae@Be@Ce@De@Ee@Fe@Ge@He@Ie@.@@X#@X#@^L++@@Je@Ke@:'@Je@wF+zU+,{@2J+RB+Le@AF+Me@Ne@Oe@Q,+-~+o7+iu+R7+Pe@Qe@Re@Se@Te@OK Ue@YX YX 0) Ve@We@w: !1 Xe@Ye@7% Ze@@#+Ul.`e@SX +M }T.:H+Zl.;'.dC.UX 76.mB.",
" f@.f@+f@@f@*4@JA #f@)j.Tf $f@%f@&f@*f@=f@-f@;f@>f@#;@,f@'f@)f@!f@G!@~f@{f@Fd@]f@^f@/f@(f@_f@:f@<f@[f@}f@|f@1f@2f@3f@4f@5f@1;@6f@7f@sM.vT+8f@`$.LE+9f@0f@af@RC+bf@cf@df@ef@1,@ff@gf@H>.hf@if@jf@kf@lf@mf@nf@of@pf@qf@rf@sf@/)@ 2+tf@uf@vf@wf@xf@yf@zf@Af@Bf@Cf@Df@Ef@$1@Ff@Gf@Hf@If@Rd@Jf@Kf@Lf@Mf@Nf@Of@Pf@Qf@Qf@Rf@Sf@Tf@Uf@Vf@Wf@Xf@Yf@Zf@`f@ g@.g@+g@@g@#g@$g@%g@&g@*g@=g@-g@;g@>g@,g@'g@)g@!g@~g@{g@]g@J4.^g@s++_).nP gi.$T  y )G.,O.^W+`z K:+wz.cm+)4+Qg+/g@s! (g@_g@7K :g@<g@[g@j3@}g@|g@1g@2g@3g@4g@h5@5g@g-@l3@6g@7g@8g@9g@%:@0g@ag@bg@cg@dg@eg@fg@gg@hg@ig@jg@kg@+:@lg@mg@ng@og@og@Ca@pg@qg@rg@sg@tg@ug@vg@wg@xg@(y+3p+X#@3p+G*@Kc@yg@X}@zg@a`+uF+e9+['@&(@Ag@Bg@Cg@Dg@X5+'~+O<+od+&y+Eg@Fg@Gg@Hg@Ig@Jg@Kg@Lg@Mg@Ng@Dq S4..# 'H.Og@in @<.LV.Pg@<n.,2.Qg@jZ E5+22 {4 k!@9J.Rg@kA Sg@-2@",
"Tg@G_ Ug@Vg@Wg@Xg@#.+{c Yg@Ce.Zg@`g@ h@L1+.h@+h@D`+J`+@h@#h@$h@Wc@%h@&h@*h@=h@-h@;h@>h@,h@9b@'h@)h@!h@~h@{h@]h@^h@/h@(h@sM.T^@sM._h@:h@<h@[h@}h@yv+|h@1h@2h@3h@4h@5h@6h@kf@kN+3,@7h@un.8h@9h@0h@/s.ah@bh@nf@sL+ch@y6@dh@sf@eh@F0@fh@Cd@kf@gh@hh@ih@jh@kh@lh@mh@nh@oh@$1@ph@^}@$1@Rb@qh@rh@sh@th@uh@vh@wh@xh@yh@zh@Ah@Bh@Ch@Dh@Eh@Fh@Gh@Hh@Ih@Jh@Kh@Lh@Mh@Nh@Oh@Ph@Qh@Rh@Sh@Th@Uh@Vh@Wh@1T.Xh@Yh@Zh@`h@ i@.i@+i@Wg.@i@#i@$i@k| 14 =O.%i@_g@K @h&@K^ &i@Ig O9+]4 *i@wQ+=i@-i@0* ;i@>i@,i@'i@)i@!i@~i@{i@]i@he@!`+z1@^i@/i@(i@_i@:i@<i@[i@}i@|i@1i@1i@2i@3i@4i@5i@6i@7i@8i@9i@0i@ai@bi@ci@di@ei@fi@gi@hi@ii@ji@ki@li@mi@&5@ni@e>@%(@3p+%[@['@o7@oi@{.@pi@qi@Z#@ri@['@&(@si@H%@ti@ui@vi@R,+L{+=W.zD+3k+wi@xi@yi@zi@Ai@Bi@Ci@KR a+ Di@-^.8[@Ei@/; WD yf+gi.Fi@5Y.8&.<r+Gi@ZS 22 Hi@Ii@gE+Ji@.^.^% Ki@",
"Li@Mi@Ni@s< Oi@Pi@DR.35 13 Qi@TT Ri@Si@Ti@Ui@LY+Vi@Wi@Xi@Yi@Zi@`i@ j@.j@+j@@j@#j@$j@%j@&j@*j@=j@-j@;j@>j@,j@'j@)j@!j@~j@y8+KW.x|@{j@]j@^M+^j@/j@(j@_j@:j@2h@<j@[j@}j@|j@1j@N|@2j@3j@4j@5j@6j@o8@7j@8j@9j@7j@0j@aj@bj@cj@dj@ej@Jb@Cd@fj@gj@hj@ij@jj@kj@lj@mj@nj@Hf@oj@pj@qj@N4@Ff@rj@sj@tj@uj@vj@wj@xj@yj@zj@Aj@Bj@Cj@Dj@Ej@Fj@Gj@Hj@Ij@Jj@Kj@Lj@Mj@Nj@/E+Oj@Pj@Qj@Rj@Sj@Tj@Uj@Vj@Wj@Xj@Yj@Zj@`j@ k@.k@+k@@k@#k@MW+i@+/U.d2 g@.hZ.#0 Lk $k@%k@t. e* /u K..K..YS >w %y.&k@*k@aK =k@-k@;k@>k@P_@,k@'k@)k@'k@!k@!k@z1@~k@{k@]k@^k@/k@(k@_k@:k@<k@[k@}k@|k@1k@2k@3k@4k@5k@6k@7k@8k@8k@9k@0k@ak@bk@ck@dk@ek@fk@gk@hk@ik@jk@kk@lk@u5@%(@K%@G1@@@@OS+mk@nk@ok@pi@Z#@e9+G1@Z}@8'@!.@pk@qk@R3@|~+x*+=W.ud+*:+rk@sk@tk@uk@vk@wk@dT xk@rN.yk@zk@Ak@Bk@Ck@Dk@!1 |=.2|@Ek@Fk@ y.K)@> +22 Gk@:`.Hk@Ik@hZ.lA r'@",
"<c+Jk@Kk@Lk@3$ z:+Mk@f) /} Nk@Ok@Pk@Qk@Rk@]3+E/+/0@Sk@Tk@Uk@Vk@Wk@Xk@Yk@Zk@`k@ l@.l@+l@@l@|6@#l@Or+$l@%l@&l@*l@=l@-l@;l@>l@P[@hb@,l@'l@)l@!l@~l@{l@w=@]l@^l@/l@(l@_l@:l@<l@[l@}l@|l@1l@2l@3l@IT+'_@wf@4l@bh@5l@6l@7l@8l@9l@0l@al@bl@cl@dl@el@fl@gl@hl@il@jl@kl@ll@ml@nl@Ff@rj@ol@pl@ql@rl@sl@uh@tl@ul@vl@wl@xl@yl@zl@Al@Bl@Cl@Dl@El@Fl@Gl@Hl@Il@Jl@Kl@Ll@Ml@Nl@Ol@Pl@Ql@Rl@Sl@Tl@Ul@Vl@Wl@Xl@Yl@Zl@`l@ m@.m@+m@@m@j&.g@.l*.J) @b zb+#m@$m@MQ.@y 6K Ok u( |W I) %m@cd+'4+uB |$ &m@*m@=m@-m@;m@!`+>m@,m@'m@)m@he@5g@!m@~m@{m@]m@^m@/m@(m@_m@:m@<m@[m@}m@|m@1m@2m@1m@3m@4m@5m@6m@7m@8m@9m@0m@am@bm@cm@dm@em@fm@gm@hm@im@jm@N9@#:@z*@&(@km@@@@vF+:{@6'@lm@qi@K3@J%@AU+G1@m-@l7@mm@nm@p(+Z*@>y+`g+$a+om@pm@qm@rm@sm@tm@um@vm@wm@8N+9Y xm@0{@B*.ym@]P.zm@JR.Am@A$+>T+jQ+Gi@Fk O!.Bm@+g+Hk@NG l,.C: C-+",
"Cm@Dm@X/ Em@=_+Fm@Gm@Hm@Im@Jm@Km@Lm@Mm@Nm@Om@Pm@Qm@Rm@|_+Sm@Tm@Um@Vm@Wm@Xm@Ym@Zm@`m@ n@.n@+n@@n@#n@$n@%n@&n@*n@=n@-n@@)@;n@>n@,n@'n@V:@.+@Q@@]M+)n@!n@~n@{n@]n@^n@/n@(n@_n@:n@<n@[n@}n@|n@`y+1n@2n@3n@4n@7j@5n@6n@7n@8n@9n@0l@0n@nG an@cl@/q+bn@cn@dn@en@fn@gn@ph@hn@in@N4@N4@jn@kn@ln@J6@mn@nn@on@pn@qn@rn@sn@tn@un@vn@wn@xn@yn@zn@An@Bn@Cn@Dn@En@Fn@Gn@Hn@In@Jn@Kn@Ln@Mn@Nn@On@Pn@Qn@Rn@Sn@Tn@Un@Vn@Wn@Xn@Yn@Zn@`n@dZ.j&.q' vo Hg  o@yU Rx+x, ,w xX..o@*L.+o@@o@rx.h- X`+i@+#o@$o@%o@8W+&o@*o@=o@-o@;o@>o@,o@l3@Y~@'o@)o@!o@~o@{o@]o@^o@/o@(o@_o@:o@<o@[o@[o@}o@|o@1o@2o@3o@4o@5o@9m@6o@7o@8o@9o@0o@ao@bo@co@do@eo@fo@go@ho@a>@['@p5@vF+vF+XD+D7+io@Oa@K3@Pa@G1@AU++@@RB+jo@ko@lo@>y+VM+9(+w(+x(+mo@no@oo@po@qo@ro@{c+so@2(@%3 P0 m. to@r{+jA .}.~M.oW.]R uz.EP.! .*-++M uo@vo@MH.b^@k| /M wo@",
"5#+<2.Uf+xo@yo@(  zo@Ao@Bo@[=+Co@Do@Eo@Fo@Go@Ho@Io@Jo@Ko@Lo@Mo@No@Oo@Po@Qo@Ro@So@To@Uo@Vo@Wo@Xo@Yo@Zo@`o@ p@.p@+p@@p@Gw.#p@@p@Xr.$p@&Q+%p@&p@*p@(j@=p@-p@;p@>p@,p@'p@^/@VV )p@!p@~p@{p@]p@^p@/p@(p@7j@_p@4n@4n@:p@<p@dh@[p@}p@Bd@o8@p0@|p@Eb@1p@2p@3p@4p@5p@6p@7p@8p@9p@0p@ap@bp@cp@dp@S6@ep@fp@gp@hp@ip@jp@kp@lp@mp@np@op@pp@qp@rp@sp@tp@up@vp@wp@xp@yp@zp@Ap@Bp@Cp@Dp@Ep@Fp@Gp@Hp@Ip@Jp@Kp@Lp@Mp@Np@Op@Pp@Qp@Rp@Sp@-6 Tp@Up@9s -F Kk Qi Vp@Wp@c* Xp@i1@M!@Yp@Zp@,P.oZ [)+1K.#o@`p@pZ.i3@ q@.q@+q@;o@@q@#q@$q@%q@&q@*q@=q@-q@;q@>q@,q@'q@)q@!q@~q@{q@]q@^q@/q@^q@^q@^q@(q@_q@:q@<q@[q@}q@|q@1q@2q@3q@4q@5q@6q@7q@8q@9q@4p+0q@3p+]'@(^@vF+vF+aq@D7+bq@io@aw+J%@['@G1@OS+cq@dq@eq@fq@y<+U5+YK+gq@O+@hq@iq@jq@kq@lq@mq@!V nq@oq@`+ iC.N^ pq@F! $T R~ U6.T-+/% qq@2m+WF.O!.#'.rq@@g+]T.sq@S~ < .tq@",
"=b@uq@vq@W+ wq@D++xq@yq@zq@Aq@Bq@Cq@Dq@Eq@Fq@Gq@Hq@Iq@Jq@Kq@Lq@Mq@Nq@|d@Oq@Pq@Qq@Rq@Sq@Tq@Uq@Vq@Wq@Xq@Yq@Zq@`q@ r@.r@WC++r@@r@dd@$p@T[@C|@#r@$r@$#@%r@&r@*r@=r@-r@;r@>r@,r@'r@)r@!r@~r@{r@]Q.]r@gh@^r@/r@/r@7j@(r@_r@:r@<r@[r@}r@|r@1r@2r@3r@4r@5r@6r@7r@8r@9r@0r@'1@ar@br@cr@dr@er@fr@Pf@gr@hr@ir@jr@kr@lr@mr@nr@or@pr@qr@rr@sr@tr@ur@vr@wr@xr@yr@zr@Ar@Br@Cr@Dr@Er@Fr@Gr@Hr@Ir@Jr@Kr@Lr@Mr@Nr@Or@Pr@Qr@Rr@Sr@Tr@Ur@Vr@!q.Wr@Xr@Xr@%m@h@+K..<).7W ;P.k<+&7 42 Yc Zp@Ig &j.Ui Yr@Zr@`r@MX. s@.q@.s@ge@+s@@s@*'@#s@$s@%s@&s@*s@=s@-s@^q@;s@>s@,s@'s@)s@!s@]q@~s@^q@^q@^q@{s@]s@^s@/s@(s@_s@:s@<s@[s@}s@|s@1s@2s@3s@4s@5s@6s@7s@0q@&^@*:@@@@8s@@@@KB+-[@Z#@CF+OS+&(@G1@OS+9s@8w+0s@as@ZK+q^+Ob+bs@w@+cs@ds@es@fs@gs@hs@is@in a% js@ks@@l ls@ms@f.@#8 M3.1r+%T.<'+yM+5_.#T VN $Q.zb.ns@os@qw ps@d&+",
"qs@rs@ss@G_ J, ts@us@vs@ws@xs@ys@zs@%m@]B.As@Bs@Cs@Ds@Es@Fs@Gs@Hs@Is@Js@Ks@Ls@Ms@Ns@Os@Ps@Qs@Rs@Ss@Ts@Us@jl@Vs@Ws@Xs@Ys@dd@Zs@E$@fT.`s@ t@.t@+t@0f@@t@#t@$t@%t@&t@*t@/.+=t@-t@;t@>t@,t@&}@Jb@'t@)t@7j@C(@7j@/r@!t@~t@{t@]t@^t@/t@(t@_t@:t@<t@[t@}t@|t@1t@2t@3t@4t@5t@6t@7t@8t@9t@0t@at@bt@ct@dt@et@ft@gt@ht@it@jt@kt@lt@mt@nt@ot@pt@qt@rt@st@tt@ut@vt@wt@xt@yt@zt@At@Bt@Ct@Dt@Et@Ft@Gt@Ht@It@Jt@Kt@Lt@Mt@Nt@Ot@Pt@Qt@+X t! `p+-i@Xl+Qj j,.B-+Rt@{ .St@8W 5| +b oo M]@Tt@Ut@O, Vt@Wt@`r@Xt@ q@h7@,k@Yt@Zt@`t@ u@.u@+u@@u@#u@$u@%u@&u@*u@*u@=u@-u@;u@>u@,u@'u@)u@!u@~u@^q@/q@{u@]u@^u@/u@(u@_u@:u@<u@[u@}u@|u@1u@2u@3u@4u@p5@5u@X#@6u@9Y+7u@8s@-P+<N+KD+8u@XD+vF+yn+@@@@@@|{@9w+9u@0u@au@bu@yD+AB+W^+yN.cu@du@eu@fu@W9@6K.7, gu@hu@q/ @l iu@ju@-9.'Q ku@lu@*L.w! %>@yp.5, mA E +:H+mu@4. ,|.Kf.xM+",
"nu@ou@pu@qu@ru@su@tu@uu@vu@wu@k1 NL.W_+zb.xu@yu@zu@Au@Bu@Cu@)6@Du@Eu@Fu@Gu@Hu@Iu@Ju@Ku@Lu@Mu@Nu@Ou@Pu@Qu@Ru@@)@Su@Tu@Uu@Tu@P[@fT.w&@Vu@Wu@Xu@Yu@Zu@`u@ v@.v@X= +v@@v@#v@[Z+$v@%v@&v@dj@GE H4@*v@=v@4n@7j@7j@/r@-v@v8@2p@;v@>v@,v@'v@)v@!v@~v@{v@]v@^v@/v@(v@_v@:v@<v@[v@}v@|v@1v@2v@3v@4v@5v@6v@7v@8v@9v@0v@av@bv@cv@dv@ev@fv@gv@hv@iv@jv@kv@lv@mv@nv@ov@pv@qv@rv@sv@tv@uv@vv@wv@xv@yv@zv@Av@Bv@Cv@Dv@Ev@Fv@Gv@Hv@Iv@Jv@dC+Kv@Lv@Mv@Ik %-+X*+KZ+vz+P@ O, 14 [D oo  0 Vp@wo Nv@Ov@Pv@Qv@C{+Rv@h7@Sv@Tv@Uv@ (@Vv@Wv@Xv@Yv@Zv@`v@ w@%u@.w@+w@@w@#w@$w@%w@&w@,s@)s@;u@*w@^q@{s@=w@]u@;u@-w@(u@_u@;w@>w@,w@'w@)w@!w@~w@{w@]w@>^@sW+OS+pW+2J+['@^w@km@/w@vF+e9+9Y+yn+2J+c4+@@@U#@(w@_w@:w@%!@<w@eK.[w@}w@ws+cu@|w@1w@9Y $t r[.}e.m*+:7@oc.2w@3w@4w@q* 07+mH.$G.G+@7F+Sg@%` qT Oe 5w@`7 2O.P6 6w@-w.S0.",
"7w@8w@A:+9w@0w@aw@bw@Qi@cw@dw@ew@d@.fw@Xu+k> gw@hw@iw@jw@kw@lw@mw@nw@ow@pw@qw@I[@rw@sw@tw@uw@vw@ww@xw@yw@zw@.L.Aw@Uu@Bw@Tu@Cw@Dw@Ew@Fw@Gw@Hw@Iw@Jw@Kw@Lw@Mw@Nw@Ow@Pw@Qw@Rw@Sw@Tw@Uw@Vw@Ww@uf@Xw@4n@7j@Yw@9j@Db@Zw@`w@ x@.x@+x@@x@#x@$x@+u %x@&x@*x@=x@-x@;x@>x@,x@'x@)x@!x@~x@{x@]x@^x@/x@(x@_x@:x@<x@[x@}x@|x@1x@2x@3x@4x@5x@6x@7x@8x@9x@0x@ax@bx@cx@dx@ex@fx@gx@hx@ix@jx@kx@lx@mx@nx@ox@px@qx@rx@sx@tx@ux@vx@wx@xx@yx@+H Sw+zx@Ax@Bx@iT.lZ F +Q.+pi.nP d2 hf.Cx@)4+$F Dx@CU Ex@Fx@Gx@SM+Hx@Ix@Jx@Kx@Lx@Mx@Nx@Ox@Px@6k@Qx@:u@Rx@%u@Sx@+w@Tx@=u@Ux@Vx@Wx@;u@Xx@Vx@Yx@Zx@`x@]u@]u@{s@!u@ y@.y@+y@@y@#y@$y@%y@%y@$y@&y@*y@=y@-y@$6+3!@X#@&^@&c+;y@KD+K3@a`+vF+X#@9Y+Ki+).@=(@EW+>y@,y@V<@Hs++a+'y@)y@/9+!y@~y@{y@IR ]y@9) kJ+R0+n* ;H.^y@/y@(y@xI Xd._y@:y@u^ *L.^% J' T%+f- g|@<y@Q)+(K.[y@Fd !p ",
"}y@|y@1y@2y@3y@4y@5y@6y@7y@8y@9y@0y@9K ay@by@cy@dy@ij@i=+#;@mw@ey@fy@gy@hy@iy@jy@ky@ly@my@ny@oy@py@qy@ry@sy@ty@uy@'n@Tu@vy@wy@xy@yy@zy@Gw@T[@Ay@By@Cy@*r@Dy@Ey@Fy@Gy@Hy@Iy@sb@Jy@Ky@Ly@Cd@sd@_|+'t@My@Ny@9j@Oy@Py@Qy@Ry@Sy@Ty@Uy@Vy@Ad@Wy@y6@Xy@Yy@Zy@`y@ z@.z@Hf@U4@+z@@z@#z@$z@%z@&z@*z@=z@-z@;z@>z@,z@'z@)z@!z@~z@{z@]z@^z@/z@(z@_z@:z@<z@[z@}z@|z@1z@2z@3z@4z@5z@6z@7z@8z@9z@0z@az@bz@cz@dz@ez@fz@gz@hz@iz@jz@kz@lz@A! mz@nz@oz@pz@qz@rz@$0 &7 pi.h+ /= }e.<u sz@Xr@oZ }e.nZ.tz@Qv@h9@e-@uz@vz@wz@xz@yz@zz@Az@Bz@Cz@Dz@Ez@Fz@.w@Sx@Sx@+w@Gz@Hz@^q@~u@~u@Vx@Iz@~s@Jz@{u@=w@(q@Kz@^u@!u@Lz@Mz@Nz@Oz@Pz@Qz@Qz@Rz@Sz@Tz@Uz@Vz@Y}@P9@6s@p5@d>@=^@/w@/w@~(@zU+qW+@@@9Y+2J+A9@Wz@Xz@Yz@Zz@`z@ A@.A@}w@+A@@A@#A@$A@tf %A@&A@[6 *A@<K.=A@-A@;A@>A@lq yp.i1@<(.mu@e*@%.++8 o>.{% ,A@#%+Q~ 'A@)A@NW+Dw ",
"!A@~A@{A@]A@^A@/A@(A@_A@:A@<A@[A@F7.}A@Jr.|A@1A@2A@3A@4A@5A@6A@7A@8A@9A@0A@aA@bA@sw@Tq@cA@dA@eA@fA@gA@hA@#p@+<@wy@iA@jA@kA@lA@mA@nA@oA@pA@qA@rA@sA@tA@uA@vA@wA@xA@yA@zA@AA@BA@CA@DA@EA@FA@Ed@GA@GA@'t@FA@HA@IA@}t@JA@KA@LA@MA@NA@;_@Bd@-]@OA@PA@QA@RA@SA@TA@UA@VA@WA@XA@YA@ZA@`A@ B@.B@+B@@B@#B@$B@%B@&B@*B@=B@-B@;B@>B@,B@'B@)B@!B@~B@{B@]B@^B@/B@(B@_B@:B@<B@[B@}B@|B@1B@2B@3B@4B@5B@6B@7B@8B@9B@0B@aB@bB@cB@dB@eB@fB@gB@hB@iB@jB@kB@lB@mB@os+/=+q' N7.'Q Wz nB@G>+GU oB@pB@qB@rB@h3@sB@ q@wU+tB@uB@vB@wB@xB@yB@zB@AB@BB@CB@DB@EB@FB@FB@GB@Gz@Vx@HB@~u@~u@^q@~u@HB@~u@{s@{s@IB@JB@KB@LB@MB@NB@OB@Oz@Qz@Qz@Qz@PB@QB@RB@SB@TB@bY+UB@(^@&:@tH+VB@/w@/w@Z#@aq@Ki+@@@(`+W#@M3@WB@XB@YB@Z<@ZB@`B@ C@eK.ws+.C@+C@@C@#C@B# B# {< $C@%C@K( &C@*C@=C@-C@nP <'+vU ;C@>C@pZ uo `j.## &b ,C@'C@Pn+s/ i+ f2+",
")C@!C@a  ~C@'_+Lf (E {C@]C@^C@)% #y /C@/F (C@_C@:C@<C@[C@}C@|C@1C@2C@3C@4C@5C@6C@7C@sw@8C@9C@0C@aC@bC@cC@dC@eC@fC@mA@gC@hC@a,@iC@;#@jC@kC@lC@mC@nC@oC@pC@qC@rC@sC@tC@uC@AA@td@Vw@hh@vC@wC@/s.'t@K&@K&@Xw@i=+q(@xC@yC@zC@AC@BC@CC@EA@DC@EC@FC@GC@HC@IC@JC@KC@LC@MC@NC@OC@PC@QC@RC@SC@TC@UC@VC@WC@XC@YC@ZC@`C@;B@ D@.D@+D@@D@#D@$D@%D@&D@*D@=D@-D@;D@>D@,D@'D@)D@!D@~D@{D@]D@^D@/D@(D@_D@:D@<D@[D@}D@|D@1D@2D@3D@4D@5D@6D@7D@8D@9D@0D@hs aD@;b.J) YS o2+qi+x/._7@WU.C1+'4+bD@cD@dD@eD@fD@gD@hD@iD@jD@kD@lD@mD@nD@oD@pD@qD@rD@sD@DB@tD@uD@vD@wD@xD@yD@~s@Jz@zD@AD@Yx@BD@~u@{s@CD@DD@ED@FD@GD@/q@HD@ID@JD@KD@Qz@Qz@LD@MD@ND@OD@PD@QD@RD@IS+).@]'@/w@LF+K3@~(@Ki+OS+OS+4!@SD@U1@TD@UD@VD@'k@+A@WD@XD@YD@ZD@`D@ E@.E@+E@@E@#E@$E@%E@'`.Ko &E@} .*E@p* e@+NG =E@Vi H%.J%.ie.*F M@ <t Hi@-E@;E@.}.UX K-.",
">E@Zf ~7 ,E@'E@)z ZP.;;.)E@Hd X(+!E@~E@{E@]E@^E@/E@(E@_E@:E@<E@[E@}E@bb@|E@1E@2E@3E@4E@5E@6E@7E@9n@8E@9E@0E@aE@bE@cE@dE@eE@fE@gE@hE@mA@Y^@kb@iE@jE@kE@lE@mE@nE@oE@pE@qE@AA@_p@rE@x0@'t@Yw@sE@9j@tE@uE@vE@HA@vE@wE@xE@yE@zE@AE@BE@CE@DE@fh@EE@FE@GE@HE@IE@JE@KE@LE@ME@NE@OE@PE@QE@RE@SE@TE@UE@VE@WE@XE@YE@ZE@`E@7B@ F@.F@+F@@F@#F@$F@%F@ZC@&F@*F@=F@-F@;F@>F@,F@'F@)F@!F@~F@{F@]F@^F@/F@(F@_F@:F@<F@}D@[F@}F@|F@1F@2F@3F@4F@5F@6F@7F@8F@qz@`c AB Ig x, 9F@0F@aF@bF@r~+cF@83@dF@eF@fF@gF@hF@iF@jF@jF@kF@lF@mF@nF@oF@pD@pF@qF@rF@sF@tF@wD@vD@uF@vF@~u@zD@Zx@Zx@Zx@Jz@Wx@wF@xF@MB@yF@zF@CD@AF@BF@CF@DF@}u@KD@Qz@%y@EF@FF@GF@HF@IF@JF@KF@LF@J%@]'@MF@;y@~(@~(@@@@km@Ki+:`+NF@OF@PF@QF@RF@SF@TF@`B@G{++a+9W+2^@UF@VF@WF@XF@YF@dT ZF@g- %# xI )}+G! M|+07+f{@=M #M #T =w.s[.|&.|o.}| Xu+`F@ G@&1 pl R!.",
">E@IW.w&..G@2`.+G@JW.@G@#G@$G@l> %G@%J+&G@*G@=G@-G@L{@;G@>G@,G@'G@)G@!G@:f@~G@{G@]G@^G@/G@(G@_G@+{+:G@<G@[G@}G@|G@1G@2G@3G@4G@4G@5G@6G@7G@8G@9G@0G@aG@bG@cG@dG@eG@fG@+u [Z+*v@gG@hG@'t@4n@iG@'t@jG@kG@vE@GA@tE@lG@mG@nG@oG@pG@qG@tE@]Q.F0@rG@sG@tG@uG@vG@wG@xG@yG@zG@AG@BG@CG@DG@EG@FG@GG@HG@IG@JG@KG@LG@MG@NG@OG@PG@QG@RG@SG@TG@UG@VG@WG@XG@YG@ZG@`G@ H@.H@+H@@H@'F@#H@$H@%H@&H@*H@=H@-H@;H@>H@,H@'H@)H@!H@~H@{H@]H@#H@^H@/H@(H@_H@:H@t* ,w+TN <H@7C [H@}H@IL+|H@1H@ui+bS+NF 2H@3H@4H@5H@6H@7H@8H@9H@0H@aH@bH@cH@dH@eH@fH@Sx@GB@vD@9o@wD@DD@/q@^q@gH@hH@zD@~s@HB@iH@)s@jH@kH@lH@mH@nH@oH@_s@pH@qH@Qz@rH@Qz@%y@sH@tH@uH@vH@wH@SB@xH@yH@zH@.A+yn+/`+@@@zU+nW+zU+2J+qW+r3@AH@BH@CH@DH@SF@EH@c)+&~+FH@ZD@GH@HH@IH@JH@KH@LH@MH@NH@_6 OH@]8 4u PH@u' J) n#@O!.{$.D +l*.QH@N-@g@.+M mP e@.J.. <..<.O!.",
"RH@SH@TH@UH@VH@WH@XH@YH@ZH@w' `9 ]H+`H@ I@.I@+I@@I@;G@>G@#I@$I@%I@sE+&I@*I@=I@-I@;I@>I@,I@'I@)I@,Z !I@~I@{I@]I@PE.^I@/I@(I@:A@_I@:I@<I@[I@Rt+}I@|I@1I@2I@3I@4I@5I@6I@7I@8I@'t@K&@9I@'t@7j@iG@'t@0I@aI@bI@*v@^p@cI@dI@eI@fI@gI@Uy@hI@iI@GE jI@kI@lI@mI@nI@oI@pI@qI@rI@sI@tI@uI@vI@wI@xI@yI@JG@zI@AI@BI@CI@DI@EI@FI@GI@&F@HI@II@JI@KI@LI@`C@MI@NI@OI@PI@QI@RI@SI@TI@UI@VI@WI@XI@YI@ZI@`I@ J@.J@+J@@J@#J@$J@%J@&J@*J@=J@-J@;J@>J@,J@'J@)J@!J@~J@tP {`.{J@9n.9F@zH ]J@Em 1'+^J@/J@(J@_J@:J@<J@[J@}J@|J@1J@2J@3J@4J@5J@6J@.w@`v@.w@uD@7J@wD@8J@DD@Vx@Iz@9J@0J@^q@^q@~s@aJ@bJ@]q@cJ@/s@dJ@MB@{q@eJ@fJ@gJ@KD@%y@%y@!w@hJ@iJ@jJ@kJ@lJ@mJ@nJ@oJ@pJ@G1@qJ@>$@|{@rJ@L7+mk@~.@sJ@:`+tJ@uJ@vJ@wJ@xJ@yS+yJ@v*+zJ@fW+AJ@BJ@CJ@DJ@dT EJ@FJ@GJ@*A@By iA  @ HJ@l- vw tX.6_.-p+J)@o> ]U./8 yp.NG IJ@<(.['+<-./= ;$+",
"Yw gJ JJ@KJ@LJ@(A@MJ@NJ@OJ@H%.&k@PJ@QJ@<d@H4@RJ@SJ@TJ@UJ@VJ@WJ@XJ@YJ@ZJ@`J@ K@.K@+K@@K@#K@$K@%K %K@i=+&K@*K@=K@-K@;K@>K@,K@'K@)K@!K@~K@{K@]K@^K@/K@(K@_K@:K@<K@[K@}K@|K@8I@ef@9I@]Q.=v@7j@iG@1K@K&@2K@n3+q(@hG@3K@4K@5K@6K@7K@8K@9K@0K@H0@aK@bK@cK@dK@eK@fK@gK@hK@iK@jK@kK@kK@lK@mK@nK@oK@pK@qK@rK@sK@tK@uK@vK@wK@xK@yK@zK@AK@BK@CK@DK@EK@FK@GK@HK@IK@JK@KK@LK@UI@MK@NK@OK@PK@QK@RK@SK@TK@UK@VK@WK@XK@YK@ZK@`K@ L@.L@+L@-J@@L@#L@$L@%L@&L@*L@T@ =L@-L@;L@zI.>L@_[+vI 3=@,L@'L@)L@!L@~L@{L@]L@^L@/L@(L@_L@:L@<L@[L@}L@Sx@`v@fH@|L@1L@FB@2L@3L@4L@Iz@~s@hH@~s@~u@^q@5L@6L@^q@7L@8L@9L@4L@0L@aL@bL@Pz@cL@%y@%y@!w@dL@eL@fL@gL@hL@iL@jL@kL@lL@mL@$6+%[@nL@^!@D*@]`+~.@~.@qW+1!@oL@5J+pL@qL@U/@zJ@rL@sL@fW+tL@uL@vL@@b@wL@xL@yL@zL@AL@*E.BL@*A@CL@xy DL@e- ;$+vw QQ.TD =9+MU i0..M W-+EL@FL@f@.r> .o@",
"GL@HL@IL@JL@KL@LL@ML@NL@Z7 Kg OL@PL@QL@Ny@RL@24@SL@TL@UL@VL@WL@XL@YL@ZL@`L@ M@.M@k_@+M@@M@#M@$M@%M@)I@&M@*M@=M@-M@;M@>M@,M@'M@)M@!M@~M@{M@]M@^M@/M@(M@_M@:M@<M@[M@}M@|M@8I@QQ vE@]Q.GA@ef@1M@GA@K&@2M@Y:+3M@{P el@4M@5M@6M@7M@8M@9M@;Z ;;+0M@aM@bM@cM@dM@eM@fM@gM@hM@iM@jM@kM@lM@mM@nM@oM@pM@qM@rM@sM@tM@uM@vM@wM@xM@yM@zM@AM@BM@CM@DM@EM@FM@GM@HM@IM@JM@KM@LM@MM@NM@OM@PM@QM@RM@SM@cz@TM@UM@VM@WM@XM@=H@YM@ZM@`M@ N@.N@+N@@N@#N@$N@%N@&N@*N@=N@-N@;N@>N@,N@ls 'N@Um.*q.mS.w+@)N@!N@~N@{N@]N@^N@/N@(N@_N@:N@<N@[N@}N@Sx@|N@@w@sF@1N@GB@2N@3N@8L@^q@^q@hH@4N@HB@^q@5N@6N@Iz@7N@7N@8N@9N@0N@aN@bN@cN@dN@eN@fN@gN@hN@iN@jN@5L@kN@lN@mN@GF@nN@oN@pN@,{@-m+2J+9Y+9Y+2J+2J+s3@*|@[{@qN@S#@rN@k9@sN@2k+1 +%~+tN@uN@V2 vN@wN@xN@]r hn vF.l*+yN@=# zN@xy AN@9J.J..^% QQ.BN@j+ {0 vw %T.%0+>C@mk.C^ &M CN@",
"DN@EN@FN@GN@HN@IN@JN@KN@LN@wI MN@NN@ON@Tk@PN@QN@2K@RN@SN@TN@UN@VN@WN@XN@YN@ZN@`N@ O@.O@2o++O@@O@#O@$O@%O@&O@*O@=O@-O@;O@>O@,O@'O@)O@!O@~O@{O@]O@^O@/O@(O@_O@:O@<O@[O@}O@|O@1K@iI@9I@vC@_|+IA@IA@1O@2O@3O@gG@1K@4O@CL 5O@6O@7O@8O@9O@0O@+j@aO@bO@cO@dO@eO@fO@gO@hO@iO@jO@kO@lO@mO@nO@oO@pO@qO@rO@sO@tO@uO@vO@wO@xO@_B@yO@zO@AO@BO@BO@CO@DO@EO@FO@GO@HO@IO@JO@JM@KO@LO@MO@NO@OO@PO@QO@RO@SO@TO@UO@VO@WO@XO@YO@ZO@`O@ P@.P@+P@@P@#P@$P@%P@&P@*P@=P@-P@;P@>P@,P@v@.aR f@+{4+m> 83@'P@)P@!P@~P@P3@{P@]P@vD@:N@<N@^P@/P@(P@_P@:P@<P@[P@@w@}P@|P@1P@2P@8N@3P@Zx@*w@Yx@3P@Zx@Zx@4P@5P@4P@6P@7P@8P@9P@0P@aP@Qz@bP@cP@|s@dP@eP@fP@)s@gP@hP@iP@jP@kP@lP@mP@YQ+2J+yn+&^@9Y+2J+9Y+fk+-N+nP@oP@pP@qP@rP@sP@%~+$W.v{.tP@uP@2e.vP@wP@rc.Z..:6 m0.xP@wF.24 h2 D +! .]R ;J.Q@ _3.#=+]V 5. d@+0F@+o@<'+Ze@d@+_3.yP@",
"zP@AP@BP@CP@DP@^+@EP@Z).FP@GP@HP@IP@sb@JP@,f@KP@LP@MP@NP@OP@m.@PP@jY.QP@RP@SP@TP@UP@VP@WP@XP@YP@ZP@`P@ Q@n|@.Q@+Q@@Q@#Q@$Q@%Q@&Q@*Q@=Q@-Q@;Q@Bw+>Q@,Q@'Q@)Q@!Q@~Q@{Q@]Q@^Q@hG@/Q@vE@9I@Ww@(Q@PY.PY.QQ _Q@:Q@QQ <Q@[Q@)c.}Q@|Q@1Q@2Q@3Q@GE 4Q@5Q@6Q@7Q@8Q@9Q@0Q@aQ@bQ@cQ@xM@dQ@eQ@fQ@gQ@hQ@iQ@jQ@kQ@,D@lQ@mQ@nQ@oQ@pQ@qQ@vO@rQ@sQ@tQ@uQ@vQ@wQ@xQ@yQ@zQ@AQ@BQ@CQ@DQ@EQ@FQ@GQ@HQ@IQ@JQ@KQ@LQ@MQ@NQ@OQ@PQ@QQ@RQ@SQ@TQ@UQ@fv@VQ@CQ@WQ@XQ@YQ@ZQ@`Q@ R@.R@+R@@R@#R@$R@YX jq 5W Tm.}2 %R@&R@*R@=R@-R@;R@>R@,R@'R@)R@!R@~R@{R@EB@]R@^R@/R@(R@_R@:R@tF@]u@<R@[R@<o@hH@}R@}R@<o@3P@|R@eP@eP@1R@2R@1o@3R@4R@%y@%y@bP@cN@5R@6R@7R@8R@/u@9R@0R@aR@bR@cR@c}@dR@B5@c4+yn+X#@~.@qW+9Y+eR@=L+fR@gR@hR@iR@*'@jR@kR@C,+lR@mR@nR@oR@pR@*E.Qg.AI qR@rR@sR@tR@d% p[.w/.3M.6B.uR@;'.r> >& qq ;z.3W vR@wR@7F+xR@((+Qe AY+",
"yR@zR@AR@BR@CR@DR@ER@FR@GR@HR@IR@JR@0|@UJ@KR@LR@MR@NR@OR@PR@51 QR@RR@SR@TR@UR@VR@WR@XR@YR@ZR@`R@ S@.S@+S@@S@^p@#S@$S@%S@&S@*S@=S@-S@;S@>S@,S@'S@)S@!S@~S@{S@]S@^S@/S@(S@_S@tE@vE@0I@vE@jG@K&@PY.:S@GA@_Q@j8+;0+<S@>c.[Q@[S@}S@7!+|S@&}@&}@1S@2S@3S@4S@5S@6S@7S@8S@9S@0S@aS@bS@cS@dS@eS@fS@gS@hS@iS@jS@kS@lS@mS@nS@oS@pS@qS@rS@sS@tS@uS@vS@wS@xS@yS@zS@IO@BQ@AS@BS@CS@%P@DS@GI@ES@FS@GS@HS@IS@JS@KS@LS@MS@NS@OS@PS@QS@RS@SS@WQ@TS@US@VS@ZQ@WS@XS@YS@ZS@`S@ T@.T@+T@#k.%w. ^.m> @T@#T@$T@%T@&T@*T@=T@-T@;T@>T@zF@~R@{R@,T@'T@)T@!T@~T@{T@]T@^T@/T@{u@3P@hH@4k@(T@zD@4k@;s@}R@5N@5N@_T@:T@<T@[T@Pz@rH@rH@)w@%y@}T@|T@1T@/u@/u@2T@hP@3T@4T@5T@6T@7T@8T@KD+2J+qW+qW+~.@qW+$:@$[@9T@0T@aT@bT@4g@x<+cT@dT@(H.eT@fT@gT@vM PK e!@;9+*A@<) <3.hT@g/ O( iT@W-+jT@@8@a++nP ,Q 9% ,P.+j.h6+&.+d@+mk.&L.Wg.kT@",
"lT@mT@nT@oT@pT@qT@rT@sT@tT@uT@UJ@vT@wT@xT@yT@zT@AT@BT@CT@DT@ET@ET@FT@GT@HT@IT@JT@KT@LT@MT@NT@OT@PT@QT@RT@ST@TT@UT@VT@WT@XT@YT@ZT@`T@ U@.U@+U@@U@#U@$U@%U@&U@*U@=U@-U@;U@>U@(Q@K&@!I@,U@jG@_|+'U@:S@GA@)U@j8+S++:S@:S@!U@~U@{U@]U@^U@/U@(U@_U@:U@<U@[U@}U@|U@1U@2U@3U@4U@5U@6U@7U@8U@9U@0U@aU@bU@cU@dU@eU@fU@gU@hU@iU@jU@kU@lU@mU@nU@oU@pU@DQ@qU@rU@sU@FM@tU@uU@vU@wU@GQ@xU@yU@zU@AU@BU@CU@DU@EU@FU@GU@HU@ZI@IU@JU@KU@LU@MU@NU@OU@US@PU@QU@pU@pU@RU@SU@TU@UU@VU@WU@XU@YU@ZU@g| `U@ V@.V@+V@@V@#V@$V@%V@&V@*V@!R@=V@-V@Sx@;V@;V@fH@>V@,V@Tx@'V@)V@!V@3P@Zx@^q@^q@Iz@~V@Iz@4k@eP@eP@{V@]V@^V@/V@(V@_V@:V@)w@<V@[V@}V@;u@|V@1V@2V@3V@3T@4T@4V@5V@6V@7V@8V@sJ@aq@aq@qW+aq@n7@9V@0V@aV@bV@cV@dV@k7+1Y+PA.Fg@eV@fV@%=.8N+H6 gV@hV@s> &E.@b@rl b+ K# iV@CN@s'@jV@0u+!r.^= #T QQ.#'.`7 /% ;'.i{@kV@lV@O-@",
"mV@nV@oV@pV@qV@rV@sV@tV@uV@vV@Lm+wV@xV@yV@zV@AV@BV@CV@DV@EV@FV@GV@HV@IV@JV@KV@LV@MV@NV@OV@PV@QV@RV@SV@TV@UV@NM.;]@VV@WV@XV@YV@ZV@`V@ W@yK@.W@+W@@W@#W@$W@%W@&W@*W@=W@-W@Xw@;W@bI@jG@,U@0I@K&@)U@:S@:S@BL 3M@:S@3M@0I@hI@>W@,W@'W@)W@!W@~W@{W@]W@^W@/W@(W@_W@:W@<W@[W@}W@|W@1W@2W@3W@4W@5W@6W@xU@7W@8W@9W@0W@>D@0W@-J@aW@bW@cW@dW@eW@eW@fW@gW@hW@tU@iW@jW@kW@lW@mW@uU@~F@nW@oW@pW@*W@qW@ R@rW@5W@sW@tW@tW@uW@vW@wW@xW@yW@zW@jS@$P@OU@AW@BW@CW@DW@EW@XQ@ZQ@FW@GW@HW@IW@JW@KW@gi.LW@MW@NW@OW@PW@QW@RW@SW@TW@UW@/P@VW@(P@Sx@`v@WW@fH@`v@XW@YW@ZW@`W@ X@hH@hH@HB@.X@~u@~V@^q@zD@:o@4P@+X@Iz@@X@#X@cN@$X@:V@bP@%X@&X@*X@=X@-X@1V@;X@>X@lJ@k/@,X@'X@)X@!X@~X@{X@~.@aq@2J+9Y+]X@^X@/X@(X@>L+_X@S]@k7+gW+dT@:X@<X@[X@#5 }X@|X@1X@.b@Ud+2X@3X@x{+)& ~} 4X@AU |5@i{@CN@k,.O..7; ~|.2-.Ne St@l!@um+%5+*M 5X@",
"6X@7X@8X@9X@0X@aX@bX@cX@dX@eX@fX@gX@hX@iX@jX@kX@lX@mX@nX@oX@pX@qX@rX@sX@tX@uX@vX@wX@xX@yX@zX@AX@BX@CX@DX@EX@FX@GX@HX@IX@JX@KX@LX@MX@NX@OX@rK@PX@QX@RX@qK@SX@TX@UX@VX@1O@Bb@<Q@!I@!I@,U@,U@WX@n3+K&@XX@w:@QQ S++:Q@2K@YX@yT@ZX@`X@ Y@.Y@+Y@@Y@#Y@$Y@%Y@&Y@*Y@=Y@-Y@;Y@>Y@,Y@'Y@)Y@!Y@~Y@{Y@7B@]Y@^Y@/Y@(Y@_Y@:Y@<Y@[Y@OO@}Y@|Y@|Y@1Y@}Y@2Y@3Y@4Y@wU@5Y@6Y@7Y@8Y@9Y@0Y@aY@bY@cY@dY@eY@fY@gY@hY@iY@jY@kY@lY@mY@nY@oY@pY@qY@rY@sY@tY@uY@vY@wY@xY@xY@yY@zY@tS@AY@BY@CY@DY@EY@FY@GY@HY@IY@JY@KY@LY@MY@NY@OY@qD@PY@QY@wD@DB@.w@.w@1N@`v@.w@RY@SY@TY@UY@VY@)V@HB@WY@XY@)u@YY@ZY@5L@+X@`Y@gL@]q@ Z@.Z@+Z@@Z@bP@#Z@%X@$Z@%Z@)s@7N@aJ@&Z@0R@*Z@bR@=Z@-Z@4V@5V@;Z@>Z@uu+XD+9Y+9Y+(`+*|@,Z@'Z@)Z@%s@!Z@b)+%'@R*+~Z@{Z@]Z@^Z@L/./Z@(Z@<+.Yc@-Q ;A@U0+a) PW+_Z@)=.e- n} AY+R;.:Z@FK.1W H9+e[@pp+<Z@[Z@}Z@kV@5j+",
"|Z@1Z@2Z@3Z@4Z@5Z@6Z@7Z@8Z@9Z@0Z@aZ@bZ@cZ@dZ@eZ@fZ@gZ@hZ@iZ@jZ@kZ@lZ@mZ@nZ@oZ@pZ@qZ@rZ@sZ@tZ@uZ@vZ@wZ@xZ@yZ@zZ@AZ@BZ@CZ@DZ@EZ@FZ@GZ@HZ@IZ@JZ@KZ@LZ@MZ@NZ@OZ@PZ@QZ@RZ@vf@Bb@Z(+S1+!I@!I@!I@SZ@!I@:Q@_.+w:@|L.S++TZ@UZ@VZ@WZ@XZ@YZ@ZZ@`Z@ `@.`@+`@@`@#`@$`@%`@&`@*`@=`@-`@;`@>`@,`@'`@)`@!`@~`@pK@'Y@{`@cz@]`@^`@]F@/`@/`@(`@YI@_`@2F@:`@<`@[`@}`@|`@1`@LK@2`@3`@4`@5`@6`@7`@8`@9`@0`@a`@b`@c`@d`@e`@f`@g`@h`@i`@j`@6B@k`@l`@m`@n`@o`@p`@q`@r`@s`@t`@u`@v`@w`@x`@y`@z`@A`@B`@C`@D`@E`@F`@G`@H`@I`@J`@K`@qD@L`@-s@9o@Sx@M`@+w@Fz@Sx@N`@{R@[L@+w@UY@O`@MB@P`@Q`@R`@S`@T`@'u@iH@U`@/o@V`@kH@W`@X`@}u@@Z@bP@Y`@+Z@Z`@``@U`@5P@aJ@9R@0R@  #. #=Z@+ #@ #(N@# #$ #{.@% #yn+9Y+yn+& #6u@* #= #- #; #kq+V+@dK.^y > #, #' #) #! #~ #{ #] #^ #/ #T7@( #_ #: #< #2W s'@//+Xc *$+mF.)Q *Q.k!@m!@@v.U6.c1+ok.[ #",
"} #| #1 #2 #3 #4 #5 #8o+6 #7 #8 #9 #0 #a #b #c #d #e #f #g #h #i #j #k #l #m #n #o #p #q #r #s #t #u #v #w #x #y #z #A #B #C #D #E #F #G #`I@H #I #CI@J #K #L #M #N #O #HA@Z(+S1+jG@jG@!I@,U@!I@:Q@S++;0+P #Q #R #S #T #U #V #W #X #Y #Z #` # .#..#+.#@.##.#$.#%.#&.#*.#=.#-.#;.#WG@>.#,.#'.#).#&W@ J@!.#~.#{.#ZI@nY@5B@nY@].#].#RK@^.#/.#(.#_.#:.#<.#[.#}.#|.#1.#2.#3.#4.#5.#6.#7.#8.#kK@)`@9.#0.#bY@a.#b.#I #^Y@:D@c.#_D@d.#e.#f.#g.#q`@h.#i.#j.#k.#l.#m.#n.#o.#p.#q.#r.#s.#t.#u.#v.#w.#x.#y.#Rx@AB@z.#A.#vD@-s@Lz@B.#B.#Sx@B.#C.#D.#&V@+w@DB@EB@uF@E.#F.#G.#H.#I.#J.#)u@K.#jJ@;X@L.#M.#N.#O.#@Z@}u@}u@'w@P.#Q.#)q@R.#5L@S.#T.#3T@=Z@k/@bR@U.#V.#W.#X.#Y.#cq@qW+yn+(^@8'@Y%@,$@Z.#`.# +#PX._}+.+#++#@+##+#$+#%+#G(+&+#*+#=+#-+#x> ;+#O^ _!+.k.Qi cH.=`.kw.`a p' td =`.kw.B$+>+#cn.,+#KL+b3 '+#",
")+#t`@!+#~+#{+#]+#^+#/+#(+#_+#:+#<+#[+#}+#|+#1+#2+#3+#4+#4+#5+#6+#7+#8+#9+#0+#a+#b+#c+#d+#e+#f+#g+#h+#i+#j+#k+#l+#m+#n+#o+#p+#q+#r+#s+#t+#u+#v+#w+#x+#y+#z+#A+#B+#C+#UZ@<S@<Q@D+#0K@jG@!I@!I@,U@K&@QQ |U _.+_.+<Q@E+#F+#G+#H+#I+#J+#K+#L+#M+#N+#O+#P+#Q+#R+#S+#T+#U+#V+#W+#W+#W+#,`@X+#Y+#7B@<D@Z+#`+# J@ @#7B@=H@.@#iY@=H@7B@+@#@@#{`@2F@#@#$@#%@#&@#*@#=@#-@#;@#>@#,@#'@#)@#!@#~@#{@#7B@!H@]@#^@#oW@`E@/@#(@#_@#_@#:@#<@#7W@[@#>F@}@#|@#1@#2@#3@#4@#5@#6@#7@#8@#t+#9@#0@#a@#b@#c@#d@#e@#f@#g@#h@#i@#=s@z.#uD@vD@.w@Qx@j@#k@#l@#m@#{R@TW@eH@vD@wD@GB@n@#o@#p@#q@#r@#s@#t@#+X@u@#v@#w@#x@#y@#O.#@Z@|u@}u@|s@z@#bR@A@#B@#+X@gP@C@#D@#bR@=Z@@ #E@#F@#G@#H@#I@#vF+aq@2J+yn+Y%@]L+u7@$[@J@#K@#^p+#.@}[@L@#M@#N@#O@#P@#B).&E.P@#Q@#i{.k{.R@#Y@ sP S@#Gm d@.%-+{/+d) )% =`.d&+e&+1r+5n.(7 ^2@T-+v^.8j+",
"T@#U@#V@#W@#X@#Y@#Z@#`@# ##.##+##@##5S@###$##%##&##*##=##-##;##>##,##'##)##!##~##{##]##^##/##(##_##:##<##[##}##|##1##2##3##vf@Mq@4##5##6##7##8##9##0##a##b##c##d##e##S #f##vf@0K@vC@sS !I@,U@TZ@g##)I@h##i##j8+9I@j##k##l##m##n##o##p##q##r##s##t##u##9B@v##w##W+#x##y##z##A##B##C##D##E##LZ@F##G##H##I##KI@J##v##9`@v##K##)`@L##L##!.#M##N##[Y@O##P##Q##R##S##T##U##V##W##X##bY@Y##Z##cY@_@#`## $#.$#+$#@$##$#@$#_@#$$#%$#&$#*$#=$#-$#;$#xY@>$#,$#'$#)$#!$#~$#{$#wQ@]$#^$#/$#($#_$#:$#<$#[$#}$#^q@DB@|$#[$#TY@FB@7J@FB@UY@Lz@1L@DB@Gz@GB@DB@kH@1$#kH@!s@2$#3$#4$#5$#6$#{q@7$#hL@8$#9$#0$#}u@)w@)w@O.#O.#a$#b$#1T@-w@+X@c$#d$#hP@e$#=Z@D@#f$#g$#h$#=Z@i$#j$#tH+(`+%[@k$#e>@9'@l$#l$#m$#n$#PX.Ai+YL.o$#p$#q$#HR ^r uj [$ r$#m/ s$#t$#u$#bW 3% 4K.14 v$#7{.w$#-2.x$#td SN.3G+r6+q/+m} y$#z$#La+12.",
"A$#B$#C$#D$#E$#F$#G$#H$#I$#J$#K$#IM@L$#M$#N$#O$#P$#Q$#R$#S$#T$#U$#V$#W$#X$#Y$#~##Z$#`$# %#.%#+%#@%##%#$%#%%#&%#*%#=%#-%#fy@;%#>%#,%#'%#)%#!%#~%#9Q@{%#]%#^%#/%#(%#_%#:%#<%#[%#}%#3M@SZ@!I@!I@|%#1%#lJ.k#+lJ.2%#3%#4%#5%#6%#7%#8%#9%#0%#a%#r##b%#c%#VG@d%#qK@)H@>.#v##e%#f%#g%#5B@h%#i%#}Y@j%#k%#l%#m%#n%#o%#p%#qK@!@#q%#r%#7B@X+#s%#t%#u%#v%#w%#x%#y%#z%#A%#B%#C%#D%#W##E%#F%#G%#H%#I%#J%#e%#K%#L%#M%#N%#`G@O%#uU@P%#Q%#R%#S%#;$#T%#U%#V%#W%#W%#X%#Y%#Z%#`%# &#.&#+&#@&##&#$&#%&#&&#*&#=&#-&#;&#1$#sF@>&#,&#pF@1N@wD@EB@uD@'&#'&#S`@1$#Ux@<P@#w@#w@)&#!&#~&#{&#]&#^&#J.#'s@&w@&w@/&#(&#_&#:&#)w@)w@O.#<V@<&#[&#}&#|&#;u@1&#lN@2&#  #k/@3&#C@#4&#0R@5&#6&#7&#8&#N9@RB+& #8'@e>@x9@x9@9&#0&#F{+eK.fW+a&#b&#c&#d&#]J e&#Qm ]P.{$+f&#X9@B*.Y@ F' g&#qi+h&#X*+i&#j&#{1 NC.`a 0J.r6+(A+k&#l&#F_ m&#n&#",
"o&#p&#q&#r&#s&#t&#u&#v&#w&#x&#y&#z&#A&#B&#C&#D&#E&#F&#G&#H&#I&#J&#K&#L&#M&#N&#O&#P&#<Y@mK@Q&#R&#S&#T&#U&#V&#W&#X&#Y&#Z&#S1+_Q@`&# *#.*#+*#@*##*#$*#%*#&*#**#=*#-*#;*#>*#,*#'*#)*#!*#SZ@SZ@TZ@~*#1%#{*#k#+]*#^*#/*#(*#_*#:*#<*#[*#}*#|*#1*#2*#3*#MG@n%#4*#[B@[@#%$#$$# H@5*#OK@6*#nU@7*#4Y@8*#9*#0*#a*#b*#c*#d*#e*#f*#g*#h*#i*#j*#k*#MG@l*#m*#n*#o*#p*#q*#r*#s*#t*#u*#v*#w*#x*#y*#z*#A*#B*#C*#D*#E*#F*#G*#H*#I*#J*#K*#L*#M*#N*#O*#P*#Q*#R*#S*#T*#U*#$&##&#V*#W*#X*#Y*#Z*#`*# =#.=#+=#@=##=#$=#%=#&=#*=#Sx@==#[$#[P@7J@]R@sF@kH@}$#-=#HB@Vx@/s@kH@;=#)&#1&#>=#,=#BD@'=#vF@ZY@/u@'u@)=#!=#0P@}u@)w@)w@<V@~=#{=#]=#^=#}R@~V@/=#lN@(=#aR@f$#_=#S.#4&#4&#hP@wH@:=#<=#[=#(y+*|@E%@qJ@s9@}=#|=#1=#2=#9W+3=#4=#5=#6=#7=#8=#x .T..Rm 9=#{-+=A@0=#.# B= a=#jp b=#c=#~T.;r d<.x1.}o.|W k!@-!+zM.d=#;L.e=#c(.",
"f=#g=#h=#5b@i=#j=#k=#l=#m=#n=#o=#p=#q=#r=#s=#2x@t=#u=#v=#w=#x=#y=#z=#A=#B=#C=#D=#E=#F=#6B@G=#H=#I=#J=#`+#K=#L=#M=#N=#O=#P=#Q=#R=#UZ@S=#T=#U=#V=#W=#X=#Y=#Z=#`=# -#.-#+-#@-##-#B #SZ@S1+WX@TZ@$-#%-#&-#*-#X:+=-#--#;-#>-#,-#'-#)-#!-#~-#{-#]-#^-#/-#(-#_-#7Y@JM@:-#:-#<-#[-#}-#|-#1-#2-#3-#WS@4-#5-#7Y@6-#7-#8-#9-#0-#0-#a-#b-#c-#d-#e-#f-#g-#h-#i-#j-#k-#l-#m-#n-#o-#p-#q-#r-#s-#t-#u-#v-#aY@w-#x-#y-#z-#A-#B-#C-#D-#E-##&#F-#G-#H-#I-#J-#K-#L-#M-#U*#N-#V*#O-#P-#Q-#R-#S-#T-#U-#V-#W-#X-#Y-#Z-#`-#Sx@ ;#[$#.;#g@#+;#<P@}$#}$#;=#@;##;#Wx@~u@lH@$;#fH@%;#'u@,=#xF@&;#*;#>q@=;#N`@-;#;;#Pz@}u@)w@}u@+Z@>;#,;#';#);#!;#(T@~;#U.#v@#h$#{;#];#;X@^;#/;#(;#_;#:;#<;#[;#JD+};#|;#).@1;#2;#3;#4;#5g@5;#+`+6;#7;#8;#9;#0;#a;#U..,0 x@.q/ b;#]P.K7.H' c;#66.OC.X*+Q;.cH.2a@1-.[R d;#e;#um+M3.^t.f;#g;#h;#",
"i;#j;#k;#l;#m;#n;#o;#p;#q;#r;#s;#t;#u;#v;#w;#x;#y;#z;#A;#B;#C;#D;#E;#F;#G;#H;#I;#J;#J;#6X@K;#L;#M;#N;#O;#P;#Q;#9`@R;#S;#>Z T;#@-#U;#V;#W;#X;#Y;#Z;#`;# >#.>#+>#@>##>#$>#%>#&>#2%#,U@*>#=>#->#;>#>>#kw@,*#jG@,>#'>#)>#!>#(@#~>#{>#]>#]>#^>#/>#(>#_>#:>#<>#[>#8@#}>#|>#1>#2>#3>#4>#5>#6>#7>#8>#9>#0>#,$#a>#b>#IO@c>#d>#lW@e>#f>#g>#h>#i>#j>#k>#l>#m>#n>#o>#p>#q>#r>#s>#t>#u>#v>#w>#x>#|@#y>#z>#A>#B>#C>#D>#E>#F>#G>#H>#I>#J>#K>#L>#M>#N>#O>#P>#Q>#G-#R>#S>#T>#U>#V>#W>#X>#Y>#Z>#`># ,#.,#+,#@,##,#$,#%,#&,#y.#*,#g@#fH@)T@#w@<P@#w@#w@=,#-,#~u@S`@;,#Cz@+;#Gz@}$#>,#(P@,,#)R@vD@Sx@',#),##Z@}u@)w@}u@%y@0P@!,#~,#{,#],#;s@~;#G`@R`@^,#3T@=Z@  #R`@(;#(;#/,#(,#_,#:,#LB+<,#$(@1;#2;#%:@[,#},#!`+Kz++`+|,#7;#1,#2,#3,#4,#5,#6,#Ko tl D- g~ H' h] $k.Wg.7,#fR.{/+)% 5u.-$+hk.<-.8,#k!@Fi@9,#;2@Uu 0,#",
"a,#b,#c,#d,#e,#f,#g,#h,#i,#RU@j,#k,#l,#m,#n,#o,#p,#q,#r,#s,#t,#u,#v,#w,#w,#x,#y,#z,#A,#y,#B,#C,#ZQ@D,#E,#F,#G,#H,#I,#J,#K,#L,#(0+M,#N,#O,#P,#Q,#R,#S,#T,#U,#V,#W,#X,#Y,#Z,#%>#H0@`,# '#.'#+'#@'#RJ@>>##'#$'#%'#&'#*'#='#-'#<>#;'#>'#;'#,'#''#)'#!'#~'#{'#]'#^'#/'#('#_'#('#:'#<'#['#}'#|'#1'#2'#3'#4'#5'#6'#7'#8'#9'#0'#a'#,$#b'#c'#d'#s`@D-#e'#f'#g'#h'#i'#j'#k'#l'#m'#n'#o'#p'#xQ@q'#l.#r'#s'#t'#u'#v'#w'#O-#x'#V>#y'#z'#A'#B'#C'#D'#E'#E'#F'#G'#H'#_'#I'#J'#K'#L'#M'#N'#O'#P'#Q'#t'#R'#S'#T'#U'#V'#W'#x.#!T@r@#X'#q@#[P@!T@)&#Y'#Z'#HB@xF@|L@'&#`'#+;#I.#I.#+;#GB@ )# w@vD@Qx@.)#+)#bP@)w@)w@)w@}u@@)##)#^=#$)#4P@K.#%)#8R@&)#*)#_;#hP@5&#/;#=)#-)#;)#>)#,)#')#))#!)#~)#xc@wc@}=#C7@{)#])# &+^)#/)#()#_)#:)#<)#[)#})#9E+ed+/; $& ] +sh t$.Js.qp+XK *J.$G.td Eb f*+%.+.T 1W jf R(+>'.|)#1)#n~+",
"2)#3)#4)#5)#6)#7)#8)#9)#0)#a)#b)#4-#c)#d)#e)#XS@oU@f)#g)#h)#`Q@i)#j)#k)#l)#m)#n)#o)#p)#q)#r)#s)#t)#u)#v)#w)#x)#y)#z)#A)#G$#B)#C)#D)#E)#F)#G)#H)#I)#J)#K)#lW@L)#M)#N)#O)#P)#Q)#R)#S)#T)#U)#V)#W)#X)#Y)#Z)#`)# !#.!#+!#@!##!#$!#%!#&!#*!#&!#=!#-!#;!#>!#,!#,!#'!#X%#)!#('#!!#~!#{!#]!#^!#/!#(!#_!#:!#[>#$!#<!#;!#[!#}!#|!#1!#2!#3!#4!#5!#6!#h'#7!#8!#9!#0!#a!#b!#c!#d!#e!#f!#g!#h!#i!#j!#k!#l!#m!#n!#o!#p!#q!#r!#s!#.=#t!#u!#v!#w!#x!#y!#z!#A!#B!#C!#2>#D!#E!#F!#G!#H!#I!#N'#J!#K!#L!#M!#N!#O!#P!#Q!#R!#S!#T!#U!#'T@$u@V!#5$#W!#+;#X!#Y!#Z!#>=#:u@#w@`!# ~#`'#`'#+;#Fz@[N@am@.~#+~#@~#LD@Y`@)w@)w@)w@#Z@#~#$~#~s@hH@zD@%~#&~#*~#=~#fP@-~#;X@v@#&)#;~#(;#hP@>~#,~#'~#)~#G1@9'@!~#~~#!)#{~#]~#^~#/~#yB+(~#_~#:~#<~#[~#}~#|~#1~#{|.2~#3~#k+ (P.sh 44 4~#5~#01+fR.v$#6~#K%+;$+o,.B-+r&+G @lu@ j..j.7~#",
"8~#9~#0~#a~#b~#c~#d~#e~#f~#g~#h~#i~#j~#k~#l~#m~#n~#:.#n~#o~#fW@p~#q~#r~#s~#t~#KU@r~#u~#v~#n)#w~#x~#y~#z~#A~#B~#C~#D~#E~#L,#F~#G~#H~#I~#J~#K~#kU@L~#M~#N~#O~#P~#VQ@Q~#R~#S~#T~#U~#V~#W~#X~#Y~#Z~#`~# {#.{#+{#@{##{#${#%{#&{#*{#={#-{#={#;{#=!#>{#,{#'{#y!#y!#){#!{#~{#)!#{{#]{#^{#/{#|'#(!#({#_{#&!#:{#^{#:{#<{#[{#}{#|{#1{#2{#3{#,'#4{#5{#6{#('#7{#E'#8{#9{#i'#9{#0{#a{#b{#c{#R'#d{#A'#e{#f{#g{#h{#i{#h{#j{#k{#l{#m{#S>#n{#o{#p{#q{#r{#s{#t{#3@#2!#<-#u{#AQ@v{#w{#x{#y{#z{#A{#B{#C{#D{#E{#F{#G{#H{#I{#J{#K{#L{#M{#X'#N{#O{#`'# ~#P{#)V@Q{#>=#[P@)T@O{#`'#O{# ~#+;#am@R{#S{#T{#U{#V{#Rz@}u@)w@)w@)w@|u@W{#X{#~s@^q@U`@~;#3V@lN@Y{#fP@Z{#`{#T.# ]#/,#R`@0R@=Z@.]#+]#@]##]#B3@F7@$]#m5@%]#&]#*]#]s+WK+GO+=]#-]#;]#>]#,]#']#v{+)]#!]#~]#aD J( S;+O0+b^@C7.{]#*J.s/.i~+lZ J..:p d>+]]#G @) .^]#/]#(]#",
"_]#:]#<]#[]#}]#|]#1]#_-#2]#3]#4]#5]#6]#7]#8]#9]#0]#[@#a]#b]#[`@c]#QM@d]#e]#f]#g]#/D@st@y~#NM@h]#i]#6]#j]#k]#l]#m]#n]#o]#p]#q]#r]#s]#t]#u]#v]#w]#x]#y]#x]#z]#/>#7Y@A]#B]#C]#D]#E]#F]#G]#H]#I]#J]#K]#L]#M]#N]#O]#P]#Q]#R]#S]#X #T]#T]#U]#U]#V]#W]#X]#Y]#6!#Z]#`]# ^#]{#.^#+^#@^##^#$^#%^#&^#*^#&^#=^#-^#^{#;^#>^#,^#-$#~>#kW@'^#)^#!^#~^#s{#{^#('#]^#^^#/'#0{#/^#0{#{^#(^#_^#c{#:^#<^#i!#q{#[^#}^#H{#|^#1^#2^#9{#3^#4^#5^#6^#7^#8^#|^#z!#2!#9^#0^#JM@a^#b^#'F@R%#c^#d^#e^#f^#g^#e^#h^#D{#i^#j^#k^#l^#m^#n^#o^#p^#q^#r^#Rx@Lz@Gz@7J@s^#&;#*=#>=#[P@<P@O{# ~#O{#`'#`'#t^#u^#~V@8P@v^#w^#~=#}u@)w@)w@)w@|u@EF@x^#y^#;u@)s@z^#v@#3V@A^#B^#C^#D^#E^#F^#^;#aR@jP@f$#k/@G^#H^#I^#a>@<:@J^#[:@%]#K^#L^#M^#N^#O^#P^#Q^#R^#S^#T^#U^#mq U^ Zc@.>.V^#aR G' ,w W^#$-+X^#wM+~u *p+iy+o! Y^#TN.Z^#1r+u&+Z9+`^# /#",
"./#+/#@/##/#$/#%/#>D@&/#*/#=/#-/#;/#MX@o~#&@#>/#,/#'/#.L@)/#!/#~/#{/#]/#^/#//#(/#_/#:/#</#[/#}/#|/#1/#2/#3/#4/#5/#6/#7/#8/#9/#0/#a/#b/#c/#h>#d/#e/#f/#3-#WS@g/#h/#i/#j/#k/#l/#m/#n/#o/#p/#q/#r/#s/#t/#u/#v/#w/#x/#y/#z/#A/#B/#C/#D/#E/#F/#G/#H/#I/#J/#K/#L/#M/#N/#2-#O/#4'#P/#Q/#R/#~^#S/#T/#>^#Q/#U/#V/#U]#)^#y]#W/#KM@u]#X/#Y/#Z/#`/# (#)'#.(#+(#j^#@(##(#$(#E!#%(#&(#*(#=(#-(#4Z@:^#w{#;(#>(#z!#L*#A!#,(#'(#}>#@U@)(#!(#~(#)!#L*#{(#2!#0^#Q%#j>#vU@](#b^#^(#/(#((#_(#:(#<(#[(#}(#|(#1(#2(#3(#4(#5(#6(#7(#8(#9(#0(#a(#%u@>q@b(#nH@~R@6N@BD@c(#Y'#%;#P{#d(#J.#,u@e(#GD@1$#wF@f(#g(#%X@%y@:&#O.#O.#:&#}T@h(#i(#j(#~&#k(#l(#m(#n(#o(#p(#D^#q(#_;#4&#hP@l(#iP@3&#r(#s(#t(#KB+u(#{(@v(#w(#x(#y(#0U.z(#A(#B(#C(#D(#E(#F(#$3 G(#H(#I(#J(#K(#z> L(#*y &`.&p+7E.v}+-|.E%+)% k> )Q M(#32.N(#O(#_`.5O.P(#",
"Q(#R(#S(#T(#U(#V(#W(#X(#Y(#Z(#`(# _#._#+_#@_#}`@-J@#_#GQ@aW@$_#%_#&_#*_#=_#-_#:/#;_#>_#,_#'_#iv@q)#=B@)_#!_#~_#{_#]_#^_#/_#(_#__#:_#<_#h/#2`@[_#}_#|_#1_#x]#w]#BS@2_#3_#4_#5_#6_#7_#8_#9_#0_#a_#b_#c_#d_#e_#f_#g_#h_#i_#j_#j_#k_#l_#D/#m_#n_#o_#A/#p_#q_#4{#r_#TS@$U@s_#t_#u_#r_#v_#<>#v_#w_#x_#w_#u_#r_#i^#y_#z_#A_#B_#C_#D_#E_#F_#v_#v_#''#:{#G_#Z]#H_#K/#I_#J_#k'#/^#$(#yQ@/^#K_#p'#p'#L_#M_#|^#|^#N_#O_#P_#1{#Q_#R_#S_#T_#E{#1!#rU@$U@4>#U_#mW@V_#W_#X_#Y_#Z_#h'#`_# :#.:#+:#@:##:#!'#$:#%:#&:##(#,^#*:#=:#-:#;:#>:#,:#m@#>q@':#):#!:#*=#-u@g@#g@#Q`@iH@)s@~:#Wx@KB@MB@g@#{:#]:#^:#!w@/:#:&#+Z@Qz@(:#_:#~:#+;#]&#::#aR@<:#n(#[:#[:#`{#(=#;X@hP@hP@bR@-Z@=Z@}:#-Z@|:#1:#0`+l7@2:#Kc@3:#4:#f5@5:#6:#7:#8:#9:#0:#a:#S;+f.@)C b:#c:#d:#e:#f:#A~ `9 e*+v}+9++td 1W $w.Dz+=`.g:#-j.h:#F_ i:#j:#k:#",
"l:#m:#n:#o:#p:#q:#r:#s:#t:#u:#v:#w:#x:#y:#z:#A:#B:#WQ@C:#oU@D:#E:#oU@r~#F:#G:#H:#I:#J:#n)#K:#L:#y~#M:#N:#O:#P:#Q:#R:#S:#T:#U:#V:#i_#r:#kW@W:#b'#}_#X:#[_#x]#wU@Y:#Z:#`:# <#.<#+<#@<##<#$<#%<#&<#*<#=<#-<#;<#><#,<#'<#D_#u]#j_#p_#E/#p_#)<#n_#!<#~<#z_#x]#{<#|-#d/#|-#]<#^<#/<#(<#x]#_<#F_#z_#|-#y]#:<#v_#<<#[<#hW@}<#@<#B_#|<#y]#y_#v_#r_#G_#2(#1<#Z]#2<#3<#4<#I_#5<#%:#6<#7<#8<#3@#|>#!'#H_#9<#%(#c^#0<#a<#P_#a>#b<#/>#[-#c<#d<#1!#e<#f<#g<#c<#FM@h<#h<#i<#,$#6!#p'#j<#k<#l<#n!#m<#0{#n<#$:#7'#o<#p<#>^#q<#3>#h<#r<#s<#t<#u<#v<#w<#x<#y<#vF@#w@z<#=X@,s@`!#A<#B<#'&#C<#1$#D<#E<#@)#}u@}u@Oz@^:#Pz@cP@F<#BB@r@#%;#G<#H<#lN@4&#I<#C^#J<#K<#L<#>X@M<#h$#.]#N<#bR@h$#4&#O<#P<#Q<#R<#S<#!.@T<#U<#f5@V<#W<#U;+X<#Y<#Z<#`<#P..F> PW+ [#.[#+[#@[##[#$;+%w @^./K.p' p' << Rb Dz+`a 'T.=v .( $[#Ln |)#%[#",
"&[#*[#K,#=[#-[#;[#LX@>[#u_#,[#1-#'[#)[#![#c)#4-#DW@s:#W:#%P@%P@%P@~[#x:#{[#][#t,#^[#/[#([#_[#:[#<[#[[#}[#|[#1[#2[#3[#4[#5[#6[#7[#|<#8[#d/#:<#9[#]<#0[#pU@y]#y]#a[#UI@b^#b[#c[#d[#e[#Z:#i/#f[#g[#h[#i[#j[#k[#FK@l[#Z:#h/#m[#u]#n[#v]#o[#(>#p[#p.#q[#r[#s[#t[#r[#u:#r[#t[#5-#t[#E_#|<#u[#|-#v[#t[#w[#x[#2-#v_#q_#x]#p.#m[#B_#|-#y[#F/#s:#s:#k_#M/#z[#A[#B[#C[#D[#E[#U%#o_#F[#h<#w`@w`@rU@K/#r_#Z_#G[#H[#E[#I[#a'#J[#rU@0^#2{#K[#7!#H'#O_#L[#M[#3@#N[#O[#P[#1>#L*#|^#w{#R'#Q[#R[#@:#S[#d!#6{#^^#T[#U[#a<#<>#]{#{{#V[#5-#W[#X[#Y[#Z[#`[# }#4$##w@[P@j(#.}#/u@1L@+}#Zv@kH@kH@wF@@}#[T@#}#|u@y@##}#$}#4R@Oz@%}#H<#&}#*}#=}#-}#D^#/;#*)#;}#C^#(;#3V@0R@0R@v@#^o@>}#,}#E@#/;#'}#)}#!}#v(#~}#{(@{}#]}#e5@cK.[P.^}#/}#(}#rh A]@J$.t* h. _}#t> :}#<}#[}#}}#F! CU F%.:p Rb 6u.:p 1W )Q 9D+-j.rk.|}#rA X-.1}#",
"2}#3}#4}#5}#6}#7}#8}#9}#0}#a}#b}#c}#d}#[_#e}#}-#g/#y_#z_#WS@5-#WS@f}#g}#h}#i}#j}#PU@R_#RU@k}#l}#m}#n}#o}#p}#q}#r}#s}#t}#u}#c}#v}#w}#^<#w)#x}#y}#]<#x[#%P@z}#A}#B}#C}# L@#_#D}#E}#c/#F}#G}#a[#H}#I}#j[#J}#K}#L}#M}#l[#N}#B_#p.#v]#BS@O}#O}#P}#gW@Q}#R}#r[#S}#T}#U}#S}#gW@hW@V}#W}#X}#%U@u:#u:#u:#w}#A~#w_#S/#r_#y]#p[#Y}#Z}#5-#`}#m_#r:#p_#y_#5>#0^# |#e>#.|#+|#@|#u[#p.##|#tU@B_#b<#Q%#$|#y`@n^#%|#&|#J[#*|#8<#9<#=|#C!#M_#q{#-|#;|#>|#4^#,|#K_#G[#'|#|^#1^#|^#w{#)|#!|#~|#k!#{|#]|#^|#a!#p'#/|#~'#%(#n<#(|#_|#s{#1_#:|#<|#o^#[|#}|#||#1|#2|#!T@3|#gL@4|#5|#6|#FB@1N@;=#1V@7|#8|#9|#0|#0|#a|#b|#^:#@)#c|#fL@H<#d|#e|#f|#g|#h|#i|#j|#k|#l|#4&#m|#0R@n|#o|#o|#p|#`{#g$#q|#r|#s|#t|#G7@u|#v|#w|#kR@x|#OA.y|#z|#gu@nA sI.A|#+0@J{ B|#C|#D|#@Y E|#F|#P7@BH+`s :p Rb 6u.Rb Dz+=`.'2@G|#H|#GE.I|#X-. S ",
"J|#K|#L|#M|#N|#O|#P|#Q|#R|#S|#q<#=^#U/#M/#T|#Z}#TS@s:#wU@WS@'[#pU@{[#U|#![#![#V|#W|#X|#RS@Y|#Z|#`|# 1#.1#!I@Z(++1#@1##1#$1#^(#q[#%1#&1#*1#=1#-1#c)#u:#%P@;1#;1#N=#>1#,1#*$#'1#)D@)1#LK@!1#~1#{1#+N@]1#J}#^1#/1#Y(#(1#g[#_1#:1#p[#<1#_1#[1#gW@P}#S}#U}#P}#}1#|1#T}#11#;1#wU@BS@~1#e[#21#21#21#31#u:#41#w_#2-#L/#Z}#B_#p[#BS@51#y[#2_#m_#!<#|-#61#Z}#71#81#91#01#a1#q[#|<#u]#@<#b1#B_#B_#n[#9[#3-#*|#I_#c!#:'#|^#4Z@c1#d1#<^#T*#T*#R>#e1#H>#f1#m{#k'#O_#g1#f1#Q*#i!#h1#F'#i1#j1#k1#l1#F!#h'#c^#6!#s{#s{#=|#8^#K[#2!#g/#WS@m1#n1#o1#p1#q1#r1#s1#1&#Jz@t1#wF@6|#&V@+w@fH@kH@~u@u1#v1#)w@y@#$}#w1#b|#x1#y1#z1#A1#B1#%)#C1#D1#E1#F1#=)#k|#G1#R`@H1#I1#n|#J1#K1#fL@L1#3V@9R@M1#N1#O1#P1#G7@T*@y-@Q1#R1#S1#m^+T1#U1#Vg.Z@ BB >4+m* V1#W1#X1#Y1#Z1#W0+`1# 2#v$.ml /).{ ./).9{.o.@dN+O(#.2#wU by+=v 8+++2#",
"@2##2#$2#%2#&2#*2#=2#-2#;2#>2#,2#;{#'2#)2#rU@h<#!2#~2#Y}#'[#pU@)[#j)#![#![#{2#]2#3!#3!#C,#^2#/2#(2#_2#G'+:2#<2#[2#}2#|2#12#31#v:#22#ZQ@ZQ@WS@5-#pU@s[#32#31#u:#X}#42#52#52#62#72#82#92#Z(#02#a2#b2#JO@X}#^1#;1#1`@c2#d2#e2#f2#L}#K}#f2#g2#h2#P}#}1#S}#}1#|1#v:#i2#21#gW@j2#_1#k2#BS@21#u:#21#%P@%P@3-#3-#x_#q_#<-#r:#BS@~1#51#Y}#u]#p_#l2#y]#m2#n2#o2#p2#q2#8_#r2#s2#^(#u]#@<#@<#B_#@<#v]#8[#t2#C!#9{#q'#E>#l1#u2#B!#v2#w2#J-#x2#x2#x2#y2#y2#`_#a!#z2#A2#j!#[^#B2#C2#i!#D2#[^#u2#l1#E2#&(#1>#s`@s{#M/#1>#3^#c^#x`@$|#Q_#d/#T}#F2#G2#H2#I2#J2#6J@K2#i(#vD@L2#eH@XW@M2#kH@ZY@N2##y@}u@$}#$}#$}#$}#^:#O2#P2#Q2#kN@R2#S2#T2#U2#V2#W2#X2#Y2#-)#n|#Z2#hP@`2# 3#o|#n|#v@#.3#+3#@3##3#$3#G7@/[@%3#&3#*3#zi+3(+=3#-3#;3#>3#Px+o>.OL.,3#'3#)3#!3#~3#Xp+n* {3#Qb o*.NL.>a.}R ]3#i,.^3#$b@vU R;.H..>J./3#(3#",
"_3#:3#<3#[3#}3#|3#13#23#33#43#53#;{#1<#i<#63#73#83#93#/>#v[#ZQ@QU@32#![#![#03#a3#}_#b}#b3#c3#d3#e3#f3#WX@g3#h3#i3#j3#k3#}-#l3#v[#m3#pU@EW@R_#n3#o3#|1#p3#q3#u:#w}#r3#s3#t3#u3#v3#w3#w3#x3#9*#y3#z3#7[#X}#A3#B3#C3#D3#e2#E3#F3#G3#H3#I3#VI@J3#K3#L3#L3#S}#R}#R}#Q}#w}#w}#q[#e[#E_#O}#5-#u:#w}#5-#v[#M3#x_#N3#E/#Z}#m[#wU@X}#q[#p[#p.#u]#O3#O}#p[#tU@o2#P3#Q3#H*#G}#R3#S3#T3#]1#n2#i<#63#U3#4!#V3#W3#X3#Y3#Z3#`3# 4#!|#.4#A2#F'#+4#I>#x2#@4##4#y2#H>#$4#B!#1^#1^#%4#&4#<^#i!#*4#o{#h!#/^#c!#6!#5{#s{#~^#=4#-4#&(#1>#,$#U3#;4#o[#>4#,4#'4#)4#!4#~4#{4#H<#H`@ w@Sx@1N@]4#kH@C<#^4#9|#}u@w1#w1#JD@/:#/4#(4#_4#1T@kN@:4#-)#<4#[4#W2#W2#}4#|4#g|#;)#<:#0R@14# 3#~:#24#hP@34#kN@ND@44#C5@N3@54#64#0}+74#84#3(+94#04#a4#Nq+<2 <2 K5+b4#c4#d4#e4#S%.k2+N;+jA /M Eb [t N!.Dg 9{.rP.1W 3O.AY+$8 e- *Q.f4#`i.",
"g4#h4#i4#j4#k4#l4#m4#n4#o4#l]#p4#q4#c'#i,#r4#KM@JK@SS@/>#q[#pU@/[#c)#h}#![#s4#]2#w_#q_#t4#u4#v4#w4#x4#y4#z4#A4#B4#C4#T]#2{#51#_<#D4#3-#{<#E4#F4#G4#i2#H4#I4#31#t:#J4#K4#L4#M4#v3#N4#O4#_Y@(D@P4#Q4#G}#_1#R4#k2#S4#D3#T4#T4#[1#U4#!1#'D@c2#V}#w[#/1#i2#P}#|1#U}#|1#21#21#wU@51#|-#y]#v[#5-#t[#v[#t[#x_#x_#)^#V4#W4#m[#%U@BS@wU@<1#A_#BS@A}#W:#p.#X4#Y4#W_#JO@@<#}<#tU@kW@Z4#Z4#63#`4#US@ 5#wS@.5#+5#@5##5#$5#q{#%5#>|#&5#i!#D2#*5#=5#-5#@4#y2#@4#;5#{|#u2#|^#p{#'!#E'#>5#>5#,5#7!#M_#6'#1>#<>#s{#<>#'5#a'#)5#yQ@8'#0<#A[#w`@I[#W}#!5#T}#({#~5#{5#]5#^5#/5#+w@M2#Cz@(5#_5#L.#[T@:5#9|#<5#w1#JD@JD@[5#}5#|5#9N@z^#15#=)#25#35#35#-}#45#55#65#K<#*)#-)#75#fP@/=#24#3V@d$#&w@q~@85#95#05#a5#b5#c5#d5#e5#f5#g5#h5#x@.3% J$.## g] i5#j5#k5#l5#m5#n5#N;+=H.yy Rb .T F%+Dg lN.Vn+v}+o5#Y+ e- 6B.p5#q5#lB.",
"r5#s5#t5#u5#A/+v5#w5#x5#y5#z5#A5#B5#C5#oU@D5#E5#F5#G5#hW@x[#WS@o3#H5#s,#I5#J5#i)#d}#K5#L5#M5#N5#O5#P5#f,#Q5#R5#S5#'^#8!#T5#'^#U5#V5#W5#+(#]^#X5#Y5#1/#z:#Z5#`5#j2# 6#.6#s3#+6#@6##6#$6#%6#&6#(D@c2#7Y@}<#O3#p.#U4#g>#|<#O}#*6#p.#Z}#p.#@<#C_#p[#%U@/>#r[#r[#s[#~[#u:#o3#W:#%U@9[#9[#F_#43#43#x[#v}#41#x_#=6#f[#u]#Z}#%U@/1#W}#_1#BS@_1#BS@W:#p.#u]#-6#;6#W4#K5#c}#2{#x`@>6#'5#>6##U@,6#1z@!{#'6#)6#Q*##5#.4#P>#!6#i!#>|#1^#~6#;5##4#K'#y2#@5#@4#{6#]6#^6#H{#/6#(6#>5#&5#g1#,5#P*#_6#n<#V5#:6#8@#<>#3>#<6#I*#[6#P_#=4#}6#`4#U_#n[#e~#'D@|6#16#26#36#46#56#66#76#I.#_s@86#96#06#$y@JD@<5#Oz@'w@a6#b6#c6#d6#~:#Z{#=~#e6#f6#d|#g6#h6#i6#j6#k6#^;#*)#-)#l6#m6#n6#n|#M<#34#0L@q~@o6#p6#F7@q6#%3#r6#s6#Ix@t6#u6#v6#MU 7 .J' TG {b.0=#w6#x6#y6#z6#2% L7.J' n*.Rm.[p Wg.K%+cH.d:+A6#Mr.t'@$b@u& ](+B6#|y.",
"C6#D6#E6#F6#G6#H6#I6#J6#K6#L6#M6#vU@N6#2]#O6#P6#F5#G5#'[#Q6#4-#u:#Z5#R6#K:#_[#S6#T6#U6#V6#W6#y4#aO@A/+X6#Y6#Z6#`6# 7#%&#.7#+7#@7##7#$7#%7#&7#*7#=7#L}#-7#O~#;7#/>#'D@>7#,7#'7#)7#!7#~7#{7#]7#^7#PM@Q%#)<#/7#o_#W:#w}#M3#~<#(7#!<#Z}#Z}#i<#T%#(7#$U@Z}#5-#y]#5-#Z5#21#21#51#g/#m2#w_#_7#=6#N3#y}#y}#w_#w_#k3#@<#B_#n2##|#V}#!1#BS@q[#|<#e[#B_#r:#r:#b1#W4#V[#:7#6!#i^#~^#<>#~^#L[#<7#[7#K_#X%#}7#A2#[^#|7#f1#;(#;|#j!#17#O*#r{#X3#l1#27#+&#37#^|#47#|(#:'#7!#}^#j!#)|#2^#&4#P*#P*#57#H{#^^#67#V5#<>#M/#$U@T|#i<#J[#}6#77#T|#$U@$U@m[#5Y@S3#87#tU@97#07#a7#b7#c7#d7#I.#e7#f7#g7#h7#}u@#}#N.#:5#b6#i7#j7#GF@0R@k7#l7#H<#H<#m7#H<#n7#o|#o|#/;#i6#o7#f6#p7#d|#q7#r7#3V@3V@s7#k/@bR@t7#}i@u7#v7#w7#x7#y7#z7#A7#v6#h~ q[.iq RQ.2% S4.B7#C7#D7#9E+hs+`j.u' k- J..c* mA g@+8>+SI+H&+Ja+j~.:R+c@.B +E7#F7#",
"rj+G7#H7#I7#n]#J7#K7#VL@L7#M7#N7#>z@O7#P7#Q7#R7#S7#T7#%P@Q6#Z5#Z5#4-#k}#k}#U7#V7#}-#W7#X7#Y7#Z7#`7# 8#.8#+8#@8##8#$8#%8#&8#*8#=8#-8#;8#>8#,8#'8#)8#!8#V[#~8#[-#;7#BS@{8#]8#^8#/8#~F@(8#_8#:8#<8# 6#Z}#9@#[8#}8#B_#y_#!^#|8#/(#I[#m_#2{#9@#18#$U@c<#4>#f<#c}#28#8[#m2#E_#~<#,$#v_#U]#=^#=^#38#48#s_#v_#58#F/#!<#!<#/7#m_#o[#AS@r4#c/#z_#z_#K5#r:#(7#V[#m[#V[#68#V5#}8#P_#{^#E{#c^#'|#'|#<'#<'#K[#(|#:^#]|#7!#|^#P*#K_#78#88#7!#w{#4Z@M_#98#E2#E!#08#47#:'#:^#}^#}^#/'#(|#H'#M_#M_#a8#('#^^#67#d<#v_#r_#Z}#T|#V[#B[#<6#9^#$U@4>#4>#(>#jW@b8#c8#d8#;F@e8#f8#g8#h8#i8#j8#k8#l8#m8#n8#}u@|u@}u@#Z@Oz@b6#o8#>~#R`@v@#fP@m6#m6#p8#z^#q8#q8#gP@/;#-)#r8#K<#e|#s8#15#A^#;)#^;#2&#{;#k/@t8#u8#v8#w8#x8#y8#z8#A8#B8#C8#tw 0% _R D8#>H.}t.zk@E8#F8#aR G8#/0 H8#w' 0u+Ui I8#:5.J8#5~#oj 95 -!+f^@K8#NR.%G.L8#",
"Y@#[V.M8#N8#O8#=>#P8#D6+Q8#R8#S8#T8#eU@U8#EK@V8#~/#q~#~[#1-#W8#q3#31#X8#Y8#Z8#`8# 9#.9#+9#@9##9#$9#s6@%9#&9#*9#=9#-9#;9#>9#,9#,9#'9#)9#!9#~9#{9#]9#^9#/9#3{#e}#(9#[-#e[#6-#_9#:9#<9#%@#/`@[9#<8#f>#m[#}9#|9#}8#p<#19#29#39#49#59#69#$:#79#'(#)'#89#2<#5{#<>#99#4'#,^#0}#)'#09#U/#1<#3'#a9#=^#%^#%^#`/#<<#<<#68#J/#b9#d<#p<#BQ@28#c9#=6#M3#L/#L/#q_#~2#Z}#E/#6!#p'#0{#k'#d9#7'#0{#i'#k'#e9#i'#C!#e'#f9#]|#g9#(|#6{#j'#m.#h9#i9#j9#:^#w{#k9#<'#/^#/^#j'#l9#:^#}^#_6#<!#/'#|^#'(#M_#m9#<!#~'#P_#}8#<<# (#$U@Q_#T|#2{#I[#:7#E/#4>#4>#kW@R%#.|#b^#n9#o9#5Y@p9#q9#r9#s9#t9#u9#v9#Oz@Qz@}u@)w@)w@|u@}u@b6#w9#S.#x9#E@#:4# 3#::#o|#q8#kN@7$#kN@y9#/;#o7#z9#A9#B9#14#`{#-)#-)#M<#5&#jP@C9#D9#E9#F9#G9#H9#I9#J9#K9#L9#.l ls M9#N9#O9#P9#Q9#R9#S9#T9# # Bb+=T+&L.e@.!r.J%.!r.&` U9#{(.M3.SM <3 48.q~+q~+_2 ",
"V9#W9#X9#Y9#Z9#`9# 0#.0#+0#R)#@0##0#QI@#H@d.#$0#%0#$_#%P@x)#W8#%P@31#H4#|1#&0#*0#=0#-0#;0#>0#,0#'0#)0#!0#~0#{0#]0#^0#/0#(0#_0#:0#<0#[0#}0#|0#10#20#30#40#7>#x]#50#g/#q[#60#70#_9#0W@#H@/Y@80#90#k2#p_#B/#00#''#|9#;!#a0#b0#m9#c0#d0#!!#e0#^6#1<#:{#3<#@(#/|#f0#>[#g0#O/#<!#^^#h0#i0#j0#k0#29#39#l0#89#m0#m0#<>#Z_#W]#/'#09#V5#7>#y}#n^#)^#c'#N/#v_#v_#$U@n0#{!#H{#o0#d!#d!#3(##:#6'#a!#F!#p0#C!#}8#e'#q0#9{#c!#/^#(^#r0#s0#t0#%(#('#H'#/6#u0#-(#xQ@v0#$4#~6#w0#q{#<'#6{#c!#8'#l9#0{#x0#<!#'(#d<# (#!^#r_#9^#TS@0^#}>#i^#i^#,$#z[#y0#z0#A0#B0#x>#U[#!^#1(#C0#f^#D0#E0#F0#G0#gN@:V@}u@H0#I0#)w@}u@m8#J0#K0#L0#-)#n7#H<#15#J1#c$#kN@M0#c$#N0#N0#O0#(;#P0#Q0#::#R0#g|#O0#S0#h$#24#T0#U0#V0#)Z@W0#X0#Y0#Z0#^}#`0#m;  a#rc..a#+a#9^@@a##a#$a#%a#&a#(R sw ;'.<'+/U.{R+22 'r *a#=a#-a#VS Bm@U6.Ii@A$+nJ+",
";a#>a#,a#'a#'a#)a#!a#~a#{a#]a#^a#=1#0)#/a#[.#(a#_a#:a#v:#pU@Z5#31#31#D:#<a#[a#}a#|a#1a#rj+!0#2a#3a#4a#qG@f3#5a#6a#Z7#7a#Yw@{P 8a#Ib@+I@9a#0a#0O@aa#ba#ca#j0#}-#da#ea#ea#j>#fa#ga#ha#ia#>F@ja#W/#ka#16#n0#''#V]#Y]#<'#F{#_6#la#ma#'{#67#na#F{#%!#%!#!!#_|#x0#!!#97#oa#pa#qa#97#qa#oa#ra#sa#('#09#99#s{#ta#v_#~^#,^#[<#s{#O[#*|#^{#2(#9<#ua#va#wa#xa#F{#e'#ya#,!#{'#za#Aa#Ba#Ca#Ca#*5##4#Da#Ea#Ea#Fa#Ga#Ha#e{#['#h!##:#k'#Ia#Ja#Ka#^|#B-#h'#37#@:#J'#u0#La#Ma#Na#Oa#Pa#Qa#Ra#Sa#Ta#Ta#Ua#Va#Wa#Xa#Ya#Za#`a# b#.b#+b#@b##b#$b#%b#&b#*b#=b#-b#;b#>b#,b#'b#)b#!b#~b#{b#]b#^b#/b#(b#I0#bP@)w@)w@H0#}u@_b#:b#<b#[b#}b#c$#|b#1b#J1#kN@14#~q@K1#l|#g$#2b# 3#P0#P0#8$#r8#=)#25#=~#n7#n6#3b#4b#5b#:'@6b#7b#8b#9b#0b#ab#bb#8D S@ cb#db#eb#Vx+fb#gb#hb#SK q[.y/.iP .T PL.qZ 7Y.F%.p|.c=#d>+en / .ib#5n.Bn I|.",
"WX@jb#kb#lb#mb#H7#nb#ob#pb#qb#rb#sb#T6#tb#|`@ub#vb#w:#R}#%P@Z5#u:#Z5#wb#xb#yb#zb#Ab#Bb#'l.Cb#Db#Eb#0a#Fb#Gb#Hb#Ib#Jb#Kb#Xw@9I@GE Lb#Mb#Nb#Ob#=>#Pb#Qb#Rb#Sb#[-#P~#tb#h>#Tb#Ub#>D@=$#v3#Vb#Wb#Xb#A/#Yb#t+#E/#!^#=!#['#'{#7{#za#Da#Zb#`b#H/#U/# c#a/#&!#ma#.c#D'#+c#+c#@c#@c##c#$c#%c#&c#*c#=c#-c#;c#E-#-5#-5#-5#>c#3<#9<#'(#m9#,c#'c#)c#!c#~c#{c#]c#]c#^c#/c#(c#_c#:c#<c#[c#}c#|c#1c#2c#3c#4c#4c#5c#6c#7c#8c#9c#0c#ac#bc#cc#dc#ec#fc#gc#hc#ic#jc#kc#lc#mc#nc#oc#pc#qc#rc#sc#tc#uc#vc#wc#xc#yc#zc#Ac#Bc#Cc#Dc#Ec#Fc#Gc#Hc#Ic#Jc#Kc#Lc#Mc#Nc#Oc#Pc#Qc#Rc#Sc#Tc#Uc#Vc#Wc#Xc#Yc##Z@H0#)w@)w@)w@H0#JD@Zc#`c# d#A9#.d# 3#+d#m7# 3#k(#m7# 3#e6#-)#R`@@d# 3#m7# 3#D^#&)#=)#25#P0# 3#8R@kN@#d#$d#:'@$3#%d#&d#*d#=d#-d#;d#6(@>d#,d#'d#6).)d#!d#~d#{d#<) Zj.Ni E5+}| `U+`/ O, o|.p|.]d#^d#/d#(d#}-.he.$0+e=#",
"V9#_d#:d#3)#<d#H7#nb#[d#}d#|d#1d#A~#j2#u[#t[#2d#R}#c)#|1#21#31#%P@q3#NM@3d#4d#5d#rj+YV =@.S1+6d#(0+7d#8d#9d#0d#ad#bd#cd#dd#ed#b..fd#gd#hd#id#jd#kd#ld#md#nd#i,#CQ@`(#M}#od#+L@:.#>1#;F@pd#qd#rd#sd#08#I_#W5#48#>[#9<#5'##:#P*#~{#6!#J[#%:#*|# (#g0#ya#td#ud#vd#-|#,!#wd#xd#yd#zd#Ad#Bd#0c#Cd#Dd#Ed#Fd#Gd#Gd#Hd#Id#Jd#Kd#Ld#Md#Nd#Od#Pd#Qd#Rd#Sd#Td#Ud#Vd#Wd#Xd#Yd#Zd#`d# e#.e#+e#@e##e#$e#%e#%e#&e#*e#=e#-e#;e#>e#,e#'e#)e#!e#~e#{e#]e#+z.^e#/e#(e#_e#:e#<e#[e#}e#|e#1e#2e#3e#4e#4e#5e#6e#7e#8e#8e#9e#0e#ae#be#ce#de#i7##y@ee#/:#Oz@PB@a6#fN@fe#ge#he#ie#>;#fe#$y@je#ke#Oz@}u@le#|u@bP@bP@bP@:5#me#ne#oe#A9#f|#pe#qe#re#se#[b#A9#te#.d#-}#p8#ue# 3# 3#m6#(;#&)#D^#=)#m6#=~#_u@-w@ve##3#VQ+0`+we#xe#gW+7;#ye#&^.ze#Ae#Be#Ce#De#Ee#Pu Fe#.5 /; Ge#P@ PN $M He#+M %.+Rb E%+Ie#Je##q.L> q[.;'..( X+ ",
"Ke#Le#Me#^+#Me#Ne#Oe#Pe#Qe#Re#Se#1_#/>#i,#u[#q3#Te#:a#Ue#XS@%P@31#Z5#gv@Ve#We#Xe#Ye#Ze#`e# f##b+W9#Ye#.f#0I@vV@+f#@f#9K@#f#$f#%f#&f#*f#=f#-f#;f#WX@>f#,f#'f#~2#j>#12#)f#W(#-J@0W@!f#~f#4(#{f#]f#^f#/f#(f#_f#:f#<f#[f#}f#|f#1f#2f#3f#4f#5f#6f#7f#8f#9f#0f#af#bf#cf#df#ef#ff#gf#hf#if#jf#kf#lf#mf#nf#of#of#of#pf#qf#rf#sf#tf#uf#vf#wf#xf#yf#zf#Af#Bf#Cf#Df#Ef#Ef#Ff#Gf#Gf#Gf#Gf#Hf#If#If#Jf#Kf#Lf#Mf#Lf#Nf#Of#Pf#Qf#Rf#Sf#Tf#Tf#Uf#Vf#Wf#Xf#Yf#Zf#`f# g#.g#+g#@g##g#!w@Rz@a6#Pz@cP@cP@$g#%g#%g#&g#*g#=g#-g#;g#>g#,g#%g#h7#_V@rH@'g#)g#!g#!g#~g#rH@{g#;g#$X@]g#^g#]g#cP@KD@bP@|u@)w@}u@}u@}u@bP@/g#(g#_g# ]#.d#:g#<g#2$#[g#e|#f|#&}#A9#}g#|g#G<#m7# 3#H<#H<#-)#r8#K<#@d#m6# 3#=~#.d#1g#2g#3g#R<#m>@4g#<4+5g#6g#7g#8g#9g#0g#ag#bg#cg#U7@P0 uj I .Iu Ik@UG -a.cn+h@+ym Q(+dg#<)+ih eg#(J jC.o#@R] fg#",
"gg#hg#ig#jg#kg#lg#mg#ng#og#pg#p4#d/#YQ@qg#q[#rg#sg#tg#ug#XS@q[#vg#wg#f}#xg#yg#zg#Ag#Bg#o|@Cg#Dg#jg#Eg#Fg#,U@R #Gg#Hg#Ig#_G@Jg#[;+Kg#y].Lg#Mg#Ng#Og#Pg#Qg#Rg#4{#h<#I*#|>#Sg#Tg#Ug#W]#Vg#Wg#Xg#Yg#Zg#`g# h#.h#+h#@h##h#$h#%h#&h#*h#=h#-h#;h#>h#,h#'h#)h#!h#)h#~h#{h#]h#^h#/h#(h#_h#:h#<h#[h#}h#|h#1h#2h#3h#3h#2h#|h#4h#5h#6h#7h#%g#%g#$g#cN@+Z@9|#Oz@ke#ke#b6#je#0P@gJ@8h#gJ@PB@9h#0h#0h#ah#bh#ch#,g#dh#eh#fh#8h#gh#ch#ch#hh#ih#jh#aP@ih#4R@#}#kh#lh#mh#Rz@gN@fN@ge#4R@}u@|u@<V@_V@_V@rH@KD@jh#nh#9|##g#$y@cP@%X@rH@Qz@oh#cL@Y`@cN@$g#h7#ph#}u@}u@bP@y@#+Z@(b#(b#'w@gN@%X@%X@O.#O.#JD@4R@/:#%y@qh#rh#)s@sh#.d#th#v<#/&#+;#d|#P0#-}#A9#-}#<g#G<#uh# 3#m6#H<#*~#*)#-)#/;#G<#H<#H<#vh#wh#xh#RD@E9#cY+yh#zh#Ah#Bh#Ch#Dh#Eh#Fh#Gh#Hh#Ih#^V j+ {0 8. Ou.e- hf.N7.d@+h@+Jh#;'.NC.d@.Eb 4u.Kh#nP l<+T_.Lh#",
"_d#_d#K7#Mh#Nh#Oh#Ph#Qh#Rh#Sh#wU@Th#Uh#qg#g/#x]#Vh#AY@ZQ@Wh#TS@Xh#T@#Yh#+7#Zh#`h#Cg# i#F$#.i#+i#lg#~*#@i##i#$i#%i#&i#*i#=i#-i#;i#]q+(0+>i#,i#'i#)i#D6#!i#~i#{i#[f#]i#^i#/i#(i#_i#:i#<i#[i#}i#|i#1i#2i#3i#4i#5i#6i#7i#8i#8i#9i#9i#0i#0i#ai#bi#ci#di#di#@g#ei#fi#gi#hi##g#Rz@$y@$y@ii#mh#ji#ki#lh#li#mi#ni#ni#Wf#lh#|s@oi#Vf#pi#ih#$g#qi#8h#9|#ri#je#~w@#~#~w@li#mi#si#Rz@gi#gi#hi#9h#gJ@Rz@Rz@Rz@Rz@Rz@ti#ui#ui#oi#gJ@fe#Rz@Rz@/:#4R@[5#kh#vi#wi#Wf#xi#|s@yi#|s@yi#Wf#|s@/g#:5#Rz@Rz@Rz@#}#zi#Ai#i7#PB@/g#JD@Pz@h7#$g#hh#:5#:5#Oz@fe##g#Bi#%X@~g#:&#rH@^g#Qz@oh#%y@4R@%y@dh#Ci#Ci#N.#a6#ge#%g#a6#Di#wF@r@#14#Ei#Fi#@}#Gi#A9#f|#-}#-}#-}#f|#m7#m6#H<#+d#m6#K<#Hi#(;#(;#e6#l7#H<#Ii#14#Ji#Ki#Li#Mi#Ni#Oi#Pi#Qi#Ri#Si#Ti#Ui#Vi#Wi#Xi#Yi#1) K' BU jV@k!@}| 14 Zi#k,.Gm Cz+`i# j#Mu ]8..j#+j#46.,t+@j#",
"#j#$j#%j#&j#*j#=j#-j#;j#>j#c0#$!#,j#'j#)j#!j#~j#{j#]j#^j#^j#/j#(j#_j#:j#<j#[j#}j#|j#1j#2j#3j#4j#lg#5j#kG@TZ@6j#Lg#7j#8j#>}@^Q@K6+9j#;a#0j#aj#bj#cj#dj#ej#fj#gj#hj#ij#jj#kj#lj#mj#nj#oj#pj#qj#rj#di#sj#@g#Rz@hh#Pz@cP@'w@a6#qh#a6#tj#JD@KD@KD@cP@cP@cP@|u@x1#JD@a6#a6#4R@Pz@hh#gh#Bi#!w@Oz@PB@uj#uj#vj#ji#ji#gJ@gJ@|s@PB@@g#ui##g#Rz@wj#xj#i7#de#yj#zj#Aj#Bj#Aj#mi#Cj#b6#Dj#Ej#Fj#vi#xj#~w@vi#~w@Gj#Hj#Ij#Jj#zj#~w@ke#ke#xj#ki#.Z@Kj#Lj#1s@Mj#Nj#Aj#Oj#Gj#Pj#Lj#Gj#Qj#Rj#Ij#Ij#Ij#Sj#Ij#Gj#Gj#Lj#Sj#1u@ke#Tj#PB@gJ@ni#Uj#vi#vi#~w@~w@li#Ej#Vj#Wj#Xj#Yj#Zj#!g#`j#%g#-g#Yj# k#@g#8h#[5#b6#'w@$g#|s@.k#Gz@d(#+k#%;#se#@k#-}#-}#-}#f|#-}#-}#f|#te#H<#H<#H<#=~#-)##k#=~#+d# 3#fP@H<#$k#:4#2T@%k#&k#ue@*k#=k#-k#;k#>k#,k#'k#)k#!k#~k#n. G> /= Oe v' m<.*Q.Q@ S0+Ou.C +h+ j- f*+w' e@.9J.Q~ T;.ZZ.@F -j.",
"{k#kg#]k#^k#/k#(k#_k#:k#<k#[k#}k#|k#1k#2k#3k#4k#5k#4k#6k#]l+7k#~5+8k#9k#0k#ak#bk#ck#dk#ek#fk# l@gk#gk#hk#ik#jk#JM.kk#lk#mk#nk#ok#PY.pk#qk#rk#sk#tk#uk#vk#wk#xk#yk#zk#Ak#Wj#Bk#Xj#Ck#!w@!w@Y`@Y`@$g#cN@aP@aP@Dk#rH@dh#dh#Pz@Ek#Fk#Gk#Hk#jh#dh#JD@}u@#Z@0|#0|#:&#O.#<V@ k#Ik#Gk#ti#Pz@|u@9|#Oz@ui#oi#li#li#Wf#oi#i7#@)#PB@ch#(V@hh#gJ@Jk#~w@[5#m8#xj##~#xj#Lj#Kk#Ai#Lk#ii#Xf#Mk#Yf#+g#Nk#Ok#Nk#Pk#Qk#Rk#Sk#Tk#Uk#Vk#Vk#Wk#Xk#Xk#Vk#Yk#Zk#`k# l#.l#+l#@l##l##l##l#$l#%l#&l#Rk#Rk##l##l#*l#=l#-l#;l#;l#>l#,l#'l#)l#!l#~l#{l#]l#^l#/l#/l#(l#_l#:l#<l#[l#}l#|l#|l#1l#2l#3l#4l#5l#6l#7l#8l#9l#0l#al#bl#cl#dl#1L@!V@d(#el#fl#f|#-}#-}#}g#A9#-}#}g#oe#H<#H<# 3#H<#D^#D^#fP@+d# 3# 3# 3#f|#oe#gl#hl#il#jl#kl#ll#ml#nl#ol#pl#_d@ql#rl#sl#`G M{ Oe i0.[Q Pu.gs+Ie#.o@tl#UF+ul#w/.P@ W_+vl#ps+1r+xp+Je#VF.'2@",
"wl#Oe#xl#yl#zl#Al#Bl#Cl#Dl#El#Fl#Gl#Hl#al#Il#Jl#Kl#Ll#Ml#Nl#Ol#Ef#Pl#ei#Ql#Rl#Sl#Tl#Ul#Vl#Wl# l@Xl#5)#7d#Yl#,U@Zl#`l# m#.m#+m#WX@tJ.Q=#@m##m#$m#%m#&m#*m#=m#!w@0P@Pz@%y@-m#!g#,g#rH@)w@KD@rH@;m#>m#ci#,m#'m#Dj#ni#Wf#)m#W{#Oj#Nj#qH@gJ@PB@[5#oi#je#je#'w@'w@9h#!m#!m#~m#~m#{m#bi#]m#^m#/m#(m#_m#:m#<m#<m#<m#[m#[m#}m#|m#1m#2m#3m#4m#5m#6m#7m#8m#9m#0m#am#bm#cm#dm#em#fm#gm#hm#hm#im#im#jm#km#lm#mm#nm#om#pm#qm#rm#sm#tm#um#vm#ry.wm#xm#ym#zm#Am#Bm#Cm#Dm#Dm#Em#Fm#Gm#Hm#Im#Jm#Km#Km#Lm#Mm#Nm#Om#Om#Pm#Qm#Rm#Sm#Tm#Um#Vm#Wm#Xm#Ym#Zm#`m# n#.n#+n#@n##n#$n#%n#&n#*n#=n#-n#;n#>n#,n#'n#)n#!n#~n#{n#]n#^n#/n#6|#S`@;~#25#(n#-}#f|#@k#-}#se#}g# 3# 3#m6#m7# 3#r8#z9#%;#G<#s@#H<#fP@H<#_n#8$#:n#<n#[n#}n#|n#1n#2n#3n#4n#5n#6n#;y Z@ [u ( .Gm +M 7n#) .h^.X*+8n#9n#0n#an#1-.Ik@bn#P)+<  Ma+cn#+}.@y.dn#",
"en#_V.fn#gn#hn#in#Il#jn#kn#%X@rH@KD@dh#ln#Bi#:5#Oz@9h#PB@gh#*g#*g#9h#mn##g#nn#on#pn#qn#rn#sn#E~#tn#un#vn#wn#3M@xn#yn#kx.F6#zn#An#Bn#E~#Cn#Dn#En#Fn#Gn#Hn#gi##g##g#ch#In# k#Ck#Jn#Kn#Vj#dh# k#Ln#Nf#Mn#-l#-l#Lf#Nn#On#Pn#Qn#Rn#Sn#Tn#Un#+l#Vn#[h#If#,l#Wn#Xn#Yn#Zn#`n# o#.o#+o#@o##o#$o#%o#&o#*o#=o#-o#;o#>o#,o#'o#)o#!o#~o#{o#]o#^o#/o#(o#_o#:o#<o#[o#}o#|o#1o#2o#3o#4o#5o#6o#7o#8o#9o#0o#ao#bo#co#do#eo#fo#go#ho#io#jo#ko#lo#U'#mo#no#oo#po#qo#ro#so#to#uo#vo#wo#xo#yo#zo#Ao#Bo#Bo#Co#Do#Eo#Fo#Go#Ho#Io#Jo#Ko#Lo#Mo#No#Oo#Po#Qo#Ro#So#To#Uo#Vo#Wo#Xo#Yo#Zo#`o# p#53#.p#A5#+p#@p##p#$p#%p#&p#*p#=p#-p#;p#>p#<N@o|#D^#,p#v<#'p#)p#!p#~p#{p#-}#m6#m7#te#fP@*~# 3# 3#G<#`'#W!#6$#6$#]p#2T@^p#/p#(p#_p#:p#<p#[p#}p#|p#1p#!f@2p#G' m*.nP &`.Hm IU.$=+PC.xQ+3p#4p#5p#vr.jp }3 7#+n,.8W 6p#$8@jl.Q0.f: ",
"7p#8p#9p#0p#ap#Vj#bp#{m#-g#%X@jh#aP@aP@cp#h7#cp#$g#cN@#Z@cP@Vj#dp#*g#dp#*g#{m#ep#fp#gp#hp#ip#jp#kp#lp#2%#mp#np#op#pp#qp#rp#sp#tp#up#vp#9a#^c.wp#xp#yp#zp#Ap#zf#Bp#Cp#Dp#Ep#Ep#Fp#Gp#Hp#Ip#Jp#Kp#Lp#Mp#Np#Op#Pp#Qp#Rp#Sp#Tp#Up#@e#Vp#Wp#Xp#Yp#Zp#`p# q#.q#+q#@q##q#$q#%q#&q#*q#=q#-q#;q#>q#,q#'q#)q#!q#~q#xd#{q#]q#/9#^q#/q#'q#(q#_q#:q#<q#[q#}q#|q#1q#2q#{i#3q#4q#5q#6q#4Z@7q#8q#9q#0q#aq#bq#/$#cq#H'#dq#H-#eq#fq#gq#+&#h{#hq#iq#iq#j1#29#jq#kq#kq#D2#lq#mq#nq#z[#89#oq#~{#-^#$!#pq#x`@qq#9^#yY@rq#xS@sq#)[#tq#uq#vq#wq#xq#H4#yq#zq#Aq#Bq#c)#Cq#Dq#Eq#tq#a3#Fq##p#tq#Gq#Hq#Iq#Jq#Kq#Lq#Mq#&P@Nq#,[#-c#Oq#Pq#Qq# ;#Rq#Sq#f|#,p#z<#Tq#Uq#Vq#Gi#W!#H<#}g#l7#m6# 3#l7#Wq#I.#`'#I.#@}#X!#/=#@3#Xq#Yq#Zq#`q# r#.r#+r#@r##r#$r#,M r. Gm Nk %r#$0 ;C@e:@fq nf o*.#w.$T.&r#=b.a^@qx.i0.`U+i.@wU Eb Z{.*r#",
"=r#-r#;r#>r#,r#Ck#'r#~m#zk#Xj#Xj#Xj#-m#)r#!r#~r#{r#]r#^r#/r#3m#(r#_r#:r#<r#El#lj#[r#}r#|r#1r#2r#{_#3r#4r#!I@tn#0Z@6j#$i#5r#6r#7r#An#Kg#8r#9r#0r#ar#br#cr#dr#er#fr#gr#hr#ir#jr#kr#Kd#lr#po#{j#mr#nr#or#pr#qr#rr#sr#tr#ur#vr#wr#xr#yr#zr#Ar#Br#Cr#2q#Dr#x2#Er#Fr#Gr#0>#Hr#:<#|-#$U@,$#T/#Ir#3-#Jr#Kr#Jr#Eq#i)#Lr#Mr#tq#b'#d/#q[#t[#v[#Nr#,[#x)#0[#1_#c}#_<#Or#`}#28#<<#K/#'5#`}#<a#ZQ@pU@<a#w_#g<#Q_#Pr#Qr#z[#t2#Rr#5>#Sr#Tr#E{#Ur#Vr#Wr#y[#:|#Xr#3!#5{#e<#Yr#z]#g/#3{#_<#28#d}#Ir#Zr#`r# s#.s#+s#@s#:7#e}#:a#XS@#s#g<#$s#m3#YQ@:a#%s#OM@&s#h)#vb#*s#`(#z]#YQ@)[#=s#x)#-s#p)#;s#;s#>s#_[#K:#,s#Y8#>s#Q6#'s#)s#!s#~s#{s#]s#^s#|g#5$#D<#/&#g@#%;#Wq#fP@e|#r@#fP@l7#/s#/s#s@#+;#O{# ~#O{#t@#(s#_s#:s#<s#[s#}s#|s#1s#2s#}p#3s#G$+I! ().(K.-J.&L.B3.4s#y3.el.qp+0K wI.5s#{r.w6+6s#Fk y/.7s#d%@}r+9~.< .",
"8s#9s#0s#as#(r#bs#cs#ds#es#fs#gs#hs#is#js#ks#ls#ms#ns#os#ps#qs#rs#ss#ts#us#vs#ws#xs#ys#zs#As#Bs#Cs#Ds#Es#U;#Fs#Gs#@-#q}#r&#Hs#Is#Js#Eb#Yy@Ks#Ls#Ms#~i#Ns#x!#/$#Os#Ps#Qs#r{#z!#8'#Rs#XQ@'$#@s#~2#Ss#Ts#sa#3<#-^#Us##^#,^#4'#Vs#Ws#Xs#Rr#Ys#Zs#`s# t#oa#(6#.t#@^##0#nU@4Y@g>#BS@K5#s:#o.#1(#E{#e}#u[#43#8[#L/#c'# ^#+t#V/#J/#m_#!<#2{#M/#@t##t#Hr#Q/#u_#o.#$t#%t#67#H/#&t#a8#-^#*t#xb#:7#<<# (#~(#'5#=t#Vr#s{#+t#-t#!'#9<#6^#1(#;t#=4#x`@d<#=4#rq#V/#l0#'(#6^#6!#V/#/{#>t#pq#,t#.(#pq#W5#'t#*|##(#)t#]{#0>#d}#[-#!t#<6#y0#$U@2(#`/#N3#G4#d)#Ue# _#)_#RI@C:#~t#;7#xb#{t#]t#pU@WS@'[#^t#/t#`Q@x[#Uh#e)#(t#_t##t#:t#<t#[t#}t#|t#1t#>V@kH@'u@2t#)T@Wq#H<#_n#+d# 3#fP@%)#/s#Wq#+;#X!#g@#N{#`!#34#3t#4t#5t#6t#7t#8t#9t#0t#at#bt#G$+G8#12 N..Ne .M *$+t$+#}.sB oN.%Q.f@+I%+)}+hs Zx ct#}| 8>.dt#et#>z.ft#",
"gt#ht#it#jt#kt#lt#mt#nt#ot#pt#qt#rt#st#tt#ut#vt#wt#xt#yt#zt##5#At#Bt#Ct#Dt#>$#Et#8>#N/#~{#G_#Q]#Ft#Gt#%9#Ht#It#Gs#;>#vn#Jt#Kt#Lt#Mt#6/#Nt#Ot#Pt#Qt#Rt#St#B:#DW@V|#(B@H5#Ir#$U@Tt#6(#28#hW@q[#F/#Ut# 7#g0#:!#=^#B[#rU@Vt#o.#|-#'[#g/#T|#Wt#Xt#a8#Yt#Zt#la#jq#[_#$_#vK@(-#UI@6Y@`t# u#.u#+u##(#Q%#kW@v]#:|#4>#2!#<>#|8#i^#p_#@u#tU@rU@`4##u#$s#3{#Ir#<6#Tg#$u#%u#rd#&u#*u#=u#a<#d}#;7#r4#B_#[6#N[#;$#;$#-u#;u#>u#<6#4>#K/#,u#'u#)u#!u#!u#~u#h9#{u#18#3^#]u#^u#/^#<'#H{#/u#l9#^|#m^#|(#(u#_u#~u#:u#K/#~^#5{#2!#U%#G[#%:#D[#d<#y_#Zr#w_#w_#e/#j]#P}#<u#[u#}u#(>#T|#s{#L*#|u#1u#2u#N:#41#hW@3u#7*#oU@%P@yq#4u#5u#43#(!#6u#7u#8u#9u#0u##w@MB@/s@`!#Gi#|g#g6#d|#g6#m7#r@#/s#+;#/&#)&#O{#au#g@#8R@bu#cu#du#eu#fu#gu#hu#wP iu#ju#K^ =-+i@+g@+p*.Ou.TI+b^+j~ d>.b* bn#0f.ku#lu#fs mu#nu#ou#Wg.#d@;C@t9.Uf.",
"pu#qu#ru#su#=c#!+#tu#uu#vu#oa#wu#j<#Zt#8{#%^#,'#5!#T_##t#xu#yu#zu#Au#Bu#Cu#AY@^[#a3#}_#Du#8@#U[#Eu#Fu#Gu#Hu#Iu#Ju#Ku#Lu#Mu#Nu#Ou#Pu#Qu#Ru#Su#Tu#Uu#Vu#Wu#@s#DW@[_#w)#}_#*1#A~#)2#D/#(7#(7#4>#(7#M/#k_#T]#`/#`/#6(#Vt#(7#~<#%U@W:#m[#kW@I*#Xu#27#57#G!#Ss#g<#q~#ub#o~#tb#2`@<-#Z}#V[#63#t+#6(#Z4#n2#B_#wU@Y}#M/#''#m_#!<#B_#@<#Z4#<6#6(#<6#Yu#a<#K/#N[#b>#Sg#Zu#`u# v##:#k^#{^#5>#93#[-#4>#~^#.v#e<#h<#`4#`4#h<#+v#K/#v_#8@#-4#Ia#@v#Zu#*(#:u#6<#yS@8^#/^#k'#/^#:^#:^#7!#m9#<'#i'##v#$v#%v#&v#m.#x`@i^#<>#<>#y0#%:#*v#=v#)5#:6#u_#N/#xb#-v#|_#y]#t:#0)#;v#W}#'[#;4#>v#U@#0>#,v# ^#}_#Gr#b3#w]#%P@o3#'v#)v#;_#H5#1_#e}#!v#~v#{v#]v#.w@Lz@(5#^v#/v#BB@-}#}g#el#h6#5$#s@#P{#+;#v<# ~#v<#(v#+;#_v#:v#<v#[v#}v#|v#P^ ,-+1v#2v#3v# h /u 8W 1-.9J.D_@]p d) h+ Eq ZS k: G-+7F@4v#&F LR.-6 / .5v##'.`R 6v#",
"7v#8v#9v#,^#=^#0v#av#00#:<#:<#bv#+(#-^#V/#cv#dv#ev#fv#gv#Fq#hv#iv#jv#fv#kv#ev#CS@lv#}_#f<#<>#v_#&!#mv#nv#ov#pv#qv#rv#sv#tv#uv#vv#wv#xv#yv#zv#Av#Bv#pd#Cv#Dv#Xs#@^##^#Ev#*^#Fv#|8#v_#r_#<>#s{#{(#0<#9@#Z_#<>#~^#,$#$U@28#|-#%U@W:#Y}#i<#[6#(^#^|#{6#{6#(|#Q_#!5#+L@}`@MU@KM@ea#m[#T|#`t#o.#Vt#m[#m[#W}#M}#F}#m[#)<#Z4#C_#T|#Z}#Z4#U%#h<#w`@Yu#;t#s{#a'#Gv#Hv#Zu#Iv#$v#0{#k'#8'#a<#h<#TS@z[#E{#6^#Jv#Wr#'t#1{#Wr#Kv#x`@s{#1(#o<#Lv#%u#Mv#6<#=t#G[#c^#c!#/^#/^#a!#/W@/W@w{#7!#(|#b!#47#t0#%v#%v#Lv#a'#*|#-t#{^#18#Nv#Ov#%t#8<#8'#j^#8@#O_#rq#Rr#3{#b3#C:#C:#`5#H4#TS@Pv#Pv#V/#.^#+t#5!#T_#sq#Qv#I4#f}#v~#Rv#q)#Sv#~[#1/#@t#Tv#Uv#Vv#Wv#Cz@Xv#Yv#Zv#;,#/&#5$#.d#;~#B9#z^#W!#g@#2$#`v# d# w#.w#Yv@+w#@w##w#$w#%w#v- u) .4@ds PH@ie.pN.[R /).td pO+]p F%.!n._< &w#a[ 9E+*w#=w#x: oZ po ]b {$.-w#.j#U$+",
";w#>w#,w#'w#)w#z}#Y/#!w#E_#w[#~w#T]#|8#58#{w#]w#^w#0@#/w#(w#_w#:w#<w#[w#Ev#ev#}w#|w#0[#{<#f<#_<#_<#}<#1w#2w#3w#4w#5w#3r#6w#7w#8w#9w#0w#aw#bw#cw#dw#ew#fw#0>#Xs#@^#7>#gw#P/#hw#u_#D/#L/#K/#Or#q_#,$#iw#p<#v_#v_#$|#jw#g/#|-#%U@%U@T|#i<#'t#'u#_'#f9#f9#@(#TS@tb#M}#nU@kw#lw#Z}#m[#4>#i,#A_#F/#K5#$|#T6#h>#F}#mw#73#F[#kW@T|#~2#<6#63#h<#e<#Yu#4!#89#nw#|>#ow#%u#*v#t0#5<#k'#k'#67#pw#`t#'5#P_#%(#G[#G[#G[#G[#EO@Ia#G[#-t#P_#7'#j'#^u#Nv#(^#Lv#yQ@qw#/^#k'#k'#9{#k9#c1#|^#('#(|#m9#_'#rw#&v#*v#*(#(^#nw#%(#8'#i'#sw#-4#v{#nq#&(#18#V5#E{#Tr#D4#)t#Gr#/>#%U@31#v:#i,#Y}#tw#6^#6!#b}#4!#4{#uw#+U@vw#ww#h}#Cq#(B@xw#yw#zw#3u#V7#58#Aw#Bw#Cw#Dw#Ew#Uq#2|#$u@M2#Fw#}g#Gw#:4#Gi#Hw#Iw#/&#Jw#Kw#Lw#Mw#Nw#Ow#Pw#Qw#Rw#L@ Sw#h| :R +8 VN `D.Q!.mF.p' M!.-|._p C- SF+ZU+]u hV@{; Tw#GJ@%0 |o.yF p[.#'.kB+Uw#",
"Vw#Ww#Xw#Yw#Zw#`w# x#.x#+x#m0#@x#m0#l_#<>#w_##x#s4#$x#CS@%x#Fv#&x#1u#Th#3-#*x#Vh#WS@'[#[_#g<#68#5>#63#q4#B]#=x#-x#;x#>x#,x#'x#)x#!x#~x#{x#]x#V_#Y}#[-#~t#m3#[_#jw#c'#r_#,$#m2#_<#kW@77#(>#%U@wU@%U@BS@l2#!^#ta#9[#qg#d/#x]#[-#%U@T|#i<#ow#G[#{^#%(#!'#s{#`t#O7#0)# 6#W:#p[#:|#$U@$U@`5#v[#|-#b3#DW@:|#V[#b<#4>#<6#i<#h<#93#c<#U%#63#63#h<#Ur#8@#U/#P_#G[#^x#$(#*v#t0#&:#0{#08#/x#%|#63#y0#}8#c^#E[#E[#t`@v{#(x#ow#18#{^#k'#l'#h!#w{#l9#g!#o'#]u#lq#3^#k'#0{#_x#N!#cq#sa#('#H'#('#h!#:x#<x#[x#Xu#<x#n.#%(#k'#a!#~'#V5#1!#U%#a>#4>#4>#r_#qU@Du#}x#]{#g/#g/#rg#|x#j2#W:#C:#L/#r_#A~#3-#Th#1x#X|#2x#3x#s4#b}#4x#5x#x]#5u#q~#OM@h>#}9#6x#7x#8x#9x#0x#ax#bx#$;#`v#cx#dx#ex#se#se#Tq#'p#fx#gx#Ew#s@#hx#ix#jx#kx#lx#mA kP N{ 5. G> ;4+*M 5u.8>+)Q 6+.t$+'r x8 3&.vc.mx#,0 Xi#nx#bH Zc ox#px#&A F +1P+(A+",
"qx#rx#sx#tx#ux#vx#wx#xx#yx#X #zx#<_#B[#!<#9[#f}#Ax#g<#F/#s:#u_#t_#{<#V|#e/#Bx#Cx#[-#hW@Cq#8[#68#,'#rU@19#Dx#Ex#Fx#Gx#Hx#Ix#Jx#Kx#Lx#Mx#Nx#Ox#Px#Fv#Qx#A~#v[#w]#1_#Rx#W_#<6#(7#Sx#m[#!f#l[#M}#L}#fW@K3#W}#m2#y}#Tx#%P@x]#MM@qg#S/#T|#h<#-4#Ux#1<#Zr#E/#q_#kW@(7#AS@wU@z_#~<#~2#0^#q_#Uh#WS@Q6#Vh#$s#,$#6(#U_#4>#q_#}6#[6#e<#z[#2!#Vx#h<#i<#Qr#<>#Z_#3^#Wx#Xx#o<#J_#4(#Yx#&v#[x#Zx#ow#$t#)5#%t#nw#Xu#*(#m.#t0#A-#%v#i9#d!#Ka#`x#9{#w{#G!# y#.y#+y#@y#0{#d9#l'#S[#]|#@(#q_#1(#|^#9!#P*#q'#i'#5<#Xu#c{#0{#^6#J_#k'#h0#3<#@(#K/#x`@T|#[-#g/#qg#D4#_{#3-#pU@v[#%P@,4#oU@PM@#y#n[#~<#=1#<a#w)#Ws#$y#%y#&y#t2#`]#2<#[<#Uh#(B@h)#l~#*y#H3##0#<!#=y#-y#;y#>y#,y#9k@76#'y#)y#!y#g|#~y#{y#{y#Kw#1t#]y#^y#/y#(y#_y#:y#<y#[y#Hk BA.N%./ .@T ~|.nz.j[.Xx+M!.7,#8{.@t P( bf.:8 )8 }y#oA 2w@0K IJ@L' K) 3W e*@|y#",
"1y#2y#3y#4y#5y#6y#7y#8y#9y#0y#ay#by#cy#dy#ey#fy#gy#hy#iy#jy#i^#V/#Dv#L/#&!#ky#Th#ly#my#5x#`t#%!#ny#1<#e8#5'#oy#py#qy#ry#sy#ty#uy#vy#sw#wy#xy#yy#ea#zy#g/#n[#Ay#7>#c}#*{#By#}!#b1#Cy#.x#Dy#B/#A_#Ey#k3#~w#Fy#21#hW@9[#+^#t_#d}#Gy#Hy#59#Ov#8'#Iy#Jy#Ky#n[#Ly#My#,{#Ny#Oy#Py#Qy#Ry#Sy#7>#g/#,[#Vh#g<#L/#rU@,$#TS@5>#0<#H[#U%#2<#Ty#US@`4#<6#;t#~^#Z_#k'#/x#/|#6'#i'#E!#Uy#Vy#$v#Zx#$(#$(#yQ@'u#G[#$v#%v#Wy#rw#t0#&v#i9#d!#Xy#3(#8'#w{#G!#Yy#Zy#`y# z#/u#.z#+z#@z#m<#1(#_<#<>#C!#~6#P*#4Z@#:#sw#(u##z#'u#l9#4(#i9#8@#6>#:{#K/#0^#:|#/>#/>#/>#}_#*^#{<#DW@T}#s[#M}#4Y@PM@$z#7Y@u[#s[#u:#b3#3!#X:#%z#&z#)t#`]#:{#58#d/#pU@~[#T8#*y#H3#*z#=z#%t#-z#;z#>z#,z#'z#Ux@)z#!z#~z#{z#]z#^z#/z#(z#2|#_z#]y#:z#ek+<z#[z#}z#|z#.^.1z#Ef+WC.I8 45.2z#j[.3z# e+Un+o|.)% O!._b %M 4z#5z#T7@6z#Jh#|r+f@.#d@GK.kV@OU.",
"7z#8z#9z#0z#az#bz#cz#dz#ez#fz#gz#hz#iz#jz#kz#lz#mz#nz#oz#pz#U/#qz#rz#sz#tz#uz#vz#wz#xz#yz#zz#Az#Bz#Cz#Dz#Ez#Fz#Gz#Hz#Iz#Jz#Kz#Lz#Mz#Nz#Oz#Pz#Qz#Rz#Sz#Tz#Uz#Vz#Wz#Xz#Yz#Zz#`z# A#.A#+A#@A##A#$A#%A#&A#*A#=A#-A#;A#>A#,A#'A#)A#!A#~A#{A#]A#^A#/A#(A#_A#V]#:A#<A#[A#}A#|A#1A#2A#3A#4A#5A#Y_#Zr#2-#x_#4>#$U@93#c<#r_#U5#C[#6(#2<#6A#A[#A[#<6#~^#~^#Z_#o<#U[#d<#3^#6{#=u#Yx#7A#$v#$v#$(#$(#m.#(^#a'#%v#&v#<x#8A#rw#*(#0{#:'#I'#9A#$(#a!#D2#0A#0A#aA#l1#l1#_'#.z#@z#bA#{^#3>#s{#xS@w{#:^#/'#cA#8'#G{#dA#&(#i'#:u#:u#2>#~^#p<#3>#U_#i,#[-#[-#/>#{<#|_#qg#pU@22#31#eA#[u#.6#+P@e~#hW@l3#31#b3#W|#1_#X:#Gr#3d#t2#fA#Ir#w_##x#Eq#WS@tb#a^#gA#hA#OK@(7#iA#jA#kA#lA#~;#mA#nA#oA#se#pA#qA#2|#rA#sA#tA#uA#vA#wA#xA#yA#zA#)t.Xp.hR.AA#3~.el.G).gR.x}+wd 1_.Ew+o|.e*+ym cl.~4+Eo.BA#N! ;d Zi#iT.R~ CA#xR@CN@_R+",
"DA#EA#FA#GA#HA#IA#JA#KA#|A#LA#MA#Nx#NA#OA#PA#QA#RA#SA#TA#UA#VA#WA#XA#YA#ZA#`A# B#.B#+B#@B##B#$B#%B#&B#*B#=B#-B#;B#>B#,B#'B#)B#!B#~B#{B#]B#^B#/B#(B#_B#:B#<B#[B#}B#|B#1B#2B#3B#4B#5B#6B#7B#8B#9B#0B#aB#bB#cB#dB#eB#6B#fB#gB#hB#iB#jB#kB#lB#mB#nB#By#oB#pB#qB#rB#sB#!B#tB#uB#vB#wB#xB#yB#8@#r_#r_#n^#$|#%U@i,#TS@v_#Xx#{^#<>#_|#6>#)2#K/#68#i^#~^#i^#zB#AB#}8#7'#0{#o<#Xu#&v# v#&v#(^#%:#t0#Xu#)5#&v#%v#r0#5(#<x#7'#:'#.(#dq#e!#)u#i'#w{#{6#{6#8{#w{#H>#{6#BB#l{#CB#%(#nq#z[#`]#(|#(|#<!#&t#yS@G{#DB#^x#Nv#i9#:u#@(#~^#s:#(7#$U@Y}#/>#/>#/>#d/#:<#w]#pU@22#w]#r4#EB#TI@FB#GB#0)#l~#T8#WS@z]#e}#{<#}_#}_#Hr#HB#e/#e/#*1#CS@1_#IB#0)#JB#KB#LB#b]#y[#MB#NB#OB#PB#d7#QB#RB##u@SB#TB#[$#UB#9k@VB#WB#XB#YB#pa@ZB#`B# C#H0 .C#8w.vd H).o$+@}.8; nf 5~.t/._p o*.K' m* S..+C#wF p/ f. Ui K' ]& _3.^R 1P+eh.",
"@C##C#$C#%C#&C#*C#=C#-C#;C#>C#,C#0v#'C#)C#!C#~C#{C#]C#^C#/C#(C#_C#:C#wz#<C#[C#}C#|C#1C#8}#2C#3C#4C#5C#6C#7C#8C#9C#0C#aC#bC#^C#2B#cC#dC#eC#7C#fC#gC#hC#iC#jC#kC#lC#mC#^C#nC#oC#dC#pC#qC#rC#sz#sC#tC#tz#uC#vC#wC#xC#yC#zC#AC#BC#~<#q_#Z]#CC#DC#EC#FC#GC#HC#IC#3B#JC#KC#LC#MC#NC#OC#mz#PC#:{#,$#~^#9[#/>#[-#qg#c<#v_#:6#67#s{#$!#`s#<>#2>#~^#l_#j^#1(#QC#7'#{^#6'#sw#H/#%u#*v#RC#t0#(^#$(#i9#G{#$t#%:#%u#*v#*v#rw#I_#~'#SC#*4#o'#r0#TC#7!#27#m9#p{#&4#G!##4#UC#VC#`y#/^#a'#M/#WC#1>#67#XC#Wx#8'#(^#G{#YC#$t#rd#Xu#}>#s{#r:#B_#U_#Z}#%U@/>#%U@hW@43#w]#pU@T}#t:#f~#EB#ZC#p2#,<#Sx#h)##0#50#[-#/>#[_#m3#w)#N3#Vs#`C#$x#|w# D#,v#b3#XS@.D#+D#@D#k~##D#g/#$D#%D#&D#*D#=D#X'#-D#;D#>D#,D#'D#)D#!D#~D#I.#{D#]D#3H@^D#/D#!M.fz.&B.IC.Lg+o$+(D#s$+3z# `.!B.p1._D#oT >}+:D#Y!.2= @w.MV.l,.]b ,Q `U+b^@*L.(` ",
"<D#[D#}D#|D#X]#1D#2D#3D#4D#5D#6D#W:#(<#7D#{w#8D#9D#0D#|_#+^#Or#58#w_#{<#*:#&1#aD#bD#{w#|-#v_#'2##^#cD#dD#eD#yx#fD#19#gD#hD#R/#ua#bv#iD#jD#kD#J~#s_#lD#mD# 7#1_#>^#2-#nD#oD#6(#G_#C/#pD#m2#Zr#>^#U]#<<#v_#pD#Ys#r:#qD#4'#%!#3'#a9#99#~(#29#rD#@t#M/#sD#q_#r_#r_#4>#|8#!^#*t#4'#+(#tD#1<#,$#h<#0^#%U@T|#;7#SS@S/#[>#J[#C[#c^#W5#29#,$#U%#<6#uD#[x#|>#vD#7'#<'#h0#U/#<6#|>#*(#(u#]u#k'#j'#(^#y0#$U@r_#v_#sw#I_#%v#l^#g'#n<#M_#|(#wD#a{#k^#xD#7!#Tr#oq#/'#]|#^|#|(#yD#/^#/^#68#,'#~^#iw##u#zD#AD#V[#V[#b<#H[#Zu#Sg#@|#!<#Z}#B_#rU@n2#V[#T|#V[#u[#|1#%P@z]#11#!5#BD#b[#CD#~D@6-#a[#r[#%P@vg#/>#%U@wU@t:#~<#w_#x_#3-#3!#}_#$y#DD#ED#ev#v,#@^#=1#FD#GD#HD#ID#JD#KD#LD#MD#)=#ND#OD#SB#PD#QD#RD#SD#TD#UD#VD#WD#XD#YD# C#ZD#!M.!M.vd t|.H).nf wd wd `D#8{.6u.nr. E#-A@.E#+E#~0 @E#p. ().B6 pl N7.,P.*L.(` "};
