/* XPM */
static char * door2_xpm[] = {
"100 100 362 2",
"  	c #FFFFFF",
". 	c #CBF2C0",
"+ 	c #F4F4F4",
"@ 	c #E9E9E9",
"# 	c #DFDEDE",
"$ 	c #87BD76",
"% 	c #58A832",
"& 	c #72A064",
"* 	c #AEAEAE",
"= 	c #999999",
"- 	c #9E9D9D",
"; 	c #8E8E8E",
"> 	c #807F7F",
", 	c #7C7C7C",
"' 	c #8A8A8A",
") 	c #C6C6C6",
"! 	c #E1E1E1",
"~ 	c #D7D7D7",
"{ 	c #BDBDBD",
"] 	c #777676",
"^ 	c #636363",
"/ 	c #5B5B5B",
"( 	c #335227",
"_ 	c #224013",
": 	c #29411F",
"< 	c #494848",
"[ 	c #353434",
"} 	c #262525",
"| 	c #232122",
"1 	c #1A1818",
"2 	c #656464",
"3 	c #6D6C6C",
"4 	c #ABABAB",
"5 	c #979797",
"6 	c #7E7D7D",
"7 	c #373636",
"8 	c #282627",
"9 	c #1D1B1C",
"0 	c #454445",
"a 	c #323131",
"b 	c #0D0809",
"c 	c #474646",
"d 	c #B3B3B3",
"e 	c #BCBBBB",
"f 	c #454444",
"g 	c #222020",
"h 	c #1C1A1A",
"i 	c #4B4A4B",
"j 	c #5A5A5A",
"k 	c #616161",
"l 	c #6C6C6C",
"m 	c #787878",
"n 	c #858585",
"o 	c #757575",
"p 	c #919090",
"q 	c #9D9D9D",
"r 	c #7F7F7F",
"s 	c #6F6F6F",
"t 	c #5C5C5C",
"u 	c #4C4C4C",
"v 	c #363435",
"w 	c #171314",
"x 	c #797979",
"y 	c #848484",
"z 	c #120F0F",
"A 	c #525351",
"B 	c #696969",
"C 	c #BBBBBB",
"D 	c #C4C4C4",
"E 	c #7D7C7C",
"F 	c #605F5F",
"G 	c #484747",
"H 	c #A6A5A5",
"I 	c #8B8B8B",
"J 	c #383737",
"K 	c #3D3C3C",
"L 	c #2E2D2D",
"M 	c #393838",
"N 	c #3F3E3E",
"O 	c #727171",
"P 	c #9C9B9C",
"Q 	c #A5A5A5",
"R 	c #3C3B3B",
"S 	c #737373",
"T 	c #555454",
"U 	c #302F2F",
"V 	c #818181",
"W 	c #ACACAC",
"X 	c #B0B0B0",
"Y 	c #898989",
"Z 	c #898889",
"` 	c #646363",
" .	c #201E1F",
"..	c #7E7E7E",
"+.	c #4E4E4E",
"@.	c #2C2B2B",
"#.	c #6A696A",
"$.	c #838282",
"%.	c #403F3F",
"&.	c #908F8F",
"*.	c #959595",
"=.	c #CBCBCB",
"-.	c #B5B5B5",
";.	c #424141",
">.	c #5F5E5E",
",.	c #C3C2C2",
"'.	c #A6A6A6",
").	c #161313",
"!.	c #606060",
"~.	c #504F4F",
"{.	c #888888",
"].	c #969696",
"^.	c #414041",
"/.	c #5D5C5D",
"(.	c #787777",
"_.	c #535252",
":.	c #646464",
"<.	c #323030",
"[.	c #E7F9E3",
"}.	c #343333",
"|.	c #515050",
"1.	c #6E6D6D",
"2.	c #A9EB94",
"3.	c #10110B",
"4.	c #93E875",
"5.	c #BBEFAC",
"6.	c #2A2929",
"7.	c #464646",
"8.	c #CBF2C1",
"9.	c #84E55B",
"0.	c #262424",
"a.	c #BBEFAD",
"b.	c #7EE552",
"c.	c #7BE44A",
"d.	c #585858",
"e.	c #F6FDF4",
"f.	c #A9EB95",
"g.	c #80E555",
"h.	c #82E558",
"i.	c #B5EEA5",
"j.	c #9DE984",
"k.	c #98E87C",
"l.	c #DFF7DA",
"m.	c #92E874",
"n.	c #EEFAEB",
"o.	c #A2EA8B",
"p.	c #8FE76E",
"q.	c #E5F8E1",
"r.	c #7D7D7D",
"s.	c #8F8F8F",
"t.	c #C1F0B4",
"u.	c #88E663",
"v.	c #7CE44C",
"w.	c #89E665",
"x.	c #87E661",
"y.	c #7AE448",
"z.	c #79E446",
"A.	c #C3F0B7",
"B.	c #D1CEB5",
"C.	c #E1D99F",
"D.	c #E6DD97",
"E.	c #E8DE95",
"F.	c #EBE08E",
"G.	c #E8DE94",
"H.	c #E0D8A1",
"I.	c #9EE985",
"J.	c #D7DCD5",
"K.	c #575757",
"L.	c #444343",
"M.	c #C9C7BF",
"N.	c #E7DD96",
"O.	c #F2E67F",
"P.	c #F3E77C",
"Q.	c #F3E77D",
"R.	c #F4E77C",
"S.	c #F4E77B",
"T.	c #EEE388",
"U.	c #D9D3AB",
"V.	c #89E664",
"W.	c #CFDACD",
"X.	c #434242",
"Y.	c #3A3939",
"Z.	c #727272",
"`.	c #D8D3AC",
" +	c #F2E580",
".+	c #D7CB6C",
"++	c #EEE289",
"@+	c #DBD4A9",
"#+	c #C4F1B8",
"$+	c #B3EDA2",
"%+	c #BCD6B6",
"&+	c #706F6F",
"*+	c #E5DC99",
"=+	c #C2B861",
"-+	c #CDC267",
";+	c #D6CB6D",
">+	c #A7EB92",
",+	c #7DE44E",
"'+	c #B1D3A8",
")+	c #CBC065",
"!+	c #CAC066",
"~+	c #E9DD75",
"{+	c #ABA255",
"]+	c #EDE28B",
"^+	c #C9C8BE",
"/+	c #7FE553",
"(+	c #C5F1B9",
"_+	c #D8F5D1",
":+	c #9BCF8D",
"<+	c #E9DF92",
"[+	c #E6DA74",
"}+	c #F1E582",
"|+	c #EFE386",
"1+	c #D5D0B1",
"2+	c #9EE986",
"3+	c #F3E67D",
"4+	c #E8DD76",
"5+	c #DDD6A5",
"6+	c #838383",
"7+	c #E4F8DF",
"8+	c #F1E581",
"9+	c #BDB35E",
"0+	c #96E87A",
"a+	c #B7D4B0",
"b+	c #F0E484",
"c+	c #F3E67E",
"d+	c #DCD170",
"e+	c #C3B861",
"f+	c #B4AA59",
"g+	c #C9D9C5",
"h+	c #E3DB9C",
"i+	c #A79E54",
"j+	c #BEB360",
"k+	c #EFE387",
"l+	c #C0C0C0",
"m+	c #DED7A5",
"n+	c #F0E485",
"o+	c #CECBB9",
"p+	c #D2CEB4",
"q+	c #CDCDCD",
"r+	c #1C1C1D",
"s+	c #30393C",
"t+	c #4A666D",
"u+	c #334C51",
"v+	c #293C41",
"w+	c #2C3B3E",
"x+	c #33383A",
"y+	c #202324",
"z+	c #4A6A72",
"A+	c #83CFE1",
"B+	c #69BACA",
"C+	c #5BA3B1",
"D+	c #5796A2",
"E+	c #5D767D",
"F+	c #363637",
"G+	c #1F2325",
"H+	c #32383A",
"I+	c #343839",
"J+	c #353738",
"K+	c #4F686E",
"L+	c #90D8E8",
"M+	c #82DBEE",
"N+	c #7CDDF0",
"O+	c #81DCEE",
"P+	c #A5D1DC",
"Q+	c #757A7B",
"R+	c #516B71",
"S+	c #3E646D",
"T+	c #365C64",
"U+	c #274249",
"V+	c #243D43",
"W+	c #2E4D54",
"X+	c #253D43",
"Y+	c #263D42",
"Z+	c #1E2426",
"`+	c #5E6263",
" @	c #B9C9CD",
".@	c #A3D1DD",
"+@	c #9CD4E1",
"@@	c #9FD3DF",
"#@	c #B5CBD0",
"$@	c #BEC7C9",
"%@	c #A1D2DE",
"&@	c #89D9EB",
"*@	c #6DC2D4",
"=@	c #5EABBB",
"-@	c #5AA3B2",
";@	c #64B1C1",
">@	c #5BA2B1",
",@	c #5496A4",
"'@	c #5397A5",
")@	c #4B8895",
"!@	c #5A7379",
"~@	c #C1C5C6",
"{@	c #93D7E6",
"]@	c #7EDCEF",
"^@	c #7BDDF1",
"/@	c #80DCEF",
"(@	c #8FD8E8",
"_@	c #8CD9EA",
":@	c #92D7E7",
"<@	c #212223",
"[@	c #1E2326",
"}@	c #1D2427",
"|@	c #96D6E5",
"1@	c #7DDDF0",
"2@	c #84DBED",
"3@	c #99D5E3",
"4@	c #54666B",
"5@	c #30545C",
"6@	c #33555C",
"7@	c #405156",
"8@	c #91D7E7",
"9@	c #ABCFD7",
"0@	c #7AD2E4",
"a@	c #80D0E2",
"b@	c #626262",
"c@	c #B8C9CE",
"d@	c #A9CFD9",
"e@	c #A7D0DA",
"f@	c #868686",
"g@	c #7B7B7B",
"h@	c #848384",
"i@	c #747373",
"j@	c #A4A4A4",
"k@	c #999898",
"l@	c #747474",
"m@	c #6B7A66",
"n@	c #B0EC9E",
"o@	c #D0F3C7",
"p@	c #5B7753",
"q@	c #40722B",
"r@	c #A0EA89",
"s@	c #57764D",
"t@	c #6F7B6C",
"u@	c #919191",
"v@	c #585758",
"w@	c #426337",
"x@	c #D6F5CF",
"y@	c #EBF1EA",
"z@	c #6FB058",
"A@	c #3A6F20",
"B@	c #7EE550",
"C@	c #A5EB8F",
"D@	c #61B13E",
"E@	c #4F7741",
"F@	c #91E772",
"G@	c #9BE981",
"H@	c #81E557",
"I@	c #DEF6D8",
"J@	c #BAEEAB",
"K@	c #8DE76C",
"L@	c #A1EA8A",
"M@	c #84E55D",
"N@	c #8F8E8E",
"O@	c #A4EA8E",
"P@	c #A2A1A1",
"Q@	c #D2F4CA",
"R@	c #4F4E4E",
"S@	c #FEFEFE",
"T@	c #CFCECF",
"U@	c #99E97E",
"                                                                                                                                                                                                        ",
"                                                                                                                                                                                                        ",
"                                                                                                                                                                                                        ",
"                                                                                                                                                                                                        ",
"                                                                                                                                                                                                        ",
"                                                                                                                                                                                                        ",
"                                                                                                                                                                                                        ",
"                                                                                                                                                                                                        ",
"                                                                                                                                                                                                        ",
"                                                . . .                                                                                                                                                   ",
"                                        + @ # # $ % & * * * * * * * * * = = = * * * * * * * * * * - ; > > > > > > > , ' = ) !                                                                           ",
"                              + ~ { - ; ] ^ / / ( _ : < < < < < < < < < [ } [ < < < < < < < < < < < | | | | | | | | 1 } [ < 2 3 ] ; 4 ~ +                                                               ",
"                        ! { 5 6 ^ < < | | | | | | 7 7 7 7 7 7 7 7 7 7 7 8 9 8 7 7 7 7 7 7 7 7 7 7 7 0 0 0 0 0 0 0 0 a 9 8 7 b b | 9 [ c 6 d !                                                           ",
"                  + e , f g h h } < 7 0 i j k k l m n n n n n n n n n n o o o n n n n n n n n n n p q 4 4 4 4 4 4 4 ' r o s t u 0 v w 1 | 7 x - ~ +                                                     ",
"                ~ y / } b b b z A B p q d C D D D D D D D D D D D D D D D D D D D D D D D D D D D D D D D D D D D D D D D D D C d E F < G 7 b 7 3 H !                                                   ",
"                I J z K L 8 M N M O P D D D D D D D D D D D D D D D D D D D D D D D D D D D D D D D D D D D D D D D D D D D D D D D D C Q m t 7 | R S - )                                               ",
"              ! T b U V W W X Y < | u B Q D D D D D D D D D D D D D D D D D D D D D D D D D D D D D D D D D D D D D D D D D D D D D D D D D W Z ` R 1 } 2 { +                                           ",
"            + H [  .t D D D D W ..+.w @.#.W D D D D D D D D D D D D D D D D D D D D D D D D D D D D D D D D D D D D D D D D D D D D D D D D D D W ..R w h / e                                           ",
"            @ 3  .+.5 D D D D D C $.< b %.&.D D D D D D D D D D D D D D D D D D D D D D D D D D D D D D D D D D D D D D D D D D D D D D D D D D D C p u 9 9 *.=.                                        ",
"            -.;.1 >.D D D D D D D D &.B R B &.C D D D D D D D D D D D D D D D D D D D D D D D D D D D D D D D D D D D D D D D D D D D D D D D D D D D 5 m 0 9 3 ,.                                      ",
"            '.} 9 B D D D D D D D D D W Z L < #.p D D D D D D D D D D D D D D D D D D D D D D D D D D D D D D D D D D D D D D D D D D D D D D D D D D D D O 1 ).!.d                                     ",
"          + > 8 @.n D D D D D D D D D D P O 1 1 +.P D D D D D D D D D D D D D D D D D D D D D D D D D D D D D D D D D D D D D D D D D D D D D D D D D D D *.~.w ).{.+                                   ",
"          @ 3 | j W D D D D D D D D D D D P u 9 9 m Q C D D D D C d q p n n n n n n n n n n n n n n n n n n n n n n n n n n n n n n p Q C D D D D D D D D D ].^.1 /.e                                   ",
"          # / | k D D D D D D D D D D D D D 5 s < 7 i ` (.n n m ` i 0 7 7 7 7 7 7 7 7 7 7 7 7 7 7 7 7 7 7 7 7 7 7 7 7 7 7 7 7 7 7 7 7 0 u _.j l m p q d C D C &.:.<.' =.                                ",
"    [.[.[.# / | k D D D D D D D D D D D D D D C Y < 9 1 8 }.7 7 | | | 7 7 7 7 7 7 7 7 7 7 7 7 7 7 7 7 7 7 7 7 7 7 7 7 7 7 7 7 7 7 7 7 | b b | | 7 7 0 0 u |.k o 1.^ } ] d                               ",
"    . 2.. # / | k D D D D D D D D D D D D D D D W m M 3. .}.7 7 i j l m n n n n n n n n n n n n n n n n n n n n n n n n n n n n n n m ` _.u 0 0 7 7 | | b b 9 8 f J g ).S =.                            ",
"  [.2.4.5.# / | k D D D D D D D D D D D D D D D D n 6. .7.r n p Q C D D D D D D D D D D D D D D D D D D D D D D D D D D D D D D D D D D D C d q p m l j _.7 9 8 7 w b ).} Q                             ",
"  8.9.9.2.# / | k D D D D D D D D D D D D D D D D B 9 9 r D D D D D D D D D D D D D D D D D D D D D D D D D D D D D D D D D D D D D D D D D D D D D D D D 5 n o m < 0.1 L 2 !                           ",
"  a.b.c.2.# / | k D D D D D D D D D D D D D D D D >.1 a ' D D D D D D D D D D D D D D D D D D D D D D D D D D D D D D D D D D D D D D D D D D D D D D D D D D D D Q p d.| f H +                         ",
"e.f.g.h.i.# / | k D D D D D D D D D D D D D D D D k | 0 4 D D D D D D D D D D D D D D D D D D D D D D D D D D D D D D D D D D D D D D D D D D D D D D D D D D D D D D p <  .] +                         ",
"e.j.b.k.l.# / | k D D D D D D D D D D D D D D D D k | 0 4 D D D D D D D D D D D D D D D D D D D D D D D D D D D D D D D D D D D D D D D D D D D D D D D D D D D D D D d i | ] +                         ",
"e.j.b.m.n.# / | k D D D D D D D D D D D D D D D D k | 0 4 D D D D D D D D D D D D D D D D D D D D D D D D D D D D D D D D D D D D D D D D D D D D D D D D D D D D D D q 0 | ;                           ",
"  o.b.p.q.# / | k D D D D D D D D D D D D D D D D l | 0 q D D D D D D D D D D D D D D D D D D D D D D D D D D D D D D D D D D D D D D D D D D D D D D D D D D D D D D r 8 [ '                           ",
"  o.b.p.q.# / | k D D D D D D D D D D D D D D D D ` 7 7 Q D D D D D D D D D D D D D D D D D D D D D D D D D D D D D D D D D D D D D D D D D D D D D D D D D D D D D D B 9 } '.                          ",
"  o.b.p.q.# / | k D D D D D D D D D D D D D D D C t b _.W D D D C Q p r.o o s.W D D D D D D D D D D D D D D D D D D D D D D D D D D D D D D D D D D D D D D D D D D D >.1 ;.-.                          ",
"t.u.v.w.q.# / | k D D D D D D D D D D D D D D D Q 0 | ` D D D W s < U U | | }.B &.C D D D D D D D D D D D D D D D D D D D D D D D D D D D D D D D D D D D D D D D D D k | / #                           ",
"x.y.z.b.A.# / | k D D D D D D D D D D D D D D D $.7 7 $.D D D &.7 w 8 U | | | 1 0 q D D D D D D D D D D D D D D D D D D D B.C.D.D.D.D.E.F.G.H.D D D D D D D D D D D D k | / #                           ",
"x.y.z.y.I.J./ | k D D D D D D D D D D D D D D D l | 0 q D D W B @.L K.r.o o L.z | ' D D D D D D D D D D D D D D D D D D M.N.O.P.Q.P.R.P.P.S.T.U.D D D D D D D D D D D k | / #                           ",
"t.V.y.z.9.W./ | k D D D D D D D D D D D D D D D j | 0 d D D 5 X.Y.o W D D D Z.8 8 Z.D D D D D D D D D D D D D D D D D D `. +S.S.S.S.S.S.S..+S.++@+D D D D D D D D D D k | / #           [.#+i.#+[.      ",
"  $+y.z.g.%+/ | k D D D D D D D D D D D D D D D _.b u C D D 5 X.U u B m n n &+< 6.Z D D D D D D D D D D D D D D D D D D *+S.S.P.=+=+.+S.-+;+R.Q.*+D D D D D D D D D D k | / #           . 4.b.x.k.>+#+[.",
"  a.v.z.,+'+/ | k D D D D D D D D D D D D D D W u b t D D D W ..7 |  .7 7 7 }.7 B P D D D D D D D D D D D D D D D D D D G.S.)+!+~+~+.+.+{+O. +P.]+^+D D D D D D D D D k | / #           . 4.p.x.z./+k.(+",
"  _+g.z.c.:+/ | k D D D D D D D D D D D D D D 5 7 7 s D D D D W B 7 R 7 7 7 7 u &.D D D D D D D D D D D D D D D D D D D <+Q.[+[+S.S.S..+S.P.}+Q.|+1+D D D D D D D D C j | ^ @           [.l.8.i.2+m.k.(+",
"  q.g.z.y.:+/ | k D D D D D D D D D D D D D D m 7 7 p D D D D D W Q p p n n n 5 W D D D D D D D D D D D D D D D D D D D *+3+P.S.S.S.S.S.S.S.4+P. +5+D D D D D D D D Q i | 6++                   e.7+l.[.",
"  n.g.z.y.:+/ | k D D D D D D D D D D D D D C ` | i Q D D D D D D D D D D D D D D D D D D D D D D D D D D D D D D D D D *+8+P.S.S..+S.S.~+9+=+S. +C.D D D D D D D D p 7 < -                             ",
"  e.0+z.h.a+/ | k D D D D D D D D D D D D D d i | j C D D D D D D D D D D D D D D D D D D D D D D D D D D D D D D D D D @+b+c+P.d+e+f+f+=+9+S.S.c+D.D D D D D D D D n 7 < *                             ",
"    5.2.2.g+/ | k D D D D D D D D D D D D D 4 0 | k D D D D D D D D D D D D D D D D D D D D D D D D D D D D D D D D D D B.h+O.c+i+j+S.S.S.c+Q.S.P.C.D D D D D D D D n 7 < *                             ",
"          # / | k D D D D D D D D D D D D D 4 0 | k D D D D D D D D D D D D D D D D D D D D D D D D D D D D D D D D D D D B.<+S.P.S.S.S.R.Q.P.S.k+@+D D D D D D D D n 7 < *                             ",
"          # / | k D D D D D D D D D D D D D 4 L. ./.l+D D D D D D D D D D D D D D D D D D D D D D D D D D D D D D D D D D D m+N.++++k+n+n+n+n+<+m+D D D D D D D D D m 7 < {                             ",
"          # / | k D D D D D D D D D D D D D 4 R 1 U ` ` m n 5 Q C C D D D D D D D D D D D D D D D D D D D D D D D D D D D D D D D D ^+o+p+p+o+^+D D D D D D D D D D l | / q+                            ",
"          # / | k D D D D D D D D D D D D D 4 R w 8 b | 7 7 7 u 0 _.j l m p Q d C C D D D D D D D D D D D D D D D D D D D D D D D D D D D D D D D D D D D D D D D D j | / @                             ",
"          # / | k D D D D D D D D D D D D D 4 N r+s+t+u+v+w+x+b | b | | 7 7 0 u _.s m l l m n n p q d C D D D D D D D D D D D D D D D D D D D D D D D D D D D D D D j b 2 @                             ",
"          # / | k D D D D D D D D D D D D D 4 0 y+z+A+B+C+D+E+` _._.0 0 7 F+y+b G+H+H+y+y+H+I+J+7 0 0 u _.j k l m p q d C D D D D D D D D D D D D D D D D D D D D D j | / @                             ",
"          # / | k D D D D D D D D D D D D D 4 0 y+K+L+M+N+O+P+D D C d q p Q+R+S+T+U+V+W+W+X+X+Y+v+Z+| b b | | | 7 7 0 0 _.j k l m n p q 4 d C D D D D D D D D D D D k | / #                             ",
"          @ ^ | j C D D D D D D D D D D D D 4 0 | `+ @.@+@@@#@D D D D D D $@%@&@*@=@-@;@;@>@,@'@)@!@j _.u 0 0 0 7 7 | | b | | | 7 7 7 0 0 i _._.u _.j k l m n n o o ^.9 / #                             ",
"          + ] | i d D D D D D D D D D D D D 4 0 | k D D D D D D D D D D D ~@#@{@]@^@/@(@(@(@_@&@:@P+D D C d 4 q p m l j _.0 0 0 7 7 7 | <@[@}@b b b | | | 7 7 7 8 9 1 g / #                             ",
"            > | 0 4 D D D D D D D D D D D D 4 0 | k D D D D D D D D D D D D $@|@1@2@3@D D D D D D D D D D D D D D D D D C d 4 q p n m l 4@S+5@6@7@u 0 0 0 7 7 7 8 1 g g 3 @                             ",
"            > L 0 4 D D D D D D D D D D D D 4 0 | k D D D D D D D D D D D D $@8@/@|@$@D D D D D D D D D D D D D D D D D D D D D D D D D 9@A+0@a@P+C d 4 q p n n o b@8 %.6++                             ",
"            > L 0 4 D D D D D D D D D D D D 4 0 | k D D D D D D D D D D D D $@P+P+9@D D D D D D D D D D D D D D D D D D D D D D D D D D c@d@@@e@#@D D D D D D D D q 0 | ;                               ",
"            > L 0 4 D D D D D D D D D D D D 4 0 | k D D D D D D D D D D D D D D D D D D D D D D D D D D D D D D D D D D D D D D D D D D D D D D D D D D D D D D D 4 0 | >                               ",
"            ; L 0 q D D D D D D D D D D D D 4 0 | k D D D D D D D D D D D D D D D D D D D D D D D D D D D D D D D D D D D D D D D D D D D D D D D D D D D D D D D q 0 | ;                               ",
"            - < 7 p D D D D D D D D D D D D 4 0 | k D D D D D D D D D D D D D D D D D D D D D D D D D D D D D D D D D D D D D D D D D D D D D D D D D D D D D D D p 7 < -                               ",
"            { < 7 m D D D D D D D D D D D D 4 0 | k D D D D D D D D D D D D D D D D D D D D D D D D D D D D D D D D D D D D D D D D D D D D D D D D D D D D D D D n 7 < *                               ",
"            { / | m D D D D D D D D D D D D 4 0 | k D D D D D D D D D D D D D D D D D D D D D D D D D D D D D D D D D D D D D D D D D D D D D D D D D D D D D D D n 7 < *                               ",
"            q+< 7 l D D D D D D D D D D D D 4 0 | k D D D D D D D D D D D D D D D D D D D D D D D D D D D D D D D D D D D D D D D D D D D D D D D D D D D D D D D n 7 < *                               ",
"            ~ ^ | ` C D D D D D D D D D D D 4 0 | k D D D D D D D D D D D D D D D D D D D D D D D D D D D D D D D D D D D D D D D D D D D D D D D D D D D D D D D n 7 < *                               ",
"            + 6+| i Q D D D D D D D D D D D 4 0 | k D D D D D D D D D D D D D D D D D D D D D D D D D D D D D D D D D D D D D D D D D D D D D D D D D D D D D D D m 7 < {                               ",
"              - < 7 p D D D D D D D D D D D 4 0 | k D D D D D D D D m ^.6.v K.f@W D D D D D D D D D D D D D D D D D D D D D D D D D D D D D D D D D D D D D D D D l | / q+                              ",
"              { < 7 m D D D D D D D D D D D 4 0 | k D D D D D D D 5 U b b b 1 }.B P D D D D D D D D D D D D D D D D D D D D D D D D D D D D D D D D D D D D D D D k | / #                               ",
"              ~ ^ | ` C D D D D D D D D D D 4 0 | k D D D D D D m }.b b b w 6.| | g@D D D D D D D D D D D D D D D D D D D D D D D D D D D D D D D D D D D D D D D j | / @                               ",
"              + S 1 v p D D D D D D D D D D 4 0 | k D D D D D C 7.b b 8 / h@i@M  .l D D D D D D D D D D D D D D D D D D D D D D D D D D D D D D D D D D D D D D C _.b 3 +                               ",
"                ' } 9 r D D D D D D D D D D 4 0 | k D D D D D d L b z b@C D Z.8 8 Z.D D D D D D D D D D D D D D D D D D D D D D D D D D D D D D D D D D D D D D d 0 | ]                                 ",
"                = [ 8 o D D D D D D D D D D d 0 | j D D D D D d ~.1  .R u u N w a p D D D D D D D D D D D D D D D D D D D D D D D D D D D D D D D D D D D D D D 4 0 | >                                 ",
"                j@%.U r.D D D D D D D D D D C u b _.D D D D D C &.B R | b b b u B Q D D D D D D D D D D D D D D D D D D D D D D D D D D D D D D D D D D D D D D 4 0 | >                                 ",
"                k@L | l@D D D D D D D D D D D _.b u C D D D D D D W Z ` _.u B &.D D D D D D D D D D D D D D D D D D D D D D D D D D D D D D D D D D D D D D D D 4 0 | >                                 ",
"                = L | o D D D D D D D D D D D ` | 0 Q D D D D D D D D D D D D D D D D D D D D D D D D D D D D D D D D D D D D D D D D D D D D D D D D D D D D D 4 0 | m@n@n@o@                          ",
"                j@%.U r.D D D D D D D D D D D m 7 7 p D D D D D D D D D D D D D D D D D D D D D D D D D D D D D D D D D D D D D D D D D D D D D D D D D D D D D 4 0 | p@/+h.(+                          ",
"                ) < 7 s D D D D D D D D D D D p 7 7 m D D D D D D D D D D D D D D D D D D D D D D D D D D D D D D D D D D D D D D D D D D D D D D D D D D D D D 4 0 | q@4.r@(+                          ",
"                ! x b t W D D D D D D D D D D Q i | ` C D D D D D D D D D D D D D D D D D D D D D D D D D D D D D D D D D D D D D D D D D D D D D D D D D D D D 4 0 | s@(+e.e.                          ",
"                  - < 7 Z D D D D D D D D D D C ` | i Q D D D D D D D D D D D D D D D D D D D D D D D D D D D D D D D D D D D D D D D D D D D D D D D D D D D D 4 0 | t@e.                              ",
"                  ~ !.1 < 5 D D D D D D D D D D m 7 7 p D D D D D D D D D D D D D D D D D D D D D D D D D D D D D D D D D D D D D D D D D D D D D D D D D D D D 4 0 | >                                 ",
"                  + u@6.9 k Q D D D D D D D D D n 7 7 n D D D D D D D D D D D D D D D D D D D D D D D D D D D D D D D D D D D D D D D D D D D D D D D D D D D D 4 0 | >                                 ",
"                    ) 3 g L m W D D D D D D D D n 7 7 n D D D D D D D D D D D D D D D D D D D D D D D D D D D D D D D D D D D D D D D D D D D D D D D D D D D D 4 0 | >                                 ",
"                      =.' < M 3 *.C D D D D D D 5 7 7 s D D D D D D D D D D D D D D D D D D D D D D D D D D D D D D D D D D D D D D D D D D D D D D D D D D D D 4 0 | >                                 ",
"                        ! H v@| _.m Q C D D D D W u b t D D D D D D D D D D D D D D D D D D D D D D D D D D D D D D D D D D D D D D D D D D D D D D D D D D D D 4 0 | >                                 ",
"                          ! H w@ .8 R s W D D D D _.b u C D D D D D D D D D D D D D D D D D D D D D D D D D D D D D D D D D D D D D D D D D D D D D D D D D D D 4 0 | >                                 ",
"          x@n@n@o@          y@z@A@ .w Y.m Q C D D ` | 0 Q D D D D D D D D D D D D D D D D D D D D D D D D D D D D D D D D D D D D D D D D D D D D D D D D D D D 4 0 | >                                 ",
"          x@9.B@C@.         n.p.D@E@!.}.7 ^.F $.C B 8 8 r D D D D D D D D D D D D D D D D D D D D D D D D D D D D D D D D D D D D D D D D D D D D D D D D D D D 4 0 | >                                 ",
"          x@2.p.z.F@G@2.[.  q.p.b.o.! H X.1 w v 3 d.9 9 o D D D D D D D D D D D D D D D D D D D D D D D D D D D D D D D D D D D D D D D D D D D D D D D D D D D 4 0 | >                                 ",
"            e.(+i.g.y.H@i.l.I@p.b.o.  ! d !.[ 1 | L h 9 k C D D D D D D D D D D D D D D D D D D D D D D D D D D D D D D D D D D D D D D D D D D D D D D D D D D 4 0 | >                                 ",
"                [.4.b.b.x.r@J@p.b.o.      ~ 4 6 ^ 6.b 1 _.Q D D D D D D D D D D D D D D D D D D D D D D D D D D D D D D D D D D D D D D D D D D D D D D D D D D 4 0 | >                                 ",
"                  l.8.f.K@b.L@M@b.j.          + ,.N@< g 1 0 ..W D D D D D D D D D D D D D D D D D D D D D D D D D D D D D D D D D D D D D D D D D D D D D D D C &.M  .>                                 ",
"                      [.#+O@z.b.z.u.[.              - b ).b R j l $.q d C D D D D D D D D D D D D D D D D D D D D D D D D D D D D D D D D D D D D D D D W 5 m ` L.| L P@                                ",
"                          . n@y.z.,+Q@              d ^ K R@7 | | 7 0 0 u u u u u u u u u u u u u u u u u u u u u u u u u u u u u u u u u u u u u u u u u 7 7 | | < ' =.                                ",
"                            x@g.z.y.0+              S@@ @ T@H 3 / < | | b b b b b b b b b b b b b b b b b b b b b b b b b b b b b b b b b b b b b b b b b 7 < ^ 6+d !                                   ",
"                              U@z.z.g.l.                    + @ q+4 ; ] 3 2 2 2 2 2 2 2 2 2 2 2 2 2 2 2 2 2 2 2 2 2 2 2 2 2 2 2 2 2 2 2 2 2 2 2 2 2 2 2 x u@{ ~ +                                       ",
"                              t.c.z.y.i.                                                                                                                                                                ",
"                                p.z.c.i.                                                                                                                                                                ",
"                                5.2+2+Q@                                                                                                                                                                ",
"                                                                                                                                                                                                        ",
"                                                                                                                                                                                                        "};
