/* XPM */
static char * door_xpm[] = {
"100 100 558 2",
"  	c #FFFFFF",
". 	c #E8FAEA",
"+ 	c #E1F9E4",
"@ 	c #FAFEFA",
"# 	c #CDF5D1",
"$ 	c #65E97C",
"% 	c #B5F2BD",
"& 	c #F1FCF2",
"* 	c #2AE65A",
"= 	c #BCF3C3",
"- 	c #FEF5F4",
"; 	c #DBF8DE",
"> 	c #84EC93",
", 	c #D0F6D5",
"' 	c #FCE4E1",
") 	c #FAC5BB",
"! 	c #FDECE9",
"~ 	c #FCE3DE",
"{ 	c #F9BEB3",
"] 	c #F79983",
"^ 	c #F28158",
"/ 	c #F28259",
"( 	c #F58464",
"_ 	c #EF814F",
": 	c #E87D2C",
"< 	c #EC7F42",
"[ 	c #F37B50",
"} 	c #F57448",
"| 	c #F57C58",
"1 	c #F58160",
"2 	c #F5703F",
"3 	c #F46520",
"4 	c #F4641B",
"5 	c #F5774F",
"6 	c #F57E5B",
"7 	c #F6947C",
"8 	c #F79E8A",
"9 	c #F46625",
"0 	c #F46828",
"a 	c #F4610A",
"b 	c #F4692D",
"c 	c #F46729",
"d 	c #FACBC2",
"e 	c #F5754B",
"f 	c #F18760",
"g 	c #ED8552",
"h 	c #EA7E38",
"i 	c #F4835F",
"j 	c #EE804C",
"k 	c #EE7839",
"l 	c #F46727",
"m 	c #F46A31",
"n 	c #F58362",
"o 	c #F18258",
"p 	c #EF814E",
"q 	c #EB7F3E",
"r 	c #F46F3D",
"s 	c #F46214",
"t 	c #F57142",
"u 	c #F57A54",
"v 	c #F6896D",
"w 	c #F69077",
"x 	c #F69680",
"y 	c #F58363",
"z 	c #FACDC6",
"A 	c #F7A18F",
"B 	c #F8A999",
"C 	c #FBDCD6",
"D 	c #DDDDBE",
"E 	c #82DD73",
"F 	c #D5F7D8",
"G 	c #BFF3C5",
"H 	c #5BE874",
"I 	c #D6B074",
"J 	c #F46B31",
"K 	c #A1EFAB",
"L 	c #59E873",
"M 	c #F69179",
"N 	c #F57850",
"O 	c #F9BAAE",
"P 	c #F9B7AB",
"Q 	c #F57346",
"R 	c #F7A391",
"S 	c #F8AD9D",
"T 	c #F8B3A5",
"U 	c #EEB095",
"V 	c #CCDAAB",
"W 	c #A2C961",
"X 	c #EF7332",
"Y 	c #D3DBB4",
"Z 	c #B2BC56",
"` 	c #B5BD5C",
" .	c #F6876A",
"..	c #F68A6E",
"+.	c #FCDCD7",
"@.	c #FBD2CB",
"#.	c #F7A18E",
"$.	c #F9BFB5",
"%.	c #E6DFC9",
"&.	c #C3F4C9",
"*.	c #C7F4CC",
"=.	c #C5EABC",
"-.	c #E38532",
";.	c #F36312",
">.	c #FBD4CD",
",.	c #D8F7DB",
"'.	c #D0C793",
").	c #D59A43",
"!.	c #F0753B",
"~.	c #F08152",
"{.	c #ECC1A9",
"].	c #F7A492",
"^.	c #F8B1A3",
"/.	c #F7A695",
"(.	c #F57B56",
"_.	c #F57244",
":.	c #F5805E",
"<.	c #FAC6BD",
"[.	c #FEF2F0",
"}.	c #DDF8E0",
"|.	c #E6A173",
"1.	c #F36511",
"2.	c #F46D3A",
"3.	c #F8D3C9",
"4.	c #E3F9E5",
"5.	c #D4DBB5",
"6.	c #DAAA6E",
"7.	c #DF8829",
"8.	c #F36823",
"9.	c #F46B2F",
"0.	c #F46B34",
"a.	c #F8B4A6",
"b.	c #F68D73",
"c.	c #F6957D",
"d.	c #D7D3AC",
"e.	c #F07539",
"f.	c #F46F3C",
"g.	c #E6BA99",
"h.	c #D7B57E",
"i.	c #DD8F3A",
"j.	c #EE701F",
"k.	c #F57952",
"l.	c #F9B8AB",
"m.	c #F79C88",
"n.	c #F1A185",
"o.	c #F37340",
"p.	c #F7CDC2",
"q.	c #C6C07C",
"r.	c #E8843E",
"s.	c #F46313",
"t.	c #F4620F",
"u.	c #F46623",
"v.	c #F4682B",
"w.	c #F36F35",
"x.	c #EA7E3B",
"y.	c #E5822F",
"z.	c #F2723B",
"A.	c #F19778",
"B.	c #F68C70",
"C.	c #F69178",
"D.	c #F08151",
"E.	c #F17234",
"F.	c #F6A996",
"G.	c #F2E2D5",
"H.	c #F09471",
"I.	c #F46315",
"J.	c #F3640E",
"K.	c #F36412",
"L.	c #F26F34",
"M.	c #F36310",
"N.	c #F2671A",
"O.	c #F36824",
"P.	c #F18F6C",
"Q.	c #F6B2A2",
"R.	c #F6BAAB",
"S.	c #F7A796",
"T.	c #F58A6C",
"U.	c #F36418",
"V.	c #F3661B",
"W.	c #F47447",
"X.	c #F46212",
"Y.	c #F36512",
"Z.	c #EF6C15",
"`.	c #EE7632",
" +	c #F16816",
".+	c #F4661F",
"++	c #F3A58D",
"@+	c #C9F5CE",
"#+	c #F4651E",
"$+	c #F4620C",
"%+	c #F46419",
"&+	c #EE732C",
"*+	c #F06C16",
"=+	c #F06B16",
"-+	c #EC7421",
";+	c #F46211",
">+	c #F47546",
",+	c #F68769",
"'+	c #ACF0B4",
")+	c #5CE876",
"!+	c #D8DCB8",
"~+	c #F3B19D",
"{+	c #F3692B",
"]+	c #F4620D",
"^+	c #F16A1E",
"/+	c #EA9F78",
"(+	c #F68F75",
"_+	c #F4784F",
":+	c #F27239",
"<+	c #F36311",
"[+	c #F16A18",
"}+	c #F3651A",
"|+	c #F36C31",
"1+	c #F4641A",
"2+	c #F7A28F",
"3+	c #87EC96",
"4+	c #D4A860",
"5+	c #F17A4A",
"6+	c #F46C36",
"7+	c #F79E8B",
"8+	c #F17C4A",
"9+	c #EC7831",
"0+	c #EBBA9E",
"a+	c #F5764D",
"b+	c #F46C37",
"c+	c #F46624",
"d+	c #F4651D",
"e+	c #F28E6C",
"f+	c #FACCC4",
"g+	c #DECBA6",
"h+	c #E18935",
"i+	c #F27949",
"j+	c #F17237",
"k+	c #F26B24",
"l+	c #F0A488",
"m+	c #F36822",
"n+	c #EE6E17",
"o+	c #F26D2F",
"p+	c #F26E2D",
"q+	c #F3640D",
"r+	c #F79984",
"s+	c #F3661E",
"t+	c #F1691D",
"u+	c #F26719",
"v+	c #F36D34",
"w+	c #F59880",
"x+	c #F46314",
"y+	c #F4620B",
"z+	c #F46210",
"A+	c #F9B8AC",
"B+	c #F7A797",
"C+	c #F79C87",
"D+	c #E48A44",
"E+	c #F1753E",
"F+	c #F46E38",
"G+	c #F3661D",
"H+	c #F29D81",
"I+	c #F38E6E",
"J+	c #F7A898",
"K+	c #F46316",
"L+	c #D7A259",
"M+	c #F46317",
"N+	c #F36515",
"O+	c #F36B2E",
"P+	c #F18256",
"Q+	c #EC7F43",
"R+	c #EB7E3C",
"S+	c #F8AE9F",
"T+	c #F46622",
"U+	c #CCC991",
"V+	c #F06F2C",
"W+	c #F3794E",
"X+	c #F48867",
"Y+	c #EF6E1C",
"Z+	c #F16D26",
"`+	c #E3F9E6",
" @	c #95EDA1",
".@	c #F68B6F",
"+@	c #F58566",
"@@	c #F46D39",
"#@	c #E2CEAE",
"$@	c #EA7E39",
"%@	c #EC8651",
"&@	c #F1845A",
"*@	c #ED8049",
"=@	c #94E38C",
"-@	c #DC9A52",
";@	c #F07130",
">@	c #F46620",
",@	c #F47D56",
"'@	c #F58261",
")@	c #F6927A",
"!@	c #F3BDAB",
"~@	c #EF8150",
"{@	c #F4620E",
"]@	c #DF9E62",
"^@	c #E88A50",
"/@	c #F26714",
"(@	c #EA761D",
"_@	c #DA9D55",
":@	c #E89868",
"<@	c #F08153",
"[@	c #F46A2D",
"}@	c #F68E74",
"|@	c #F27D51",
"1@	c #F26511",
"2@	c #BAB651",
"3@	c #D9963F",
"4@	c #F2671D",
"5@	c #F26E2F",
"6@	c #F36D33",
"7@	c #F46213",
"8@	c #FBDAD5",
"9@	c #D7F7DA",
"0@	c #75EA87",
"a@	c #BEF3C4",
"b@	c #F47243",
"c@	c #EC731C",
"d@	c #A1E49A",
"e@	c #E2B78F",
"f@	c #F3703A",
"g@	c #FBD2CC",
"h@	c #CBF5CF",
"i@	c #F68667",
"j@	c #E08C38",
"k@	c #D6F7D9",
"l@	c #F8E3DC",
"m@	c #FACAC2",
"n@	c #D5AD6B",
"o@	c #F69781",
"p@	c #E5C0A0",
"q@	c #F07232",
"r@	c #F17239",
"s@	c #EEA98C",
"t@	c #F8AC9D",
"u@	c #F57F5D",
"v@	c #F1753F",
"w@	c #E8D7C1",
"x@	c #FCFEFD",
"y@	c #ECFBED",
"z@	c #61E979",
"A@	c #C0F3C6",
"B@	c #C2F4C7",
"C@	c #B4CC7D",
"D@	c #EA7927",
"E@	c #F26710",
"F@	c #F09674",
"G@	c #F5896A",
"H@	c #FAF4F0",
"I@	c #F8B0A1",
"J@	c #A4EFAE",
"K@	c #6EEA83",
"L@	c #96E38F",
"M@	c #EA8C58",
"N@	c #F6886B",
"O@	c #56E871",
"P@	c #C5F4CA",
"Q@	c #6DEA82",
"R@	c #83EB92",
"S@	c #C6F4CC",
"T@	c #F3A28A",
"U@	c #A2EFAC",
"V@	c #A6F0B0",
"W@	c #76EA88",
"X@	c #3AE761",
"Y@	c #6CE981",
"Z@	c #52E86F",
"`@	c #F79D89",
" #	c #3DE762",
".#	c #46E768",
"+#	c #B3F1BB",
"@#	c #90ED9D",
"##	c #F8B2A5",
"$#	c #FFFEFE",
"%#	c #B2F1BA",
"&#	c #AAF0B3",
"*#	c #37E660",
"=#	c #3FE764",
"-#	c #89EC97",
";#	c #96EEA2",
">#	c #7CEB8D",
",#	c #CCF5D0",
"'#	c #D6F7DA",
")#	c #ABF0B4",
"!#	c #73EA86",
"~#	c #4EE76D",
"{#	c #D7F7DB",
"]#	c #BAF2C1",
"^#	c #CEF6D3",
"/#	c #F69882",
"(#	c #E5F0DB",
"_#	c #E1D6B8",
":#	c #DAEED1",
"<#	c #F4692C",
"[#	c #EBA886",
"}#	c #E7B999",
"|#	c #EB8D5B",
"1#	c #EFA486",
"2#	c #F08459",
"3#	c #F0875C",
"4#	c #ED9A74",
"5#	c #D99335",
"6#	c #BCB553",
"7#	c #E69A69",
"8#	c #F36929",
"9#	c #E08D41",
"0#	c #F36723",
"a#	c #F36413",
"b#	c #F18154",
"c#	c #F9C3B9",
"d#	c #F9BDB1",
"e#	c #E77F2C",
"f#	c #EF7229",
"g#	c #F2743F",
"h#	c #E9F1DF",
"i#	c #F27035",
"j#	c #CCB166",
"k#	c #DF954E",
"l#	c #F36826",
"m#	c #BCC374",
"n#	c #EE956F",
"o#	c #F3A38B",
"p#	c #A9D481",
"q#	c #F4651A",
"r#	c #E7AE8A",
"s#	c #D3A85E",
"t#	c #F4703F",
"u#	c #F3692A",
"v#	c #F3630E",
"w#	c #F36923",
"x#	c #F27A4B",
"y#	c #F47140",
"z#	c #F36514",
"A#	c #CBAD5C",
"B#	c #BFBC69",
"C#	c #E8833D",
"D#	c #F17947",
"E#	c #F16C26",
"F#	c #F36410",
"G#	c #F27A4C",
"H#	c #F58768",
"I#	c #F36A28",
"J#	c #C5AB49",
"K#	c #9AD16C",
"L#	c #DB974C",
"M#	c #F26713",
"N#	c #EC7C3B",
"O#	c #EB7931",
"P#	c #F36721",
"Q#	c #F36E36",
"R#	c #DBAB72",
"S#	c #CBA547",
"T#	c #ED7324",
"U#	c #ED7320",
"V#	c #E48535",
"W#	c #EF6F1E",
"X#	c #F46726",
"Y#	c #EF8456",
"Z#	c #F3681E",
"`#	c #D99743",
" $	c #E6863E",
".$	c #F4692B",
"+$	c #F19B7D",
"@$	c #EAB394",
"#$	c #F18155",
"$$	c #F2C3B2",
"%$	c #E9CDB5",
"&$	c #EDC7B2",
"*$	c #E3EFDA",
"=$	c #EAC9B0",
"-$	c #E8E0CA",
";$	c #C9D9A7",
">$	c #F59D87",
",$	c #DFF9E2",
"'$	c #CFF6D3",
")$	c #5FE978",
"!$	c #E7FAE9",
"~$	c #85EC94",
"{$	c #B8F2BF",
"]$	c #F2E0D3",
"^$	c #D4DAB2",
"/$	c #F46C34",
"($	c #F9B9AD",
"_$	c #ECC2AA",
":$	c #CFAE65",
"<$	c #E99C71",
"[$	c #F5967D",
"}$	c #DFD5B6",
"|$	c #BFB75D",
"1$	c #D99E56",
"2$	c #F4651B",
"3$	c #F57E59",
"4$	c #EF7128",
"5$	c #EF7129",
"6$	c #F06E24",
"7$	c #F4682A",
"8$	c #F47444",
"9$	c #F27139",
"0$	c #F2691E",
"a$	c #EF712A",
"b$	c #F17948",
"c$	c #F38F70",
"d$	c #EF9D7D",
"e$	c #CEAE63",
"f$	c #E2BF9C",
"g$	c #F9F4EF",
"h$	c #F3B8A5",
"i$	c #E3C7A7",
"j$	c #8DED9A",
"k$	c #BDF3C4",
"l$	c #81EB91",
"m$	c #B1F1B9",
"n$	c #B7F2BE",
"o$	c #91ED9E",
"p$	c #42E765",
"q$	c #8EED9C",
"r$	c #7AEB8C",
"s$	c #44E766",
"t$	c #4CE76B",
"u$	c #9CEEA7",
"v$	c #2EE65B",
"w$	c #AEF1B6",
"x$	c #F79A85",
"y$	c #EBC2A8",
"z$	c #ECB69B",
"A$	c #A8F0B1",
"B$	c #94EDA0",
"C$	c #F7D1C7",
"D$	c #EDB59B",
"E$	c #E0BD95",
"F$	c #BDE8B4",
"G$	c #C1F3C7",
"H$	c #8FED9C",
"I$	c #DAF8DD",
"J$	c #C2F4C8",
"K$	c #C9ECC2",
"L$	c #ACE6A4",
"M$	c #76DF6F",
"N$	c #33E55A",
"O$	c #E6FAE8",
"P$	c #DEF8E1",
"Q$	c #F8FDF8",
"R$	c #98EEA4",
"S$	c #B0F1B9",
"T$	c #8BEC99",
"U$	c #ADF1B5",
"V$	c #AEF1B7",
"W$	c #4AE76A",
"X$	c #92ED9F",
"Y$	c #BEF3C5",
"Z$	c #50E86E",
"`$	c #71EA84",
" %	c #A0EFAB",
".%	c #68E97E",
"+%	c #99EEA4",
"@%	c #D9F8DC",
"#%	c #F3FDF4",
"$%	c #F8FEF9",
"                                                                                                                                                                                                        ",
"                                                                                                                                                                                                        ",
"                                                                                                                                                                                                        ",
"                                                                                                                                                                                                        ",
"                                                                                                                                                                                                        ",
"                                                                                                                                                                                                        ",
"                                                                                                                                                                                                        ",
"                                                        . + + @                                                                                                                                         ",
"                                                        # $ % @                                                                                                                                         ",
"                                                      & % * = @                                                                                                                                         ",
"                                    - - -             ; > > ,                                         ' ) ) '                                                                 - ! ~ ~ ! -               ",
"                                ' { ] ^ / / ( ( ( ( ( _ : < [ } } | ( ( ( ( ( ( ( ( ( ( ( ( ( ( ( ( 1 2 3 4 2 | ( ( ( ( ( ( ( ( ( ( ( ( ( 1 } } 5 ( ( ( ( ( ( ( ( ( ( ( ( ( ( ( 6 6 6 7 )               ",
"                              - 8 } 9 0 a a a a a a a a a a a a a a a a a a a a a a a a a a a a a a a a a a a a a a a a a a a a a a a a a a a a a a a a a a a a a a a a a a a a b b c b 8 '             ",
"                              d 6 4 e f g h _ i ( ( ( j : k l a a m ( ( ( ( n o p q / ( ( ( ( ( ( ( r 4 s s 4 t ( ( ( ( ( ( ( ( ( ( ( ( u b s s 4 2 ( ( ( ( ( ( | u u 1 ( ( ( v w x y r 5 z             ",
"                            ' A c 6 B C D E > F       G H I J s 4 ]         + K L > +             ' M a N 2 } O                         P } 2 Q a M -         ) 8 } 7 )             R } } z             ",
"                            { 5 } S C T U V * = +     G W X a a 9 P     @ + Y Z ` V &   - { { )   { } }  .} } O                         ] b 6 ..b 6 +.      @.8 a r b 8 '           M a ( '             ",
"                            #.b 6 $.T M R %.&.* *..   =.-.;.a a m >.  @ ,.'.).!.~.{.    ) v a 8 ' ] b 6 ].} } O                       ' v a M ^.} } P     - /.b (..._.5 T         - ( a v               ",
"                            w b 6 ^.:.| <.[.}.% H # + |.1.a a a 2.3.4.5.6.7.8.9.} 8 - ) 8 c 0.} P v a v a.} } O                       z } } R +.6 b ]     +.y b ] +.M a M '       <.t 3 b.              ",
"                          - v a :.c.b v +.  @ + = * d.e.a a a 9 f.g.h.i.j.a f k.a M l.7 m m.Q b ..6 b ] O } } O                       n.o.o.p.- v a v -   P } } P   S } } {       a.9 9 8               ",
"                          ! 6 b e 5 } T -       F q.r.s.a t.u.v.w.x.y.a z.A.{ B.b 5 C.a M d ( a Q } } P O } } O             - - -   ! D.a E.F.O 5 9 5 !   ] b 6 +.  +.6 b ]       8 0.0.a.              ",
"                          ~ 6 c 2.a v '         G.H.I.a J.K.z.L.M.N.O.P.Q.'   x c 2.2 | T   ( a m b y +.O } } R.+ + .     ' T S.T { T.U.a V.W.} 9 s 2.$.- v a v -   - v a v -     #.b 6 >.              ",
"                          ~ 6 9 c b ]       - { c.9 X.Y.Z.a `. +a .+++@.      x 4 4 2 T '   ( a 9 b ] - O } } R.@+$ # . ' 8 0.3 5 5 #+a $+8.} } c s s ..P 6 b ]       ] b 6 +.  - w b y !               ",
"                          ~ 6 4 3 } {     ' T v a 9 %+&+*+=+-+t.;+>++.      ' N s a ,+'     ( a 4 } S   O } } R.}.'+)+!+~+} s a s } {+]+^+/+O O (+9 s 3 ( 0._.S       S } } <.  ! y b w -               ",
"                          ~ 5 s a M '   ' T | c t 4 _+:+<+[+}+|+1+(.+.    ! b.s a s 2+      ( a 4 } z   O } } O @ F 3+4+5+6+4 a 9 7+8+a 9+0+)   O 2 b a+3 3 b+O       O } } O   >.6 b #.                ",
"                          ~ 2.a 3 T   ' T | 5 1 r _.k.c+X.d+e+.._.} <.    2+3 a a 9 f+      1 a a v '   O } } O   & g+h+a i+s a r <.j+ +k+a /.  O } _.c.a+a 9 8       <.} } S   <.} } S                 ",
"                          ~ c a m ' @./.5 | R  .a a+b a 4 C.d a.} } O   ' 5 a a a r ~       u a s ]     O } } O   ' l+m+n+o+%+a u S p+q+a 1+w   O } } a...4 a ..'     +.6 b ]   O } } O                 ",
"                          f+3 a m { r+b+| T O } 0.m s a a++.  O } } O ' T 4 a a s 5 ~       t a 4 P - - a.} } O   { r s+t+u+v+a 1 w+x+y+z+4 x   O } } O m.4 4 2 T -   - ( a v   S } } <.                ",
"                          A+4 a c (.} r+T ' z ( } 2.9 b+B+    O } } ].R 2.s a s 3 6 ~     - m a 9 P /.C+x } } O ' 1 s a a D+E+a } F+t.a G+c x   z } W.H+I+l 0.c v d     v a ( - ] b 6 +.                ",
"                          J+4 a 3 b r++.-   ' ) R ( c v +.    O } 2  ._.4 a s c b 6 ~     +.9 a 9 c.3 b ( } } O 8 4 a a K+L+x.a 2.M+a N+O+b w   G.P+a Q+R+0 y :.b A -   w b 6 ! w a ( !                 ",
"      & + + &             A+3 a 4 /.@.          { 5 } S -     a.b+9 m 2 c a 4 5 b 6 ~     P 4 a 3 a b 9 (.} } S+} a a a T+U+: a l z+a V+W+a X+F = D+a Y+Z+o.^.A b y d   x b 6 ~ w b 6 !                 ",
"      `+ @ @`+            f+t 4 | @.          ' ] b v +.    ' .@4 a 2...3 a 2.+@b 6 ~     b.s a s 6 2.b (.} } ..3 a a a @@#@$@a K+a a %@&@a *@=@* -@;@G+>@,@>.d v b A ' x b 6 ~ x b 6 ~                 ",
"      @+> > `+            ! 6 b w             T 5 } T - - d A 0.a 4 '@1 s s ..)@b 6 ~   - t a a m 2+(.b (.} _.2.a a a 3 2 !@~@a {@a ]+]@^@/@(@_@:@<@[@s s 1 ! - T } 5 T x b 6 ~ x b 6 ~                 ",
"    & = * = &             - ( a v           ' M a M +.+.S v b 0.9 b+}@2.s c S.x b 6 ~   f+4 a s 7+f+6 b (.} b 4 a s c b } ].|@s.a a 1@2@3@4@5@6@7@9 c s 3 R -   ' M a M B.b 6 8@w b y !                 ",
"    9@0@0@a@                M a ( '         T } } R T v } b v .@2 _.| 4 4 r z x b 6 ~   v a a b +.~ 6 b (._.4 a a s a+b 0.B.b@K+a a c@d@e@f@3 a a s b 0. .z       T 5 } N b 6 g@y b w -                 ",
"    h@L L h@                R } } z       ' M a a+ .} b 5 A d a.} b+2.s a b.' x b 6 ~ +.b a a v   ~ 6 b (.b+s a a 0. .9 9 i@r X.a y+j@k@l@6 a a a s +@) '         ' A b 0.3 6 m@6 b x                   ",
"+   h@0@0@h@                R.W.W.O       z } 0.b+a 5 ] { '   O _.9 s 4 b+R   x b 6 8@r+s a 3 f+  ~ 6 b _.9 a a a  .C+0.0.i@c a a  +n@&   r+a c s s o@              d v s 4 5 m@6 b x       + + +       ",
"# . h@0@0@h@              & p@q@r@s@      z ( } a+M T '       O r 4 s 9 e z   x b 6 t@b+a a 5 -   ~ 6 b r s a a 3 S O } } u@3 a X.v@w@x@  ) ) (.s s (+              - T 3 a 2.m@6 b x       + * , y@@   ",
"z@F A@L L h@          & ; B@C@D@E@F@      ' ) T z '           O c s s 3 ] ' - w b a+,+a a 4 S     ~ 6 b Q 4 a a 2 +.O } } } a a a G@H@        (+s s u@I@#.S z '       ' _.a 2.m@6 b x       + *.> % +   ",
"'+> J@K@0@&.      & F = > H L@M@a f '                         B 3 a s 2 {   +.y c e 4 a a } '     >.6 b N@5 a s ..- O } } t s a 3 ]           (+s s _.c 4 2.e r+{ !     w b 6 @.6 b x         +  @O@= F ",
"P@L Q@R@H S@    + *.> * > '+F T@} } z                         M s a a M '   P } b m s a 4 7+      <.} } r+2.a 9 P   O } } 1 3 4 2.P           (+s a b s 4 m e c k.r+'   @.) ) 8@6 b x         & ; U@* V@",
"9@W@X@Y@Z@G & F = * > = , y@@ O } } O                       - | a a c T     ] c c a s a r +.      O } } u@3 a r T ' O } } 8 1 3 (.+.          C+s a a (.( `@S.u@4 _.z         ~ 6 b x             = O@Z@",
"& = )+ #.#+#,.@#* = F &       <.} } S                       +.2.a a a+'   ' i@a 3 4 a s b.        S } 2 r a s 9 } O O } } B v a M -           a.c a 2 ##! - $#S 2.2.R         ~ 6 b x             `+%#$ ",
"  y@&#*#=#-#;#>#*.+           +.6 b ]                       S 3 a a N -   { b+4 s 4 a b+z       - ] b 2 4 a s s 4 O O } } C+} } R             a.m s ( -       ' v a M -       ~ 6 b x               `+,#",
"    '#)#Z@!#~#@+&             - v a v -                   '  .a a a 0.! - b.4 s 9 s s  .        +.y b b+s s s a c z O } }  .} } <.            a.9 9 8           w b 6 !       ~ 6 b x               x@@ ",
"      . {#]#^#}.                ] b 6 +.                  z b a a a c ! >.r a 4 3 a b+z ' ) ) ' P } 0.4 a 4 s a m   O } } | b 6 >.) ) @.      8 0.0.a.          x b 6 ~       ~ 6 b x                   ",
"                                S } } <.                - x 4 a a a m - C.4 a t s 4 u@  S } } $.] b b s a m s a t   O } 2 } a M S+t 3 8       #.b 6 >.          x b 6 ~       ~ 6 b x                   ",
"                                <.} } S                 >._.a a a a u z t a m }@} } O ! k.s c S+y c 9 a s r s a u   S } b+0.} 7+1 a s r+      #.b 6 >.          w b 6 !       ~ 6 b x                   ",
"                                >.6 b #.                /#4 a a a 3 8  .s s  .+.) ) ' ^.c a Q S+} 9 s a r 6 a a 1   ] b m r } a.0.a 3 S+      { _.0.b.+.      +.5 a 1 -       ~ 6 b x                   ",
"                                ! 6 b w               z Q a s s _.r+<.a+a 2.z       - (.a 4 m.O 2 s a 3  ._.4 a ( - v a m a M 7+3 a r ~       ' c.4 2.P     - S b 4 ]         ~ 6 b x                   ",
"                                - ( a v               x s s 4 t S   - 6 b v       z C.4 a 2.+.O c a a _.)@} 4 a ( +.6 3 3 _.x M a s 5 ~         P 5 3 C.>.$.r+N 3 v {         ~ 6 b x                   ",
"                                  ( a (             ' t a s m } O   - ) ) @.    - 1 s a a y   O 4 a s a+r a 9 a ( <.2 4 4 0.x } 9 4 6 >.        - T | 2.5 2.9 a 8 @.          ~ 6 b x                   ",
"                                  v a ( -         - R 3 a b b 0.7+& + + &     ' S 9 a a 4 P   O 4 a 3 _.a s c a ( B 3 a a b+( a } 2 } <.          ' T } 4 4 9 ( )             ~ 6 b x                   ",
"                                  w b 6 !         { _.a c } s a u (# @ @`+  ' T } a a a t '   S 9 4 m a a a 0.a 1 .@a a a 9 t } )@} } S             ' /.w v S z               ~ 6 b x                   ",
"                                  #.b 6 >.      ' b.a a 6 6 a a m _#> > :#{ r+} b s a a b.  ' ] 9 2.3 4 a 3 Q a u } a a a 3 a M <.6 b ]                                       ~ 6 b x                   ",
"                                  P } } P       T <#s <#7+e a a 9 [#=@=@}#w a u 2.a a 9 {   T _.b m t 4 a b+6 a r b+s 4 s s 2 S - v a v -                                     ! y b w -                 ",
"                                  +.6 b ]       T a a |#1#0.s 4 4 2#_@L+3#b M )@c a a (.' ' b.a 9 _.+@s a 5 ( a b a | a+s s (.+.  ] b 6 +.                                    - ] b y +.                ",
"                                  - v a v -     ) 4#5#6#7#%+s 3 Q a ^+t+8#/.@.w s a s c.- S m 3 3 /.a+s s 8 ( a 4 } S 1 s s 7 -   { } } S                           ' +.+.-     { } } S                 ",
"                                    w b 6 !       ; )#Z@9#;+a a b 0#a a#b#c#' t a a m S { e s 4 ] c#b+a b z 1 a s y >.2 a 3 d#    ' e a u -           ' ' '       @.8 } w )     ' v a M -               ",
"                                    #.b 6 >.        `+= e#a a a s |+f#a#g#A b.3 a s t a.b.a a 1 @.$.3 a t   u a s ] f+c a b+!     ' 2.a 3 P         @./.v )     ' /.b m b 8 '     ] b 6 +.              ",
"                                    S } } <.          h#i#a a a 9 [#j#k#l#3 c a a s 2.+@9 s m T   ,+s s w   r a 4 P r+4 a 6     z ( 4 a a 6       @.8 3 _.8     { 5 2 u t 5 z     P } } P               ",
"                                    <.} } S           <.M+a a a (.:#> m#n#b+a a a a d+<#s 4 b.' +.r a b <.' b a b <.N a 9 8   - R 9 s s a m +.  ' /.b b a M   ' ] b v S+} } S     +.6 b ]               ",
"                                    +.6 b ]           1 a a a z+o#9@> p#[#0.s a a $+q#c 9 _.{   S.4 a 5 - { 4 a 2.S 9 s m z   { 1 4 1 m a 4 B+  T 5 _.r a (   T 5 } T f+6 b #.    -  .a 5 z             ",
"                                    - v a v -       z c a a a a#r#S@=@s#5+t#u#;+v#w#x#y#2 T ' - 5 a 4 S.- ] s a 2 ,+s a 1 ' ' r+a M @.7 s a 1 z M a M | a ( ' M a M ' ! 6 b w       x 9 9 O             ",
"                                      ] b 6 +.    '  .a a a ;+z#A#'+B#C#8.D#E#F#a G#H#a r+'   >.b a b++.+.y s a 0.9 9 3 ] - T } 5 T   S c s 0.b.} } T ( a ( { } } S   - ( a v       a.0.0.8             ",
"                                      S } } <.  - R 9 a a a 7@I#J#K#L#M#N#O#a P#T+e b v {     r+4 a 6   S } 4 a 4 b b _.P d v b A '   <.r 4 4 r a M ' ( a 1 ] b y +.    v a ( -     +.v b ] '           ",
"                                      O } } O   S _.a s a a 4 Q#R#S#T#U#V#W#8.X#b 0.} T -   ' 5 a 3 S.' M a 9 a a r c y <.A b v d     >.(.4 s 4 b+S - ( a 6 y b ] -     ] b 5 S ) ' - ] } 5 +.          ",
"                                      O } } O ' u a 3 b s s 9 y#&@Y#Z#`# $O..$3 c a M '     S 9 a r +.T } } b+a 3 r b ] S 5 } T -     ~ 6 3 4 a m <.+.6 b (.} } P       S _.9 0.5 z   #.b 6 >.          ",
"                                      O } } B R 3 a } c.b 5 _.3 2 a +$@$#$v.b a 4 u T     ' ( a s b.+.M a M  .a t 2 } S.M a M '       ~ 6 9 3 a 9 S $.} _.5 b y +.      A+b s a 2.O   #.b 6 >.          ",
"                                      <.} } 1 b+s m R @.) l.(.3 4 8 ) P } t c s 3 S '     T 0.s b S T } } T ) { 1 b y 7+} } T         ~ 6 3 3 9 4 v w } r } b ] -     z .@4 a s 2.<.  8 0.0.a.          ",
"                                      +.y 9 c a s ] '     - 8 a w @.  ] b 5 9 a c +.    ' M a 3 2 O M a M '   +.y b b.b.a M '         ~ (.s s e 6 b a+c 2.2.} P   - d i@3 a a s 6 >.  B 9 9 B           ",
"                                      - ] 4 s s 1 @.        ) ) )   ' v a (.9 a 2.!     T _.3 a i@R } 5 T     P } } ..} } T           ~ (.s 3 A S | 3 4 3 c 6 +.' T v 3 9 m a s 5 ~   O 0.0.x           ",
"                                        S c a } {                   { } _.(.s s _.+.  ' M a c c ..v b ] '     ] b 5 ( a M '           ! w b w @.' T 3 a s a (.B+M } b 1 R .@9 s u !   +.( a ]           ",
"                                        <.0.0.b.                    ] b e k.4 9 _.<.- T } 0.b } ,+} } {     - v a _._.} T             - ) $$%$+ & ' 2.a a s b } a 5 A &$*$=$@@9  .-   ! 6 b w           ",
"                                        >.6 b #.                  ' v a } _.2.m } S { v b e c 5 ( a M '     +.6 c r a M '                 y@ @ @; - | a a a 3 } M T -$% H ;$>$( T     ~ 6 b x           ",
"                                        ! 6 b w                   { } r t b ,+5 b 7 r+a b.(.a _._.} T       <.} b c } T                   ,$K H '$! 5 s a 2.w { ' & @+H )$@+l@' '     B+t 3 #.          ",
"                                        - v a v -               - ] b 2.r } ^.6 c e } | B+6 3 b a r+'       S 2 3 a M '                   !$> > S@~ _.a 3 R -     ; ~$0@{$`+        @.c.a } {           ",
"                                          ] b 6 +.              +.y c r a M +.M a 9 2 S $.6 4 s 6 {         m.4 4 2 T                     y@% z@'$]$r a 3 O     & B@H '+y@- +.S...1 ( b ( 8 '           ",
"                                          P } } P               P } m b } S   R m s 1 +.+.( 2._.8 -         y s s C.'                     @ + = 3+^$/$a 3 ($~ >._$:$L+<$[$w y 0.s a b C+)               ",
"                                          +.6 b ]               ] b b 9 y +.  z 5 } R - ' ) T z '         ' t a 3 P                         - }$|$1$2$a s a+6 3$:+4$5$0 b b b 0.b } r+d -               ",
"                                          - ( a v             - v a c b ] -   ' ) ) '                     +.b a _.'               - +.<.O R M |@:+6$<+a a c b 7$q@j.j+,@6 y ] S.<.+.                    ",
"                                             .a } z           +.6 3 9 } P                                 +.6 b ]     ' z O O S ] v 6 } } } a b 8$9$0$a$b$c$x d$L+e$f$>.~ ! g$y@y@&                     ",
"                                            7+9 9 S           S _.9 3 y +.                            - ! 8@B+8 7 ] v ( } } } } b a b } } } v ] S h$i$p#j$F   9@> > 9@y@'#k$% K  @+                     ",
"                                            <.t 3 b.          M a 9 c ] -                   - +.<.S ] v 6 6 6 } } b a a } } } } 6 v ] S O z '       & &.* = . 9@> l$G m$K@Z@* H  @+                     ",
"                                            - M a v z z O O O 2 a s b M O O O B B B O O S ] v 6 } } b a b b b } } 6 ( M R O O <.+.-                   }.%#H @+n$W@Y@o$Z@p$q$% B@; &                     ",
"                                              R } } R ( } } _.4 a a 4 2 } } } 0.9 0.} } } b a b } } 6 v w x #.S <.+.-                                 @ }.'+L r$=#s$t$u$k$'#@                           ",
"                                              z u 5 b.1 } } _.3 a s c } } } } 0.9 0.} } } 6 v ] S <.+.-                                                 @ F r$t$v$p$w$4.@                               ",
"                  . + + @                     ' /.(.x$y$z$z$a.x .@M B O O O O B B B O O <.+.-                                                             & A$X@p$B$,$                                  ",
"                  ; $ % y@      . + + @         C$D$E$F$* +                                                                                                 G$$ H$I$                                    ",
"                  ; 3+> , @   & # $ J$@     @ ,$K$L$M$N$*.+                                                                                                 O$P$P$Q$                                    ",
"                  & B@H '+y@  ; 3+> , @   & F R$L Z@K *.+                                                                                                                                               ",
"                    '#> > '#  B@H K y@@ + *.3+Z@H m$4.@                                                                                                                                                 ",
"                    y@U@Z@)#`+% * S$@ }.% H T$n$'$`+                                                                                                                                                    ",
"                    @ @+H H @+U$* V$}.G * = ; &                                                                                                                                                         ",
"                      `+U@W$> X$* U$Y$* = +                                                                                                                                                             ",
"                        '$H Z$H `$a@ % %F                                                                                                                                                               ",
"                        `+% W$.%+%@%. . #%                                                                                                                                                              ",
"                          . B@)$, $%                                                                                                                                                                    ",
"                            . . .                                                                                                                                                                       ",
"                                                                                                                                                                                                        ",
"                                                                                                                                                                                                        "};
