/* XPM */
static char * door1_xpm[] = {
"100 100 328 2",
"  	c #FFFFFF",
". 	c #F4F4F4",
"+ 	c #E9E9E9",
"@ 	c #CDCDCD",
"# 	c #BDBDBD",
"$ 	c #AEAEAE",
"% 	c #DFDEDE",
"& 	c #9E9D9D",
"* 	c #838383",
"= 	c #6D6C6C",
"- 	c #656464",
"; 	c #5B5B5B",
"> 	c #494848",
", 	c #636363",
"' 	c #6C6B6B",
") 	c #A2A2A2",
"! 	c #BAB9B9",
"~ 	c #DDDDDD",
"{ 	c #E1E1E1",
"] 	c #C6C6C6",
"^ 	c #8E8E8E",
"/ 	c #777676",
"( 	c #373636",
"_ 	c #232122",
": 	c #0D0809",
"< 	c #1D1B1C",
"[ 	c #120F0F",
"} 	c #3B393A",
"| 	c #696868",
"1 	c #B3B3B3",
"2 	c #E0E0E0",
"3 	c #CBCBCB",
"4 	c #8A8A8A",
"5 	c #454444",
"6 	c #454445",
"7 	c #4C4C4C",
"8 	c #535252",
"9 	c #5A5A5A",
"0 	c #6C6C6C",
"a 	c #787878",
"b 	c #858585",
"c 	c #616161",
"d 	c #414041",
"e 	c #3C3B3B",
"f 	c #959595",
"g 	c #FEFEFE",
"h 	c #FDFDFD",
"i 	c #2E2D2D",
"j 	c #353434",
"k 	c #4B4A4B",
"l 	c #919090",
"m 	c #A5A5A5",
"n 	c #BBBBBB",
"o 	c #C4C4C4",
"p 	c #AFAFAF",
"q 	c #777777",
"r 	c #606060",
"s 	c #464646",
"t 	c #D7D7D7",
"u 	c #2A2929",
"v 	c #4F4E4E",
"w 	c #545353",
"x 	c #6A6A6A",
"y 	c #919191",
"z 	c #ABABAB",
"A 	c #686767",
"B 	c #302F2F",
"C 	c #9C9B9C",
"D 	c #898989",
"E 	c #646464",
"F 	c #7D7C7C",
"G 	c #696969",
"H 	c #262424",
"I 	c #1A1818",
"J 	c #BCBBBB",
"K 	c #807F7F",
"L 	c #727171",
"M 	c #979797",
"N 	c #6F6F6F",
"O 	c #797979",
"P 	c #A6A5A5",
"Q 	c #201E1F",
"R 	c #434242",
"S 	c #605F5F",
"T 	c #363435",
"U 	c #7E7E7E",
"V 	c #ACACAC",
"W 	c #908F8F",
"X 	c #848484",
"Y 	c #2C2B2B",
"Z 	c #898889",
"` 	c #646363",
" .	c #171314",
"..	c #5C5C5C",
"+.	c #878787",
"@.	c #3F3E3E",
"#.	c #656565",
"$.	c #9D9D9D",
"%.	c #838282",
"&.	c #4E4E4E",
"*.	c #161313",
"=.	c #323030",
"-.	c #1C1A1A",
";.	c #737373",
">.	c #575757",
",.	c #5F5E5E",
"'.	c #343333",
").	c #767575",
"!.	c #403F3F",
"~.	c #525850",
"{.	c #717171",
"].	c #393838",
"^.	c #7F7F7F",
"/.	c #DCEED8",
"(.	c #495D42",
"_.	c #B5EEA5",
":.	c #325922",
"<.	c #E7F9E3",
"[.	c #9BE981",
"}.	c #396B21",
"|.	c #F6FDF4",
"1.	c #BBEFAC",
"2.	c #85E65E",
"3.	c #498230",
"4.	c #EEFAEB",
"5.	c #98E87C",
"6.	c #7EE552",
"7.	c #6A9F59",
"8.	c #424640",
"9.	c #C9F2BE",
"0.	c #8FE76E",
"a.	c #7AA26E",
"b.	c #ACEC98",
"c.	c #8EA687",
"d.	c #FEFFFE",
"e.	c #F7FDF6",
"f.	c #CDF3C4",
"g.	c #79E446",
"h.	c #93E875",
"i.	c #A8ADA7",
"j.	c #9B9B9B",
"k.	c #5D5C5D",
"l.	c #CAF2BF",
"m.	c #B1EDA0",
"n.	c #C4F1B8",
"o.	c #95E878",
"p.	c #C0F0B3",
"q.	c #8CE76B",
"r.	c #91E772",
"s.	c #7AE448",
"t.	c #9EE986",
"u.	c #87E661",
"v.	c #DBD4A9",
"w.	c #E1D99F",
"x.	c #E6DD97",
"y.	c #D1CEB5",
"z.	c #D6F5CF",
"A.	c #B0EC9E",
"B.	c #A9EB94",
"C.	c #84E55D",
"D.	c #80E555",
"E.	c #595959",
"F.	c #EFE387",
"G.	c #F3E77C",
"H.	c #F1E581",
"I.	c #F0E484",
"J.	c #E9DF92",
"K.	c #DED7A5",
"L.	c #ADEC9B",
"M.	c #84E55B",
"N.	c #CBF2C0",
"O.	c #7CE44C",
"P.	c #565555",
"Q.	c #848384",
"R.	c #555454",
"S.	c #F2E67F",
"T.	c #F4E77B",
"U.	c #F2E67E",
"V.	c #E8DD77",
"W.	c #E8DD76",
"X.	c #F2E580",
"Y.	c #F3E67E",
"Z.	c #D2F4CA",
"`.	c #90E770",
" +	c #7B7B7B",
".+	c #F3E67D",
"++	c #E9DD75",
"@+	c #C2B862",
"#+	c #C2B861",
"$+	c #F4E77C",
"%+	c #C5F1B9",
"&+	c #7DE44E",
"*+	c #82E558",
"=+	c #ACA255",
"-+	c #B4AA59",
";+	c #D7CB6C",
">+	c #E5DC99",
",+	c #E8DE93",
"'+	c #EBE08F",
")+	c #CABF67",
"!+	c #B2A959",
"~+	c #BDB35E",
"{+	c #D7CB6D",
"]+	c #EADF91",
"^+	c #E4DB9A",
"/+	c #E4D977",
"(+	c #E5D976",
"_+	c #C2B863",
":+	c #BAB05C",
"<+	c #BCB35F",
"[+	c #BCB260",
"}+	c #D9D3AB",
"|+	c #E7DD96",
"1+	c #EEE289",
"2+	c #E8DE94",
"3+	c #EAE090",
"4+	c #ECE18C",
"5+	c #515050",
"6+	c #282627",
"7+	c #252829",
"8+	c #33383A",
"9+	c #353738",
"0+	c #343738",
"a+	c #343839",
"b+	c #343739",
"c+	c #222223",
"d+	c #202324",
"e+	c #303233",
"f+	c #1E2021",
"g+	c #202A2D",
"h+	c #2B3B3F",
"i+	c #2E3A3E",
"j+	c #2A3C40",
"k+	c #283C41",
"l+	c #2C3B3F",
"m+	c #273C42",
"n+	c #2B3B40",
"o+	c #384A4E",
"p+	c #365359",
"q+	c #4E6C73",
"r+	c #555F62",
"s+	c #464E51",
"t+	c #6A9099",
"u+	c #7B8A8E",
"v+	c #708E96",
"w+	c #5895A2",
"x+	c #5D94A0",
"y+	c #63929D",
"z+	c #65929C",
"A+	c #5995A2",
"B+	c #5696A3",
"C+	c #6D8F97",
"D+	c #6D9EA8",
"E+	c #6DAFBD",
"F+	c #7EC6D6",
"G+	c #92CBD9",
"H+	c #859699",
"I+	c #505355",
"J+	c #ADC2C7",
"K+	c #B5CBD0",
"L+	c #BDC7CA",
"M+	c #ABCFD7",
"N+	c #A3D2DD",
"O+	c #9AD5E2",
"P+	c #A8D0DA",
"Q+	c #86DAEC",
"R+	c #7DDDF0",
"S+	c #A7D0DA",
"T+	c #9BD4E2",
"U+	c #B0CDD3",
"V+	c #9FA7AA",
"W+	c #99D5E3",
"X+	c #81DCEE",
"Y+	c #95D6E4",
"Z+	c #BFC6C8",
"`+	c #BEC7C9",
" @	c #C3C4C5",
".@	c #262525",
"+@	c #757575",
"@@	c #999999",
"#@	c #C3C3C3",
"$@	c #B7B7B7",
"%@	c #868686",
"&@	c #323131",
"*@	c #636262",
"=@	c #706F6F",
"-@	c #969696",
";@	c #4F584D",
">@	c #BADDB1",
",@	c #C1F0B4",
"'@	c #35522A",
")@	c #75C854",
"!@	c #2C511B",
"~@	c #395330",
"{@	c #9ECF90",
"]@	c #A3EA8C",
"^@	c #BEEFB1",
"/@	c #7FE553",
"(@	c #A0EA89",
"_@	c #9DE984",
":@	c #C1E7B8",
"<@	c #A4EA8E",
"[@	c #A1AE9E",
"}@	c #8DE76C",
"|@	c #A4D297",
"1@	c #63735E",
"2@	c #A2EA8B",
"3@	c #81E557",
"4@	c #60964D",
"5@	c #1C2E13",
"6@	c #7BE44A",
"7@	c #75CA52",
"8@	c #30591E",
"9@	c #10110B",
"0@	c #56A035",
"a@	c #4B7A39",
"b@	c #434841",
"c@	c #DFF7DA",
"d@	c #BED8B8",
"e@	c #424141",
"f@	c #83E55A",
"g@	c #CBF2C1",
"h@	c #222020",
"i@	c #7EE550",
"j@	c #BBEFAD",
"k@	c #89E665",
"l@	c #B6EEA7",
"m@	c #AAEB96",
"                                                                                                                                                                                                        ",
"                                                                                                                                                                                                        ",
"                                                                                                                                                                                                        ",
"                                                                                                                                                                                                        ",
"                                                                                                                                                                                                        ",
"                                                                                                                                                                                                        ",
"                                                                                                                                                                                                        ",
"                                        . + @ # $ $ $ $ $ $ $ $ $ $ $ $ $ $ $ $ $ $ $ $ $ $ $ $ $ $ $ $ $ $ $ $ $ $ # @ % + .                                                                           ",
"                      . + @ # $ $ & * = - ; ; > > > > > > > > > > > > > > > > > > > > > > > > > > > > > > > > > > > > ; ; , ' ) ! ~                                                                     ",
"            { ] $ & ^ / , ; > > > ( _ : : _ _ ( ( ( ( ( ( ( ( ( ( ( ( ( ( ( ( ( ( ( ( ( ( ( ( ( ( ( ( ( ( ( ( ( ( ( ( _ _ _ < [ } | 1 2                                                                 ",
"          3 4 > 5 > _ _ _ _ ( ( ( ( 6 7 8 9 0 a b b b b b b b b b b b b b b b b b b b b b b b b b b b b b b b b b b a 0 c 9 d _ [ < e f 3           g         h h                                       ",
"        . f i j 5 ( 6 k 9 0 a b b l m n o o o o o o o o o o o o o o o o o o o o o o o o o o o o o o o o o o o o o o o o o n p q r s ( _ = f 3         g g                                               ",
"        t , u v r w q 1 n o o o o o o o o o o o o o o o o o o o o o o o o o o o o o o o o o o o o o o o o o o o o o o o o o o o n m a 8 : _ x y ]                                                       ",
"        z > ( A B _ = C o o o o o o o o o o o o o o o o o o o o o o o o o o o o o o o o o o o o o o o o o o o o o o o o o o o o o o n D E 6 : u = 3             g                                       ",
"        ^ _ 6 F G 6 H = f n o o o o o o o o o o o o o o o o o o o o o o o o o o o o o o o o o o o o o o o o o o o o o o o o o o o o o o n D > < I 4 J             g g                                   ",
"        K _ 6 z n D 9 _ k L C o o o o o o o o o o o o o o o o o o o o o o o o o o o o o o o o o o o o o o o o o o o o o o o o o o o o o o o M N > : O P {           g                                   ",
"        K _ 6 z o n D 9 Q _ E m n o o o o o o o o o o o o o o o o o o o o o o o o o o o o o o o o o o o o o o o o o o o o o o o o o o o o o o n D E : R P {                                             ",
"        K _ 6 z o o n f S T ( E U V o o o o o o o o o o o o o o o o o o o o o o o o o o o o o o o o o o o o o o o o o o o o o o o o o o o o o o o W G ( ( X 1 .                                         ",
"        K _ 6 z o o o o m D E H Y 8 Z o o o o o o o o o o o o o o o o o o o o o o o o o o o o o o o o o o o o o o o o o o o o o o o o o o o o o o o V U R : = P {                                       ",
"        K _ 6 z o o o o o o C `  .[ R m o o o o o o o o o o o o o o o o o o o o o o o o o o o o o o o o o o o o o o o o o o o o o o o o o o o o o o o V U ..Q > +.{                                     ",
"        K _ 6 z o o o o o o o M @.[ < #.$.o o o o o o o o o o o o o o o o o o o o o o o o o o o o o o o o o o o o o o o o o o o o o o o o o o o o o o o o C ` Q u r #                                   ",
"        K _ 6 z o o o o o o o o %.&.[ I @.Z o o o o o o o o o o o o o o o o o o o o o o o o o o o o o o o o o o o o o o o o o o o o o o o o o o o o o o o o M c I *.=.#                                 ",
"        K _ 6 z o o o o o o o o o C > [ [ &.D n o o o n n 1 1 $.l b b b b b b b b b b b b b b b b b b b b b b b b b b b b b b b b b b b b b b b b b b b M V o M 7 -.-.;.                                ",
"        ^ _ 6 $.o o o o o o o o o o %.> H : k ` K b a ` k 7 6 6 ( ( ( ( ( ( ( ( ( ( ( ( ( ( ( ( ( ( ( ( ( ( ( ( ( ( ( ( ( ( ( ( ( ( ( ( ( ( ( ( ( ( ( ( ( 7 7 7 >.i *.,.                                ",
"        & > ( l o o o o o o o o o o o V U >.I _ Y '.( _ _ : _ _ ( ( ( ( ( ( ( ( ( ( ( ( ( ( ( ( ( ( ( ( ( ( ( ( ( ( ( ( ( ( ( ( ( ( ( ( ( ( ( ( ( ( ( ( ( : : : : '.: ,..                               ",
"        # > ( a o o o o o o o o o o o o o ).!.[ H '.( k 8 9 9 0 a b b b b b b b b b b b b b b b b b b b b b b b b b b b b b b b b b b b b b b b b b b b N ..7 7 G d _ ; +                               ",
"        t ~._ ` o o o o o o o o o o o o o {._ ].#.^.l m n o o o o o o o o o o o o o o o o o o o o o o o o o o o o o o o o o o o o o o o o o o o o o o o o o o o o c _ ; %                               ",
"        /.(.: 8 o o o o o o o o o o o o V 8 : ..n o o o o o o o o o o o o o o o o o o o o o o o o o o o o o o o o o o o o o o o o o o o o o o o o o o o o o o o o c _ ; %                               ",
"        _.:.: 7 o o o o o o o o o o o o M ( ( N o o o o o o o o o o o o o o o o o o o o o o o o o o o o o o o o o o o o o o o o o o o o o o o o o o o o o o o o o c _ ; %                               ",
"      <.[.}.: 7 V o o o o o o o o o o o b ( ( b o o o o o o o o o o o o o o o o o o o o o o o o o o o o o o o o o o o o o o o o o o o o o o o o o o o o o o o o o c _ ; %                               ",
"    |.1.2.3.( ( M o o o o o o o o o o o b ( ( b o o o o o o o o o o o o o o o o o o o o o o o o o o o o o o o o o o o o o o o o o o o o o o o o o o o o o o o o o c _ ; %                               ",
"    4.5.6.7.8.( b o o o o o o o o o o o b ( ( b o o o o o o o o o o o o o o o o o o o o o o o o o o o o o o o o o o o o o o o o o o o o o o o o o o o o o o o o o c _ ; %                               ",
"    9.0.6.a.> ( b o o o o o o o o o o o l ( ( a o o o o o o o o o o o o o o o o o o o o o o o o o o o o o o o o o o o o o o o o o o o o o o o o o o o o o o o o o c _ ; %                               ",
"    b.6.0.c.> ( b o o o o o o o o o o o $.6 _ 0 o o o o o o o o o o o o o o o o o o o o o o o o o o o o o o o o o o o o o o o o o o o o o o o o o o o o o o o o o c _ ; %               d.|.|.e.        ",
"f.  5.g.h.i.> ( b o o o o o o o o o o o 1 6 _ 9 o o o o o o o n j.k.k.0 1 n o o o o o o o o o o o o o o o o o o o o o o o o o o o o o o o o o o o o o o o o o o o c _ ; %               |.l.m.n.<.      ",
"o.n.h.g.h.$ > ( b o o o o o o o o o o o n 8 : 8 n o o o o o o W 8 I : H 6 G V o o o o o o o o o o o o o o o o o o o o o o o o o o o o o o o o o o o o o o o o o o c _ ; %               |.p.q.r.1.<.    ",
"s.t.u.g.h.$ > ( b o o o o o o o o o o o o 9 _ 6 1 o o o o o Z 7  . .I  . .( U V o o o o o o o o o o o o o o o o o o o v.w.x.w.w.w.w.w.v.y.o o o o o o o o o o o o c _ ; %               e.z.A.u.u.B.<.  ",
"C.g.D.g.h.& > ( l o o o o o o o o o o o o c _ 6 z o o o o o 0  .Q w G E.d u !.M o o o o o o o o o o o o o o o o o o o F.G.G.H.H.H.H.H.I.J.K.y.o o o o o o o o o o c _ ; %                   <.L.M.u.1.N.",
"b.6.O.g.h.& i 6 l o o o o o o o o o o o o 0 _ 6 $.o o o o o P. .Y Q.o M R.H ( M o o o o o o o o o o o o o o o o o o y.S.T.T.U.V.W.G.U.X.Y.H.w.o o o o o o o o o o c _ ; %                     Z.1.`.g.h.",
"z.B.g.g.u.& > ( l o o o o o o o o o o o o a ( ( l o o o o o  +_ _ k 9 d < I G V o o o o o o o o o o o o o o o o o o v..+T.++@+#+#+T.T..+$+G.x.o o o o o o o o o o c _ ; %                         L.6.O.",
"  %+&+g.*+# > ( a o o o o o o o o o o o o l ( ( a o o o o o C G ( : _ I Q 8 C o o o o o o o o o o o o o o o o o o o w..+#+=+T.T.++#+-+;+;+G.x.o o o o o o o o o o c _ ; %                         Z.t.D.",
"  |.6.g.*+@ ; _ 0 o o o o o o o o o o o o m 6 _ ` o o o o o o V U ..6 > N M o o o o o o o o o o o o o o o o o o o o >+Y.T.T.T.T.T.T.T.;+;+G.x.o o o o o o o o o o 0 _ ; @                           <.B.",
"  |.h.g.5.+ ; _ 9 o o o o o o o o o o o o n 7 : 8 o o o o o o o o n 1 1 n o o o o o o o o o o o o o o o o o o o o o ,+G.G.T.;+T.T.T.T.T.T.$+x.o o o o o o o o o o a ( > #                             <.",
"    N.N.N.. - : 8 o o o o o o o o o o o o o 8 : 7 n o o o o o o o o o o o o o o o o o o o o o o o o o o o o o o o o '+G.G.)+!+T.++~+;+{+++G.]+o o o o o o o o o o b ( > $                               ",
"            = : 7 n o o o o o o o o o o o o ` _ 6 m o o o o o o o o o o o o o o o o o o o o o o o o o o o o o o o o ^+.+$+/+(+_+:+~+<+[+#+G.w.o o o o o o o o o o b ( > $                               ",
"            / _ 6 1 o o o o o o o o o o o o a ( ( l o o o o o o o o o o o o o o o o o o o o o o o o o o o o o o o o }+|+1+H.H.T..+.+.+G.G.F.v.o o o o o o o o o o l ( ( &                               ",
"            ^ _ 6 $.o o o o o o o o o o o o l ( ( a o o o o o o o o o o o o o o o o o o o o o o o o o o o o o o o o o o y.v.2+3+4+'+'+'+^+}+o o o o o o o o o o o m 6 _ *                               ",
"            & > ( l o o o o o o o o o o o o m 6 _ ` o o o o o o o o o o o o o o o o o o o o o o o o o o o o o o o o o o o o o o o o o o o o o o o o o o o o o o o n 7 : =                               ",
"            # > ( a o o o o o o o o o o o o n 8 : 8 n o o o o o o o o o o o o o o o o o o o o o o o o o o o o o o o o o o o o o o o o o o o o o o o o o o o o o o o 8 : - .                             ",
"            @ ; _ 0 o o o o o o o o o o o o o ` _ 6 m o o o o o o o o o o o o o o o o o o o o o o o o o o o o o o o o o o o o o o o o o o o o o o o o o o o o o n m w < ; t                             ",
"            + ; _ 9 o o o o o o o o o o o o o a ( _ 5+c b b b b b b b b b b b b b b b b b b b b b b b b b b b b b b b b b b b b b b b b b b b b b b b b b b a 0 9 k i 6+> #                             ",
"            . = : 8 n o o o o o o o o o o o o b ( < : 7+8+9+( ( ( ( ( ( ( 9+0+a+9+0+a+b+a+9+9+( ( ( ( ( ( ( ( ( ( ( ( ( ( ( ( ( ( ( ( ( ( ( ( ( ( ( ( ( 9+9+9+c+d+d+e+j > $                             ",
"              * _ 6 m o o o o o o o o o o o o l ( < f+g+h+8+( ( ( ( ( ( ( i+j+k+l+h+m+k+k+h+i+( ( ( ( ( ( ( ( ( ( ( ( ( ( ( ( ( ( ( ( ( ( ( ( ( ( ( ( ( i+l+n+o+p+q+r+B > $                             ",
"              & ( ( l o o o o o o o o o o o o m 6 < s+t+t+u+b b b b b b b v+w+x+y+z+A+B+A+B+C+b b b b b b b b b b b b b b b b b b b b b b b b b b b b b v+A+D+E+F+G+H+( ( &                             ",
"              $ > ( b o o o o o o o o o o o o n 8 : I+J+K+L+o o o o o o o M+N+O+P+N+O+Q+R+Q+S+o o o o o o o o o o o o o o o o o o o o o o o o o o o o o M+M+O+T+T+U+V+6 _ *                             ",
"              # > ( a o o o o o o o o o o o o o 9 _ 6 1 o o o o o o o o o o o o o o o W+X+Y+Z+o o o o o o o o o o o o o o o o o o o o o o o o o o o o o o o Z+`+`+ @n 8 : = .                           ",
"              @ ; _ 0 o o o o o o o o o o o o o c _ 6 z o o o o o o o o o o o o o o o M+M+M+o o o o o o o o o o o o o o o o o o o o o o o o o o o o o o o o o o o o o ` _ ; t                           ",
"              + , _ 9 n o o o o o o o o o o o o 0 _ 6 $.o o o o o o o o o o o o o o o o o o o o o o o o o o o o o o o o o o o o o o o o o o o o o o o o o o o o o o o a ( > #                           ",
"              . * _ k m o o o o o o o o o o o o a ( ( l o o o o o o o o o o o o o o o o o o o o o o o o o o o o o o o o o o o o o o o o o o o o o o o o o o o o o o o b ( > $                           ",
"                ^ ( ( $.o o o o o o o o o o o o l ( ( a o o o o o o o o o o o o o o o o o o o o o o o o o o o o o o o o o o o o o o o o o o o o o o o o o o o o o o o l ( > &                           ",
"                & i 6 l o o o o o o o o o o o o $.6 _ 0 o o o o o o o o o o o o o o o o o o o o o o o o o o o o o o o o o o o o o o o o o o o o o o o o o o o o o o o $.6 _ ^                           ",
"                & > ( l o o o o o o o o o o o o z 6 _ c o o o o o o o o o o o o o o o o o o o o o o o o o o o o o o o o o o o o o o o o o o o o o o o o o o o o o o o 1 6 _ /                           ",
"                # > ( a o o o o o o o o o o o o z 6 _ c o o o o o o o o o o o o o o o o o o o o o o o o o o o o o o o o o o o o o o o o o o o o o o o o o o o o o o o n 5+: v ]                         ",
"                t ; _ ` o o o o o o o o o o o o z 6 _ c o o o o o o o o o o o o o o o o o o o o o o o o o o o o o o o o o o o o o o o o o o o o o o o o o o o o o o o o c < .@$                         ",
"                . - : 8 o o o o o o o o o o o o z 6 _ c o o o o o o o o o o o o o o o o o o o o o o o o o o o o o o o o o o o o o o o o o o o o o o o o o o o o o o o o +@6+j @@                        ",
"                  = : 7 n o o o o o o o o o o o z 6 _ c o o o o o o o o o o o o o o o o o o o o o o o o o o o o o o o o o o o o o o o o o o o o o o o o o o o o o o o o l ( > &                         ",
"                  * _ 6 m o o o o o o o o o o o z 6 _ c o o o o o o o o o o o o o o o o o o o o o o o o o o o o o o o o o o o o o o o o o o o o o o o o o o o o o o o o $.6 _ ^                         ",
"                  & ( ( l o o o o o o o o o o o z 6 _ c o o o o o o o o o o o o o #@o o o o o o o o o o o o o o o o o o o o o o o o o o o o o o o o o o o o o o o o o o z 6 _ K                         ",
"                  $ > ( b o o o o o o o o o o o z 6 _ c o o o o o o n $@F %.%@o o o o o o o o o o o o o o o o o o o o o o o o o o o o o o o o o o o o o o o o o o o o o z 6 _ K                         ",
"                  $ > ( b o o o o o o o o o o o z 6 _ c o o o o o C L 9 &@[ R C o o o o o o o o o o o o o o o o o o o o o o o o o o o o o o o o o o o o o o o o o o o o 1 6 _ /                         ",
"                  # > ( a o o o o o o o o o o o z 6 _ c o o o o V G _ H u  . .L o o o o o o o o o o o o o o o o o o o o o o o o o o o o o o o o o o o o o o o o o o o o n 7 : =                         ",
"                  t ; _ ` o o o o o o o o o o o z 6 _ c o o o o b 6+< 6 *@d : 8 j.o o o o o o o o o o o o o o o o o o o o o o o o o o o o o o o o o o o o o o o o o o o o 7 : -                         ",
"                  . = : 8 n o o o o o o o o o o z 6 _ c o o o o +@< < =@o * 6 _  +#@o o o o o o o o o o o o o o o o o o o o o o o o o o o o o o o o o o o o o o o o o o o 7 : -                         ",
"                    * _ 6 m o o o o o o o o o o z 6 _ c o o o o +@6+6++@o 1 6 _ 9 #@o o o o o o o o o o o o o o o o o o o o o o o o o o o o o o o o o o o o o o o o o o o 7 : -                         ",
"                    z ( ( %.o o o o o o o o o o z 6 _ c o o o o M ( B c m -@6 : ` o o o o o o o o o o o o o o o o o o o o o o o o o o o o o o o o o o o o o o o o o o o o 7 : -                         ",
"                    t , _ ` n o o o o o o o o o z 6 _ c o o o o V G : B 7 e _ ( U o o o o o o o o o o o o o o o o o o o o o o o o o o o o o o o o o o o o o o o o o o o o 7 : -                         ",
"                    . * _ k m o o o o o o o o o z 6 _ c o o o o o W G ( : Q _ G V o o o o o o o o o o o o o o o o o o o o o o o o o o o o o o o o o o o o o o o o o o o o 7 : -                         ",
"                      & ( ( l o o o o o o o o o 1 6 _ 9 o o o o o o V U ` 9  +C o o o o o o o o o o o o o o o o o o o o o o o o o o o o o o o o o o o o o o o o o o o o o 8 : - .                       ",
"                      ] > ( N o o o o o o o o o n 8 : 8 n o o o o o o o o o o o o o o o o o o o o o o o o o o o o o o o o o o o o o o o o o o o o o o o o o o o o o o o o 9 _ ;@>@,@Z.<.                ",
"                      { O : ..V o o o o o o o o o 9 _ 6 1 o o o o o o o o o o o o o o o o o o o o o o o o o o o o o o o o o o o o o o o o o o o o o o o o o o o o o o o o c _ '@)@u.h.N.                ",
"                        P ( ( U o o o o o o o o o 0 _ 6 $.o o o o o o o o o o o o o o o o o o o o o o o o o o o o o o o o o o o o o o o o o o o o o o o o o o o o o o o o c _ !@)@u.h.N.                ",
"                  |.|.|.{ O : ..V o o o o o o o o 0 ( ( $.o o o o o o o o o o o o o o o o o o o o o o o o o o o o o o o o o o o o o o o o o o o o o o o o o o o o o o o o c _ ~@{@,@Z.<.                ",
"              |.N.B.]@%+|.& ( ( Z o o o o o o o o a _ 6 l o o o o o o o o o o o o o o o o o o o o o o o o o o o o o o o o o o o o o o o o o o o o o o o o o o o o o o o o c _ ~.%                       ",
"              |.^@M./@(@N.t , _ ` n o o o o o o o %.( ( %.o o o o o o o o o o o o o o o o o o o o o o o o o o o o o o o o o o o o o o o o o o o o o o o o o o o o o o o o c _ ; %                       ",
"              |.N.A._@/@B.:@* _ k m o o o o o o o $.6 _ 0 o o o o o o o o o o o o o o o o o o o o o o o o o o o o o o o o o o o o o o o o o o o o o o o o o o o o o o o o 9 _ ; +                       ",
"                    z.<@g.B.[@( ( a o o o o o o o 1 6 _ 9 o o o o o o o o o o o o o o o o o o o o o o o o o o o o o o o o o o o o o o o o o o o o o o o o o o o o o o f L d : 4 .                       ",
"                      1.}@u.|@1@: > 4 n o o o o o n 8 : 8 n o o o o o o o o o o o o o o o o o o o o o o o o o o o o o o o o o o o o o o o o o o o o o o o o n m %.0 9 &.Q _ f J                         ",
"                      <.2@6.3@4@5@[ H >.%.n o o o o 9 _ 6 1 o o o o o o o o o o o o o o o o o o o o o o o o o o o o o o o o o o o o o o o o o o o o o n m %.` k ( _ _ : ; 4 3                           ",
"                        ,@&+6@7@8@9@[  .T > > >.^.m ;.u 8 ) o o o o o o o o o o o o o o o o o o o o o o o o o o o o o o o o o o o o o o o o o n m l N ..6 ( _ _ ( ; ; X 1 .                             ",
"                        Z.r.D.D.0@a@b@} < :  .< B 8 > R @.f o o o o o o o o o o o o o o o o o o o o o o o o o o o o o o o o o n m l b b a ` 8 7 6 ( ( : _ ( , * z @ + .                                 ",
"                          c@_@O.6@q.d@1 * r e@j B _ H -.H >.b b b b b b b b b b b b b b b b b b b a 0 c c c c c c c c c c c 9 8 6 ( ( ( ( _ : : _ ( > = * z t .                                         ",
"                          |.<@6@6@f@g@    . t # & * } h@: &@( ( ( ( ( ( ( ( ( ( ( ( ( ( ( ( ( ( ( ( _ _ _ _ _ _ _ _ _ _ _ _ _ : _ ( > > > ; - = * & ] {                                                 ",
"                            n.D.s.i@j@            { $ K x > > > > > > > > > > > > > > > > > > > > > ; ; ; ; ; ; ; ; ; ; ; ; ; = * & $ $ # t .                                                           ",
"                            <.k@g.6@l@                  { ] $ $ $ $ $ $ $ $ $ $ $ $ $ $ $ $ $ $ $ # @ % % % % % % % % % % % + .                                                                         ",
"                              r.g.6@m@                                                                                                                                                                  ",
"                              B.&+&+j@                                                                                                                                                                  ",
"                              Z.B.B.Z.                                                                                                                                                                  ",
"                                                                                                                                                                                                        ",
"                                                                                                                                                                                                        ",
"                                                                                                                                                                                                        "};
