/* XPM */
static char * exit_xpm[] = {
"100 100 1630 2",
"  	c #FFFFFF",
". 	c #E8FAEA",
"+ 	c #E1F9E4",
"@ 	c #FAFEFA",
"# 	c #CDF5D1",
"$ 	c #65E97C",
"% 	c #B5F2BD",
"& 	c #F1FCF2",
"* 	c #2AE65A",
"= 	c #BCF3C3",
"- 	c #DBF8DE",
"; 	c #84EC93",
"> 	c #D0F6D5",
", 	c #C6F4CC",
"' 	c #5BE874",
") 	c #A1EFAB",
"! 	c #E7FAE9",
"~ 	c #FCE4E1",
"{ 	c #D5F7D8",
"] 	c #BFF3C5",
"^ 	c #EFFCF0",
"/ 	c #FAC5BB",
"( 	c #F6896D",
"_ 	c #F79983",
": 	c #F9BEB3",
"< 	c #C7F4CC",
"[ 	c #DFF9E2",
"} 	c #C5F4CA",
"| 	c #96EEA2",
"1 	c #FEF5F4",
"2 	c #F79E8A",
"3 	c #F57448",
"4 	c #F46625",
"5 	c #F69179",
"6 	c #F7A391",
"7 	c #F9BAAE",
"8 	c #FACDC6",
"9 	c #64E97B",
"0 	c #59E873",
"a 	c #FDECE9",
"b 	c #F46729",
"c 	c #F57244",
"d 	c #F4610A",
"e 	c #F09675",
"f 	c #E3A677",
"g 	c #C1AA3C",
"h 	c #DFB285",
"i 	c #EBC2A8",
"j 	c #FBD4CD",
"k 	c #C5EABC",
"l 	c #54E870",
"m 	c #5FE978",
"n 	c #F57E5B",
"o 	c #F4692D",
"p 	c #F69077",
"q 	c #F8AD9D",
"r 	c #F3713C",
"s 	c #F17238",
"t 	c #ED7018",
"u 	c #F17239",
"v 	c #F37D53",
"w 	c #ED8553",
"x 	c #DD8F3A",
"y 	c #DDA468",
"z 	c #F2B8A4",
"A 	c #FAC6BD",
"B 	c #FCDCD7",
"C 	c #D8F7DB",
"D 	c #B2F1BA",
"E 	c #5CE876",
"F 	c #BCF3C2",
"G 	c #CFF6D3",
"H 	c #E3F9E6",
"I 	c #F69680",
"J 	c #F5764D",
"K 	c #F46B34",
"L 	c #F3733F",
"M 	c #F17234",
"N 	c #EE701F",
"O 	c #F36824",
"P 	c #F46828",
"Q 	c #F26714",
"R 	c #F0712F",
"S 	c #F47344",
"T 	c #F5896A",
"U 	c #E6A77E",
"V 	c #D6B075",
"W 	c #ACBB45",
"X 	c #D3DBB4",
"Y 	c #F68D73",
"Z 	c #F46A31",
"` 	c #F68A6E",
" .	c #F6BAAB",
"..	c #ECB69B",
"+.	c #D69530",
"@.	c #ED8C5E",
"#.	c #EC854F",
"$.	c #EA7927",
"%.	c #F4682B",
"&.	c #F3681F",
"*.	c #F18F6B",
"=.	c #F7A18E",
"-.	c #F57D59",
";.	c #F9BFB5",
">.	c #FBD2CC",
",.	c #F8B3A5",
"'.	c #F8B0A1",
").	c #95EDA1",
"!.	c #87EC96",
"~.	c #C3CF92",
"{.	c #CBA647",
"].	c #E09C61",
"^.	c #F2A890",
"/.	c #F3AB95",
"(.	c #ED956E",
"_.	c #E88340",
":.	c #F07130",
"<.	c #F2723B",
"[.	c #F37342",
"}.	c #F57142",
"|.	c #F68D72",
"1.	c #F57B56",
"2.	c #F5774F",
"3.	c #F46F3D",
"4.	c #FBD2CB",
"5.	c #E3EFDA",
"6.	c #DBC398",
"7.	c #D79638",
"8.	c #EC731E",
"9.	c #E97E37",
"0.	c #E3BF9B",
"a.	c #C8F5CD",
"b.	c #96E38F",
"c.	c #D8D4AD",
"d.	c #EBC2A9",
"e.	c #F46520",
"f.	c #F7A18F",
"g.	c #FACBC2",
"h.	c #F58363",
"i.	c #F58464",
"j.	c #F9B7AB",
"k.	c #F17E50",
"l.	c #F36411",
"m.	c #F16912",
"n.	c #ED7321",
"o.	c #CCB975",
"p.	c #76DF6F",
"q.	c #B6CD81",
"r.	c #DFD5B6",
"s.	c #F2E2D5",
"t.	c #F68769",
"u.	c #FFFEFE",
"v.	c #F9FEFA",
"w.	c #C9F5CE",
"x.	c #65E97D",
"y.	c #CDF5D2",
"z.	c #E7FAEA",
"A.	c #FEFFFF",
"B.	c #EBFBED",
"C.	c #A1EFAC",
"D.	c #C2F4C7",
"E.	c #F46214",
"F.	c #F4651E",
"G.	c #F1691D",
"H.	c #F2650F",
"I.	c #DB8F31",
"J.	c #D6983C",
"K.	c #E98C54",
"L.	c #F17C4C",
"M.	c #F47444",
"N.	c #F79E8B",
"O.	c #F6876A",
"P.	c #F79C88",
"Q.	c #F8FEFA",
"R.	c #DCF8E0",
"S.	c #ABF1B6",
"T.	c #5DE979",
"U.	c #CBF6D3",
"V.	c #EFFCF2",
"W.	c #FDFFFF",
"X.	c #DDF9E2",
"Y.	c #84EC95",
"Z.	c #CEF6D3",
"`.	c #F8A999",
" +	c #F4641B",
".+	c #F46D3A",
"++	c #F79984",
"@+	c #F57A52",
"#+	c #F3661E",
"$+	c #EA7E39",
"%+	c #E28834",
"&+	c #EF793E",
"*+	c #FAC7BE",
"=+	c #F46626",
"-+	c #F57C59",
";+	c #F8B4A7",
">+	c #F9BBB0",
",+	c #F8BCB0",
"'+	c #F8C7BE",
")+	c #FADDD8",
"!+	c #FCF5F4",
"~+	c #FCFFFF",
"{+	c #F7FEFA",
"]+	c #D2F7DA",
"^+	c #87ED9C",
"/+	c #87ED9D",
"(+	c #D2F7DB",
"_+	c #F6FEFA",
":+	c #FBFFFF",
"<+	c #CCF6D5",
"[+	c #84EC99",
"}+	c #84EC98",
"|+	c #DDF9E3",
"1+	c #F57C58",
"2+	c #F6957D",
"3+	c #F7A796",
"4+	c #F46E3B",
"5+	c #F3723D",
"6+	c #F37341",
"7+	c #F58160",
"8+	c #F57F5D",
"9+	c #F79A85",
"0+	c #F4703D",
"a+	c #F5774E",
"b+	c #F37953",
"c+	c #F27C56",
"d+	c #F27D5B",
"e+	c #F2896D",
"f+	c #F29A85",
"g+	c #F2B4A7",
"h+	c #F5DFDA",
"i+	c #EBF3E9",
"j+	c #C8F6D6",
"k+	c #60EA8A",
"l+	c #A8F2BD",
"m+	c #D6F9E3",
"n+	c #F7FFFF",
"o+	c #F8FFFF",
"p+	c #BEF4CD",
"q+	c #5FEA85",
"r+	c #9FF0B2",
"s+	c #E7FBEE",
"t+	c #F7A492",
"u+	c #F57850",
"v+	c #F5703F",
"w+	c #F7AA99",
"x+	c #F4754A",
"y+	c #F17C56",
"z+	c #F17F5E",
"A+	c #F18263",
"B+	c #EE8668",
"C+	c #ED8160",
"D+	c #EC7D5A",
"E+	c #EC8D74",
"F+	c #EA9681",
"G+	c #EAA695",
"H+	c #E4BEAC",
"I+	c #C4E0BC",
"J+	c #44EA86",
"K+	c #BBF5D2",
"L+	c #E4FCF4",
"M+	c #F1FFFF",
"N+	c #F2FFFF",
"O+	c #F3FFFF",
"P+	c #B0F3C7",
"Q+	c #40E980",
"R+	c #ACF2C2",
"S+	c #F1FEFB",
"T+	c #F9FFFF",
"U+	c #FAFFFF",
"V+	c #F5754B",
"W+	c #F7A28F",
"X+	c #F46C37",
"Y+	c #F57952",
"Z+	c #F57A54",
"`+	c #F6947C",
" @	c #FCF1EF",
".@	c #F59C88",
"+@	c #F17A53",
"@@	c #F28B6F",
"#@	c #F3BAAE",
"$@	c #F3C1B7",
"%@	c #F1C2B9",
"&@	c #EDB8AC",
"*@	c #EBAB9C",
"=@	c #E9A491",
"-@	c #E79883",
";@	c #E69681",
">@	c #E3947F",
",@	c #E3A08D",
"'@	c #DBB09B",
")@	c #C5C19A",
"!@	c #A2DEAB",
"~@	c #D2FAEC",
"{@	c #EAFFFF",
"]@	c #E7FEFB",
"^@	c #A9F4CB",
"/@	c #4AEB91",
"(@	c #AEF4CB",
"_@	c #EFFFFF",
":@	c #F4FFFF",
"<@	c #F6FFFF",
"[@	c #F5805E",
"}@	c #F8B4A6",
"|@	c #F4672A",
"1@	c #FBECEA",
"2@	c #F28C71",
"3@	c #F07852",
"4@	c #F09B87",
"5@	c #F5F6F5",
"6@	c #EDFFFF",
"7@	c #E8EBE8",
"8@	c #E4D0CA",
"9@	c #DFBDB1",
"0@	c #DDB6AB",
"a@	c #DAAEA3",
"b@	c #D8AB9C",
"c@	c #D3B2A0",
"d@	c #CFB7A3",
"e@	c #D2BAAB",
"f@	c #D6C2B6",
"g@	c #DCCCC5",
"h@	c #D6D2C6",
"i@	c #BDD3B4",
"j@	c #A2D6A5",
"k@	c #C0E4C9",
"l@	c #E5EAE8",
"m@	c #E8F1EF",
"n@	c #EBF6F6",
"o@	c #EEFEFB",
"p@	c #E3FBEF",
"q@	c #E4FBEF",
"r@	c #EAFCF3",
"s@	c #F7A695",
"t@	c #F4610B",
"u@	c #F4641C",
"v@	c #F46624",
"w@	c #F6D6D0",
"x@	c #F08C70",
"y@	c #ED8264",
"z@	c #ECAE9F",
"A@	c #F1FEFE",
"B@	c #EEFFFF",
"C@	c #EBFFFF",
"D@	c #E8FEFF",
"E@	c #E5FEFF",
"F@	c #E2FEFF",
"G@	c #DFFEFF",
"H@	c #DCFEFF",
"I@	c #D8EFEE",
"J@	c #D2D7D1",
"K@	c #CEC9C0",
"L@	c #CCC2B6",
"M@	c #CCBDB3",
"N@	c #CCBDB4",
"O@	c #CDC0B6",
"P@	c #CEC0BA",
"Q@	c #CEC0B5",
"R@	c #CCBEB1",
"S@	c #CCBDAE",
"T@	c #D1BBAF",
"U@	c #D6B9AF",
"V@	c #D8B6AB",
"W@	c #DCBBB1",
"X@	c #DDC6BA",
"Y@	c #D2E0CE",
"Z@	c #BCEFCF",
"`@	c #A0F2C0",
" #	c #93F0B4",
".#	c #D8FAE8",
"+#	c #F2D2C3",
"@#	c #F46215",
"##	c #F46217",
"$#	c #F46C36",
"%#	c #F4631A",
"&#	c #F58B71",
"*#	c #F1B6A9",
"=#	c #E8947C",
"-#	c #E8CCC5",
";#	c #E7FEFF",
">#	c #E3FEFF",
",#	c #D8FEFF",
"'#	c #D4FEFF",
")#	c #D0FEFF",
"!#	c #CEFEFF",
"~#	c #CCFEFF",
"{#	c #C8F2F1",
"]#	c #C0DFD9",
"^#	c #BCD5CC",
"/#	c #BAD0C8",
"(#	c #BFD2CA",
"_#	c #C1D1CA",
":#	c #C1CEC7",
"<#	c #C0CCC2",
"[#	c #C6C8C0",
"}#	c #C9C4BC",
"|#	c #CAC1B8",
"1#	c #D0BDB4",
"2#	c #D1B6AC",
"3#	c #D1B6A9",
"4#	c #CEB9A3",
"5#	c #BEC29F",
"6#	c #9CD9A0",
"7#	c #9CEAB7",
"8#	c #D5FAE9",
"9#	c #ECC2AA",
"0#	c #F4610E",
"a#	c #F46D39",
"b#	c #F47F5E",
"c#	c #F36D39",
"d#	c #F48465",
"e#	c #FAEDEA",
"f#	c #F6F6F5",
"g#	c #EBA594",
"h#	c #E68C73",
"i#	c #E5AA9B",
"j#	c #E6EBE9",
"k#	c #E4FEFF",
"l#	c #DAFEFF",
"m#	c #D6FEFF",
"n#	c #CDFEFF",
"o#	c #C8FEFF",
"p#	c #C5FEFF",
"q#	c #C2FEFF",
"r#	c #C0FEFF",
"s#	c #BEFEFF",
"t#	c #B8FDFD",
"u#	c #A6FBF3",
"v#	c #8DF5E2",
"w#	c #99EEE0",
"x#	c #ADEAE3",
"y#	c #AAE7DE",
"z#	c #A5E2D5",
"A#	c #B4DFD8",
"B#	c #BBDBD7",
"C#	c #BAD8D1",
"D#	c #BDD4CB",
"E#	c #BFCDC1",
"F#	c #C5C5BB",
"G#	c #CDBDB3",
"H#	c #CDBAAD",
"I#	c #D3BAAA",
"J#	c #D7BEAE",
"K#	c #DDD0C6",
"L#	c #E9EBE8",
"M#	c #EFAA8D",
"N#	c #F68E74",
"O#	c #F58567",
"P#	c #F69882",
"Q#	c #F27141",
"R#	c #F2876B",
"S#	c #F7E5E1",
"T#	c #EECEC7",
"U#	c #E69883",
"V#	c #E29A86",
"W#	c #DEB5AA",
"X#	c #E0FEFF",
"Y#	c #CAFEFF",
"Z#	c #BCFEFF",
"`#	c #B8FEFF",
" $	c #B4FEFF",
".$	c #B2FEFF",
"+$	c #B0FEFF",
"@$	c #AFFDFF",
"#$	c #A8FDFC",
"$$	c #99FBF5",
"%$	c #7FF8E9",
"&$	c #8CFAEE",
"*$	c #83F9E9",
"=$	c #84F8E9",
"-$	c #8EF9EC",
";$	c #91F9EB",
">$	c #7CF7E0",
",$	c #73F6D9",
"'$	c #96EEDB",
")$	c #B2E4D9",
"!$	c #BED6CD",
"~$	c #C6C9C2",
"{$	c #CDBFB7",
"]$	c #D1B8AD",
"^$	c #D7B5AA",
"/$	c #DDBDB1",
"($	c #E3CAC2",
"_$	c #EAEAE8",
":$	c #F5FFFF",
"<$	c #F3977C",
"[$	c #F46212",
"}$	c #F36930",
"|$	c #F9C7BE",
"1$	c #F59A85",
"2$	c #F1754A",
"3$	c #F18C72",
"4$	c #F4E5E2",
"5$	c #E9BAB0",
"6$	c #E29C8A",
"7$	c #DDA696",
"8$	c #DACBC4",
"9$	c #D3FEFF",
"0$	c #C6FEFF",
"a$	c #BFFEFF",
"b$	c #BAFEFF",
"c$	c #B0FDFF",
"d$	c #ACFDFF",
"e$	c #A9FDFF",
"f$	c #A6FDFF",
"g$	c #A4FDFF",
"h$	c #A3FDFF",
"i$	c #A2FDFF",
"j$	c #9AFCFB",
"k$	c #8EFBF6",
"l$	c #81FAF0",
"m$	c #82FAF0",
"n$	c #81FAEF",
"o$	c #80F9EE",
"p$	c #81F9EC",
"q$	c #8EFAF0",
"r$	c #97FBF2",
"s$	c #A2FBF5",
"t$	c #B0FDFB",
"u$	c #BBF5F5",
"v$	c #BEE6E6",
"w$	c #C3D9D5",
"x$	c #C8CDC7",
"y$	c #CDC3BB",
"z$	c #D2B4A9",
"A$	c #D9B3A7",
"B$	c #DFB9AE",
"C$	c #E5D0CA",
"D$	c #EBEAE7",
"E$	c #D7F7DA",
"F$	c #75EA87",
"G$	c #C4EABB",
"H$	c #F68667",
"I$	c #F46319",
"J$	c #F46318",
"K$	c #F47B56",
"L$	c #F39C88",
"M$	c #EF7A55",
"N$	c #ED937A",
"O$	c #F0E6E3",
"P$	c #EEF7F6",
"Q$	c #E2B1A4",
"R$	c #DCA698",
"S$	c #D5B6AB",
"T$	c #D4E0DC",
"U$	c #CFFEFF",
"V$	c #C1FEFF",
"W$	c #AEFDFF",
"X$	c #A8FDFF",
"Y$	c #A1FDFF",
"Z$	c #9EFDFF",
"`$	c #9BFDFF",
" %	c #9AFDFF",
".%	c #99FDFF",
"+%	c #97FDFF",
"@%	c #90FCFB",
"#%	c #84FBF6",
"$%	c #83FBF5",
"%%	c #89FBF7",
"&%	c #92FCF9",
"*%	c #99FCFC",
"=%	c #A1FDFE",
"-%	c #A7FDFF",
";%	c #ABFDFF",
">%	c #B6FEFF",
",%	c #BBFAFC",
"'%	c #C0F0F0",
")%	c #C5E0DC",
"!%	c #CCCFCA",
"~%	c #CEBFB6",
"{%	c #D5B4A8",
"]%	c #DAB1A4",
"^%	c #E1B0A4",
"/%	c #E6BAAF",
"(%	c #ECD5CF",
"_%	c #F3F6F5",
":%	c #CBF5CF",
"<%	c #D3E3BD",
"[%	c #F8AA9A",
"}%	c #F46D38",
"|%	c #F36E3C",
"1%	c #F6AC9D",
"2%	c #F9E6E2",
"3%	c #F19A85",
"4%	c #ED8161",
"5%	c #EB9F8C",
"6%	c #EEEFED",
"7%	c #E6E4E1",
"8%	c #DCB3A8",
"9%	c #D6B4A8",
"0%	c #D1CDC6",
"a%	c #CDF9F9",
"b%	c #9FFDFF",
"c%	c #98FDFF",
"d%	c #95FDFF",
"e%	c #93FDFF",
"f%	c #92FDFF",
"g%	c #91FDFF",
"h%	c #90FDFF",
"i%	c #8EFDFE",
"j%	c #87FCFB",
"k%	c #85FCFA",
"l%	c #86FCFA",
"m%	c #8FFDFD",
"n%	c #96FDFF",
"o%	c #9DFDFF",
"p%	c #A0FDFF",
"q%	c #C2F1F1",
"r%	c #C7DFDB",
"s%	c #CDCEC8",
"t%	c #D4BBB2",
"u%	c #D8AB9D",
"v%	c #DEA395",
"w%	c #E3AA99",
"x%	c #E8B6AA",
"y%	c #EFD3CC",
"z%	c #DCCCA7",
"A%	c #F68B6F",
"B%	c #F4641A",
"C%	c #F79F8C",
"D%	c #FCE3DE",
"E%	c #F9C5BC",
"F%	c #F8C6BD",
"G%	c #FAE5E1",
"H%	c #F5C2B8",
"I%	c #EF896E",
"J%	c #EC8F77",
"K%	c #EABEB3",
"L%	c #EAF7F6",
"M%	c #E0D8D3",
"N%	c #D7B6AB",
"O%	c #CFBFB6",
"P%	c #CADBD7",
"Q%	c #8FFDFF",
"R%	c #8DFDFF",
"S%	c #8CFDFF",
"T%	c #88FDFD",
"U%	c #87FDFD",
"V%	c #B7FEFF",
"W%	c #C6F2F2",
"X%	c #CBDBD8",
"Y%	c #D2C8C2",
"Z%	c #D6B8AE",
"`%	c #DCA696",
" &	c #E29D8A",
".&	c #E7A08D",
"+&	c #ECAFA0",
"@&	c #F2CBC3",
"#&	c #E0BF99",
"$&	c #F46211",
"%&	c #F1A290",
"&&	c #EB8567",
"*&	c #E89C88",
"=&	c #E9E3E0",
"-&	c #E6FEFF",
";&	c #DAC8C2",
">&	c #CFBEB5",
",&	c #C8C9C3",
"'&	c #C3EBEA",
")&	c #AAFDFF",
"!&	c #8AFDFF",
"~&	c #89FDFF",
"{&	c #8BFDFF",
"]&	c #A5FDFF",
"^&	c #B3FEFF",
"/&	c #CDF9FA",
"(&	c #D3E3E1",
"_&	c #D8C9C2",
":&	c #DDB3A6",
"<&	c #E29E8A",
"[&	c #E68E75",
"}&	c #ECFBED",
"|&	c #61E979",
"1&	c #C0F3C6",
"2&	c #E4B48D",
"3&	c #F3A28A",
"4&	c #F46317",
"5&	c #F4620E",
"6&	c #F4620C",
"7&	c #F16811",
"8&	c #F1855E",
"9&	c #F9F5F4",
"0&	c #EF9984",
"a&	c #EA8668",
"b&	c #E6A897",
"c&	c #E7F7F6",
"d&	c #E0F8F8",
"e&	c #D3C7BE",
"f&	c #C9C3BA",
"g&	c #C1D5D2",
"h&	c #B1FEFF",
"i&	c #BBFEFF",
"j&	c #C3FEFF",
"k&	c #D5F9F9",
"l&	c #D9DFDB",
"m&	c #DFC3B9",
"n&	c #E3AB9D",
"o&	c #E78C73",
"p&	c #EDAC9E",
"q&	c #F4D5CF",
"r&	c #ACF0B4",
"s&	c #A4EFAE",
"t&	c #6EEA83",
"u&	c #E1B388",
"v&	c #F36515",
"w&	c #E6AD87",
"x&	c #E6DFC9",
"y&	c #F4CFC8",
"z&	c #EC957D",
"A&	c #E78F78",
"B&	c #E5BBB1",
"C&	c #D9EAE8",
"D&	c #CDC7C0",
"E&	c #C3CDC6",
"F&	c #BCDFDC",
"G&	c #8EFDFF",
"H&	c #88FDFF",
"I&	c #94FDFF",
"J&	c #D5FEFF",
"K&	c #DEFEFF",
"L&	c #E1D3CD",
"M&	c #E3A797",
"N&	c #E88E74",
"O&	c #EE9B88",
"P&	c #F4D1CA",
"Q&	c #56E871",
"R&	c #6DEA82",
"S&	c #83EB92",
"T&	c #E89E73",
"U&	c #EAC9B0",
"V&	c #EF7128",
"W&	c #F3651A",
"X&	c #F17A4A",
"Y&	c #FBDCD6",
"Z&	c #F9C6BC",
"`&	c #F8C7BD",
" *	c #FAE6E2",
".*	c #F7E6E2",
"+*	c #F0AC9D",
"@*	c #EA8A6E",
"#*	c #E5A999",
"$*	c #E3DAD5",
"%*	c #D2D9D5",
"&*	c #C5CBC5",
"**	c #BBD6D1",
"=*	c #B4EAEA",
"-*	c #B9FEFF",
";*	c #DEF8F8",
">*	c #E0C0B8",
",*	c #E59682",
"'*	c #E98C71",
")*	c #EEA391",
"!*	c #F7E6E3",
"~*	c #F9E5E1",
"{*	c #F0FCF2",
"]*	c #A2EFAC",
"^*	c #A6F0B0",
"/*	c #76EA88",
"(*	c #3AE761",
"_*	c #6CE981",
":*	c #93D061",
"<*	c #EB8D5C",
"[*	c #EF8E66",
"}*	c #CCDAAB",
"|*	c #EF875B",
"1*	c #F3784C",
"2*	c #F47447",
"3*	c #F7AE9F",
"4*	c #F4774F",
"5*	c #F37A54",
"6*	c #F6C9C0",
"7*	c #F3C3BA",
"8*	c #EC8F76",
"9*	c #E79680",
"0*	c #E5C3B9",
"a*	c #E3F8F7",
"b*	c #DBFEFF",
"c*	c #CCD1CC",
"d*	c #BED0CA",
"e*	c #B7DDDA",
"f*	c #AEF5F6",
"g*	c #D7FEFF",
"h*	c #DDDFDB",
"i*	c #E1AEA0",
"j*	c #E69078",
"k*	c #EB927A",
"l*	c #EF947D",
"m*	c #F5C2B7",
"n*	c #52E86F",
"o*	c #3DE762",
"p*	c #B0BC4F",
"q*	c #F2733E",
"r*	c #DE9A58",
"s*	c #F2C3B2",
"t*	c #FCE3DF",
"u*	c #F58F75",
"v*	c #F3682B",
"w*	c #F26F3E",
"x*	c #F39A86",
"y*	c #F1A492",
"z*	c #E9886C",
"A*	c #E7A798",
"B*	c #E6E5E2",
"C*	c #D6F9F9",
"D*	c #C7D1CC",
"E*	c #BAD5D0",
"F*	c #B2E4E2",
"G*	c #A9FCFD",
"H*	c #DFD9D4",
"I*	c #E4BEB5",
"J*	c #E88F76",
"K*	c #EC896E",
"L*	c #F2A290",
"M*	c #AAF0B3",
"N*	c #37E660",
"O*	c #CE9F3C",
"P*	c #EF7129",
"Q*	c #EF712C",
"R*	c #C4B867",
"S*	c #F47E5A",
"T*	c #F2682E",
"U*	c #F16C37",
"V*	c #F1886C",
"W*	c #EE8D72",
"X*	c #E9927B",
"Y*	c #E5BBB0",
"Z*	c #E4F7F7",
"`*	c #D0EDEC",
" =	c #C1D3CE",
".=	c #B5DBD7",
"+=	c #ABEAE9",
"@=	c #DDFEFF",
"#=	c #E2DFDC",
"$=	c #EB8F77",
"%=	c #EF8C72",
"&=	c #F5B8AB",
"*=	c #CCF5D0",
"==	c #D6F7DA",
"-=	c #B4E7AC",
";=	c #DD8F37",
">=	c #F26717",
",=	c #E87C28",
"'=	c #F57449",
")=	c #F7A999",
"!=	c #F48160",
"~=	c #F26930",
"{=	c #F16D3A",
"]=	c #F07E5A",
"^=	c #EC8D72",
"/=	c #E99985",
"(=	c #E6DAD5",
"_=	c #C9DFDC",
":=	c #BCD6D1",
"<=	c #B1E1DE",
"[=	c #A8F0F0",
"}=	c #E7EBE8",
"|=	c #E9AA9B",
"1=	c #EB7E5F",
"2=	c #F29B87",
"3=	c #FCFEFD",
"4=	c #ECD8C5",
"5=	c #F18154",
"6=	c #F36821",
"7=	c #EC946B",
"8=	c #E0EFD6",
"9=	c #F48262",
"0=	c #F47850",
"a=	c #F26B36",
"b=	c #F16E3E",
"c=	c #EF7B56",
"d=	c #EA8669",
"e=	c #E8B1A4",
"f=	c #E6ECE9",
"g=	c #D4F9F9",
"h=	c #C4D8D4",
"i=	c #B8D9D5",
"j=	c #AEE6E4",
"k=	c #A4F8F9",
"l=	c #ADFDFF",
"m=	c #D1FEFF",
"n=	c #E6B3A7",
"o=	c #EA917A",
"p=	c #EE876A",
"q=	c #F8DED9",
"r=	c #F46623",
"s=	c #F36A33",
"t=	c #F36626",
"u=	c #F27041",
"v=	c #F07041",
"w=	c #EE7B56",
"x=	c #EB927B",
"y=	c #E8CDC5",
"z=	c #D1ECEB",
"A=	c #C1D6CF",
"B=	c #B4DCD9",
"C=	c #AAEBEA",
"D=	c #A2FCFD",
"E=	c #E2BDB3",
"F=	c #E99079",
"G=	c #ED927B",
"H=	c #F6D7D1",
"I=	c #F6886B",
"J=	c #F9B8AC",
"K=	c #F68C70",
"L=	c #F7A797",
"M=	c #F57040",
"N=	c #F3641B",
"O=	c #F47549",
"P=	c #F28060",
"Q=	c #F0764C",
"R=	c #EC7D5B",
"S=	c #ECB7AA",
"T=	c #CCDDDA",
"U=	c #BDD5D1",
"V=	c #B1E0DD",
"W=	c #C4FEFF",
"X=	c #DEBAB1",
"Y=	c #E59782",
"Z=	c #EC9781",
"`=	c #F6E5E2",
" -	c #F69178",
".-	c #F6927A",
"+-	c #F4805E",
"@-	c #F4947D",
"#-	c #F6BBAF",
"$-	c #F2AD9E",
"%-	c #F0B1A3",
"&-	c #EED9D4",
"*-	c #D9FEFF",
"=-	c #C8D5D0",
"--	c #BCD6D2",
";-	c #AFE4E2",
">-	c #A6F7F8",
",-	c #9CFDFF",
"'-	c #CBFEFF",
")-	c #DABFB7",
"!-	c #E29D8B",
"~-	c #EA9B88",
"{-	c #F5E6E2",
"]-	c #FDF5F4",
"^-	c #E1FEFF",
"/-	c #D6F8F8",
"(-	c #C5D2CD",
"_-	c #B9D7D3",
":-	c #ADE7E6",
"<-	c #A5FCFD",
"[-	c #C7FEFF",
"}-	c #D7C3BA",
"|-	c #DEA390",
"1-	c #E89E8C",
"2-	c #F3E6E3",
"3-	c #E9FFFF",
"4-	c #D4EBEA",
"5-	c #C4D1CB",
"6-	c #B7D9D6",
"7-	c #B5FEFF",
"8-	c #D5C6BF",
"9-	c #DDA697",
"0-	c #E5A290",
"a-	c #F2E6E3",
"b-	c #CFDBD6",
"c-	c #C0D1CC",
"d-	c #B6DEDA",
"e-	c #ABF0F0",
"f-	c #D2CAC3",
"g-	c #D9AB9D",
"h-	c #E3A695",
"i-	c #F0E7E4",
"j-	c #EEFCF2",
"k-	c #DDF9E6",
"l-	c #DAF9E7",
"m-	c #E3FCF4",
"n-	c #DDF8F8",
"o-	c #CCD1CA",
"p-	c #B5E0DE",
"q-	c #AAF6F7",
"r-	c #CECDC7",
"s-	c #D7AFA3",
"t-	c #E2AA9C",
"u-	c #EEE7E4",
"v-	c #E1FAE7",
"w-	c #94EEA9",
"x-	c #93EFAF",
"y-	c #D6FAEB",
"z-	c #DBE9E7",
"A-	c #CACAC4",
"B-	c #BED2CD",
"C-	c #B3E5E3",
"D-	c #AAFCFD",
"E-	c #CCD1CB",
"F-	c #D5B3A9",
"G-	c #DFAC9F",
"H-	c #EDE8E5",
"I-	c #D5F7DC",
"J-	c #84ED9D",
"K-	c #84EEA4",
"L-	c #CBF8E2",
"M-	c #D6D6D1",
"N-	c #C9C7C0",
"O-	c #B2EDEB",
"P-	c #C8D4CF",
"Q-	c #D2B9AD",
"R-	c #DEB1A3",
"S-	c #EBE8E6",
"T-	c #F8E3DC",
"U-	c #F7C4B8",
"V-	c #F59D87",
"W-	c #84ED9C",
"X-	c #84EEA5",
"Y-	c #CAF8E2",
"Z-	c #D3C8C1",
"`-	c #C7C7C0",
" ;	c #BCD9D3",
".;	c #B2F4F5",
"+;	c #C5D7D2",
"@;	c #D1BCB3",
"#;	c #DAB3A7",
"$;	c #E9E8E6",
"%;	c #E9AE8C",
"&;	c #DCAA74",
"*;	c #DBBC8F",
"=;	c #F1906D",
"-;	c #84EEA6",
";;	c #E2ECEB",
">;	c #D4C3BA",
",;	c #C5C5BE",
"';	c #BBDDDA",
");	c #B2FBFC",
"!;	c #C2D8D5",
"~;	c #D9B6AB",
"{;	c #E8E9E6",
"];	c #FACCC4",
"^;	c #F2733D",
"/;	c #C2AF4F",
"(;	c #E9915E",
"_;	c #F4682A",
":;	c #84ED9E",
"<;	c #84EEA7",
"[;	c #CAF8E3",
"};	c #DFD4CE",
"|;	c #D2BEB5",
"1;	c #C5CBC6",
"2;	c #BAE3E1",
"3;	c #BFDBD7",
"4;	c #CBC2B9",
"5;	c #D6BAB0",
"6;	c #E6EAE8",
"7;	c #F07436",
"8;	c #C1AF4C",
"9;	c #E08D41",
"0;	c #F36826",
"a;	c #F9B9AD",
"b;	c #F9CEC7",
"c;	c #DDDFC3",
"d;	c #84ED9F",
"e;	c #84EEA8",
"f;	c #C9F8E3",
"g;	c #DBBFB7",
"h;	c #CFBBB3",
"i;	c #C6D0CA",
"j;	c #BDF2F2",
"k;	c #BDDDDB",
"l;	c #C8C6C0",
"m;	c #D4BEB3",
"n;	c #E4EAE8",
"o;	c #F0FFFF",
"p;	c #EFA182",
"q;	c #C3E9BA",
"r;	c #DF8D38",
"s;	c #F36822",
"t;	c #F36D33",
"u;	c #F4703F",
"v;	c #E8B294",
"w;	c #84EEA9",
"x;	c #CFE5D1",
"y;	c #DAB9AE",
"z;	c #D0BAB0",
"A;	c #C4D4D0",
"B;	c #BCFAFB",
"C;	c #B9E0DD",
"D;	c #C4CBC4",
"E;	c #D1C0B8",
"F;	c #E2EBE9",
"G;	c #E9F1DF",
"H;	c #F3630E",
"I;	c #F36418",
"J;	c #F46C38",
"K;	c #E7B294",
"L;	c #84EDA1",
"M;	c #84EEAA",
"N;	c #D6CCB8",
"O;	c #D9B2A7",
"P;	c #CFC0B8",
"Q;	c #C4DEDA",
"R;	c #BDFEFF",
"S;	c #B7E1E1",
"T;	c #C3CEC7",
"U;	c #CEC4BC",
"V;	c #DFEBE9",
"W;	c #F27542",
"X;	c #F69984",
"Y;	c #E1CBAF",
"Z;	c #92E7A5",
"`;	c #DCB5A2",
" >	c #D7B0A2",
".>	c #CDC6BE",
"+>	c #C6EFEE",
"@>	c #B0FCF8",
"#>	c #A3FCF9",
"$>	c #9BFCFB",
"%>	c #B4E4E2",
"&>	c #C0D0CB",
"*>	c #CCC7C0",
"=>	c #DDECEB",
"->	c #F07842",
";>	c #F1E2D6",
">>	c #D4F7DC",
",>	c #84EDA2",
"'>	c #ADD49B",
")>	c #DDAA97",
"!>	c #D7B1A4",
"~>	c #CDCEC9",
"{>	c #BBF8F2",
"]>	c #A3FBF1",
"^>	c #81F9E9",
"/>	c #95FCF8",
"(>	c #B1E6E4",
"_>	c #BDD3CF",
":>	c #C9CBC3",
"<>	c #DAECEB",
"[>	c #F8B6A9",
"}>	c #FBDAD5",
"|>	c #D6A35B",
"1>	c #CFF6D5",
"2>	c #C4F5CF",
"3>	c #84EEA3",
"4>	c #CBB588",
"5>	c #DDA592",
"6>	c #D6B4A9",
"7>	c #C4DCD2",
"8>	c #A8F9EB",
"9>	c #7DF7DF",
"0>	c #94FAF2",
"a>	c #99FCFB",
"b>	c #C9CCC6",
"c>	c #D9F2F2",
"d>	c #F07A46",
"e>	c #A4D47E",
"f>	c #77EB8D",
"g>	c #AAF1B9",
"h>	c #8CE598",
"i>	c #D7A782",
"j>	c #DF9E8A",
"k>	c #D1BCAF",
"l>	c #A4E9CF",
"m>	c #78F5D4",
"n>	c #A2FBF2",
"o>	c #A2FCF9",
"p>	c #A4FCFD",
"q>	c #ADE7E7",
"r>	c #B8D7D3",
"s>	c #C5D1CC",
"t>	c #D8F8F8",
"u>	c #F47E58",
"v>	c #D0DBB1",
"w>	c #53E876",
"x>	c #68EA88",
"y>	c #AAD18D",
"z>	c #DC9A78",
"A>	c #DEA28F",
"B>	c #C6C2AA",
"C>	c #71F2C4",
"D>	c #A6F9EB",
"E>	c #AEFCF8",
"F>	c #A1F9FA",
"G>	c #ABE8E7",
"H>	c #C5D8D4",
"I>	c #F57346",
"J>	c #F46C39",
"K>	c #EFA588",
"L>	c #A6F0B4",
"M>	c #59E981",
"N>	c #C4B678",
"O>	c #E09878",
"P>	c #DAA58F",
"Q>	c #B5CDAB",
"R>	c #AAF8E3",
"S>	c #B9FCF6",
"T>	c #9FF6F7",
"U>	c #A9E8E6",
"V>	c #B4DEDB",
"W>	c #C3DFDC",
"X>	c #F4641F",
"Y>	c #F59278",
"Z>	c #D9F8DF",
"`>	c #CBF6D6",
" ,	c #DEA37C",
".,	c #E49277",
"+,	c #D8A992",
"@,	c #C1E4D0",
"#,	c #C0FBF2",
"$,	c #9DF4F5",
"%,	c #A7E8E7",
"&,	c #B2DFDC",
"*,	c #C3E8E7",
"=,	c #D2FEFF",
"-,	c #F9C3B9",
";,	c #F4672C",
">,	c #EA9C83",
",,	c #E69075",
"',	c #DBAD9C",
"),	c #D6F6F1",
"!,	c #9CF3F3",
"~,	c #A6E9E8",
"{,	c #B2E1DF",
"],	c #C2F1F0",
"^,	c #F9B8AB",
"/,	c #F46A30",
"(,	c #F69983",
"_,	c #F8F5F4",
":,	c #EC9983",
"<,	c #E68F75",
"[,	c #DFB0A4",
"},	c #94FBFC",
"|,	c #9AF2F3",
"1,	c #A4E9E8",
"2,	c #B2E5E4",
"3,	c #C3FAFB",
"4,	c #F7B2A4",
"5,	c #F6DED9",
"6,	c #ED937D",
"7,	c #E7917B",
"8,	c #E2B8AC",
"9,	c #94FAFB",
"0,	c #9BF2F2",
"a,	c #A4EAE9",
"b,	c #B2E7E7",
"c,	c #FAD2CC",
"d,	c #F5CAC2",
"e,	c #E79580",
"f,	c #E4C3BA",
"g,	c #94F9FB",
"h,	c #A5EAE9",
"i,	c #ECFFFF",
"j,	c #FAC5BC",
"k,	c #F4BFB5",
"l,	c #ED8C70",
"m,	c #E8947E",
"n,	c #E7CCC4",
"o,	c #8FFCFF",
"p,	c #94F8F9",
"q,	c #9BF1F1",
"r,	c #B3F1F0",
"s,	c #F79C87",
"t,	c #F5BFB4",
"u,	c #ED886D",
"v,	c #E9927A",
"w,	c #E8CAC2",
"x,	c #8FFBFD",
"y,	c #94F6F7",
"z,	c #9DF1F1",
"A,	c #A6ECEB",
"B,	c #B6F6F7",
"C,	c #F5BEB3",
"D,	c #EE8769",
"E,	c #EA8F77",
"F,	c #E8C9C1",
"G,	c #90FAFB",
"H,	c #96F5F5",
"I,	c #9FEEEE",
"J,	c #AAEEEE",
"K,	c #F7CFC8",
"L,	c #F08465",
"M,	c #EC8E73",
"N,	c #EAB6AA",
"O,	c #8EFCFE",
"P,	c #92F8FA",
"Q,	c #98F3F4",
"R,	c #A0EEED",
"S,	c #ADF3F2",
"T,	c #F1937C",
"U,	c #EC7D57",
"V,	c #E9A797",
"W,	c #ECF6F6",
"X,	c #94F6F8",
"Y,	c #9BF2F3",
"Z,	c #A4F0F0",
"`,	c #F39F8B",
" '	c #EE7E5C",
".'	c #EC9680",
"+'	c #ECE2DF",
"@'	c #E8FFFF",
"#'	c #91FAFB",
"$'	c #97F4F6",
"%'	c #9FF0F0",
"&'	c #A9F3F3",
"*'	c #F7A392",
"='	c #F5B0A3",
"-'	c #EF8465",
";'	c #EB8C71",
">'	c #EDD0C9",
",'	c #8FFCFE",
"''	c #94F7F9",
")'	c #A2EDED",
"!'	c #F4692E",
"~'	c #F7BCB1",
"{'	c #F18160",
"]'	c #EE886C",
"^'	c #EFC5BB",
"/'	c #94FBFD",
"('	c #98F4F5",
"_'	c #9FEFEF",
":'	c #A8ECEC",
"<'	c #B5FBFC",
"['	c #F79A84",
"}'	c #F6A695",
"|'	c #F27E5B",
"1'	c #F0876A",
"2'	c #F2D3CD",
"3'	c #97F8FA",
"4'	c #9EF0F1",
"5'	c #A5EAE8",
"6'	c #AFEBEA",
"7'	c #F58C71",
"8'	c #F29882",
"9'	c #F6E6E3",
"0'	c #88FDFE",
"a'	c #89FDFE",
"b'	c #9CF4F5",
"c'	c #A2ECEA",
"d'	c #AAE5E3",
"e'	c #B6EBEB",
"f'	c #F6957E",
"g'	c #F37549",
"h'	c #F5B3A6",
"i'	c #8AFDFE",
"j'	c #8CFDFE",
"k'	c #8FFDFE",
"l'	c #8EFCFA",
"m'	c #8FFCF7",
"n'	c #9FEEEB",
"o'	c #AAE4E2",
"p'	c #B1E1DD",
"q'	c #BFF4F4",
"r'	c #FAC6BC",
"s'	c #F8C5BC",
"t'	c #F9D3CD",
"u'	c #F8D4CE",
"v'	c #F4CFC7",
"w'	c #F2D1CA",
"x'	c #F2F6F5",
"y'	c #C9FEFF",
"z'	c #8BFDFE",
"A'	c #88FCFC",
"B'	c #88FCFB",
"C'	c #8DFCFC",
"D'	c #8CFCFA",
"E'	c #85FBF5",
"F'	c #82FAF1",
"G'	c #8EF3EB",
"H'	c #A6E7E3",
"I'	c #B2DCDA",
"J'	c #B8DFDA",
"K'	c #F7C7BF",
"L'	c #F17B57",
"M'	c #F0967F",
"N'	c #EFB0A2",
"O'	c #EFD5CF",
"P'	c #EDE9E7",
"Q'	c #8AFDFD",
"R'	c #86FCFB",
"S'	c #8CFDFD",
"T'	c #8BFCFC",
"U'	c #87FCF9",
"V'	c #86FBF7",
"W'	c #82FAF2",
"X'	c #7FF9EE",
"Y'	c #89FAEF",
"Z'	c #A6EAE5",
"`'	c #B2DDDA",
" )	c #BAD9D4",
".)	c #C1E4DF",
"+)	c #F59882",
"@)	c #F0754D",
"#)	c #EF8467",
"$)	c #ED8B71",
"%)	c #EBA18F",
"&)	c #E7AA9B",
"*)	c #E4BCB1",
"=)	c #E0C8C0",
"-)	c #DCD2CE",
";)	c #D7DDD9",
">)	c #D4EBE9",
",)	c #D0F9F9",
"')	c #90FDFD",
"))	c #8BFCFA",
"!)	c #85FBF6",
"~)	c #87FBF6",
"{)	c #82FAF3",
"])	c #81FAF1",
"^)	c #80FAEE",
"/)	c #8CFAF1",
"()	c #97FBF3",
"_)	c #A7F5F0",
":)	c #B7DFDD",
"<)	c #BDD2CD",
"[)	c #C5D5D1",
"})	c #F9CCC4",
"|)	c #F5A593",
"1)	c #EF8466",
"2)	c #ED7D5A",
"3)	c #E7917A",
"4)	c #E59F8C",
"5)	c #E0A696",
"6)	c #DCAEA0",
"7)	c #D7B8AD",
"8)	c #D3C0B7",
"9)	c #CFC6BC",
"0)	c #CBCAC3",
"a)	c #C7CFC9",
"b)	c #C3D2CD",
"c)	c #BFD6D3",
"d)	c #BBD9D6",
"e)	c #B9DCD8",
"f)	c #B5DFDD",
"g)	c #B4E4E5",
"h)	c #B0EAE9",
"i)	c #AEEEEE",
"j)	c #ACF2F2",
"k)	c #A9F4F5",
"l)	c #A8F7F8",
"m)	c #A6F9FA",
"n)	c #A4FCFC",
"o)	c #9DFDFE",
"p)	c #95FCFA",
"q)	c #86FAF2",
"r)	c #80FAEF",
"s)	c #7DF9EC",
"t)	c #7DF9EA",
"u)	c #92FAF0",
"v)	c #A7FCF8",
"w)	c #B7FDFD",
"x)	c #BCE9E7",
"y)	c #BFD2CD",
"z)	c #C5CCC5",
"A)	c #CDD7D3",
"B)	c #FBE5E1",
"C)	c #F3A999",
"D)	c #F19C87",
"E)	c #EF9078",
"F)	c #EC957F",
"G)	c #E8957E",
"H)	c #E59B87",
"I)	c #E2A191",
"J)	c #DFA492",
"K)	c #DAA697",
"L)	c #D6ADA0",
"M)	c #D4B3A7",
"N)	c #D0B9AF",
"O)	c #CDBEB5",
"P)	c #CAC2BA",
"Q)	c #C7C7BE",
"R)	c #C4CAC3",
"S)	c #C1CDC6",
"T)	c #BDD5D2",
"U)	c #B8DAD6",
"V)	c #B8DBDA",
"W)	c #B3E0DC",
"X)	c #B1E2DF",
"Y)	c #B0E2E2",
"Z)	c #AFE6E4",
"`)	c #ADE9E8",
" !	c #AAECEC",
".!	c #A9F2F3",
"+!	c #AAF7F7",
"@!	c #A6FDFC",
"#!	c #90FAF0",
"$!	c #7BF8E5",
"%!	c #7AF7E3",
"&!	c #8CF9E8",
"*!	c #ABFCF6",
"=!	c #C3F3F3",
"-!	c #C6D7D2",
";!	c #C9C5BD",
">!	c #D0C7BF",
",!	c #D9E9E8",
"'!	c #E3F9E5",
")!	c #FBF6F4",
"!!	c #F8EDEB",
"~!	c #F4D8D2",
"{!	c #F1CCC5",
"]!	c #EEC5BC",
"^!	c #EBBDB3",
"/!	c #E6B3A6",
"(!	c #E2AE9F",
"_!	c #E1AFA1",
":!	c #DAB8AC",
"<!	c #D6BDB2",
"[!	c #D4BFB5",
"}!	c #D1C2BA",
"|!	c #CFC6BE",
"1!	c #CCC7C1",
"2!	c #CBC9C1",
"3!	c #C7C9C2",
"4!	c #C6CBC6",
"5!	c #C5CFC9",
"6!	c #C1CFCA",
"7!	c #BFD2CC",
"8!	c #BCD4CF",
"9!	c #BAD5D1",
"0!	c #B8D6D3",
"a!	c #B5DCD7",
"b!	c #B6DEDC",
"c!	c #B3E0DE",
"d!	c #B3E3E2",
"e!	c #B1E8E6",
"f!	c #B2F1F0",
"g!	c #B3F6F7",
"h!	c #9DFAEF",
"i!	c #7EF6DE",
"j!	c #8BF7E2",
"k!	c #AEFBF3",
"l!	c #CEE9E8",
"m!	c #CCC3BA",
"n!	c #D1BBB1",
"o!	c #D8C3BB",
"p!	c #E2F8F7",
"q!	c #C2F4C8",
"r!	c #DEF8F7",
"s!	c #DAE9E7",
"t!	c #D7DEDA",
"u!	c #D5DAD5",
"v!	c #D2D5CF",
"w!	c #CFD1CB",
"x!	c #CDCFC9",
"y!	c #CACFCB",
"z!	c #C8CFC8",
"A!	c #C8D0CA",
"B!	c #C5CEC9",
"C!	c #C2D0CB",
"D!	c #C0CFCC",
"E!	c #BFD0C9",
"F!	c #BDD5D0",
"G!	c #BEDBD8",
"H!	c #BEDEDA",
"I!	c #BFE4E1",
"J!	c #C3EDED",
"K!	c #BAF4EE",
"L!	c #B7F6EE",
"M!	c #B7FBF2",
"N!	c #CAFDFC",
"O!	c #D5D3CC",
"P!	c #D6B6AC",
"Q!	c #D9AA9D",
"R!	c #E1D1CB",
"S!	c #98EEA4",
"T!	c #D8EFED",
"U!	c #D5E3E1",
"V!	c #D1D4CE",
"W!	c #CECEC7",
"X!	c #CDCBC3",
"Y!	c #CAC5BE",
"Z!	c #CAC8C0",
"`!	c #C9C5BC",
" ~	c #CAC5BC",
".~	c #CCC4BC",
"+~	c #CBC8C0",
"@~	c #CCC6BF",
"#~	c #CFC5BD",
"$~	c #D0C3BA",
"%~	c #D2C0B7",
"&~	c #D7BDB3",
"*~	c #DBB2A5",
"=~	c #DBA99B",
"-~	c #DEA18F",
";~	c #E2A99A",
">~	c #E9DCD7",
",~	c #B1F1B9",
"'~	c #DDEEEB",
")~	c #DADFDB",
"!~	c #D7CBC3",
"~~	c #D6BFB7",
"{~	c #D3B3A9",
"]~	c #D5B3A5",
"^~	c #D7B2A5",
"/~	c #D9AB9C",
"(~	c #DAA89A",
"_~	c #DBA694",
":~	c #DDA08F",
"<~	c #DF9C88",
"[~	c #E29882",
"}~	c #E5927C",
"|~	c #E9AEA1",
"1~	c #ABF0B4",
"2~	c #B0F1B9",
"3~	c #DDF8E0",
"4~	c #8BEC99",
"5~	c #B7F2BE",
"6~	c #E7F8F7",
"7~	c #E5F0EF",
"8~	c #E3D2CC",
"9~	c #E2CBC3",
"0~	c #E1BEB2",
"a~	c #E0BDB3",
"b~	c #E1B3A7",
"c~	c #E1AFA2",
"d~	c #E2A89B",
"e~	c #E4A697",
"f~	c #E8A593",
"g~	c #E7957F",
"h~	c #EA8D74",
"i~	c #EA8F76",
"j~	c #EFBCB2",
"k~	c #ADF1B5",
"l~	c #AEF1B7",
"m~	c #F5EEEB",
"n~	c #F7EDEB",
"o~	c #F9F6F5",
"p~	c #4AE76A",
"q~	c #92ED9F",
"r~	c #BEF3C5",
"s~	c #50E86E",
"t~	c #71EA84",
"u~	c #BEF3C4",
"v~	c #A0EFAB",
"w~	c #68E97E",
"x~	c #99EEA4",
"y~	c #D9F8DC",
"z~	c #F3FDF4",
"A~	c #F8FEF9",
"                                                                                                                                                                                                        ",
"                                                                                                                                                                                                        ",
"                                                                                                                                                                                                        ",
"                                                                                                                                                                                                        ",
"                                                                                                                                                                                                        ",
"                                                                                                                                                                                                        ",
"                                                                                                                                                                                                        ",
"                                                        . + + @                                                                                                                                         ",
"                                                        # $ % @                                                                                                                                         ",
"                                                      & % * = @                                                                                                                                         ",
"                                                      - ; ; >                                                                                                                                           ",
"                                      + + +           , ' ) !                                                                                                                                           ",
"                  ~ ~ ~               + * { &         ] ' ) ^                   & & &                                                                                                                   ",
"                  / ( _ : ~           + = ; < &       ] ' ) ^               @ [ } | +                                                                                                                   ",
"                1 2 3 4 3 5 6 7 7 7 8 ~ { 9 ; {       ] ' ) ^               + ) 0 ; +                                                                                                                   ",
"                a ( b c 3 d 3 3 3 3 3 ( e f g h i j a k ' ) ^           @ + < l m = &                                                                                                                   ",
"                j n o p q 5 3 3 3 3 3 d b r s t u v n w x y z A B 1   @ C D E F G H                                                                                                                     ",
"                A 3 3 q   ~ 8 7 7 7 I J K K L M N O P d Q R S 3 n T e U V W X .                                                                                                                         ",
"                q 3 3 A       ~ 8 6 Y Z 4 `  ...f +.@.#.$.R S 3 %.d &.N N u *.q B 1                                                   . + + @                                                           ",
"                =.o -.;.~ >.,.5 3 3 d 4 4 '.    { ).!.~.{.].^./.(._.$.:.<.[.d 3 n ( Y q 8                                             # $ % @                                                           ",
"              1 p b }.|.1.p 2.d 3 K 3.d 5 4.    & 5.6.7.8.9.0.a.!.b.c.d. .6 5 3 o d e.4 2.f.g.1               @ + + .               @ % * % @                                                           ",
"              B h.e.K d Z 4 3 Y i.i.d 2 /   1 B j._ k.l.m.n.o.p.q.r.s.      ~ : _ ( }.4 d o t.q B u.          v.w.x.y.z.          A.B.C.' D.                                                            ",
"              A K e.E.4 d h.q q p d 2 / 1 g.f.h.3 o F.G.H.I.J.K.L.M.2 /           1 A N.O.n 4 }.P.1       A.A.Q.R.S.T.U.V.W.W.W.W.W.X.Y.Y.Z.A.                                                          ",
"              `. +d  +.+++q q ( o 2 ,.: _ h.o o 3 J @+#+$+%+&+d e.K d ,.8 8 ~           1 *+h.=+-+;+>+,+'+)+!+~+{+]+^+/+(+_+:+:+:+:+<+[+}+|+W.W.A.A.A.A.                                                ",
"              2 d d  +,.8 ,.1+Z 2+2+5 3 o o h._ 3+i.e.4+5+r 6+7+c d 8+i.3 1+/             1 9+J 0+a+b+c+d+e+f+g+h+i+j+k+l+m+n+n+n+o+p+q+r+s+:+:+~+~+W.A.A.A.                                            ",
"              Y E.d 1+8 2 c .+n 1.3 d 3 h.f.g.t+u+ +E. +o 1+,.6 3 3.i.c b v+2 g.1 1       1 w+8+x+y+z+A+B+C+D+E+F+G+H+I+J+K+L+M+N+O+P+Q+R+S+n+o+T+U+:+~+~+W.A.A.                                        ",
"              ( d V+W+N.o  +X+v+o 3 5 q B 1 q K d d b Y+_ : 8 5 d 3 }.v+O.Z+o 7+`+:        @.@+@@@#@$@%@&@*@=@-@;@>@,@'@)@!@~@{@{@]@^@/@(@_@N+O+:@<@o+T+U+:+~+W.W.A.                                    ",
"            1 i.d [@Y e.E. +4 2._ : ~     / 3 d d o N.B 1   ,.v+o 3.o 2 }@.+4 E.|@W+  A.A.1@2@3@4@5@:@M+_@6@7@8@9@0@a@b@c@d@e@f@g@h@i@j@k@l@m@n@_@M+o@p@q@r@T+:+~+W.A.A.                                ",
"            a n e.b e.d  +1._ : ~         / d E.}.7       ~ 5 d o o s@4.`.b t@u@v@|.A.W.~+w@x@y@z@A@B@C@D@E@F@G@H@I@J@K@L@M@N@O@P@Q@R@S@T@U@V@W@X@Y@Z@`@ #.#<@o+T+:+~+W.A.A.                            ",
"      & + + +#}.E.d d 3.2+g.1             / N.N.A 4.'.s@/ B i.3 c s@4.  8+@###$#%#&#!+~+U+*#E+=#-#C@;#>#G@H@,#'#)#!#~#{#]#^#/#(#_#:#<#[#}#|#1#2#3#4#5#6#7#8#M+:@<@o+U+:+~+A.A.                          ",
"      H ).).9#K d  +Z+q 1                     ~ ,.1+4 o j.B / ,.8 ~   8 X+0#a#b#c#d#e#T+f#g#h#i#j#k#G@l#m#)#n#o#p#q#r#s#t#u#v#w#x#y#z#A#B#C#D#E#F#G#H#I#J#K#L#_@N+:@n+T+:+~+W.A.                        ",
"      w.; ; M#K b N#B                     ~ ,.Y K d d 7+: 1           Y ##%#O#P#Q#R#S#n+T#U#V#W#X#H@m#)#Y#p#r#Z#`# $.$+$@$#$$$%$&$*$=$-$;$>$,$'$)$!$~${$]$^$/$($_$_@O+:$o+U+~+W.A.                      ",
"    & = * = <$o n B         B ,.,.4.    ~ ,.Z+d E.d e.Z 5 /         7 |@[$}$|$1$2$3$4$O+5$6$7$8$,#9$~#0$a$b$ $c$d$e$f$g$h$i$j$k$l$m$n$o$p$q$r$s$t$u$v$w$x$y$z$A$B$C$D$N+:@n+T+~+W.A.                    ",
"    E$F$F$G$( d ( 1       4.H$K o g.j W+7+b E.E.d d d d d ( 1       `.I$J$K$!+L$M$N$O$P$Q$R$S$T$U$o#V$b$ $W$X$g$Y$Z$`$ %.%+%+%@%#%$%$%%%&%*%=%-%;%@$>%,%'%)%!%~%{%]%^%/%(%_%n+T+:+W.A.                  ",
"    :%0 0 <%n o p       ~ i.E.d 3.Y+.+ +d E.d d d d  +d d K a       [%}%|%1%2%3%4%5%6%7%8%9%0%a%0$s#>%@$e$h$b%`$c%d%e%f%g%h%g%i%j%k%l%m%e%n%.%o%p%g$e$@$>%Z#q%r%s%t%u%v%w%x%y%f#U+~+W.A.                ",
"+   :%F$F$z%n o =.    8 A%E.d E.B%d d d  +b o E.o i.C%e.d b D%      ~ E%F%G%H%I%J%K%L%M%N%O%P%p#Z# $d$f$p%`$+%e%g%Q%Q%R%S%S%S%S%T%U%T%R%Q%h%g%d%+% %Z$h$e$c$V%a$W%X%Y%Z%`% &.&+&@&U+~+W.A.  + + +       ",
"# . :%F$F$#&3 3 q     ,. +d d d $&d 4 1.++;.,.: g.1 j b d o D%      A.A.W.:+%&&&*&=&-&;&>&,&'&Z#.$)&h$Z$c%e%g%Q%S%S%!&!&!&~&~&~&~&~&!&{&S%S%R%Q%g%e%n% %b%]&d$^&Z#p#/&(&_&:&<&[&+&@&U+~+A.A.+ * > }&@   ",
"|&{ 1&0 0 2&3 3 7     3&4&d 5&6&7&8&,.~             A 4 d X+j       A.W.~+9&0&a&b&c&d&e&f&g&u$.$)&i$`$n%f%Q%S%{&!&~&~&~&~&~&~&~&~&~&~&~&~&!&!&{&S%R%Q%e%+%`$i$X$h&i&j&~#k&l&m&n&o&p&q&U+W.A.+ < ; % +   ",
"r&; s&t&F$u&3 3 7 & { h v&6&d #.w&x&                6 b E.X+A     A.A.W.:+y&z&A&B&k#C&D&E&F& $;%i$`$d%g%G&S%!&~&~&~&~&H&H&H&H&H&H&H&H&~&~&~&~&~&~&!&S%G&g%I&.%p%-%c$`#q#~#J&K&L&M&N&O&P&:+W.A.+ ).Q&= { ",
"} 0 R&S&' T&3 3 U&< ; W V&W&X&/.Y&                ~ 5 d e.v+6   ~ Z&`& *.*+*@*#*$*X#%*&***=*d$g$`$d%g%R%{&~&~&H&H&H&H&H&H&H&H&H&H&H&H&H&H&H&~&~&~&~&~&!&S%Q%e%+%Z$f$W$-*j&n#m#;*>*,*'*)*!*~*A.{*- ]** ^*",
"E$/*(*_*:*<*d [*}** ; }*|*1*2*( /               1 ,.3 c c d 5 1 3*4*5*6*7*8*9*0*a*b*c*d*e*f*f$o%n%g%R%{&~&~&H&H&H&H&H&H&H&H&H&H&H&H&H&H&H&H&H&H&H&~&~&~&!&{&G&g%+%o%]&@$-*j&!#g*h*i*j*k*l*m*W.A.  = Q&n*",
"& = E o*p*M q*r** = { s*7+E.e.1.2 / 1           g.( o f.H$o n t*u*v*w*x*y*z*A*B*X#C*D*E*F*G*p%c%g%R%{&~&~&~&H&H&H&H&H&H&H&H&H&H&H&H&H&H&H&H&H&H&H&H&H&~&~&~&S%G&g%+%o%-%c$i&p#)#l#H*I*J*K*L*2%W.  H D $ ",
"  }&M*N*O*P*Q*R*< + 4.s@d o 1+=.X+`+:         ~ f.o ( g.=.o n E%S*T*U*V*W*X*Y*Z*H@`* =.=+=h$`$I&Q%S%~&~&H&H&H&H&H&H&H&H&H&H&H&H&H&H&H&H&H&H&H&H&H&H&H&H&~&~&~&{&G&g%+%b%-%h&Z#o#9$@=#=Y*$=%=&=W.A.  H *=",
"    ==-=;=>=,=c.& 4.s@Z Y q B 4.O.d 7+8       ,.2.3 ,.1 q 3 '=)=!=~={=]=^=/=(=F@,#_=:=<=[=p%+%g%S%!&~&H&H&H&H&H&H&H&H&H&H&H&H&H&H&H&H&H&H&H&H&H&H&H&H&H&H&H&~&~&S%Q%f%.%p%;% $V$~#g*X#}=|=1=2=G%A.  3=@ ",
"      4=5=6=7=8=  s@o n :       N.4 4 q     ~ 5 d 8+2 : 3+3 '=9=0=a=b=c=d=e=f=G@g=h=i=j=k=`$I&Q%{&~&~&H&H&H&H&H&H&H&H&H&H&H&H&H&H&H&H&H&H&H&H&H&H&H&H&H&H&H&H&~&~&S%Q%e%`$g$l=-*p#m=b*E@n=o=p=q=W.A.    ",
"      A 3 3 q     p b 1.D%      ;.}.e.`+  ~ ,..+Z Z v+o Y 7+r=s=t=u=v=w=x=y=-&@=z=A=B=C=D=.%g%R%!&~&H&H&H&H&H&H&H&H&H&H&H&H&H&H&H&H&H&H&H&H&H&H&H&H&H&H&H&H&H&H&~&!&S%h%d%Z$-%.$s#Y#m#X#E=F=G=H=W.A.    ",
"      q 3 3 A     I= +X+J=      D%2.b K=1 L=3.4 e.v+X+o c I M=N=O=P=Q=R=S=_$k#b*T=U=V=[=Z$n%Q%S%~&~&H&H&H&H&H&H&H&H&H&H&H&H&H&H&H&H&H&H&H&H&H&H&H&H&H&H&H&H&H&H&H&~&{&G&f%.%Y$l=-*W=)#b*X=Y=Z=`=~+A.    ",
"      _ o n B     =. + + -4.    D%1.e.|.++X+E. +H$N.O.3.V+7 .-+-@-#-$-%-&-C@>#*-=---;->-,-I&Q%{&~&H&H&H&H&H&H&H&H&H&H&H&H&H&H&H&H&H&H&H&H&H&H&H&H&H&H&H&H&H&H&H&H&~&~&S%Q%d%o%-%^&a$'-g*)-!-~-{-:+W.A.  ",
"    1 ( d ( 1     : i.K 4 O.I 5 ` 3.3 P.1.d E.H$g.j ( o _ ~ 1 ]-!+~+U+<@M+{@^-/-(-_-:-<- %f%R%!&~&H&H&H&H&H&H&H&H&H&H&H&H&H&H&H&H&H&H&H&H&H&H&H&H&H&H&H&H&H&H&H&H&~&~&!&R%g%.%h$W$b$[-9$}-|-1-2-U+W.A.  ",
"    a n o p         ~ ,.( d 4 4  +b ,.j n 4 8+4.  j 3 3 =.    A.W.~+U+<@M+3-X#4-5-6-+=i$.%g%S%!&~&H&H&H&H&H&H&H&H&H&H&H&H&H&H&H&H&H&H&H&H&H&H&H&H&H&H&H&H&H&H&H&H&~&~&~&{&Q%d%Z$e$7-q#U$8-9-0-a-T+~+A.  ",
"    D%n o I           1 : 7+4 4 K ( 4.1 / / 4.    A n o q     A.A.~+U+<@M+3-G@b-c-d-e-Y$+%h%S%~&~&H&H&H&H&H&H&H&H&H&H&H&H&H&H&H&H&H&H&H&H&H&H&H&H&H&H&H&H&H&H&H&H&H&~&~&{&R%e%`$]&h&s#'-f-g-h-i-o+:+W.  ",
"    D%n o I               8 7 t+A B               A 3 3 q     A.A.j-k-l-m-D@n-o-c-p-q-b%n%h%S%~&~&H&H&H&H&H&H&H&H&H&H&H&H&H&H&H&H&H&H&H&H&H&H&H&H&H&H&H&H&H&H&H&H&H&~&~&~&S%g%+%Y$W$b$[-r-s-t-u-n+:+W.  ",
"    D%n o I                     B q q /           7 3 K i.s@4.A.A.v-w-x-y-;#z-A-B-C-D-Z$d%Q%S%~&~&H&H&H&H&H&H&H&H&H&H&H&H&H&H&H&H&H&H&H&H&H&H&H&H&H&H&H&H&H&H&H&H&H&H&~&~&S%Q%d%o%e$>%j&E-F-G-H-<@U+W.  ",
"    D%n o I                 1 j.n o d /           8 i.3 d o 2 1 A.I-J-K-L--&M-N-U=O-X$Z$d%Q%S%~&~&H&H&H&H&H&H&H&H&H&H&H&H&H&H&H&H&H&H&H&H&H&H&H&H&H&H&H&H&H&H&H&H&H&H&~&~&{&R%f%`$f$.$r#P-Q-R-S-:$U+W.A.",
"    D%n o I           1 ;.N#J Z E.E.i./           T-U-V-V+e.n a A.I-W-X-Y-k#Z-`- ;.;-%o%I&Q%{&~&~&H&H&H&H&H&H&H&H&H&H&H&H&H&H&H&H&H&H&H&H&H&H&H&H&H&H&H&H&H&H&H&H&H&H&~&~&!&S%g%c%i$W$Z#+;@;#;$;:@T+~+A.",
"    D%n o I   1 B }@A%.+ +d d d  +7+:           ~ %;&;*;=;o 1.D%A.I-J--;Y-;;>;,;';);-%o%I&Q%{&~&~&H&H&H&H&H&H&H&H&H&H&H&H&H&H&H&H&H&H&H&H&H&H&H&H&H&H&H&H&H&H&H&H&H&~&~&~&~&{&Q%n%b%;%-*!;~%~;{;N+o+:+A.",
"    D%n o I 8 Y X+ +E.d d d d E.h.];1           s@^;d /;(;_;n t*A.I-:;<;[;};|;1;2;.$f$`$I&Q%{&~&~&H&H&H&H&H&H&H&H&H&H&H&H&H&H&H&H&H&H&H&H&H&H&H&H&H&H&H&H&H&H&H&H&H&H&~&~&~&{&R%e%o%X$ $3;4;5;6;M+n+:+W.",
"    D%n o 8+i. +d d d d d d E.o .+h./       1 ,.2.[$7;8;9;0;2.a;b;c;d;e;f;g;h;i;j;h&g$ %e%G&{&~&~&H&H&H&H&H&H&H&H&H&H&H&H&H&H&H&H&H&H&H&H&H&H&H&H&H&H&H&H&H&H&H&H&H&H&~&~&~&!&R%g%.%g$h&k;l;m;n;o;<@:+W.",
"    D%n o 8+d  +e.4 d o b e.o E.d o /     B L=c E.X+p;q;r;s;t;u;J v;d;w;x;y;z;A;B;+$g$ %e%R%!&~&~&H&H&H&H&H&H&H&H&H&H&H&H&H&H&H&H&H&H&H&H&H&H&H&H&H&H&H&H&H&H&H&H&H&H&~&~&~&~&R%g%c%i$c$C;D;E;F;6@:@T+W.",
"    D%n o 8+6 N.N.d K e.4  +d E.X+p 4.  ~ q X+E. +K=~ G;@.H;I;u@J;K;L;M;N;O;P;Q;R;@$h$ %e%R%{&~&~&H&H&H&H&H&H&H&H&H&H&H&H&H&H&H&H&H&H&H&H&H&H&H&H&H&H&H&H&H&H&H&H&H&H&H&~&~&~&S%h%+%Y$l=S;T;U;V;C@O+o+~+",
"    ;.}.e.`+    s@3 d E.d d 4 i.A 1 1 g.f.}.4  +1.g.  B W;5&d v@X;Y;L;Z;`; >.>+>@>#>$>c%f%G&!&~&~&H&H&H&H&H&H&H&H&H&H&H&H&H&H&H&H&H&H&H&H&H&H&H&H&H&H&H&H&H&H&H&H&H&H&H&~&~&~&{&Q%n%b%)&%>&>*>=>{@N+n+:+",
"    3+4 4 3+    4.o E.E.E.3 N.B   ~ ,.( o 3.Z v+q 1   N.r=d d ->;>>>,>'>)>!>~>{>]>^>/>c%g%R%!&~&~&H&H&H&H&H&H&H&H&H&H&H&H&H&H&H&H&H&H&H&H&H&H&H&H&H&H&H&H&H&H&H&H&H&H&H&~&~&~&!&G&I&,-X$(>_>:><>;#o;<@U+",
"    Y e.}.A     4._ v+d 1+[>}>j q 5 3 o 7+Y+b ( B   A }.d d v&|>1>2>3>4>5>6>7>8>9>0>a>c%f%R%!&~&~&H&H&H&H&H&H&H&H&H&H&H&H&H&H&H&H&H&H&H&H&H&H&H&H&H&H&H&H&H&H&H&H&H&H&H&~&~&~&!&G&e% %]&j=--b>c>E@B@:@T+",
"    p d i.a       ~ 3 o .+n n n 3 d 2.f.2+V+3 ,.1 ~ n d d d d>e>f>g>h>i>j>k>l>m>n>o>=%.%g%S%!&~&~&H&H&H&H&H&H&H&H&H&H&H&H&H&H&H&H&H&H&H&H&H&H&H&H&H&H&H&H&H&H&H&H&H&H&H&H&~&~&!&S%f%.%p>q>r>s>t>>#6@O+o+",
"    p o n a       ~ 2 o b o o o 3 5 ,.8 5 d 5 ~ ~ q e.d d d u>v>w>x>y>z>A>B>C>D>E>W$Y$.%f%S%!&~&H&H&H&H&H&H&H&H&H&H&H&H&H&H&H&H&H&H&H&H&H&H&H&H&H&H&H&H&H&H&H&H&H&H&H&H&H&H&~&!&S%g%+%F>G>6-H>m#^-C@N+n+",
"    I o n D%        4.'.I I I =.: ~   : 3 3 q 4.: I>E.d d d J>K>L>M>N>O>P>Q>R>S>b$d$i$.%g%R%!&~&H&H&H&H&H&H&H&H&H&H&H&H&H&H&H&H&H&H&H&H&H&H&H&H&H&H&H&H&H&H&H&H&H&H&H&H&H&H&~&~&S%Q%+%T>U>V>W>'#X#3-M+<@",
"    I o n D%                          2+4 .+` ( K V+d d d e.X>Y>Z>`> ,.,+,@,#,[-i&W$h$.%g%R%!&~&H&H&H&H&H&H&H&H&H&H&H&H&H&H&H&H&H&H&H&H&H&H&H&H&H&H&H&H&H&H&H&H&H&H&H&H&H&H&~&~&S%Q%n%$,%,&,*,=,K&D@_@:@",
"    '.Z h.-,                          ( d 4 o d p h.E.d  +Z ;,N#~+T+>,,,',),'#[-Z#@$h$.%e%G&!&~&H&H&H&H&H&H&H&H&H&H&H&H&H&H&H&H&H&H&H&H&H&H&H&H&H&H&H&H&H&H&H&H&H&H&H&H&H&H&H&~&S%Q%d%!,~,{,],)#H@;#B@:@",
"    4.2 o 7+5 6 7 7 A B 1             2 o K n ++^,: 3  +3.V+/,(,~+_,:,<,[,K&J&o#R;h&f$`$e%Q%{&~&H&H&H&H&H&H&H&H&H&H&H&H&H&H&H&H&H&H&H&H&H&H&H&H&H&H&H&H&H&H&H&H&H&H&H&H&H&H&H&~&{&Q%},|,1,2,3,U$b*E@6@O+",
"      / `+d d 3 3 3 3 h._ : ~         4.: j.B 1   1 H$d c 1./,4,W.5,6,7,8,X#m#'-a$^&-%o%I&Q%{&~&~&H&H&H&H&H&H&H&H&H&H&H&H&H&H&H&H&H&H&H&H&H&H&H&H&H&H&H&H&H&H&H&H&H&H&H&H&H&H&~&{&Q%9,0,a,b,V$!#l#k#C@N+",
"      1 : ++i.3 3 3 3 o o 2.p =.q 8 ~             1 n e..+t@N.c,W.d,^=e,f,F@,#n#r#7-e$b%+%g%S%~&~&~&H&H&H&H&H&H&H&H&H&H&H&H&H&H&H&H&H&H&H&H&H&H&H&H&H&H&H&H&H&H&H&H&H&H&H&H&H&~&{&Q%g,0,h,O-V$!#l#k#i,N+",
"            ~ 8 7 7 q _ h.3 o o 3 3 ( Y 2 `.8 ~   1 2 o 4 2 j,A.W.k,l,m,n,k#l#)#W=-*d$i$.%f%R%{&~&~&H&H&H&H&H&H&H&H&H&H&H&H&H&H&H&H&H&H&H&H&H&H&H&H&H&H&H&H&H&H&H&H&H&H&H&H&H&~&{&o,p,q,h,r,q#U$l#k#i,N+",
"                      1 B q ( n 3 3 d e.4 K 3 5 ,.~ 4.s@s,/   A.W.t,u,v,w,E@H@9$[-Z#+$]&,-d%Q%S%~&~&~&H&H&H&H&H&H&H&H&H&H&H&H&H&H&H&H&H&H&H&H&H&H&H&H&H&H&H&H&H&H&H&H&H&H&H&H&~&S%x,y,z,A,B,W=)#l#k#i,N+",
"                          1 a j A 6 5 }.4 K 3 d 2.f.g.a 1 1     W.C,D,E,F,D@G@m#'-r#7-)&p%+%f%R%{&~&~&~&H&H&H&H&H&H&H&H&H&H&H&H&H&H&H&H&H&H&H&H&H&H&H&H&H&H&H&H&H&H&H&H&H&H&~&~&S%G,H,I,J,-*p#m=H@E@i,N+",
"                                    1 A }@`.6 5 3 o ( q B 1     A.K,L,M,N,{@>#l#)#W=b$@$g$,-d%h%S%!&~&~&~&H&H&H&H&H&H&H&H&H&H&H&H&H&H&H&H&H&H&H&H&H&H&H&H&H&H&H&H&H&H&H&H&H&~&!&O,P,Q,R,S,i&o#9$@=;#6@N+",
"                                              ~ ,.( o 3 p : 1   A. *T,U,V,W,E@K&'#Y#a$ $)&Y$.%e%Q%S%!&~&~&~&H&H&H&H&H&H&H&H&H&H&H&H&H&H&H&H&H&H&H&H&H&H&H&H&H&H&H&H&H&H&H&~&~&{&x,X,Y,Z,.$a$Y#m#G@D@B@:@",
"                                                1 g.f.2.o `+/   A.W.`, '.'+'@'F@*-)#p#i&+$-%Z$c%f%Q%S%!&~&~&~&H&H&H&H&H&H&H&H&H&H&H&H&H&H&H&H&H&H&H&H&H&H&H&H&H&H&H&H&H&~&~&!&R%#'$'%'&'>%q#!#,#^-3-_@:@",
"                                                    ~ : _ X+O.*'|$A.='-';'>'i,E@K&J&~#q#`#W$f$Z$+%f%Q%S%{&!&~&~&~&~&~&H&H&H&H&H&H&H&H&H&H&H&H&H&H&H&H&H&H&H&H&H&H&H&H&H&~&!&S%,'''0,)'f*i&[-m=b*k#C@M+:$",
"                                                        4.'.4 !'9+A.~'{']'^'_@{@F@l#=,o#a$>%d$]&Z$c%e%h%G&S%{&!&~&~&~&~&~&~&~&~&~&~&H&H&H&H&H&H&H&H&H&H&H&H&H&H&H&H&H&~&!&S%Q%/'('_':'<'V$~#m#G@;#B@O+<@",
"                                                          4.i.K [']-}'|'1'2'N+6@;#X#,#U$[-s# $l=f$b% %d%f%Q%R%S%{&!&!&~&~&~&~&~&~&~&~&H&H&H&H&H&H&H&H&H&H&H&H&H&H&H&~&!&S%Q%e%3'4'5'6'Z#0$m=l#F@{@_@:@o+",
"                                                            8 8 8 a 7'Q#8'9':@o;C@E@K&g*U$[-a$V%@$X$Y$o%c%d%f%h%Q%S%{&!&!&~&~&~&~&~&~&~&~&~&~&~&~&H&H&H&H&~&~&H&0'0'a'R%Q%e%+%b'c'd'e'q#~#m#K&-&6@N+:$T+",
"                                                                  a f'g'h'U+n+O+_@{@k#@=m#U$[-r#`#.$;%f$Y$,-.%d%e%g%h%Q%G&S%S%!&!&!&!&~&~&~&~&~&~&~&~&0'0'~&!&i'T%T%j'k'm%l'm'n'o'p'q'Y#9$b*>#{@_@:@n+U+",
"                                                                  1 r's't'u'v'w'x'_@3-k#K&g*)#y'q#Z#7-c$;%]&Y$Z$`$.%+%I&e%f%h%Q%Q%R%S%S%S%{&{&!&{&{&!&a'U%i'{&z'A'B'C'D'E'F'G'H'I'J'o#m=l#X#D@B@N+<@o+:+",
"                                                                      A.A.K'L'M'N'O'P'{@E@G@*-9$n#0$r#i&>%+$l=e$]&i$b%,- %+%n%d%e%f%g%g%Q%Q%Q%G&G&G&G&j'Q'R'S'T'U'V'%%W'X'Y'Z'`' ).))#,#X#E@6@M+:$o+U+~+",
"                                                                        A.F%+)@)#)$)%)&)*)=)-);)>),)~#0$V$R;-* $+$l=)&f$]&Y$b%o%,-.%+%+%n%d%d%d%I&e%I&e%')))!)~){)])^)/)()_):)<)[),),#G@E@C@o;:@n+U+:+W.",
"                                                                          ]-})|)A+1)2)@*3)4)5)6)7)8)9)0)a)b)c)d)e)f)g)h)i)j)k)l)m)n)h$Y$p%Z$Z$o%o%,-,-o%o)p)q)r)s)t)u)v)w)x)y)z)A)*-X#E@C@_@O+n+T+:+~+W.",
"                  . + + @                             + + +                 A.B)K,C)D)E)F)G)H)I)J)K)L)M)N)O)P)Q)R)S)B-T)U)V)W)X)Y)Z)`) !.!+!G*X$-%-%X$-%X$@!#!$!%!&!*!a$=!-!;!>!,!^-;#C@o;O+<@T+:+~+W.A.",
"                  - $ % }&      . + + @         @ '!a.% * +                   A.A.W.)!!!~!{!]!^!/!(!_!:&:!<![!}!|!1!2!3!4!5!6!7!8!9!0!a!b!c!d!e!f!g! $7->%`#h!i!j!k!0$'-l!m!n!o!p!D@6@M+:@<@T+:+~+W.A.A.",
"                  - !.; > @   & # $ q!@     @ [ } ]*' * < +                     A.A.W.~+:+T+o+<@O+M+_@i,3-;#E@>#X#r!s!t!u!v!w!x!y!z!A!B!C!D!E!8!F!G!G!H!I!J!K!L!M!N!=,m#O!P!Q!R!{@B@N+:$n+T+:+~+W.A.A.  ",
"                  & D.' r&}&  - !.; > @   & { S!0 n*) < +                         A.A.W.W.~+U+U+o+n+:@N+o;B@6@C@3-;#;#E@k#>#^-K&H@H@T!U!V!W!X!Y!Z!`! ~}#.~+~@~#~$~%~&~*~=~-~;~>~M+O+<@o+U+:+~+W.A.A.    ",
"                    ==; ; ==  D.' ) }&@ + < !.n*' ,~'!@                               A.A.W.W.~+:+U+T+o+<@:$:@N+M+o;_@B@6@C@C@{@D@;#E@k#F@X#'~)~!~~~P!{%{~]~^~/~(~_~:~<~[~}~|~O+:$n+T+U+~+W.A.A.A.      ",
"                    }&]*n*1~H % * 2~@ 3~% ' 4~5~G H                                       A.A.W.W.~+~+:+T+T+o+n+n+<@:$:@:@O+N+N+o;o;_@B@i,C@{@@'6~7~8~9~0~a~b~c~d~e~f~g~h~i~j~o+T+U+:+~+W.A.A.          ",
"                    @ w.' ' w.k~* l~3~] * = - &                                                 A.A.W.W.W.~+:+:+:+U+T+T+T+T+o+n+n+n+<@:$:$:@M+N+M+o;o;o;o;o;M+N+N+O+:$5@m~n~o~:+~+W.W.A.A.A.            ",
"                      H ]*p~; q~* k~r~* = +                                                         A.A.A.A.A.W.W.W.~+~+~+~+:+~+:+:+:+U+U+T+o+o+n+n+n+n+<@<@n+o+o+o+T+U+:+~+~+W.W.A.A.A.                ",
"                        G ' s~' t~u~v~v~{                                                                     A.A.A.A.A.A.A.W.A.W.W.W.~+~+~+~+~+:+:+U+U+:+:+:+:+~+~+~+~+W.A.A.A.A.                      ",
"                        H % p~w~x~y~. . z~                                                                                        A.A.A.A.A.A.W.W.A.A.A.W.W.W.W.A.A.A.A.                                ",
"                          . D.m > A~                                                                                                                                                                    ",
"                            . . .                                                                                                                                                                       ",
"                                                                                                                                                                                                        ",
"                                                                                                                                                                                                        "};
