/* XPM */
static char * exit2_xpm[] = {
"100 100 2648 2",
"  	c #FFFFFF",
". 	c #FFFEFE",
"+ 	c #FFF4FA",
"@ 	c #FFDEF1",
"# 	c #FFF8FC",
"$ 	c #FFFDFE",
"% 	c #FFF3FA",
"& 	c #FFE3F3",
"* 	c #FFE1F2",
"= 	c #FFD8EF",
"- 	c #FFE8F5",
"; 	c #FFFAFD",
"> 	c #FFFCFE",
", 	c #FFE5F4",
"' 	c #FFD9EF",
") 	c #FFF1F9",
"! 	c #FFFEFF",
"~ 	c #FFFBFD",
"{ 	c #FFEAF6",
"] 	c #FFE9F5",
"^ 	c #FFF2F9",
"/ 	c #FFE7F5",
"( 	c #FFEEF7",
"_ 	c #FFE7F4",
": 	c #FFF7FB",
"< 	c #FFF6FB",
"[ 	c #FFE2F2",
"} 	c #FFF0F8",
"| 	c #FFDBF0",
"1 	c #FFDAEF",
"2 	c #FFECF7",
"3 	c #FFEFF8",
"4 	c #FFE6F4",
"5 	c #FFE0F2",
"6 	c #FFF5FB",
"7 	c #FFE4F3",
"8 	c #FFF9FC",
"9 	c #FFEDF7",
"0 	c #FFC9E8",
"a 	c #FFCFEB",
"b 	c #FFDDF0",
"c 	c #FFDDF1",
"d 	c #FFEBF6",
"e 	c #FFCCEA",
"f 	c #FFCAE9",
"g 	c #FFF5FA",
"h 	c #FFD6EE",
"i 	c #FFD5ED",
"j 	c #FFE2F3",
"k 	c #FFDFF1",
"l 	c #FFEEF8",
"m 	c #FFD8EE",
"n 	c #FFD4ED",
"o 	c #FFD0EB",
"p 	c #FFD7EE",
"q 	c #FFCDEA",
"r 	c #FFC2E6",
"s 	c #FFDCF0",
"t 	c #FFD1EC",
"u 	c #E0C9C4",
"v 	c #D3E3C2",
"w 	c #CBF1C0",
"x 	c #F4EEF1",
"y 	c #D7D7D7",
"z 	c #A6A6A6",
"A 	c #999999",
"B 	c #999798",
"C 	c #9E9097",
"D 	c #83727B",
"E 	c #958D91",
"F 	c #BCBBBB",
"G 	c #B2B193",
"H 	c #78A453",
"I 	c #759E65",
"J 	c #AEA9AC",
"K 	c #C6B7BF",
"L 	c #E1C9D6",
"M 	c #F4EFF1",
"N 	c #D7D2D5",
"O 	c #BDBABC",
"P 	c #AEADAE",
"Q 	c #9E9D9D",
"R 	c #838283",
"S 	c #6D6C6C",
"T 	c #656464",
"U 	c #5B5B5B",
"V 	c #353434",
"W 	c #262525",
"X 	c #353334",
"Y 	c #393436",
"Z 	c #251F22",
"` 	c #0D0809",
" .	c #8A8A8A",
"..	c #F4F4F4",
"+.	c #D7D5D6",
"@.	c #9E969A",
"#.	c #546241",
"$.	c #2A3B1C",
"%.	c #2B3F21",
"&.	c #494446",
"*.	c #493E44",
"=.	c #6D5A65",
"-.	c #77636E",
";.	c #8E7784",
">.	c #8A7581",
",.	c #998591",
"'.	c #998B93",
").	c #C6BEC2",
"!.	c #E1DFE0",
"~.	c #E1DDDF",
"{.	c #C6C3C4",
"].	c #AEAEAE",
"^.	c #838383",
"/.	c #656364",
"(.	c #5B585A",
"_.	c #494648",
":.	c #494848",
"<.	c #373636",
"[.	c #232122",
"}.	c #282627",
"|.	c #1D1B1C",
"1.	c #464445",
"2.	c #3B3939",
"3.	c #585758",
"4.	c #E1E1E1",
"5.	c #B3B3B3",
"6.	c #636263",
"7.	c #383536",
"8.	c #3A3337",
"9.	c #242022",
"0.	c #353233",
"a.	c #262424",
"b.	c #353333",
"c.	c #6D6B6C",
"d.	c #776F73",
"e.	c #806E78",
"f.	c #80777C",
"g.	c #807C7E",
"h.	c #807F7F",
"i.	c #A2A1A1",
"j.	c #CBCBCB",
"k.	c #E9E9E9",
"l.	c #BAB9B9",
"m.	c #9A9598",
"n.	c #776E73",
"o.	c #4F4A4C",
"p.	c #261E22",
"q.	c #3B3137",
"r.	c #454445",
"s.	c #4C4C4C",
"t.	c #535252",
"u.	c #646363",
"v.	c #696969",
"w.	c #757575",
"x.	c #919090",
"y.	c #A5A5A5",
"z.	c #6A696A",
"A.	c #171314",
"B.	c #919191",
"C.	c #F4E8EE",
"D.	c #BDB9BB",
"E.	c #8B8B8B",
"F.	c #6A6A6A",
"G.	c #5C5C5C",
"H.	c #6F6F6F",
"I.	c #858585",
"J.	c #868485",
"K.	c #706E6F",
"L.	c #5D5B5C",
"M.	c #261D22",
"N.	c #2E282B",
"O.	c #2E2B2C",
"P.	c #2E2C2D",
"Q.	c #2E2D2D",
"R.	c #403E3F",
"S.	c #BCBABB",
"T.	c #ABABAB",
"U.	c #5B5A5B",
"V.	c #3D3037",
"W.	c #545052",
"X.	c #6E5764",
"Y.	c #876579",
"Z.	c #8A8085",
"`.	c #BBBBBB",
" +	c #C4C4C4",
".+	c #979797",
"++	c #515050",
"@+	c #E0D6DB",
"#+	c #C0B2B7",
"$+	c #998990",
"%+	c #807579",
"&+	c #474244",
"*+	c #262425",
"=+	c #383436",
"-+	c #50454B",
";+	c #6B5B64",
">+	c #8D8389",
",+	c #AEABAC",
"'+	c #9D9D9D",
")+	c #7F7F7F",
"!+	c #474245",
"~+	c #4A3F45",
"{+	c #4C3C45",
"]+	c #5B5157",
"^+	c #5B5558",
"/+	c #4F4C4E",
"(+	c #4B4A4A",
"_+	c #494748",
":+	c #635E60",
"<+	c #8A8287",
"[+	c #AEACAD",
"}+	c #BDBCBD",
"|+	c #727272",
"1+	c #454444",
"2+	c #554F52",
"3+	c #77656F",
"4+	c #927686",
"5+	c #9D8391",
"6+	c #AD9CA6",
"7+	c #BEB7BB",
"8+	c #C7C1C4",
"9+	c #D1B5C5",
"0+	c #E0A0C6",
"a+	c #D6AEC5",
"b+	c #C8C0C4",
"c+	c #646464",
"d+	c #2A2929",
"e+	c #959595",
"f+	c #757773",
"g+	c #3A4235",
"h+	c #1C1518",
"i+	c #1F191C",
"j+	c #444042",
"k+	c #7E7279",
"l+	c #B88CA7",
"m+	c #D39EBD",
"n+	c #D4B0C5",
"o+	c #CDBAC5",
"p+	c #C5C3C4",
"q+	c #ACAAAB",
"r+	c #989396",
"s+	c #7A6C74",
"t+	c #6F6269",
"u+	c #5B4F56",
"v+	c #585054",
"w+	c #403C3E",
"x+	c #4F4C4D",
"y+	c #53484E",
"z+	c #453B40",
"A+	c #494647",
"B+	c #424141",
"C+	c #161313",
"D+	c #1C1A1A",
"E+	c #323030",
"F+	c #3C3B3B",
"G+	c #565555",
"H+	c #767575",
"I+	c #8E8E8E",
"J+	c #CEB8C5",
"K+	c #D5AFC5",
"L+	c #D6AFC5",
"M+	c #D0B6C5",
"N+	c #C9BEC4",
"O+	c #E19EC6",
"P+	c #E499C6",
"Q+	c #C6C2C4",
"R+	c #7E7E7E",
"S+	c #434242",
"T+	c #A6A5A5",
"U+	c #3B3237",
"V+	c #51434B",
"W+	c #5F4E57",
"X+	c #836B79",
"Y+	c #A18D98",
"Z+	c #DDA5C6",
"`+	c #D9AAC6",
" @	c #D5B0C5",
".@	c #D1B6C5",
"+@	c #838282",
"@@	c #656263",
"#@	c #2A2427",
"$@	c #262123",
"%@	c #220B35",
"&@	c #150921",
"*@	c #1C0A21",
"=@	c #290C35",
"-@	c #150834",
";@	c #0D0734",
">@	c #0D081B",
",@	c #0D0817",
"'@	c #211F1F",
")@	c #393838",
"!@	c #ACACAC",
"~@	c #CABDC4",
"{@	c #D0B7C5",
"]@	c #D2B4C5",
"^@	c #CFB8C5",
"/@	c #DEA2C6",
"(@	c #E98EC7",
"_@	c #D8ABC5",
":@	c #CFB7C5",
"<@	c #CDB9C5",
"[@	c #E1E0E0",
"}@	c #3D3A3B",
"|@	c #3C3037",
"1@	c #65505C",
"2@	c #7B606F",
"3@	c #9F7F91",
"4@	c #AF9AA6",
"5@	c #C1B4BB",
"6@	c #DCA6C6",
"7@	c #D3B3C5",
"8@	c #D4B1C5",
"9@	c #CCBBC5",
"0@	c #474345",
"a@	c #1C0A34",
"b@	c #170921",
"c@	c #1F0A26",
"d@	c #15091B",
"e@	c #1A0934",
"f@	c #300D59",
"g@	c #390F61",
"h@	c #3E1169",
"i@	c #56186A",
"j@	c #561776",
"k@	c #2A0A81",
"l@	c #0B0574",
"m@	c #0C0668",
"n@	c #0C0756",
"o@	c #0D0739",
"p@	c #0D0813",
"q@	c #302F2F",
"r@	c #9B9497",
"s@	c #CBBCC5",
"t@	c #D1B4C5",
"u@	c #DBA7C6",
"v@	c #E892C7",
"w@	c #D8ACC5",
"x@	c #727171",
"y@	c #F4CCE3",
"z@	c #C3AFBA",
"A@	c #8F8D8E",
"B@	c #3F363B",
"C@	c #705364",
"D@	c #9F6B8A",
"E@	c #C48DAE",
"F@	c #D7ADC5",
"G@	c #CBBDC4",
"H@	c #B4A3AD",
"I@	c #0F0834",
"J@	c #180921",
"K@	c #2A0C35",
"L@	c #370F43",
"M@	c #46135A",
"N@	c #41125F",
"O@	c #411181",
"P@	c #230792",
"Q@	c #2905BD",
"R@	c #410DBE",
"S@	c #6A1CBF",
"T@	c #9E2EC1",
"U@	c #8626C0",
"V@	c #390ABD",
"W@	c #0800BD",
"X@	c #0A0492",
"Y@	c #0E0749",
"Z@	c #0F081E",
"`@	c #12081B",
" #	c #5F4F57",
".#	c #98778A",
"+#	c #D19FBD",
"@#	c #DAA8C6",
"##	c #D3B2C5",
"$#	c #E29CC6",
"%#	c #DFA1C6",
"&#	c #CBBCC4",
"*#	c #9C9B9C",
"=#	c #E1D7DC",
"-#	c #A6909C",
";#	c #6D5E66",
">#	c #8B6F7F",
",#	c #C888AE",
"'#	c #C6C1C4",
")#	c #BB9BAD",
"!#	c #A28C98",
"~#	c #79626F",
"{#	c #664F5D",
"]#	c #50474C",
"^#	c #0D0834",
"/#	c #110834",
"(#	c #2C0C50",
"_#	c #491461",
":#	c #5F1A80",
"<#	c #671CA1",
"[#	c #5C17B5",
"}#	c #3F0CBE",
"|#	c #2003BD",
"1#	c #6018BE",
"2#	c #912AC0",
"3#	c #7620BF",
"4#	c #3408BD",
"5#	c #190592",
"6#	c #290B59",
"7#	c #220B2E",
"8#	c #69525F",
"9#	c #9B8390",
"0#	c #DAA9C6",
"a#	c #CABEC4",
"b#	c #D7AEC5",
"c#	c #948E91",
"d#	c #8B7E85",
"e#	c #8D7C85",
"f#	c #C4A9B8",
"g#	c #CCBCC5",
"h#	c #C3C2C2",
"i#	c #8A8789",
"j#	c #3A3237",
"k#	c #797778",
"l#	c #AC9DA6",
"m#	c #CEA4BC",
"n#	c #C7C0C4",
"o#	c #9E8191",
"p#	c #776D73",
"q#	c #595557",
"r#	c #564E53",
"s#	c #280C35",
"t#	c #0C0749",
"u#	c #0C0658",
"v#	c #0C066B",
"w#	c #420FA7",
"x#	c #5013BE",
"y#	c #3007BD",
"z#	c #1301BD",
"A#	c #1A02BD",
"B#	c #440EBE",
"C#	c #681BBF",
"D#	c #5213BE",
"E#	c #4611A7",
"F#	c #49137B",
"G#	c #300D55",
"H#	c #110820",
"I#	c #6A6869",
"J#	c #685961",
"K#	c #2A1E25",
"L#	c #4A3541",
"M#	c #BE92AD",
"N#	c #5F5E5E",
"O#	c #9A9A9A",
"P#	c #6A6467",
"Q#	c #979395",
"R#	c #BEB8BB",
"S#	c #97798A",
"T#	c #6B5D65",
"U#	c #342F31",
"V#	c #1E1B1C",
"W#	c #270C35",
"X#	c #38104A",
"Y#	c #280B59",
"Z#	c #0902A6",
"`#	c #2D06BD",
" $	c #0A048F",
".$	c #0C074B",
"+$	c #665B61",
"@$	c #292024",
"#$	c #463B41",
"$$	c #B3A2AC",
"%$	c #908F8F",
"&$	c #959495",
"*$	c #787878",
"=$	c #A6A4A5",
"-$	c #A88D9C",
";$	c #786B72",
">$	c #4D484B",
",$	c #0D082F",
"'$	c #120758",
")$	c #2A0B6B",
"!$	c #601A93",
"~$	c #6E1EA8",
"{$	c #4810BE",
"]$	c #0901B5",
"^$	c #0C0666",
"/$	c #201E1F",
"($	c #938F91",
"_$	c #868385",
":$	c #B9B7B8",
"<$	c #6F6A6C",
"[$	c #211E1F",
"}$	c #F4F1F3",
"|$	c #A6A0A3",
"1$	c #3D393B",
"2$	c #3C3A3B",
"3$	c #C9BFC4",
"4$	c #5E5A5C",
"5$	c #0F0820",
"6$	c #17084F",
"7$	c #0E0754",
"8$	c #0C066E",
"9$	c #0B048B",
"0$	c #1202B5",
"a$	c #4A11BE",
"b$	c #2504BD",
"c$	c #0D0833",
"d$	c #585657",
"e$	c #937A88",
"f$	c #423F41",
"g$	c #D7CFD3",
"h$	c #6D6368",
"i$	c #ADABAC",
"j$	c #898989",
"k$	c #190948",
"l$	c #3E106E",
"m$	c #531697",
"n$	c #0C066D",
"o$	c #0D0823",
"p$	c #4C4A4B",
"q$	c #937E8A",
"r$	c #CFA2BD",
"s$	c #DEA3C6",
"t$	c #CA96B5",
"u$	c #484145",
"v$	c #777676",
"w$	c #8B7F86",
"x$	c #35292F",
"y$	c #372F33",
"z$	c #898889",
"A$	c #989295",
"B$	c #130760",
"C$	c #390E85",
"D$	c #8626B7",
"E$	c #932AC1",
"F$	c #4C11BE",
"G$	c #0A0396",
"H$	c #120820",
"I$	c #634F5A",
"J$	c #A28596",
"K$	c #D59ABD",
"L$	c #584B53",
"M$	c #6A5D64",
"N$	c #5F595C",
"O$	c #B99EAD",
"P$	c #88737F",
"Q$	c #5A4A53",
"R$	c #130920",
"S$	c #130758",
"T$	c #0B057A",
"U$	c #1704A6",
"V$	c #8A27C0",
"W$	c #A230C1",
"X$	c #671BBF",
"Y$	c #0B4FB4",
"Z$	c #0D6AAB",
"`$	c #0E7DA3",
" %	c #0F879E",
".%	c #108F99",
"+%	c #119794",
"@%	c #119A92",
"#%	c #320E50",
"$%	c #73666D",
"%%	c #DBA8C6",
"&%	c #7C6572",
"*%	c #61565C",
"=%	c #7F7E7E",
"-%	c #D4B2C5",
";%	c #C094AE",
">%	c #A98199",
",%	c #7C5E70",
"'%	c #350F41",
")%	c #360F49",
"!%	c #3D106E",
"~%	c #1E0696",
"{%	c #3709BD",
"]%	c #7520BF",
"^%	c #A12FC1",
"/%	c #7B22BF",
"(%	c #0931B9",
"_%	c #0A45B6",
":%	c #0C65AD",
"<%	c #0D72A8",
"[%	c #108D9A",
"}%	c #119595",
"|%	c #359B93",
"1%	c #3B9F90",
"2%	c #3CAC85",
"3%	c #32AC84",
"4%	c #30B17F",
"5%	c #29B17E",
"6%	c #21B17D",
"7%	c #14B17D",
"8%	c #15BA72",
"9%	c #15BC70",
"0%	c #13AA84",
"a%	c #0B5BB0",
"b%	c #4A137B",
"c%	c #250B39",
"d%	c #130839",
"e%	c #796972",
"f%	c #B99DAD",
"g%	c #B0A9AC",
"h%	c #B9B9B9",
"i%	c #C2B4BB",
"j%	c #BAACB4",
"k%	c #ACA9AB",
"l%	c #AEA7AB",
"m%	c #91808A",
"n%	c #715F69",
"o%	c #40363B",
"p%	c #210B35",
"q%	c #220B39",
"r%	c #390F6A",
"s%	c #481290",
"t%	c #3E0DB5",
"u%	c #5916BE",
"v%	c #8927C0",
"w%	c #239F8E",
"x%	c #22A688",
"y%	c #38A68A",
"z%	c #3FAC86",
"A%	c #4FAC88",
"B%	c #4FB480",
"C%	c #5CAC8A",
"D%	c #5AB185",
"E%	c #5BB482",
"F%	c #60AC8C",
"G%	c #65A791",
"H%	c #60A790",
"I%	c #4FB381",
"J%	c #40BC74",
"K%	c #2EBD71",
"L%	c #21AC83",
"M%	c #13AC82",
"N%	c #12A38A",
"O%	c #10899D",
"P%	c #0C63AE",
"Q%	c #390CA7",
"R%	c #210960",
"S%	c #0D0820",
"T%	c #827A7E",
"U%	c #4D4B4C",
"V%	c #424041",
"W%	c #454243",
"X%	c #110839",
"Y%	c #10083F",
"Z%	c #13067A",
"`%	c #1203A6",
" &	c #5414BE",
".&	c #2FAC84",
"+&	c #42B181",
"@&	c #63AC8C",
"#&	c #6EA396",
"$&	c #68AD8E",
"%&	c #6DA896",
"&&	c #6DA997",
"*&	c #729DA2",
"=&	c #7C91AB",
"-&	c #8482B3",
";&	c #8879B9",
">&	c #8C6CBF",
",&	c #915DC5",
"'&	c #915CC4",
")&	c #925BC4",
"!&	c #925AC4",
"~&	c #955AC4",
"{&	c #9A58C4",
"]&	c #8E7BB5",
"^&	c #7D92A5",
"/&	c #66A295",
"(&	c #3AAC85",
"_&	c #119992",
":&	c #1B4FB4",
"<&	c #100584",
"[&	c #7C7C7C",
"}&	c #464745",
"|&	c #1A1818",
"1&	c #1C6AAB",
"2&	c #14B07E",
"3&	c #2DB17F",
"4&	c #4AAC87",
"5&	c #58AC8A",
"6&	c #68A792",
"7&	c #70A19A",
"8&	c #739E9F",
"9&	c #7D93A9",
"0&	c #7C8CAE",
"a&	c #8872BB",
"b&	c #827BBE",
"c&	c #8566BF",
"d&	c #8184C5",
"e&	c #7F91D3",
"f&	c #7E75CF",
"g&	c #7D73D2",
"h&	c #8273D3",
"i&	c #8360D0",
"j&	c #8660D1",
"k&	c #8960D1",
"l&	c #9B48D1",
"m&	c #A42ED1",
"n&	c #9F25D0",
"o&	c #9353C4",
"p&	c #8B6CBA",
"q&	c #6E88A7",
"r&	c #5A959C",
"s&	c #39A38D",
"t&	c #20B47A",
"u&	c #14B17C",
"v&	c #0D5D96",
"w&	c #0C0660",
"x&	c #A7A3A5",
"y&	c #414041",
"z&	c #3B393A",
"A&	c #797979",
"B&	c #201F1F",
"C&	c #4E4A4C",
"D&	c #51464C",
"E&	c #52454C",
"F&	c #575455",
"G&	c #343233",
"H&	c #0D073E",
"I&	c #0B048A",
"J&	c #14B37B",
"K&	c #43A28F",
"L&	c #60969E",
"M&	c #7B8AAC",
"N&	c #8B79B9",
"O&	c #8B66C1",
"P&	c #8B56CB",
"Q&	c #8073D3",
"R&	c #7C72D2",
"S&	c #6A72CF",
"T&	c #5C72CD",
"U&	c #4C7CCE",
"V&	c #3461C7",
"W&	c #3562C7",
"X&	c #2647C2",
"Y&	c #2546C2",
"Z&	c #2654BF",
"`&	c #265FBC",
" *	c #2669B9",
".*	c #3478BF",
"+*	c #4078BF",
"@*	c #6685C8",
"#*	c #7086C9",
"$*	c #797BC7",
"%*	c #7D55C4",
"&*	c #8C41C8",
"**	c #9E1BCE",
"=*	c #9435C9",
"-*	c #7876B2",
";*	c #57939D",
">*	c #2DB17E",
",*	c #15B775",
"'*	c #0C367D",
")*	c #D9ABC6",
"!*	c #969696",
"~*	c #C7AFBC",
"{*	c #5F5A5D",
"]*	c #0E0827",
"^*	c #0902AB",
"/*	c #0F7EA3",
"(*	c #14B27C",
"_*	c #16C168",
":*	c #3BAD87",
"<*	c #7E76B5",
"[*	c #A144CD",
"}*	c #9D60D5",
"|*	c #837DD5",
"1*	c #777DD3",
"2*	c #415FC7",
"3*	c #2545C2",
"4*	c #182CBF",
"5*	c #1628BF",
"6*	c #1525BF",
"7*	c #121FBE",
"8*	c #101BBE",
"9*	c #1153B5",
"0*	c #116BAC",
"a*	c #138E9B",
"b*	c #149A93",
"c*	c #15A48B",
"d*	c #16A688",
"e*	c #17A789",
"f*	c #18A789",
"g*	c #1AA78A",
"h*	c #1BA88B",
"i*	c #1DA88C",
"j*	c #2AAC94",
"k*	c #44B7AD",
"l*	c #52BDB9",
"m*	c #55ABA6",
"n*	c #6A8EA8",
"o*	c #8A6ABE",
"p*	c #9B23CF",
"q*	c #8F54C3",
"r*	c #6A7EAC",
"s*	c #41A989",
"t*	c #15BA71",
"u*	c #0F6F8E",
"v*	c #0C074D",
"w*	c #999597",
"x*	c #4B4A4B",
"y*	c #707070",
"z*	c #504F4F",
"A*	c #8F8E8E",
"B*	c #D2B3C5",
"C*	c #CCA7BC",
"D*	c #937D8A",
"E*	c #300D60",
"F*	c #1A0856",
"G*	c #1A0596",
"H*	c #661ABF",
"I*	c #119893",
"J*	c #16BF6C",
"K*	c #36B77B",
"L*	c #6783AD",
"M*	c #9D6BD7",
"N*	c #9C73D8",
"O*	c #8760D1",
"P*	c #482FC2",
"Q*	c #0F16BE",
"R*	c #0D10BD",
"S*	c #0E51B4",
"T*	c #0F7DA3",
"U*	c #108B9B",
"V*	c #119396",
"W*	c #129F8D",
"X*	c #14B479",
"Y*	c #15B17D",
"Z*	c #19B280",
"`*	c #1FB383",
" =	c #21B385",
".=	c #37BB96",
"+=	c #4DBDAA",
"@=	c #56ABA6",
"#=	c #6D9BB5",
"$=	c #837CBE",
"%=	c #982FCE",
"&=	c #706FB7",
"*=	c #3EB182",
"==	c #2BB778",
"-=	c #706D6F",
";=	c #C193AE",
">=	c #8A707F",
",=	c #B2A3AC",
"'=	c #C49FB4",
")=	c #6E5965",
"!=	c #2D0D50",
"~=	c #2F0C77",
"{=	c #6319BE",
"]=	c #0E75A7",
"^=	c #34BA77",
"/=	c #58A197",
"(=	c #8A8ACC",
"_=	c #9061D2",
":=	c #802DC9",
"<=	c #6420C5",
"[=	c #0C0FBD",
"}=	c #15B676",
"|=	c #3C9B93",
"1=	c #4D9799",
"2=	c #54979A",
"3=	c #529C97",
"4=	c #47A095",
"5=	c #36A591",
"6=	c #36B997",
"7=	c #41BA97",
"8=	c #61A8B5",
"9=	c #7298C7",
"0=	c #8977CA",
"a=	c #64A79D",
"b=	c #42B97B",
"c=	c #23A28C",
"d=	c #0C3C8B",
"e=	c #0D073F",
"f=	c #524E50",
"g=	c #B89FAD",
"h=	c #DFA2C6",
"i=	c #BA9DAD",
"j=	c #85767F",
"k=	c #684C5D",
"l=	c #232A1F",
"m=	c #B59EAC",
"n=	c #C5A7B8",
"o=	c #62515A",
"p=	c #1E0A28",
"q=	c #3B1064",
"r=	c #721FB6",
"s=	c #8224C0",
"t=	c #0D6DAA",
"u=	c #129396",
"v=	c #38B57E",
"w=	c #6092A4",
"x=	c #8893CC",
"y=	c #8446CD",
"z=	c #6722C5",
"A=	c #2D0FBE",
"B=	c #13A687",
"C=	c #23A38B",
"D=	c #3D9995",
"E=	c #5C8DA1",
"F=	c #746CB5",
"G=	c #8451C0",
"H=	c #8C0FCA",
"I=	c #9210CC",
"J=	c #9711CD",
"K=	c #9135C8",
"L=	c #6B6DB4",
"M=	c #45949C",
"N=	c #1DB77D",
"O=	c #3C939F",
"P=	c #7C89C0",
"Q=	c #879DC3",
"R=	c #68AB93",
"S=	c #43AC88",
"T=	c #177FA2",
"U=	c #211F78",
"V=	c #1B0939",
"W=	c #230B35",
"X=	c #8D6C80",
"Y=	c #DB90BD",
"Z=	c #E792C7",
"`=	c #D0A1BD",
" -	c #A8A1A5",
".-	c #7C7478",
"+-	c #60575C",
"@-	c #192811",
"#-	c #B4A1AC",
"$-	c #514B4E",
"%-	c #110817",
"&-	c #1F0A33",
"*-	c #651B9A",
"=-	c #38B57F",
"--	c #6197A9",
";-	c #8592C7",
">-	c #8529CA",
",-	c #671EC5",
"'-	c #2C07BE",
")-	c #15BC6F",
"!-	c #249993",
"~-	c #4C9898",
"{-	c #5D8CA2",
"]-	c #6C84A9",
"^-	c #795CBC",
"/-	c #8934C6",
"(-	c #A013CF",
"_-	c #A514D0",
":-	c #A414D0",
"<-	c #9E13CE",
"[-	c #9B12CE",
"}-	c #9C12CE",
"|-	c #9F13CF",
"1-	c #8334C5",
"2-	c #5275AC",
"3-	c #12A28B",
"4-	c #16B47A",
"5-	c #6091A2",
"6-	c #937ECB",
"7-	c #7EA3B3",
"8-	c #51B286",
"9-	c #389D91",
"0-	c #5F4F9E",
"a-	c #4E1562",
"b-	c #1E0A21",
"c-	c #5D4553",
"d-	c #9E7D90",
"e-	c #615B5E",
"f-	c #694B5D",
"g-	c #8A717F",
"h-	c #B3A5AD",
"i-	c #575757",
"j-	c #BDBDBD",
"k-	c #B0A5AB",
"l-	c #E498C6",
"m-	c #E09FC6",
"n-	c #686767",
"o-	c #51167A",
"p-	c #A02FC1",
"q-	c #701EBF",
"r-	c #2ABD71",
"s-	c #57A496",
"t-	c #8498CA",
"u-	c #8A2ECB",
"v-	c #6719C5",
"w-	c #2C01BE",
"x-	c #359895",
"y-	c #597EA9",
"z-	c #7B50BF",
"A-	c #9D1ACE",
"B-	c #8C1FCB",
"C-	c #8224CA",
"D-	c #7723C7",
"E-	c #6E22C6",
"F-	c #8825CB",
"G-	c #A427D1",
"H-	c #821ECA",
"I-	c #149696",
"J-	c #42A68C",
"K-	c #8265BE",
"L-	c #899EC9",
"M-	c #63AC94",
"N-	c #54AB8C",
"O-	c #727EA7",
"P-	c #622884",
"Q-	c #18092E",
"R-	c #674E5D",
"S-	c #85777F",
"T-	c #E596C7",
"U-	c #3E115D",
"V-	c #8124AA",
"W-	c #6119BE",
"X-	c #20BC71",
"Y-	c #41BB79",
"Z-	c #779EB4",
"`-	c #915FD2",
" ;	c #7023C6",
".;	c #14B677",
"+;	c #15B874",
"@;	c #388F9B",
"#;	c #646EB1",
"$;	c #860EC9",
"%;	c #971ACD",
"&;	c #9B21CE",
"*;	c #A327D1",
"=;	c #9F2AD0",
"-;	c #912BCD",
";;	c #8C2DCB",
">;	c #822DCA",
",;	c #812ECA",
"';	c #732FC8",
");	c #6530C6",
"!;	c #335FC6",
"~;	c #5F5FCA",
"{;	c #9261D3",
"];	c #A261D6",
"^;	c #8F5FD2",
"/;	c #4D7BAC",
"(;	c #15AC83",
"_;	c #4A88A6",
":;	c #848BCF",
"<;	c #7AADBC",
"[;	c #55B188",
"};	c #399C92",
"|;	c #3A4F9B",
"1;	c #13083F",
"2;	c #1A1718",
"3;	c #332B2F",
"4;	c #6C5A64",
"5;	c #8B8689",
"6;	c #253020",
"7;	c #75906E",
"8;	c #E7F9E3",
"9;	c #ADA8AB",
"0;	c #C0B6BB",
"a;	c #816F79",
"b;	c #250B35",
"c;	c #491385",
"d;	c #13A588",
"e;	c #30BA75",
"f;	c #5FB29C",
"g;	c #8981C2",
"h;	c #4611C0",
"i;	c #129D8F",
"j;	c #5475AC",
"k;	c #7A33C4",
"l;	c #9E22CE",
"m;	c #962BCE",
"n;	c #8C5FD1",
"o;	c #8060CF",
"p;	c #7460CE",
"q;	c #4872CB",
"r;	c #3E72CB",
"s;	c #437CCD",
"t;	c #3476BF",
"u;	c #3485B8",
"v;	c #3492B2",
"w;	c #7660CE",
"x;	c #9461D3",
"y;	c #9963D4",
"z;	c #7376C6",
"A;	c #1BA58E",
"B;	c #15B479",
"C;	c #189B94",
"D;	c #854DCD",
"E;	c #8699C5",
"F;	c #62AB93",
"G;	c #0F859F",
"H;	c #0C1452",
"I;	c #120E0F",
"J;	c #272324",
"K;	c #706069",
"L;	c #988690",
"M;	c #C8BFC4",
"N;	c #4B8235",
"O;	c #98E87C",
"P;	c #A7EB92",
"Q;	c #C4F1B8",
"R;	c #B393A6",
"S;	c #100820",
"T;	c #180860",
"U;	c #1F03B5",
"V;	c #1D7EA3",
"W;	c #2EB07F",
"X;	c #45B97A",
"Y;	c #7598A6",
"Z;	c #8F32CD",
"`;	c #6915C4",
" >	c #595BB6",
".>	c #7D0CC8",
"+>	c #9E16CE",
"@>	c #9726CE",
"#>	c #845DCF",
"$>	c #765FCD",
"%>	c #585EC9",
"&>	c #1B6BB1",
"*>	c #1B8DA1",
"=>	c #1BA191",
"->	c #1AAD85",
";>	c #189B95",
">>	c #1787A1",
",>	c #1460B2",
"'>	c #133BBA",
")>	c #2F1FBF",
"!>	c #8624CA",
"~>	c #9D33CF",
"{>	c #8787D8",
"]>	c #3DA59B",
"^>	c #18B57C",
"/>	c #14A38B",
"(>	c #6F55C6",
"_>	c #8B84CF",
":>	c #7892A9",
"<>	c #47B182",
"[>	c #129E8F",
"}>	c #0D4168",
"|>	c #0D082D",
"1>	c #A8A1A4",
"2>	c #3E6C2C",
"3>	c #79E446",
"4>	c #7FE553",
"5>	c #C5F1B9",
"6>	c #CAABBC",
"7>	c #5A5457",
"8>	c #100833",
"9>	c #340C8C",
"0>	c #5B16BE",
"a>	c #641ABF",
"b>	c #5C17BE",
"c>	c #3E7CA5",
"d>	c #42B57D",
"e>	c #5DAE88",
"f>	c #807FB0",
"g>	c #7510C6",
"h>	c #4507C0",
"i>	c #0F83A0",
"j>	c #14AE7F",
"k>	c #524FB9",
"l>	c #891FCB",
"m>	c #7145C9",
"n>	c #5572CD",
"o>	c #172ABF",
"p>	c #0D35B9",
"q>	c #1076A7",
"r>	c #700AC5",
"s>	c #9626CD",
"t>	c #9D4BD2",
"u>	c #6AAEB3",
"v>	c #3FB284",
"w>	c #14A687",
"x>	c #4550BB",
"y>	c #897DD6",
"z>	c #9473BE",
"A>	c #69A395",
"B>	c #41B081",
"C>	c #218794",
"D>	c #101452",
"E>	c #363435",
"F>	c #465D3F",
"G>	c #9EE986",
"H>	c #92E874",
"I>	c #10081B",
"J>	c #441367",
"K>	c #942BC1",
"L>	c #962BC1",
"M>	c #8425C0",
"N>	c #5B75A9",
"O>	c #67949F",
"P>	c #7B90A6",
"Q>	c #855DBD",
"R>	c #5005C1",
"S>	c #4432BC",
"T>	c #780BC7",
"U>	c #8A18CA",
"V>	c #6827C5",
"W>	c #2443C2",
"X>	c #0F18BE",
"Y>	c #0D6CAB",
"Z>	c #108E9A",
"`>	c #119B91",
" ,	c #3A83A3",
".,	c #7965B9",
"+,	c #A434D1",
"@,	c #7AB1BB",
"#,	c #41BB7D",
"$,	c #187DA7",
"%,	c #9D6AD2",
"&,	c #888BAD",
"*,	c #58AD86",
"=,	c #50AB85",
"-,	c #234C51",
";,	c #0D0F18",
">,	c #817D7F",
",,	c #545152",
"',	c #EBF1EA",
"),	c #E4F8DF",
"!,	c #DFF7DA",
"~,	c #767475",
"{,	c #360F4E",
"],	c #8927B7",
"^,	c #8826C0",
"/,	c #6F32C0",
"(,	c #8D35C7",
"_,	c #9835CA",
":,	c #7936C3",
"<,	c #2C6EAB",
"[,	c #119496",
"},	c #4504C0",
"|,	c #9411CC",
"1,	c #9014CB",
"2,	c #405EC7",
"3,	c #335EC6",
"4,	c #0A06BD",
"5,	c #0F7FA2",
"6,	c #2B31BA",
"7,	c #3D03BF",
"8,	c #5906C2",
"9,	c #6408C4",
"0,	c #6E09C5",
"a,	c #594FB9",
"b,	c #3C78A8",
"c,	c #578F9F",
"d,	c #975BC7",
"e,	c #7FA8C1",
"f,	c #4CBD7E",
"g,	c #16BC71",
"h,	c #158D9C",
"i,	c #745FCD",
"j,	c #9C61D5",
"k,	c #9669BF",
"l,	c #888BA6",
"m,	c #7CAD88",
"n,	c #3C7055",
"o,	c #0E191F",
"p,	c #0F0825",
"q,	c #6E6469",
"r,	c #CEB9C5",
"s,	c #695D64",
"t,	c #292527",
"u,	c #635F61",
"v,	c #1C0942",
"w,	c #3C0F90",
"x,	c #790DC7",
"y,	c #9311CC",
"z,	c #655CB7",
"A,	c #369298",
"B,	c #2DB07F",
"C,	c #199893",
"D,	c #9010CB",
"E,	c #7013C5",
"F,	c #4B44C4",
"G,	c #172BBF",
"H,	c #4D89A1",
"I,	c #6D64B6",
"J,	c #8B0FCA",
"K,	c #7C0CC7",
"L,	c #5C32BF",
"M,	c #3D75A9",
"N,	c #747EB3",
"O,	c #8599C4",
"P,	c #56B790",
"Q,	c #2BBA74",
"R,	c #149B93",
"S,	c #5126C2",
"T,	c #8F73D5",
"U,	c #A648D0",
"V,	c #A26EB8",
"W,	c #899C97",
"X,	c #4C9669",
"Y,	c #11413B",
"Z,	c #0E0E1F",
"`,	c #685E64",
" '	c #BE97AD",
".'	c #907283",
"+'	c #3C3137",
"@'	c #6D666A",
"#'	c #5F585C",
"$'	c #0F0668",
"%'	c #730AC6",
"&'	c #7F50BE",
"*'	c #6181A5",
"='	c #70A290",
"-'	c #5B9E91",
";'	c #2278A6",
">'	c #9811CD",
",'	c #4618C1",
"''	c #1526BF",
")'	c #14B27B",
"!'	c #566CB0",
"~'	c #8C35C7",
"{'	c #A41CD0",
"]'	c #9E1ECE",
"^'	c #9B20CE",
"/'	c #9B1CCE",
"('	c #971BCD",
"_'	c #9718CD",
":'	c #9715CD",
"<'	c #890FCA",
"['	c #5E32BF",
"}'	c #13A885",
"|'	c #6198A0",
"1'	c #8A86CE",
"2'	c #6AAC9D",
"3'	c #3DB181",
"4'	c #2E19BF",
"5'	c #8C47CD",
"6'	c #AE6ED5",
"7'	c #B345C7",
"8'	c #8084A6",
"9'	c #3CA180",
"0'	c #0F6750",
"a'	c #0E1C2F",
"b'	c #180939",
"c'	c #957A89",
"d'	c #B78FA7",
"e'	c #776A71",
"f'	c #B4B2B3",
"g'	c #320AA0",
"h'	c #5907C2",
"i'	c #6007C3",
"j'	c #5C77AC",
"k'	c #6F9B95",
"l'	c #95989B",
"m'	c #817CA9",
"n'	c #3D4FB5",
"o'	c #800DC8",
"p'	c #A113CF",
"q'	c #770BC6",
"r'	c #1321BE",
"s'	c #111CBE",
"t'	c #129E8E",
"u'	c #424FB7",
"v'	c #A617D0",
"w'	c #A725D2",
"x'	c #9C2DCF",
"y'	c #8748CE",
"z'	c #7E48CC",
"A'	c #7748CA",
"B'	c #6F46C9",
"C'	c #6E28C6",
"D'	c #6E1CC6",
"E'	c #6E0EC5",
"F'	c #49A593",
"G'	c #73A1A7",
"H'	c #49B47F",
"I'	c #0C50B4",
"J'	c #8C2EC8",
"K'	c #B36CD3",
"L'	c #B74ACE",
"M'	c #7572B1",
"N'	c #25AB83",
"O'	c #11906D",
"P'	c #0D323B",
"Q'	c #CCA8BC",
"R'	c #664F5C",
"S'	c #4F4E4E",
"T'	c #8E7C86",
"U'	c #464345",
"V'	c #937D89",
"W'	c #280C3A",
"X'	c #491375",
"Y'	c #4C12B5",
"Z'	c #288E9A",
"`'	c #64A989",
" )	c #99929F",
".)	c #9360B6",
"+)	c #5E07C3",
"@)	c #9611CC",
"#)	c #8E10CB",
"$)	c #5E13C3",
"%)	c #13A985",
"&)	c #9A26CF",
"*)	c #874BCE",
"=)	c #6B7BD1",
"-)	c #4262C8",
";)	c #192FBF",
">)	c #4727C2",
",)	c #5F1FC4",
"')	c #9912CD",
"))	c #259099",
"!)	c #3BA88F",
"~)	c #838EC9",
"{)	c #7C97B0",
"])	c #56AC8B",
"^)	c #8525C6",
"/)	c #B34ACE",
"()	c #A86FD4",
"_)	c #7062BA",
":)	c #13A977",
"<)	c #0E4141",
"[)	c #373335",
"})	c #978A91",
"|)	c #B9B5B8",
"1)	c #B8B8B8",
"2)	c #78636F",
"3)	c #2A2527",
"4)	c #9E8C96",
"5)	c #494547",
"6)	c #C093AE",
"7)	c #6F5564",
"8)	c #380F50",
"9)	c #4A12A0",
"0)	c #1F9795",
"a)	c #4EAC84",
"b)	c #8B969B",
"c)	c #9852BA",
"d)	c #6A50BB",
"e)	c #9019CB",
"f)	c #7260CD",
"g)	c #5675CD",
"h)	c #427ACD",
"i)	c #1A30C0",
"j)	c #1729BF",
"k)	c #3F74CB",
"l)	c #4A87D0",
"m)	c #192EBF",
"n)	c #7C1BC7",
"o)	c #4E87A3",
"p)	c #27AE88",
"q)	c #7795C3",
"r)	c #858AB8",
"s)	c #5CAC8B",
"t)	c #7216C4",
"u)	c #A432CE",
"v)	c #9972D5",
"w)	c #7655C6",
"x)	c #159A93",
"y)	c #145C52",
"z)	c #0D0C19",
"A)	c #737172",
"B)	c #958B90",
"C)	c #737373",
"D)	c #BDB0B7",
"E)	c #908089",
"F)	c #1D0A35",
"G)	c #190934",
"H)	c #210874",
"I)	c #37AF80",
"J)	c #709C94",
"K)	c #8652B8",
"L)	c #5E18BE",
"M)	c #26879E",
"N)	c #9D25CF",
"O)	c #587BCF",
"P)	c #1B32C0",
"Q)	c #1423BE",
"R)	c #284BC3",
"S)	c #4178CC",
"T)	c #4076CC",
"U)	c #662EC6",
"V)	c #921CCC",
"W)	c #657EAB",
"X)	c #1DAE87",
"Y)	c #6D9BBE",
"Z)	c #8089B7",
"`)	c #63AC8D",
" !	c #5C08C2",
".!	c #9426CD",
"+!	c #9761D4",
"@!	c #7E60CF",
"#!	c #1782A4",
"$!	c #1FA48A",
"%!	c #2E7C62",
"&!	c #17202C",
"*!	c #0F0B16",
"=!	c #25B07E",
"-!	c #44A38B",
";!	c #5653B5",
">!	c #447EA6",
",!	c #9A2ECF",
"'!	c #8074D3",
")!	c #2748C2",
"!!	c #1019BE",
"~!	c #1B31C0",
"{!	c #4A88D1",
"]!	c #566CCB",
"^!	c #9225CD",
"/!	c #707EAD",
"(!	c #669BBD",
"_!	c #8481BC",
":!	c #49AC87",
"<!	c #9948D1",
"[!	c #8573D4",
"}!	c #1858B6",
"|!	c #248C9B",
"1!	c #539E84",
"2!	c #3D4C4C",
"3!	c #17111E",
"4!	c #4E484B",
"5!	c #616161",
"6!	c #F4F3F3",
"7!	c #A7A2A5",
"8!	c #1AA687",
"9!	c #1C65AD",
"0!	c #647EAB",
"a!	c #971ECD",
"b!	c #9631CE",
"c!	c #6E7CD2",
"d!	c #1627BF",
"e!	c #5174CC",
"f!	c #8E2DCC",
"g!	c #747EAE",
"h!	c #5C9BBC",
"i!	c #8B70C4",
"j!	c #6F9F9B",
"k!	c #4EB183",
"l!	c #2A4FB5",
"m!	c #8C13CA",
"n!	c #9D30CF",
"o!	c #8873D4",
"p!	c #3845C3",
"q!	c #1E73A8",
"r!	c #4AA888",
"s!	c #517065",
"t!	c #27212E",
"u!	c #810DC8",
"v!	c #9D12CE",
"w!	c #727FAE",
"x!	c #9D2ACF",
"y!	c #728EA5",
"z!	c #5790C1",
"A!	c #8387AE",
"B!	c #56AC8A",
"C!	c #0E78A6",
"D!	c #A331D1",
"E!	c #9675D7",
"F!	c #6A4CC9",
"G!	c #3F68AF",
"H!	c #3FA38B",
"I!	c #3D9873",
"J!	c #323E4A",
"K!	c #64525C",
"L!	c #B7A0AD",
"M!	c #C6C6C6",
"N!	c #716C6F",
"O!	c #0C074F",
"P!	c #2BAC83",
"Q!	c #7C80B1",
"R!	c #9760D4",
"S!	c #9511CC",
"T!	c #4973CB",
"U!	c #9B36CA",
"V!	c #699A9C",
"W!	c #1CA191",
"X!	c #4F83C6",
"Y!	c #9049CF",
"Z!	c #905FC0",
"`!	c #5EA790",
" ~	c #A42AD1",
".~	c #9C7CDA",
"+~	c #8179D2",
"@~	c #7767B4",
"#~	c #6F9D94",
"$~	c #29B07F",
"%~	c #21565E",
"&~	c #1B0934",
"*~	c #240B35",
"=~	c #967989",
"-~	c #2C2B2B",
";~	c #606060",
">~	c #D9ABC5",
",~	c #DCA5C6",
"'~	c #0A2AA3",
")~	c #7C81B2",
"!~	c #9661D4",
"~~	c #8F10CB",
"{~	c #192DBF",
"]~	c #546ECC",
"^~	c #7674D1",
"/~	c #9727CE",
"(~	c #905DC0",
"_~	c #53A78E",
":~	c #1C9899",
"<~	c #5172CC",
"[~	c #8D49CF",
"}~	c #9839CA",
"|~	c #60A393",
"1~	c #7A0CC7",
"2~	c #A021CF",
"3~	c #A035D1",
"4~	c #8973D1",
"5~	c #9575B8",
"6~	c #9C979F",
"7~	c #58A68B",
"8~	c #426E88",
"9~	c #2A0C50",
"0~	c #0D0839",
"a~	c #11928B",
"b~	c #820DC9",
"c~	c #4CAC88",
"d~	c #8D78BA",
"e~	c #9B61D5",
"f~	c #4C7ACD",
"g~	c #3230C0",
"h~	c #6C6ECF",
"i~	c #7F88D7",
"j~	c #9831CE",
"k~	c #9E1FCE",
"l~	c #6786A8",
"m~	c #1A7DA9",
"n~	c #8B48CE",
"o~	c #65A394",
"p~	c #9629CE",
"q~	c #845FCE",
"r~	c #9185B8",
"s~	c #B58DA8",
"t~	c #9B969D",
"u~	c #876EA6",
"v~	c #54176D",
"w~	c #260C35",
"x~	c #3F373B",
"y~	c #9E9098",
"z~	c #999697",
"A~	c #E597C6",
"B~	c #136478",
"C~	c #8A87B2",
"D~	c #9D73D8",
"E~	c #7447CA",
"F~	c #2963AF",
"G~	c #7C6FB5",
"H~	c #926FBB",
"I~	c #983BCB",
"J~	c #6527C5",
"K~	c #7F7DD4",
"L~	c #8E62D2",
"M~	c #9724CE",
"N~	c #6F6EB4",
"O~	c #499996",
"P~	c #9E1CCE",
"Q~	c #9B27CF",
"R~	c #8D5FCF",
"S~	c #9484B9",
"T~	c #C385AE",
"U~	c #C186AC",
"V~	c #A170B2",
"W~	c #6C1E94",
"X~	c #1F0A35",
"Y~	c #140834",
"Z~	c #8A8989",
"`~	c #3B3839",
" {	c #2E292B",
".{	c #8E7B86",
"+{	c #493F45",
"@{	c #140921",
"#{	c #123D5C",
"${	c #9110CB",
"%{	c #450FC0",
"&{	c #47BC75",
"*{	c #8988B2",
"={	c #9673D7",
"-{	c #4FAB89",
";{	c #799E9C",
">{	c #9C5DC3",
",{	c #901DCB",
"'{	c #6E26C6",
"){	c #772FC8",
"!{	c #8230CB",
"~{	c #9A31CF",
"{{	c #8618C9",
"]{	c #9E1ACE",
"^{	c #9C27CF",
"/{	c #985FD0",
"({	c #9684B9",
"_{	c #B88BAA",
":{	c #C086AC",
"<{	c #8E73AE",
"[{	c #13084F",
"}{	c #676666",
"|{	c #878787",
"1{	c #AEAAAC",
"2{	c #494246",
"3{	c #3D2F37",
"4{	c #957287",
"5{	c #E695C7",
"6{	c #C5B0BC",
"7{	c #66505C",
"8{	c #0D2848",
"9{	c #129772",
"0{	c #A213CF",
"a{	c #5E0DC3",
"b{	c #46B77B",
"c{	c #7597A5",
"d{	c #9173D6",
"e{	c #6647C8",
"f{	c #35BC73",
"g{	c #54B77E",
"h{	c #9274B9",
"i{	c #A314D0",
"j{	c #515BB5",
"k{	c #8E32CD",
"l{	c #9E28CF",
"m{	c #905FD1",
"n{	c #6D8CB5",
"o{	c #839F97",
"p{	c #AC90A4",
"q{	c #9273AF",
"r{	c #9C8D96",
"s{	c #BDB5B9",
"t{	c #494045",
"u{	c #826D79",
"v{	c #89727F",
"w{	c #160939",
"x{	c #0D1A2F",
"y{	c #136A56",
"z{	c #23A878",
"A{	c #2C8E9A",
"B{	c #8912C9",
"C{	c #A715D1",
"D{	c #45B182",
"E{	c #7498A4",
"F{	c #6F47C9",
"G{	c #3BB57C",
"H{	c #6788A7",
"I{	c #8751C1",
"J{	c #7D6CB7",
"K{	c #5F8DA1",
"L{	c #479996",
"M{	c #129C90",
"N{	c #587CCF",
"O{	c #9651C4",
"P{	c #5FA393",
"Q{	c #3A92B2",
"R{	c #4AA98A",
"S{	c #91999A",
"T{	c #9F70B1",
"U{	c #11074F",
"V{	c #76616D",
"W{	c #BD98AD",
"X{	c #5B5759",
"Y{	c #B3A6AC",
"Z{	c #0D0C1F",
"`{	c #1E423B",
" ]	c #568D74",
".]	c #75919D",
"+]	c #7B39BC",
"@]	c #8F1CC6",
"#]	c #A015CE",
"$]	c #43B47E",
"%]	c #6DA29D",
"&]	c #31A789",
"*]	c #469B95",
"=]	c #4B9B96",
"-]	c #13AA83",
";]	c #9633CE",
">]	c #8379B3",
",]	c #4DAC88",
"']	c #4904C0",
")]	c #3599AF",
"!]	c #34AC88",
"~]	c #6AA38E",
"{]	c #8A6BB1",
"]]	c #5715BE",
"^]	c #290A7A",
"/]	c #2D0D3A",
"(]	c #848484",
"_]	c #F4F3F4",
":]	c #120E33",
"<]	c #23252C",
"[]	c #6B6468",
"}]	c #A58BA5",
"|]	c #9D58B9",
"1]	c #8321C2",
"2]	c #9213CB",
"3]	c #41AF83",
"4]	c #5FB38B",
"5]	c #79A5BB",
"6]	c #7655C7",
"7]	c #807DD5",
"8]	c #9746CC",
"9]	c #7195A1",
"0]	c #34B17F",
"a]	c #8348CD",
"b]	c #3FA9B0",
"c]	c #26B182",
"d]	c #37A48A",
"e]	c #4F5AB2",
"f]	c #5D18A8",
"g]	c #3E1151",
"h]	c #5B595A",
"i]	c #15131D",
"j]	c #415049",
"k]	c #608271",
"l]	c #668B9F",
"m]	c #4433BA",
"n]	c #8D10CA",
"o]	c #3428C0",
"p]	c #4072CB",
"q]	c #0D13BE",
"r]	c #38A78A",
"s]	c #4AC078",
"t]	c #6BBAAB",
"u]	c #7970C2",
"v]	c #461FC1",
"w]	c #322EC0",
"x]	c #877DD6",
"y]	c #8C74BC",
"z]	c #63A393",
"A]	c #8560D0",
"B]	c #38ABA2",
"C]	c #1AB57D",
"D]	c #19A38A",
"E]	c #2032B9",
"F]	c #731FBF",
"G]	c #3A1055",
"H]	c #0F0817",
"I]	c #323131",
"J]	c #484A46",
"K]	c #101E19",
"L]	c #1F6D3F",
"M]	c #23A47C",
"N]	c #1B5BB0",
"O]	c #9412CC",
"P]	c #4F27C0",
"Q]	c #515EC6",
"R]	c #395FC6",
"S]	c #259596",
"T]	c #5EBE99",
"U]	c #7AA4C2",
"V]	c #6F46C3",
"W]	c #0B53B3",
"X]	c #6830C6",
"Y]	c #8C7DD7",
"Z]	c #7C92AB",
"`]	c #4BB183",
" ^	c #A331CF",
".^	c #8B80CB",
"+^	c #33A897",
"@^	c #17B47B",
"#^	c #289893",
"$^	c #4E12BE",
"%^	c #2F0C74",
"&^	c #262324",
"*^	c #8A8889",
"=^	c #5A5A5A",
"-^	c #0D1919",
";^	c #0F4729",
">^	c #1AA66B",
",^	c #9616CB",
"'^	c #8C2FC3",
")^	c #8C5CC7",
"!^	c #4B5EC6",
"~^	c #359F91",
"{^	c #48B881",
"]^	c #72B4B5",
"^^	c #7B94CA",
"/^	c #602AC5",
"(^	c #0E15BE",
"_^	c #8131CA",
":^	c #8898CB",
"<^	c #67A29B",
"[^	c #36B47C",
"}^	c #700BC5",
"|^	c #A01DCD",
"1^	c #B239CD",
"2^	c #9596C3",
"3^	c #32AD8A",
"4^	c #14AC82",
"5^	c #3B7EA4",
"6^	c #7821BF",
"7^	c #8525C0",
"8^	c #110492",
"9^	c #0D0737",
"0^	c #3A3939",
"a^	c #958B91",
"b^	c #6F696C",
"c^	c #12111D",
"d^	c #1E3830",
"e^	c #369061",
"f^	c #1F9993",
"g^	c #7A33C3",
"h^	c #9D18CD",
"i^	c #9D30C5",
"j^	c #AA5AC7",
"k^	c #685EC6",
"l^	c #51B389",
"m^	c #7D9CB8",
"n^	c #897BD2",
"o^	c #8027C9",
"p^	c #6419C5",
"q^	c #5913C2",
"r^	c #791EC8",
"s^	c #8D76CB",
"t^	c #799EB4",
"u^	c #4AB582",
"v^	c #8712C9",
"w^	c #AF2ACD",
"x^	c #B754CA",
"y^	c #89A0B5",
"z^	c #2BB480",
"A^	c #374FB5",
"B^	c #8024C0",
"C^	c #A430C1",
"D^	c #6E1DBF",
"E^	c #130766",
"F^	c #0E081B",
"G^	c #7A7678",
"H^	c #838081",
"I^	c #BCA7B3",
"J^	c #636363",
"K^	c #3E2E37",
"L^	c #2C232E",
"M^	c #556B60",
"N^	c #41A38B",
"O^	c #575BB6",
"P^	c #9B15CD",
"Q^	c #A02CC8",
"R^	c #AE4BC5",
"S^	c #856CCB",
"T^	c #3EB181",
"U^	c #57AD8C",
"V^	c #8496B0",
"W^	c #8F91CA",
"X^	c #9A2FCF",
"Y^	c #8C2ACB",
"Z^	c #7523C7",
"`^	c #5A21C3",
" /	c #4A21C1",
"./	c #3F20C0",
"+/	c #5121C2",
"@/	c #6F26C6",
"#/	c #822CCA",
"$/	c #9031CD",
"%/	c #8D7CC8",
"&/	c #7C91AA",
"*/	c #4CB284",
"=/	c #3DA989",
"-/	c #6909C4",
";/	c #9F1BCC",
">/	c #BA35CD",
",/	c #A973C5",
"'/	c #64AAA3",
")/	c #1AB281",
"!/	c #A531C2",
"~/	c #8E28C0",
"{/	c #3D0F8C",
"]/	c #1E0A33",
"^/	c #120817",
"//	c #5E5057",
"(/	c #7F6975",
"_/	c #434142",
":/	c #B3B0B2",
"</	c #9F8A96",
"[/	c #54404B",
"}/	c #1D121E",
"|/	c #4A4C4E",
"1/	c #559E85",
"2/	c #3F85A1",
"3/	c #A715D0",
"4/	c #A523CC",
"5/	c #B14AC8",
"6/	c #946BCA",
"7/	c #26899D",
"8/	c #3CB879",
"9/	c #52BB7C",
"0/	c #72AC9E",
"a/	c #899DC9",
"b/	c #9077CC",
"c/	c #9961D4",
"d/	c #9361D3",
"e/	c #8F61D2",
"f/	c #8C61D2",
"g/	c #9473D7",
"h/	c #8897CB",
"i/	c #71A8AB",
"j/	c #49B97C",
"k/	c #35B67A",
"l/	c #B62DCF",
"m/	c #BB48C8",
"n/	c #8A95BB",
"o/	c #38AF8F",
"p/	c #16AA86",
"q/	c #8F29C0",
"r/	c #7520B6",
"s/	c #543F4B",
"t/	c #B88EA7",
"u/	c #A07B91",
"v/	c #35282F",
"w/	c #181214",
"x/	c #FFD3EC",
"y/	c #74656D",
"z/	c #675F63",
"A/	c #180E20",
"B/	c #3A323E",
"C/	c #678C76",
"D/	c #369794",
"E/	c #7950BE",
"F/	c #AB1DD0",
"G/	c #9F37C8",
"H/	c #826DCB",
"I/	c #0B0CBD",
"J/	c #36BA76",
"K/	c #44BB79",
"L/	c #5DAE8E",
"M/	c #6BACA9",
"N/	c #70A3B0",
"O/	c #7C9AB8",
"P/	c #8393BD",
"Q/	c #7BA2B2",
"R/	c #75A7AF",
"S/	c #6FACAA",
"T/	c #6CA3A5",
"U/	c #5AA993",
"V/	c #3BBE75",
"W/	c #2ABC72",
"X/	c #8518C9",
"Y/	c #A527D1",
"Z/	c #B738CF",
"`/	c #A48CC6",
" (	c #52AA8C",
".(	c #19BA75",
"+(	c #139E8E",
"@(	c #581880",
"#(	c #8A7983",
"$(	c #978790",
"%(	c #332C2F",
"&(	c #2A1F2F",
"*(	c #616566",
"=(	c #59A68B",
"-(	c #5A78AC",
";(	c #AB16D1",
">(	c #9D30CE",
",(	c #7371CF",
"'(	c #22AC84",
")(	c #23B57C",
"!(	c #36B282",
"~(	c #47AD8A",
"{(	c #54AD8C",
"](	c #58AD8D",
"^(	c #5BAD8D",
"/(	c #51B881",
"((	c #46C075",
"_(	c #40BB79",
":(	c #35B181",
"<(	c #20B876",
"[(	c #226AAB",
"}(	c #6E12C3",
"|(	c #971BCC",
"1(	c #A928D2",
"2(	c #A160D5",
"3(	c #957AD4",
"4(	c #7382AB",
"5(	c #28BB75",
"6(	c #30099F",
"7(	c #130848",
"8(	c #0E0820",
"9(	c #D6D6D6",
"0(	c #190F1F",
"a(	c #4F4851",
"b(	c #679876",
"c(	c #3AA58A",
"d(	c #6F6BB4",
"e(	c #A42DD1",
"f(	c #8173D2",
"g(	c #4046C3",
"h(	c #2B19BE",
"i(	c #154FB4",
"j(	c #5C10C0",
"k(	c #9B25C6",
"l(	c #A92FCA",
"m(	c #AD36D2",
"n(	c #A364D7",
"o(	c #8B63D2",
"p(	c #4A57B9",
"q(	c #269896",
"r(	c #5615BE",
"s(	c #0D081E",
"t(	c #565656",
"u(	c #1F0F34",
"v(	c #2E2433",
"w(	c #6D816E",
"x(	c #51B57B",
"y(	c #4D8D9F",
"z(	c #A52ED1",
"A(	c #9264D3",
"B(	c #7F62CC",
"C(	c #672AC0",
"D(	c #0E79A5",
"E(	c #7D1BC5",
"F(	c #B434CB",
"G(	c #C63DCD",
"H(	c #A477D5",
"I(	c #868BD8",
"J(	c #6E2CC7",
"K(	c #1280A3",
"L(	c #12A489",
"M(	c #6C1DBF",
"N(	c #0B057E",
"O(	c #0D0825",
"P(	c #7E7D7D",
"Q(	c #989697",
"R(	c #271A31",
"S(	c #57505A",
"T(	c #6FB182",
"U(	c #28A18C",
"V(	c #5863B3",
"W(	c #8025C9",
"X(	c #A07AD7",
"Y(	c #AA75D4",
"Z(	c #A437C9",
"`(	c #7217C3",
" _	c #500BC1",
"._	c #751DC7",
"+_	c #8629CA",
"@_	c #9932CE",
"#_	c #AA5FD1",
"$_	c #B970D0",
"%_	c #9D3CC6",
"&_	c #472DC0",
"*_	c #1C67B0",
"=_	c #7A21BF",
"-_	c #14058B",
";_	c #10082F",
">_	c #473053",
",_	c #717B8D",
"'_	c #3FAE81",
")_	c #18899D",
"!_	c #6265B4",
"~_	c #9B37C9",
"{_	c #B775D5",
"]_	c #AF38CC",
"^_	c #8520C7",
"/_	c #5206C1",
"(_	c #721FBF",
"__	c #511BC2",
":_	c #7B29C8",
"<_	c #8B2CCB",
"[_	c #9435CE",
"}_	c #954CD1",
"|_	c #8B7ED7",
"1_	c #835FCD",
"2_	c #9C36C3",
"3_	c #9E33C2",
"4_	c #656AAE",
"5_	c #28889E",
"6_	c #3308BD",
"7_	c #3C0BBE",
"8_	c #26088B",
"9_	c #1A092E",
"0_	c #403B3D",
"a_	c #170934",
"b_	c #220F34",
"c_	c #504D78",
"d_	c #439B93",
"e_	c #37B17D",
"f_	c #678E9D",
"g_	c #9967B7",
"h_	c #A234C8",
"i_	c #9671D3",
"j_	c #9F31CF",
"k_	c #A02CCF",
"l_	c #9429CB",
"m_	c #7429C3",
"n_	c #6C29C0",
"o_	c #5E28BF",
"p_	c #3E23BE",
"q_	c #3922BE",
"r_	c #762CC0",
"s_	c #9534C1",
"t_	c #7A2DC0",
"u_	c #361EBE",
"v_	c #5F2DC5",
"w_	c #7C2FC9",
"x_	c #8D32CD",
"y_	c #9B64D5",
"z_	c #9D7CDA",
"A_	c #9B76D9",
"B_	c #8E88DA",
"C_	c #846ED2",
"D_	c #7030C7",
"E_	c #5624C1",
"F_	c #7725BF",
"G_	c #A264B6",
"H_	c #8484A5",
"I_	c #3FAF81",
"J_	c #1331B9",
"K_	c #460FBE",
"L_	c #741FBF",
"M_	c #300C71",
"N_	c #1E0A26",
"O_	c #292A21",
"P_	c #7D9176",
"Q_	c #22185E",
"R_	c #2E6E8F",
"S_	c #52AC84",
"T_	c #82AD88",
"U_	c #89939D",
"V_	c #616AB0",
"W_	c #6742C7",
"X_	c #927DD8",
"Y_	c #AC60D5",
"Z_	c #B95ED3",
"`_	c #BC5CD0",
" :	c #B55CCE",
".:	c #9A5DCA",
"+:	c #605EC6",
"@:	c #455FC6",
"#:	c #705DC6",
"$:	c #9C5BC7",
"%:	c #965BC7",
"&:	c #635EC6",
"*:	c #2D46C2",
"=:	c #9B7DDA",
"-:	c #9C7DDA",
";:	c #977CD9",
">:	c #904ED0",
",:	c #6A30C6",
"':	c #4726C1",
"):	c #0E36BA",
"!:	c #226CAB",
"~:	c #578A9F",
"{:	c #988DA3",
"]:	c #9A9D98",
"^:	c #5A8A9F",
"/:	c #226DAA",
"(:	c #671CA8",
"_:	c #320E5E",
"::	c #19091B",
"<:	c #202216",
"[:	c #86A47E",
"}:	c #83797E",
"|:	c #C8ADBC",
"1:	c #DDA4C6",
"2:	c #0E0834",
"3:	c #0F0839",
"4:	c #233C8C",
"5:	c #5A9499",
"6:	c #7CAE86",
"7:	c #6EB47F",
"8:	c #4066B2",
"9:	c #7B2BC7",
"0:	c #9B5FD0",
"a:	c #B75DD1",
"b:	c #C15DD2",
"c:	c #BB5DD2",
"d:	c #A85FD1",
"e:	c #8C5FD0",
"f:	c #8260CF",
"g:	c #7F5FCD",
"h:	c #A25DCC",
"i:	c #B55BCC",
"j:	c #A15DCE",
"k:	c #8972D3",
"l:	c #9649D0",
"m:	c #9749D0",
"n:	c #A549D3",
"o:	c #A534D1",
"p:	c #8229CA",
"q:	c #6524C5",
"r:	c #4F3ABE",
"s:	c #0C5CB0",
"t:	c #3AAF81",
"u:	c #7DA68E",
"v:	c #9B7FAA",
"w:	c #6E69AF",
"x:	c #6D1DBF",
"y:	c #6B1CBF",
"z:	c #8124C0",
"A:	c #952BC1",
"B:	c #9B2DC1",
"C:	c #4F1585",
"D:	c #220B38",
"E:	c #220B26",
"F:	c #545D44",
"G:	c #98BA8F",
"H:	c #959394",
"I:	c #282124",
"J:	c #624A58",
"K:	c #A37992",
"L:	c #24096B",
"M:	c #4269AD",
"N:	c #509994",
"O:	c #3DB17E",
"P:	c #1BB37A",
"Q:	c #0F889D",
"R:	c #1E6DAC",
"S:	c #563ABD",
"T:	c #8828C7",
"U:	c #9E2ACD",
"V:	c #9F29CE",
"W:	c #9F28CF",
"X:	c #A128D0",
"Y:	c #9B26CF",
"Z:	c #9C28CE",
"`:	c #AF30CD",
" <	c #C739CE",
".<	c #C338CF",
"+<	c #AD2ED0",
"@<	c #9B29CF",
"#<	c #9E24CF",
"$<	c #9A1DCD",
"%<	c #A222CD",
"&<	c #A023CB",
"*<	c #8719C7",
"=<	c #5F08C3",
"-<	c #25A588",
";<	c #518B9D",
"><	c #7469B0",
",<	c #8D28C0",
"'<	c #9A2DC1",
")<	c #A631C2",
"!<	c #350C97",
"~<	c #270A68",
"{<	c #170923",
"]<	c #6C605C",
"^<	c #D1C2C7",
"/<	c #F6FDF4",
"(<	c #CBC8CA",
"_<	c #585155",
":<	c #20181C",
"<<	c #4E4249",
"[<	c #695F65",
"}<	c #310D59",
"|<	c #290896",
"1<	c #155BB0",
"2<	c #4705C0",
"3<	c #AE24CC",
"4<	c #C941CA",
"5<	c #CB4BC8",
"6<	c #A863BF",
"7<	c #8373B5",
"8<	c #777EAE",
"9<	c #748DA3",
"0<	c #8887A6",
"a<	c #878AA4",
"b<	c #539598",
"c<	c #166CAB",
"d<	c #9029C0",
"e<	c #7F23C0",
"f<	c #7C22BF",
"g<	c #972CC1",
"h<	c #982CC1",
"i<	c #A731C2",
"j<	c #A832C2",
"k<	c #6E1EA9",
"l<	c #210965",
"m<	c #0F0823",
"n<	c #6C6D65",
"o<	c #B79FAA",
"p<	c #F4E4ED",
"q<	c #1B1718",
"r<	c #90828A",
"s<	c #5B4753",
"t<	c #1A0921",
"u<	c #2D0C6E",
"v<	c #2A6DAB",
"w<	c #339398",
"x<	c #3DAE81",
"y<	c #41A08E",
"z<	c #439695",
"A<	c #3E8B9C",
"B<	c #387CA5",
"C<	c #4487A1",
"D<	c #4D959B",
"E<	c #5B9D95",
"F<	c #86959E",
"G<	c #B786AC",
"H<	c #BD85AD",
"I<	c #95969F",
"J<	c #49A987",
"K<	c #26AC83",
"L<	c #3FA986",
"M<	c #71A68D",
"N<	c #8C9F96",
"O<	c #77A092",
"P<	c #42B17E",
"Q<	c #1BB479",
"R<	c #29A588",
"S<	c #289E8E",
"T<	c #249496",
"U<	c #2A4FB4",
"V<	c #5514BE",
"W<	c #691BBF",
"X<	c #7E23C0",
"Y<	c #651BB6",
"Z<	c #300C7A",
"`<	c #0F0833",
" [	c #330F41",
".[	c #210A39",
"+[	c #1D077A",
"@[	c #6336BB",
"#[	c #7268B0",
"$[	c #7885A4",
"%[	c #7F969A",
"&[	c #85A490",
"*[	c #87A391",
"=[	c #7AA093",
"-[	c #52A789",
";[	c #29B37B",
">[	c #68AB87",
",[	c #A4979E",
"'[	c #B092A3",
")[	c #89A094",
"![	c #44A987",
"~[	c #37AA85",
"{[	c #67A48E",
"][	c #89969B",
"^[	c #819998",
"/[	c #24A28B",
"([	c #30A28C",
"_[	c #4A9696",
":[	c #5C81A4",
"<[	c #645AB3",
"[[	c #5D35BB",
"}[	c #3208B5",
"|[	c #23078B",
"1[	c #14075C",
"2[	c #0E0839",
"3[	c #68855F",
"4[	c #B5A2AD",
"5[	c #170840",
"6[	c #3E107A",
"7[	c #9C2DC1",
"8[	c #9D3EBF",
"9[	c #9E6AB3",
"0[	c #9D82A9",
"a[	c #9A8FA1",
"b[	c #879C97",
"c[	c #5BA68B",
"d[	c #1FA38B",
"e[	c #509F90",
"f[	c #8F929E",
"g[	c #9F87A7",
"h[	c #7487A2",
"i[	c #3586A0",
"j[	c #517AA6",
"k[	c #816CB0",
"l[	c #8960B4",
"m[	c #6063B0",
"n[	c #265BB0",
"o[	c #214FB4",
"p[	c #7921BF",
"q[	c #0F0666",
"r[	c #4A8233",
"s[	c #A2C199",
"t[	c #756E71",
"u[	c #240A4F",
"v[	c #551685",
"w[	c #674FB7",
"x[	c #5868AE",
"y[	c #2272A8",
"z[	c #215BB0",
"A[	c #1A31B9",
"B[	c #3432BA",
"C[	c #6F37BC",
"D[	c #873ABD",
"E[	c #6219BE",
"F[	c #7721BF",
"G[	c #2304B5",
"H[	c #28098B",
"I[	c #23096E",
"J[	c #1D0954",
"K[	c #150933",
"L[	c #375727",
"M[	c #427A26",
"N[	c #7AB467",
"O[	c #4C6E40",
"P[	c #969495",
"Q[	c #1D0868",
"R[	c #5A16BE",
"S[	c #8B28C0",
"T[	c #2A07A6",
"U[	c #3A0E7A",
"V[	c #16091B",
"W[	c #140918",
"X[	c #150918",
"Y[	c #1E1E14",
"Z[	c #4B5235",
"`[	c #82A55D",
" }	c #94E16F",
".}	c #BBEEAD",
"+}	c #669755",
"@}	c #3E0CBE",
"#}	c #6A1DB6",
"$}	c #26097B",
"%}	c #431272",
"&}	c #190949",
"*}	c #160918",
"=}	c #473A41",
"-}	c #545740",
";}	c #6C794E",
">}	c #859B60",
",}	c #9CD46E",
"'}	c #9CE47E",
")}	c #E7F8E2",
"!}	c #D6F5CF",
"~}	c #B0EC9E",
"{}	c #D0F3C7",
"]}	c #81CC67",
"^}	c #4D932C",
"/}	c #8C28C0",
"(}	c #4810B5",
"_}	c #2B089F",
":}	c #46127F",
"<}	c #4A1562",
"[}	c #300E49",
"}}	c #110825",
"|}	c #120825",
"1}	c #190939",
"2}	c #736C70",
"3}	c #968E92",
"4}	c #A1D886",
"5}	c #87DF57",
"6}	c #84DF54",
"7}	c #81E150",
"8}	c #A0E987",
"9}	c #84E55B",
"0}	c #7EE550",
"a}	c #A5EB8F",
"b}	c #CBF2C0",
"c}	c #EEFAEB",
"d}	c #8FE76E",
"e}	c #6FC947",
"f}	c #496E3C",
"g}	c #100749",
"h}	c #26079F",
"i}	c #8E29C0",
"j}	c #8B27C0",
"k}	c #992DC1",
"l}	c #7621A9",
"m}	c #5D1993",
"n}	c #2B0B74",
"o}	c #110848",
"p}	c #1B0A21",
"q}	c #140925",
"r}	c #D2F3CA",
"s}	c #7AE448",
"t}	c #81E557",
"u}	c #B3EDA2",
"v}	c #A9EB94",
"w}	c #91E772",
"x}	c #9BE981",
"y}	c #E5F8E1",
"z}	c #7EE552",
"A}	c #689759",
"B}	c #0D080F",
"C}	c #3C1075",
"D}	c #3C0CB5",
"E}	c #5817AD",
"F}	c #7A22A7",
"G}	c #7D239B",
"H}	c #73218E",
"I}	c #6A1E83",
"J}	c #58196D",
"K}	c #47145A",
"L}	c #260B35",
"M}	c #63565D",
"N}	c #836C79",
"O}	c #8A7C84",
"P}	c #999598",
"Q}	c #D3F4CB",
"R}	c #BAEFAC",
"S}	c #B5EEA5",
"T}	c #80E555",
"U}	c #DEF6D8",
"V}	c #8ECE7A",
"W}	c #887C83",
"X}	c #2E0D3E",
"Y}	c #4C1493",
"Z}	c #0A039F",
"`}	c #260A71",
" |	c #310D65",
".|	c #230A54",
"+|	c #1E0A42",
"@|	c #2A0C43",
"#|	c #2D0D43",
"$|	c #210A35",
"%|	c #ABA8AA",
"&|	c #D7C7D0",
"*|	c #F4CEE4",
"=|	c #93E875",
"-|	c #87E661",
";|	c #A0EA89",
">|	c #BAEEAB",
",|	c #A2EA8B",
"'|	c #75686F",
")|	c #231B1F",
"!|	c #10048B",
"~|	c #2F0A8F",
"{|	c #3A0E81",
"]|	c #2F0B8C",
"^|	c #0F0748",
"/|	c #0E0825",
"(|	c #CBF2C1",
"_|	c #A9EB95",
":|	c #8DE76C",
"<|	c #A1EA8A",
"[|	c #84E55D",
"}|	c #9DE984",
"||	c #343333",
"1|	c #847980",
"2|	c #6F6169",
"3|	c #4E4349",
"4|	c #2C2227",
"5|	c #161012",
"6|	c #17092A",
"7|	c #0C065C",
"8|	c #0F0745",
"9|	c #0D0742",
"0|	c #A4EA8E",
"a|	c #88E663",
"b|	c #8D6D80",
"c|	c #735E6A",
"d|	c #554B50",
"e|	c #1B1618",
"f|	c #262023",
"g|	c #261F23",
"h|	c #4F4B4D",
"i|	c #636262",
"j|	c #837E80",
"k|	c #998D94",
"l|	c #A69FA3",
"m|	c #7DE44E",
"n|	c #D2F4CA",
"o|	c #826C79",
"p|	c #41353B",
"q|	c #342E31",
"r|	c #1E1A1C",
"s|	c #423F40",
"t|	c #71646B",
"u|	c #C1C1C1",
"v|	c #D7D6D7",
"w|	c #F4EDF1",
"x|	c #96E87A",
"y|	c #393437",
"z|	c #B5B2B3",
"A|	c #DFD4DA",
"B|	c #E9DEE4",
"C|	c #F4F1F2",
"D|	c #99E97E",
"E|	c #C1F0B4",
"F|	c #7BE44A",
"G|	c #BBEFAC",
"                    . + @ @ #   $ % & * * = - ; . $ .   $ > $                   ; , ' ) $ ! # - * ) $   ! . $ .         ~ { ' ] >   > ^ & / #       ! !                                                 ",
"                      ; ( _ : . < _ [ ) } | 1 2 ^ ^ # ~ % 3 #                   $ % 4 ^ $ ; 2 5 2 ~ ! > : % ) 6 $       . + 7 - ; $ 6 , 7 % . . > ; # 8 $                                               ",
"                      . ~ # > ; 2 5 9 ~ # * 0 a 1 * } + 4 4 :                     > # ; $ % [ / # ! $ ^ & b c d ~         > < 6 ~ 8 { [ 3 > ! 8 3 4 & { : !                                             ",
"                . .       . . 8 2 { ;   > { e f c ] } ] [ 3 >   ! $ > > . ! .       ! . > } / g .   > 3 * 5 4 ) >               $ % 4 d ;   $ ^ 5 h ' , < !                                             ",
"              $ # # !   > # # ~ : 8 !   . # ] - g # 2 [ d # ~ # g 3 d 3 # 8 < $   . 8 # > # : $     . ; < # ; $ ! $ ; 8 ~ $ $ ~ ~ # % # !   . 8 ^ ^ < ~ .     . $ .                                     ",
"            . 6 ] 3 $ ! # { { ;           ! $ > $ g , 4 6 8 ( , @ i h j } d { ;   > 3 _ < .                     $ 6 2 ] 2 # g 3 g $ !                       . 8 g 8 !                                   ",
"            ; d k 3 . ! # 7 1 ^   . > ~ > ~ ; # : ^ 9 + > < * h , ] l % l 5 - ; ! > d m { >   . $ > > ~ ; ; ~ $ # - k @ ' 3 3 @ 4 8     ! . . . $ $ $ .     $ } * d >                                   ",
"          . % [ 7 #     ~ d h _ ~ < { / d - * | * } ; $ ! # & n ( > $ # 4 5 ) ; ; ; % 1 k : $ # } 2 { - , , l # 3 * , 4 n 4 ^ 5 | ^ . > # 6 % ^ 3 3 ^ ; !   $ } 1 5 #                                   ",
"          > d k 3 .     . 6 & , 6 , o o p h q r a 2 $     ~ 2 h {     ^ k ] # ^ / ) # - * 6 ~ 9 c ' = ' ' s { % 4 [ } ^ ' * < d b 2 ~ g 4 c | = h h * % .   . < 5 | %                                   ",
"          ~ { - ;         > 6 ^ } @ i k - { & t u v w . > 8 3 @ , < # 2 , + ~ 3 | 7 # # ^ ; > ^ / / { 2 3 ) : % 7 { ; ; / 4 8 : l % ; ^ * | b 5 7 / 3 x y z A B C D E F                                 ",
"          $ 6 : !       . . ! 8 { k d # $ $ 8 , G H I J K L k p h | & 2 + > . + c s % ! .     $ ~ > $ !       # } : ! . # 6 $ ! $ . ! > M N O P Q R S T U V W X Y Z `  .F                               ",
"            . !       $ # : $ g & 4 #     ..+.@.#.$.%.&.*.=.-.;.>.,.'.).!.    8 , p ] ~ !                     . $ !     ! > ~.{.].Q ^.S /.(._.:.<.[.` ` [.}.|.}.<.1.2.` 3.].                            ",
"    $ ~ >           ! ; 9 / ^ ^ { ^ $ 4.5.^.6.7.` 7.<.7.8.` 9.9.0.a.b.:.T T T c.d.e.e.f.g.h.h.h.h.h.i.j.            ..k.l.m.n.o._.<.[.` ` p.q.<.<.r.s.t.u.v.w.w.x.y.z.|.A.B.                            ",
"  . # 2 ^ !           > ) 7 & { C.D.E.F.<.[.[.<.G.H.I.J.K.L.1.r.}.|.}.<.` ` ` ` [.Z p.M.N.O.P.Q.Q.Q.R.S.!   ..y T.^.S U U.9.p.V.q.Y 1.s.W.X.Y.Z.x.y.`. + + + + + + +.+:.}.++j.                          ",
"  . % k * ;             > @+#+$+%+&+*+` =+-+;+>+,+ + + + +`.5.'+)+w.w.H.G.s.s.s.r.1.!+~+{+]+^+/+(+_+:+<+[+}+.+|+1+Q.` [.[.1.2+3+4+5+6+7+8+9+0+a+b+ + + + + + + + + + +y.c+d+e+4.                        ",
"  ! : j p } !       ..y Q f+g+q.M.h+i+j+k+l+m+n+o+8+p+ + + + + + + + + + + + +`.5.T.q+r+s+t+u+v+w+x+y+z+A+:.B+C+D+E+F+G+H+I+5.7+J+K+L+M+N+o+O+P+M+p+ + + +p+Q+Q+ + + +`.R+S+F+T+4.                      ",
"    > ( p & ~     4.T+S 7.` 8.U+V+W+X+Y+9+Z+`+ @a+.@N+p+ + +p+Q+p+ + + + + + +`.y.+@@@2+#@$@` ` %@&@*@=@-@;@>@,@` '@)@R+!@ +p+Q+~@{@ @a+]@^@/@(@_@p+ + + +b+:@<@p+ + + +!@R+F+S+T+..                    ",
"    . 6 5 m ^ [@5.+@}@Z |@1@2@3@4@5@J+{@]@6@7@~@]@a+8@o+8+Q+9@M+~@p+ + +!@.+H.L.0@a@b@` c@d@e@f@g@h@i@j@k@l@m@n@o@>@p@q@L.r@s@M+ @8@J+:@7@t@u@v@/@8+ + +Q+J+w@^@ + + + + +!@x@d+t.5.4.                  ",
"      ; d y@z@A@F+[.B@C@D@E@F@9+N+p+Q+N+]@u@:@p+N+.@a+L+:@G@7@_@H@.+H.G.s.<.I@` J@K@L@M@N@O@P@Q@R@S@T@U@V@W@W@W@X@l@Y@Z@`@ #.#+#@###N+Q+b+9@_@$#%#&# +p+s@F@8@b+ + +p+p+Q+p+*#R+F+:.T+..                ",
"      . =#-#;#9.<.2+>#,#0+##~@'#p+p+Q+b+M+w@:@s@.@7@9+7@)#!#~#{#]#<.^#` ` ^#/#(#_#:#<#[#}#|#W@W@|#1#2#3#4#W@W@W@W@W@5#6#7#` 8#9#s@Q+ + +p+~@L+0#K+a#p+N+ @b#G@p+p+c#d#e#f#g#p+!@S [.S h#                ",
"      j.i#j#p.2+k#l#m#u@{@Q+p+n#~@9@o+&#^@L+F@0#+#o#p#q#r#8.s#` ` ^#;@t#u#v#5#w#1#x#y#z#W@W@W@W@A#B#C#D#|#W@W@W@W@W@|#E#F#G#H#I#*# + + +p+b+^@:@N+p+Q+{@w@J+p+ +Q+J#K#L#M#M+p+ +e+N#a.O#j.              ",
"    j.e+[.0.P#Q#R#{@b#:@Q+ +b+M+F@_@F@]@ @6@+#S#T#U#V#,@` e@W#X#Y#v#X@Z#W@W@W@z#z#W@W@W@W@W@W@W@W@|#`#|#W@W@W@W@W@W@W@z#z# $.$>@t..+ +p+p+p+Q+Q+p+p+Q+J+M+Q+ + +Q++$@$#$$$b+ + +`.%$t.a. ...            ",
"  !.&$a.:.*$=$p+b+M+9+b+ +p+b+9+F@K+]@{@##-$;$>$` ,@>@,$'$)$!$~${$W@W@W@W@W@W@W@W@W@W@W@W@W@W@W@W@W@W@W@W@W@W@W@W@W@W@W@W@]$^$>@/$*$p+G@9@p+ +Q+&#g#p+'#Q+ + + + +($_$_$:$p+ + +p+b+<$[$U h#            ",
"}$|$1$2$R+D.3$3$'#N+b+p+ + +p+3$~@b+'#,+g.4$5$5$6$7$8$9$0$`#a${$b$W@W@W@W@W@W@W@W@W@W@W@W@W@W@W@W@W@W@W@W@W@W@W@W@W@W@W@W@W@9$c$,@d$5@K+7@Q+ +n###F@3$ + + + + + + + + + + + + +8+9+e$f$[.O#            ",
"g$h$Z u.i$3$9+9+8+ + + + + + + + +`.j$c+^#` k$l$m$Q@W@W@W@z#A#A#W@W@W@W@W@W@W@W@W@W@W@W@W@W@W@W@W@W@W@W@W@W@W@W@W@W@W@W@W@W@]$n$o$p$q$r$J+ + +Q+9+s$9+p+ +p+8+n#b+3$N+a#b+p+ + +8+ @t$u$[.v$            ",
"w$x$y$z$p+3$ @0#9@ + +p+Q+Q+'#R#A$<$p$` ;@B$C$D$E$F$W@W@W@W@W@W@W@W@W@W@W@W@W@W@W@W@W@W@W@W@W@W@W@W@W@W@W@W@W@W@W@W@W@W@W@W@W@G$m@H$I$J$b+ + + +&#u@w@8+Q+o+7@8@a+w@`+`+.@Q+ + +Q+9+K$L$` S ..          ",
"M$` N$!@ +'#M+u@7@Q+Q+&#^@M+O$P$Q$J@R$S$T$U$a$V$W$X$W@W@W@W@W@W@W@W@W@W@W@W@W@W@W@W@Y$Z$`$`$ %.%+%+%+%+%+%+%+%@% %Z$W@W@W@W@W@W@ $#%*@$%i$ + + +8+9+8@b+n###6@6@%%`+_@L+J+p+ + +p+s@6@&%[.U 5.          ",
"1@*%=% + +p+G@ @-%b+3$7@;%>%,%'%*@)%!%~%W@z#{%]%^%/%W@W@W@W@W@W@W@(%_%:%<%[%[%}%.%|%1%2%3%3%3%4%4%4%4%4%5%6%7%8%9%0%[%<%a%(%W@W@]$b%c%d%R+`. + +p+8+3$p+p+G@o+9@G@3$b+b+Q+ + + + +n#9+e%s.` 5.          ",
"f%g%h% + + +Q+i%j%k%l%m%n%o%p%q%r%s%t%z#W@W@|#u%v%]%W@W@(%a%<% %}%w%x%y%z%A%B%C%D%D%E%F%F%F%F%G%G%G%G%G%G%H%H%I%J%K%L%M%N%O%P%W@W@Q%R%S%t.y. +p+p+ +p+ + +p+p+p+p+ + + + + + + + +i$g.4$`  .F           ",
"T%L.++s.s.U%U%U%1.r.V%W%5$X%Y%Z%`%W@W@W@W@W@z#4# &F$W@P%O%N%M%.&+&B%D%D%@&@&#&$&%&&&*&=&-&-&;&>&,&,&'&)&!&~&{&]&^&/&A%(&7%7%_&[%Z$:&<&o@^#*$S.&#o+8+p+ + + + + + + + + + + + + +`.[&)@` [&F             ",
"}&|.` ` ` ` ` ` [.|&|&` u#l@X@Z#W@W@W@W@W@W@W@W@A#1&.%N%2&3&4&5&6&7&8&9&0&a&b&c&d&e&f&g&h&h&h&h&h&h&h&i&j&k&l&m&n&o&p&q&r&s&t&u&u&_&v&w&S%t.x&:@b#9+3$p+ + + + + + + + + + +`.e+S y&|&z&A&..            ",
"B&|&F+U%C&D&E&r#F&G&` H&I&W@W@W@W@W@W@W@W@W@W@W@(%[%J&8%K&L&M&N&O&P&k&Q&R&S&T&U&V&W&W&X&Y&Y&Y&Z&`& * *.*.*+*@*#*$*%*&***=*-*;*>*9%,*[%'*;@^#k#3$##)*L+9@Q+ + +p+Q+Q+p+ +`.y.*$t.[.a.y&|.S h#            ",
"d+F+!* +Q+o+ @ @~*{*]*w&^*A#`#b$z#W@W@W@W@W@W@W@/*(*_*:*<*[*}*|*1*T&2*Y&Y&3*4*5*6*7*8*9*0*a*b*c*d*d*e*f*g*h*i*j*k*l*m*n*o*p*q*r*s*t*u&u*v*` S+w*J+a+`+F@.@3$p+8+.@:@i$z$u.x*<.[.x*H.y*z*[.A*4.          ",
"Q.1.k%'#p+Q+9@B*C*D*E*F*G*R@H*u%A#W@W@W@W@W@W@(%I*J*K*L*M*N*O*P*4*5*7*Q*R*S*T*U*V*}%W*N%M%M%X*X*7%7%7%7%7%7%Y*Z*`* =.=+=@=#=$=%=&=*===_&v#>@|.-=M+`+F@a+w@8@G@&#;=>=L.<.[.[.F+S e+`.`.*$<.F+5.          ",
"Q.1.,=:@a#p+p+N+9+'=)=!=~={=2#/%A#W@W@W@W@W@W@]=0%^=/=(=_=:=<=[=W@W@Z$`$I*_&}=9%}=7%X*X*M%M%N%w%|=1=2=2=2=2=2=2=2=3=4=5=6=7=8=9=0=a=b=c=d=e=` f=g=h=O+F@M+K+i=j=k=V.` <.x*u.z$!@ + + +y.r.[.^.          ",
"l=1.m=w@9+b+b+9@M+n=o=p=q=r=^%s=z#W@W@W@W@W@t=u=v=w=x=y=z=A=W@W@W@t=N%9%}=X*}=9%}=B=C=D=E=F=G=H=I=J=J=J=J=J=J=J=J=J=K=L=M=h*N=O=P=Q=R=S=T=U=V=W=X=Y=Z=`= -.-+-j#` |@L.k#y.`. + + + + +`.t.` S ..        ",
"@-1.#-0#@#-%8@w@F@~*$-%-&-*-^%/%W@W@W@W@W@t=.%=---;->-,-'-W@W@P%O%W*)-9%}=!-~-{-]-^-/-I=(-_-:-<-[-J=J=J=J=J=J=J=J=J=}-|-1-2-3-4-5-6-7-8-9-0-a-b-c-l+/@d-e-<.` j#f-g-h-b+ + + + + + + + +i-|&B+j-        ",
"@-1.k-@#l-m-u@F@9+N+n-A.H$o-p-q-W@W@W@W@Z$N%r-s-t-u-v-w-W@P%O%W*7%X*3-x-y-z-[-_-(-[-<-[-(-_-A-B-C-D-E-E-E-E-E-E-E-E-F-G-G-H-I-7%J-K-L-M-N-O-P-%@Q-+-~#R-Z <.L.S-;%F@B*a# + + + + + + + +v.|.W z         ",
"l=1.k-`+T-O+##~@Q+ ++@1$%-U-V-W-W@W@W@(%[%X-Y-Z-`- ;w-W@Z$_&.;+;B=@;#;$;%;&;*;G-=;-;;;>;,;';);2*!;!;!;!;!;!;!;!;!;!;~;{;];^;/;(;M%_;:;<;[;};|;1;` 2;3;` 4;5;i$a#8@F@M+n# + +p+p+p+p+ + +w.}.6;7;8;      ",
"Q.r.9;:@%%6@:@p+ +p+0;a;b;q%c;R@W@W@W@_%d;e;f;g;C-h;W@t=_&9%+;i;j;k;%;l;m;n;k&o;p;T&q;r;r;s;s;t;u;v;v;v;v;v;u;t;!;!;2*w;x;y;z;A;B;C;D;E;F;.&G;H;` I;J;K;L;b+Q+o+ @7@N+p+Q+M;&#o+s@8+ + +.+<.<.N;O;P;Q;8;",
"Q.r.T.'#{@`+7@8+ +8+:@R;-+S;T;U;|#b$b$V;W;X;Y;Z;`;W@P%.%+;2&V* >.>+>@>#>$>%>2*!;!;Y&Y&Y&Y&&>*>=>->->->->->->->;>>>,>'>)>!>~>{>]>^>/>(>_>:><>[>}>|>p@U%1>b+Q+N+7@ @9@p+p+~@7@w@_@##~@p+ +!@s.` 2>3>4>O;5>",
"Q.r.'+p+N+9+{@b+Q+o+ @6>7>,@8>9>0>a>b>c>d>e>f>g>h>P%i>j>[>G;k>.><-l>m>n>o>7*7*7*8*Q*R*p>q>u=7%X*M%M%M%M%M%M%M%X*M%N%O%P%r>s>t>u>v>w>x>y>z>A>B>C>D>,@E>x.p+Q+&#9+J+Q+ +p+&#-%b#8@:@b+ + + +s.` F>G>H>O;5>",
"V }.)+ +p+b+b+Q+N+7@ @9@k#V#I>J>K>L>M>N>O>P>Q>R>t=.%j>.%t=S>T>[-U>V>r;W>X>W@W@W@W@(%Y>Z>N%X*B=_&[%`$`$`$`$`$[%_&M%7%j>`> ,.,+,@,#,J&$,i&%,&,*,=,-,;,V#>,3$b+b+N+8+ + +p+'#N+N+b+Q+p+ + +p+,,` T ',),!,8;",
"*+V#~, + +p+p+Q+&#9+J+Q+.+2$` {,],^,q-/,(,_,:,<,.%(*[,t=},r>|,1, ;2,3,7*4,W@W@W@Y$5,[>7%7%V*]=6,7,8,9,0,0,0,0,a,b,}%N%.;7%c,d,e,f,g,h,i,j,k,l,m,n,o,p,q,]@r,Q+ + + + + + + + + + + + +p+~@s,9.U.y       ",
"b.t,u,p+p+8+3$b+b+N+8+ + +S 5$v,w,R@y#x,[-y,z,A,B,C,]=6,r>D,|,E,F,r;G,[=W@W@W@t=.%M%7%N%H,I,J,H=I=I=J=J=J=J=J=D,K,L,M,N%+;.&N,O,P,Q,R,S,T,U,V,W,X,Y,Z,`, 'K+N+ +p+p+Q+Q+8+n#b+8+p+ + +Q+r,.'+'7.T.      ",
"@'` #'S.p+9@]@r,Q+ + + + +e+x*S%$'0$W@%'D,&'*'='-';'W@9,>':-J,,'Y&r;''W@W@W@(%.%X*)'Z>!'~'_-{']'^'/'('_':'J=J=J=J=<'['t=}'J&|'1'2'3'`>4'5'6'7'8'9'0'a'b'c'`+J+Q+b+9@:@.@]@##8@9+N+p+ +p+9@d'{+9.^.      ",
"e'M.u$f'p+o+w@K+N+ +p+p+Q+D.@@S;k$g'Q@h'i'j'k'l'm'n'},o'_-p'q'r'!;!;s'W@W@W@a%B=.;t'u'.>v'w'x'k&y'z'A'B'C'D'E'K,D,J=.>['`>7%F'1'G'H'W*I'J'K'L'M'N'O'P'5$s,C*:@n#9@K+0#@#@#0#`+8@&#p+ +p+3$Q'R'` S'T+    ",
"T'Z U''+p+3$ @`+J+Q+b+9@:@.@V'W'b;X'Y'|#W@Z'`' ).) &+)@)(-#)$)o>s;o>[=W@W@(%G;M%%)b,r>%;&)*)=)-)r;r;r;r;r;3*;)>),)J,').>))7%!)~){)])M%Z$^)/)()_)w>:)<),@[)})N+Q+~@9+7@]@M+J+o+G@|)T.T.1)Q+^@2)3)` B.    ",
"4)5)<.x. +Q+J+K+:@n#9@K+0#@#6)7)*@8)9)|#W@0)a)b)c){=0,J=J=0,X>!;!;6*W@W@W@a%[>7%}%d)e)m;f)g)h)i)''j)j)G,3*r;k)l)m)n)[-I=o)M%p)q)r)s).&`$t)u)v)w)x)X*y)z)V#A)p+ +p+Q+Q+p+p+ + + +I.y&y&I.p+b+B)t,}.C)    ",
"D)_+<.*$ +p+b+g#N+Q+~@9+7@]@M+E)F)G)H)z#W@+%I)J)K)L)0,J=J=0,7*!;!;7*W@W@W@<%M%M%M)$;N)k&O)P)Q)X>W@W@W@4,X>6*R)S)T)U)V)[-W)M%X)Y)Z)`)z%`$ !.!+!@!#!$!%!&!*!d$`. + + + + + + + + +I.a.a.I. + +=$r.[.^.    ",
"N 6.[.u.S.p+p+p+p+ +p+Q+Q+p+p+!@G.` u#Z#W@+%=!-!;!}#0,J=J=0,7*!;!;7*W@W@W@`$M%M%>!I=,!'!)!8*W@W@},},},W@W@4,!!~!{!]!^![-/!M%X)(!_!`):! %7,V)<![!}!|!1!2!3!4!x&p+ + + + + + + + +B.5!5!B. + +`.G.` S 4.  ",
"6!^.[.p$7!N+b+p+ + + + + + + + +H.^#;@X@W@.%7%8!9!z#q'J=J=9,7*!;!;7*W@W@W@`$M%M%0!a!b!c!d!4,W@i'.><'i'W@W@W@W@r'R)e!f![-g!L%X)h!i!j!k!}%l!m!n!o!p!q!r!s!t!b;k+b+p+ + +p+Q+p+ + + + + + + + + +5!}.V ].  ",
"  Q <.<.B)9+9+G@Q+p+p+3$b+ + + +.+F+^#v#]$/*M%M%/*W@u!:-v!%'7*!;!;7*W@W@W@`$M%L%w!x!o!F,8*W@i'.><-<'i'W@W@W@W@R*Y&q;;;[-y!L%X)z!P&A!B!%)C!J,D!E!F!G!H!I!J!` K!L!~@Q+p+a#o+3$p+ + + + + + + + +w.|.W A   ",
"  M!:.<.N!M+K+##o+b+N+8@]@Q+Q+p+!@S S%O! $a%B=7%}%W@u!_-_-%'7*!;!;7*W@W@W@`$M%P!Q!R!j&6*4,W@.><-S!r>},W@W@W@W@!!)!T!;;U!V!t&W!X!Y!Z!`!7%}%u! ~.~+~@~#~$~%~&~*~=~7@9@3$9+a+o+p+ + + + + + + + +I.-~}.h...",
"  4.;~` d$b+r,8@ @M+r,>~,~:@o+3$p+e+t.S%m@'~N%X*W*W@%'(-(-u!7*!;!;7*W@W@W@`$M%2%)~!~@!7*W@w-~~<-B-8*8*4,4,4,Q*{~]~^~/~(~_~7%:~<~[~}~|~t&W*1~2~3~4~5~6~7~8~9~b@4;)#7@^@K+`+<@ + + + + + + + + +!@u.[.S y ",
"    3.` <.!@Q+9@##a+8@F@m-6@F@o+p+`.R+0~o@T$a~X*N%Y$R>I=[-b~8*!;!;Q)W@W@W@ %M%c~d~e~o;8*W@w-~~[-B-f~Y&m)m)Y&g~h~i~j~k~l~(&M%m~q;n~/'o~t&N%9,J=p~q~r~s~t~u~v~w~x~y~:@{@a+`+9@ + + + + + + + + + +v.}.V z ",
"    F.A.}.z~3$o+9+7@ @F@O+A~,~<@ + +!@S 5$6$B~M%M%C!w-~~<-H=Q*Y&r;''W@W@W@V*8%I%C~D~E~Q*W@F~G~H~I~J~r;s;U&S&K~L~n!M~N~O~X*.%}!r;n~P~o~t&N%8,I=Q~R~S~T~U~V~W~X~Y~K.b+o+F@w@&# + + + + + + + + + +w.|.W A ",
"    Z~`~ {.{ @w@ @o+9@9+u@v@O+o+ + + +A$+{@{#{B=7% %W@<'(-${%{Y&r;G,W@W@W@V*9%&{*{={E~R*W@ %-{;{>{,{'{){!{~{m&*;{{#;@;X*.%t=G,r;[~]{o~X*N%7,I=^{/{({_{:{<{w#[{` G.7+9+_@8@N+ + + + + + + + + + +}{|.W |{",
"  ! 1{2{3{4{`+K+J+b+p+b+]@5{A~r, + +Q+6{7{` 8{9{M%.%W@#)0{(-a{m)s;4*W@W@W@i>}=b{c{d{e{R*W@t'f{g{h{(-J=J=[-:-i{/-j{V*X*_&t=W@4*s;k{+>o~X*N%7,~~l{m{n{o{p{q{4#m@S%1.r{F@K+9@Q+ + + + + + + + + + +5!|.W ].",
"  . s{t{3{u{<@3$p+ + +p+9@%#l-{@ +p+s@F@v{w{x{y{z{A{4#B{C{(-0,m)s;m)W@W@W@a%B=D{E{d{F{R*W@[%8%G{H{J=J=J=I{J{K{L{[>M%M{5,W@W@m)N{k{O{P{X*_&7,I=&)O*Q{R{S{T{ & $U{H#V{W{9@p+p+p+p+p+p+ + + + + +%$++` T M!",
"  ! N X{9.@@p+ + + + +p+b+t@b#9@p+N+ @b#Y{u.Z{`{ ].]+]@]#]<-K,m)s;m)W@W@W@(%_&$]%]_>F{R*W@Z$_&.;&]*]2==]1%L%M%X*-].%t=Y$W@W@m)c!;]>],]M%G;']I=p*i&)]!]~]{]]]0$^]W=/]S-p+p+8+~@9@o+N+p+ + + +*#v.` (]F   ",
"    _]S ` t.`. + + + + +p+Q+n#p+Q+{@w@J+p++@:]<][]}]|]1]2]<-$;4*s;m)4,W@W@W@5,3]4]5]6]R*W@W@t=[,X*7%7%7%X*M%M%W*O%P%W@W@W@W@m)7]8]9]0]N%a%']I=p*a]b]c]d]e]{%Q@f]g]` L.`.Q+J+b#>~w@^@p+ +`.e+S [.v$5.    ",
"      ^.[.r.y. + +p+p+ + + +p+p+Q+J+M+Q+ +y.h]i]j]k]l]m]n]<-~~o]p]Y&q]W@W@W@Y$r]s]t]u]v]W@W@(%]=V*B=B=B=_&[%Z$Y$W@W@W@W@W@W@w]x]y]z]6%Z>(%']y,^{A]B]C]D]E]|#4#F]G]H]I]x.Q+M+F@a+7@s@p+ +%$}{a.[&5...    ",
"      Q <.<.x. +p+G@9@p+ +Q+&#g#p+'#Q+ + +`.j$J]K]L]M]N]H=[-O]P]Q]R]8*W@W@W@W@S]Y-T]U]V]4'W@W@W@(%_%W]_%(%W@W@W@W@W@W@W@W@W@X]Y]Z]`]B=Y>W@8,O] ^.^+^@^#^F$$^y#$^%^>@|.z.p+M;~@3$'#p+ +%$I#&^*^F ..      ",
"      ].:.<.I.p+~@K+7@Q+ +n###F@3$ + + + + +`.=^-^;^>^G;b~<-,^'^)^!^7*W@W@W@W@Z$~^{^]^^^/^(^W@W@W@W@W@W@W@W@W@W@W@W@W@W@W@A=_^:^<^[^.%(%W@}^|^1^2^3^4^5^6^7^R@A#8^9^` 0^.+ + + + +y.v.s.` a^&#>         ",
"      j-:.<.*$Q+9+`+J+ + +Q+9+s$9+p+ +p+8+n#b+b^c^d^e^f^g^J=h^i^j^k^Q)W@W@W@W@W@C!:*l^m^n^o^p^w-W@W@W@W@W@W@W@W@W@W@W@w-q^r^s^t^u^_&t=W@},v^w^x^y^z^W*A^B^C^D^A#z#E^F^V#G^8+b+b+Q+k#I]A.H^I^m <         ",
"      y J^[.u.i%F@K+b+ + + +&#u@w@8+Q+o+7@8@a+.'K^L^M^N^O^J=P^Q^R^S^''W@W@W@W@W@Y$.%T^U^V^W^X^Y^C-Z^`^ / / / /././+/@/#/$/%/&/*/=/5,W@W@-/;/>/,/'/)/}%|#X$!/~/4#b${/]/^///6>)#(/+$_/` T :// a 9         ",
"      ..A*[.x*</`+r,p+ + + +8+9+8@b+n###6@6@%%d'[/}/|/1/2/#)3/4/5/6/G,4,W@W@W@W@W@P%7/8/9/0/a/b/c/d/e/e/e/e/e/e/f/e/d/g/h/i/j/k/O%Y$W@+)I=l/m/n/o/p/C!W@B#V$q/R@V@r/a-*@s/t/u/v/w/}.T+F . ) x/,         ",
"        h#U [.y/]@'# + + + +p+8+3$p+p+G@o+9@G@0;z/A/B/C/D/E/_-F/G/H/3*I/W@W@W@W@W@W@P%W*J/K/L/M/N/O/P/P/P/P/P/P/Q/R/S/T/U/V/W/_&P%W@+)X/Y/Z/`/ (.(+(Y$W@b$ &H*4#4#D^@(*~%@#($(%(&^T 4.    # & /         ",
"        ..A&` W.g% + + + +p+p+ +p+ + +p+p+p+p+ ++@F)&(*(=(-(}-;(>(,(Y&R*W@W@W@W@W@W@W@Z$[%d;'()(!(~({(](](](](^(/(((_(:(<(u&_&[(B#}(|(1(2(3(4(5(9%V*z#|#|#A#b$z#A#4#6(7(8(+@9(].].M!      $ < 6         ",
"          T+F+<.R+`. + +p+&#o+8+p+ + + + + + + +y.W.0(a(b(c(d(_-e(f(g(h(|#W@W@W@W@W@W@W@(%a%G;_&B=M%M%M%M%M%M%M%}=+;J&B=_&5,i(j(k(l(m(n(o(p(q(}=u&`$|#F$r(y#z#W@W@W@]$w&s(t(j-              ! !         ",
"          4.A*[.t.e+ + +Q+:@b#9+3$p+ + + + + + +`.-=u(v(w(x(y(~~z(A(B(C(R@z#W@W@W@W@W@W@W@W@W@(%a%<%`$`$`$`$`$`$i>D(t=_%(%W@},E(F(G(H(I(J(K(L(M%5,Y$y#M(U@S@R@|#W@W@W@N(O(W P(                          ",
"            h#S [.S !@ +p+M;]@F@ @9@Q+ + +p+Q+Q+p+Q(Y R(S(T(U(V(W(X(Y(Z(`(z#W@W@W@W@W@A#y#{%b$W@W@W@W@W@W@W@W@W@W@W@W@w- _._+_@_#_$_%_&_*__&X*V*Y$W@b$L)^,~/=_D#`#z#W@-_;_D+C)                          ",
"            ..T+<.F+R+ + +p+8+o+L+F@.@3$p+8+.@:@p+!@L.` >_,_'_)_!_~_{_]_^_9,/_|#b$b$A#y#1#(_D#A#W@W@W@W@W@W@W@W@A=__:_<_[_}_E!|_1_2_3_4_5_7%[,]=A#`#4#6_]]/%q/7^X$7_|#8_9_0_Z~                          ",
"              4.A&` G.!@ + + +Q+9@ @w@8@G@&#%%a+p+ +k#a_b_c_d_e_f_g_h_i_j_k_l_m_n_o_p_q_r_s_t_u_8*8*Q)''j)j)v_w_x_e/y_z_A_B_C_D_E_F_G_H_I_.%t=J_V@S@S@4#A#K_L_q/~/]%a$M_N_O_P_                          ",
"                T+S+<.R+i$Q+3$r,##]@{@K+7@J+Z+L+ + +y.t.S;Q_R_S_T_U_V_W_X_Y_Z_`_ :.:+:@:#:$:%:&:*:!;2*T&S&R&T,=:-:!~y_;:>:,:':):!:~:{:]:^:/:W@Q@H*~/=_R@}#]]]%B^M>~/(:_:::<:[:                          ",
"                4.T+F+_/}:|:w@6@%%.@'#~@o+:@1:8@p+p+`.H.2:3:4:5:6:7:D/8:9:0:a:b:c:d:e:f:g:h:i:j:k:j&k&Y!l:m:n:o:%=p::_q:r:s:G;_&B=t:u:v:w:Q@|# &V$q/x:y:z:A:B:z:]]q-C:D:E:F:G:                          ",
"                  4.H:I:J:K:0#8@o+8+ +p+'#:@1:##N+b+p+Q(7.a_L:M:N:O:P:Q:R:S:T:U:V:W:X:Y:Z:`: <.<+<@<#<^'$<%<&<*<=<Y$C!}%W*B=M%X*7%-<;<><u%Q@K_B^E$M>,<'<C^)<T@,<X$!<~<{<]<^</<                          ",
"                    (<_<:<<<Y{8+p+ + + +p+o+_@8@9+s@p+i$[<` }<|<1<5,_&j>N%O%P%2<=<$;I=}-P^3<4<5<6<7<8<q&9<0<a<b<D]N%M%7%X*7%M%W*Z>c<E]y#b$`#S@d<e<f<g<E$h<i<j<p-k<l<m<n<o<p<                            ",
"                    ! k#q<}.=%!@ + + + +p+b+M+ @ @&#p+p+r<s<t<u<`%A#v<w<I)x<y<z<A<B<C<D<E<F<G<H<I<J<K<L<M<N<O<P<X*Q<N'R<S<T<;'U<A#W@z#|#b$4#H*]%x#]]a>V<W<X</%Y<Z<I@`<|$( #                             ",
"                      ].h.I]S+R+!@ + + + +8+M+a+.@8+ +p+0;g- [.[+[Q%@[#[$[%[&[*[=[-[N'7%;[>[,['[)[![~[{[][^[-[/[([_[:[<[[[K_D#1#{%z#b$D#b>V@4#4#A#z#z#z#`#}[|[1[2[S%3[+.# 8 $                           ",
"                        4.T+<.S+R+ + + + +N+8@ @&#p+ + +Q+4[>=q%5[6[D$7[8[9[0[a[b[c[N'B=d[e[f[g[h[i[j[k[l[m[n[o[ &B^K>L>M>x:M>M>{$z#{%p[d<1#b$W@W@W@W@]$9$q[Y@o$O(r[s[> 9 4 : !                         ",
"                          4. .` G.%$ + + +G@7@J+Q+ + + +p+b+h-t[5$u[v[s=f<]%D^w[x[B<y[z[A[B[C[D[E[`#u%/%M(4#W@b$0>7^d<^,F[f<K>p[4#z#`#(_p-M>}#z#G[H[I[J[K[I>I>L[M[N[/<~ - h ( $                         ",
"                            F O[` v.!@ + +n#G@b+ + + +p+p+p+p+P[s.` Q[4#Q@|#z#z#W@A#V@$^R@Q@K_H*1#R@R@$^V@z#W@A#{%$^x#R@R[S[~/u%6_4#`#r(L>g<]]T[U[c%V[W[X[Y[Z[`[ }.}  $ 3 i , ~                         ",
"                              +}S+<.R+!@ +p+p+p+ + +p+8+N+b+p+`.N#S%O!I&W@W@W@W@z#4#X$/%b>|#`#E[e<S@4#z#W@W@W@W@W@W@z#z#M(E$]%@}r(#}9)$}%}N@Y#&}%@*}p.=}-};}>},}'})}  ! < s 5 ;                         ",
"          !}~}~}{}          /<]}^}<.S+R+ + + + + + +p+~@9+9+G@D.%$v.` n$G$W@W@W@|#r(7^v%u%A#Q@H*K>/}x#z#A#Q@y#4#V@}#R@7_D^f<(}_}:}<}[}}}F^|}` ` 1}2}3}s{4}5}6}7}8}      ~ 2 d >                         ",
"          !}9}0}a}b}        c}d}e}f}` G.!@ + + + + +p+M;M+K+##o+b+%$:.,@g}h}|#z#{%F]i}6^7_W@A#F$j}k}M(`#R@{=(_6^X<M>l}m}O@n}B$o}a@*@p}q}*+X T A&T+!.. ! r}H>s}t}u}      ! ~ ; !                         ",
"          !}v}d}3>w}x}v}8;  y}d}z}A}<.<.R+ + + + + + +p+b+r,8@ @M+~@@@B}H$C}a$A#x#U@v%u%|#W@W@4#D^/}q-D}E}F}G}H}I}J}K}L}e@I@S%S%a_M}N}O}P}P 4.            Q}R}R}),                                      ",
"            /<5>S}T}s}t}S}!,U}d}z}V}(]` G.*# + + + + + + +Q+9@##a+7@W}Y ` X}Y}A#]]B^D^4#W@]$Z}-_`} |.|6$+|@|#|W=$|X~` G)_+:.J^^.%|&|*|m / g >                                                           ",
"                8;=|z}z}-|;|>|d}z},|5.S [.x@!@ + + + +p+Q+3$o+9+7@ @7@'|)|*}_:!|~|{|]|!|N(w&^|I@/|>@,@` 8(5$5$_+:.:.A&B.].j-y ... 8 } / * j 3 ; .   ! > > .                                             ",
"                  !,(|_|:|z}<|[|z}}|..Q ||)@+@ + +p+8+&#M+ @w@Q'6+1|2|3|4|5|6|7|8|I@2:9|;@S%S;a_0.*+B+S v$h.I+Q ].M!4.              $ ~ ^ , 5 ] 6 $ ~ 3 9 ;                                             ",
"                      8;Q;0|3>z}3>a|8;y U |.i-!@p+M;M+W{t/b|c|d|0@}.V#e|f|g|h|P(;~:.:.Q.:.i|j|y~k|l|O 6!                                > + _ k 7 ^ g @ k 8                                             ",
"                          b}~}s}3>m|n|.. .[.||H.J.Z.o|X.p|q|r|` [.}.*+s|]+t||$M!u|].Q Q T.v|w|2 j 4 ) ; .     . $ .                 > # ^ - / d , _ 9 ' k ;                                             ",
"                            !}T}3>s}x|  j.e+F+<.<.7.y|9.7.2;W S'^. .z z|A|B|C|              . 8 3 , & d < > $ < ^ # !           > < 2 5 p p / # : ^ 3 m j ;                                             ",
"                              D|3>3>T}!,  4.T+3.:.:.:.S ^. .Q M!      ! $ $                     > % 4 * _ ^ # d * ^ !         $ ^ @ i m j 3 8 ! . > ) m 4 ~                                             ",
"                              E|F|3>s}S}    4.M!].].j-y ..                                  . > # ) { _ 7 _ l j 1 }           $ } & ] % ; $       . + & 3 $                                             ",
"                                d}3>F|S}                                                . ; g 2 & c & ) % ( 9 5 | ^           ! > ; > .             > < ;                                               ",
"                                G|G>G>n|                                              ! # 2 k 1 | j 3 ; $ ; % 5 @ +                                   .                                                 ",
"                                                                                      . g , @ 4 } # $     . : , , :                                                                                     ",
"                                                                                      ! ; + 6 ; .         ! ~ % % >                                                                                     "};
