/* XPM */
static char * exit1_xpm[] = {
"100 100 3733 2",
"  	c #FFFFFF",
". 	c #FFFAFD",
"+ 	c #FFF5FB",
"@ 	c #FFF9FC",
"# 	c #FFFDFE",
"$ 	c #FFF1F9",
"% 	c #FFDBF0",
"& 	c #FFE5F4",
"* 	c #FFF2F9",
"= 	c #FFD4ED",
"- 	c #FFD1EC",
"; 	c #FFF4FA",
"> 	c #FFCBE9",
", 	c #FFF0F8",
"' 	c #FFF6FB",
") 	c #FFFBFD",
"! 	c #FFFEFF",
"~ 	c #FFF7FB",
"{ 	c #FFE0F2",
"] 	c #FFE9F5",
"^ 	c #FFE6F4",
"/ 	c #FFEEF8",
"( 	c #FFFCFE",
"_ 	c #FFEEF7",
": 	c #FFCFEB",
"< 	c #FFD9EF",
"[ 	c #FFF8FC",
"} 	c #FFE4F3",
"| 	c #FFD8EE",
"1 	c #FFEFF8",
"2 	c #FFDFF1",
"3 	c #FFD5ED",
"4 	c #FFF3FA",
"5 	c #FFEAF6",
"6 	c #FFD7EE",
"7 	c #FFE7F4",
"8 	c #FFF5FA",
"9 	c #FFE3F3",
"0 	c #FFDAEF",
"a 	c #FFDCF0",
"b 	c #FFC5E7",
"c 	c #FFD2EC",
"d 	c #FFEBF6",
"e 	c #F6FDF4",
"f 	c #F6FCF4",
"g 	c #F6F6F2",
"h 	c #FFE8F5",
"i 	c #FFFEFE",
"j 	c #CBF2C0",
"k 	c #D6F5CF",
"l 	c #FFEDF7",
"m 	c #A1E989",
"n 	c #B1E499",
"o 	c #DECEC3",
"p 	c #FFD3ED",
"q 	c #DFF7DA",
"r 	c #A0EA89",
"s 	c #84E55B",
"t 	c #C4F1B8",
"u 	c #81E557",
"v 	c #84E053",
"w 	c #C5D0A4",
"x 	c #F3C2D7",
"y 	c #BEEFB1",
"z 	c #87E661",
"A 	c #FFD8EF",
"B 	c #FFDDF1",
"C 	c #A4EA8E",
"D 	c #84E45B",
"E 	c #9ED976",
"F 	c #DBC0B9",
"G 	c #E7F8E2",
"H 	c #A7E890",
"I 	c #83E357",
"J 	c #98E87C",
"K 	c #E0F6D9",
"L 	c #FFE1F2",
"M 	c #FFD6EE",
"N 	c #FFCCEA",
"O 	c #E7F9E3",
"P 	c #9EE986",
"Q 	c #86DF56",
"R 	c #BBC892",
"S 	c #DFBCBD",
"T 	c #F8EAED",
"U 	c #BEEAAE",
"V 	c #A1D97A",
"W 	c #8DC16C",
"X 	c #91B885",
"Y 	c #A8ABA6",
"Z 	c #AEA1A8",
"` 	c #AE92A2",
" .	c #AE9CA6",
"..	c #AEACAD",
"+.	c #AEAEAE",
"@.	c #AEADAE",
"#.	c #AEA3A9",
"$.	c #AE8EA1",
"%.	c #AE95A4",
"&.	c #AEAAAD",
"*.	c #BDB8BB",
"=.	c #CDBBC5",
"-.	c #E9C8DB",
";.	c #F4CDE3",
">.	c #FFCDEA",
",.	c #FFCAE9",
"'.	c #FFD0EB",
").	c #FFE2F3",
"!.	c #FFCEEA",
"~.	c #BBEFAC",
"{.	c #8BE465",
"].	c #9BD56D",
"^.	c #CFB8A5",
"/.	c #DDCFC3",
"(.	c #E1E1E1",
"_.	c #93A98C",
":.	c #536E3F",
"<.	c #4D533A",
"[.	c #4B543F",
"}.	c #42463F",
"|.	c #494748",
"1.	c #493F44",
"2.	c #493D43",
"3.	c #494547",
"4.	c #494848",
"5.	c #494647",
"6.	c #494145",
"7.	c #494045",
"8.	c #5B4D55",
"9.	c #5B4652",
"0.	c #6D5563",
"a.	c #836978",
"b.	c #8A7280",
"c.	c #99828F",
"d.	c #AE9AA6",
"e.	c #E1D2DA",
"f.	c #F2D7DF",
"g.	c #E8F3E1",
"h.	c #FCE8F1",
"i.	c #A9EB94",
"j.	c #96E070",
"k.	c #B7C388",
"l.	c #C9B7A5",
"m.	c #B2B5AB",
"n.	c #ABABAB",
"o.	c #838282",
"p.	c #453F42",
"q.	c #271D22",
"r.	c #0D0809",
"s.	c #373636",
"t.	c #383536",
"u.	c #3B3137",
"v.	c #242022",
"w.	c #232122",
"x.	c #282627",
"y.	c #262425",
"z.	c #353334",
"A.	c #6D6A6B",
"B.	c #83727C",
"C.	c #B398A7",
"D.	c #E1D6DC",
"E.	c #CBD7B1",
"F.	c #A1E283",
"G.	c #B1E097",
"H.	c #F3D7E0",
"I.	c #FFC8E8",
"J.	c #FFE2F2",
"K.	c #F4F4F4",
"L.	c #CFD5CE",
"M.	c #779C6A",
"N.	c #536D3D",
"O.	c #4D543A",
"P.	c #4D5247",
"Q.	c #383436",
"R.	c #3C3037",
"S.	c #4E3945",
"T.	c #51464C",
"U.	c #5D5B5C",
"V.	c #706E6F",
"W.	c #888285",
"X.	c #8C7E86",
"Y.	c #8D7D86",
"Z.	c #8D7C86",
"`.	c #8A8085",
" +	c #868485",
".+	c #878485",
"++	c #858585",
"@+	c #787878",
"#+	c #6C6C6C",
"$+	c #5A5A5A",
"%+	c #535252",
"&+	c #454445",
"*+	c #1D1B1C",
"=+	c #231C1F",
"-+	c #3B3538",
";+	c #8A8A8A",
">+	c #C6C5C5",
",+	c #A6E78E",
"'+	c #7EE44F",
")+	c #91E46E",
"!+	c #E7F1DF",
"~+	c #F4EBF0",
"{+	c #D7D0D4",
"]+	c #BDB0B7",
"^+	c #AE9FA8",
"/+	c #AEA7AB",
"(+	c #AEA9AC",
"_+	c #AEA0A8",
":+	c #737373",
"<+	c #676767",
"[+	c #777676",
"}+	c #807F7F",
"|+	c #A2A1A1",
"1+	c #CBCBCB",
"2+	c #B3B3B3",
"3+	c #838383",
"4+	c #6D6C6C",
"5+	c #5B5B5B",
"6+	c #242122",
"7+	c #464445",
"8+	c #473D42",
"9+	c #876679",
"0+	c #B295A6",
"a+	c #BEB8BB",
"b+	c #C4C4C4",
"c+	c #C6C2C4",
"d+	c #D0B6C5",
"e+	c #DAA9C6",
"f+	c #DCA5C6",
"g+	c #DBA7C6",
"h+	c #D1B5C5",
"i+	c #C5C3C4",
"j+	c #C8C0C4",
"k+	c #CEB8C5",
"l+	c #CFB8C5",
"m+	c #C7C0C4",
"n+	c #BBBBBB",
"o+	c #A5A5A5",
"p+	c #7F7F7F",
"q+	c #757575",
"r+	c #616161",
"s+	c #3C3A3B",
"t+	c #1E1B1C",
"u+	c #120F0F",
"v+	c #2A2929",
"w+	c #797979",
"x+	c #E1E0E0",
"y+	c #F0EEEF",
"z+	c #9CE086",
"A+	c #69C042",
"B+	c #65AA4A",
"C+	c #83967D",
"D+	c #636162",
"E+	c #493B43",
"F+	c #424640",
"G+	c #353434",
"H+	c #1C1A1A",
"I+	c #1A1818",
"J+	c #2E2D2D",
"K+	c #D7D7D7",
"L+	c #4F4E4E",
"M+	c #858082",
"N+	c #B197A6",
"O+	c #BC99AD",
"P+	c #CABEC4",
"Q+	c #C7C1C4",
"R+	c #D2B4C5",
"S+	c #DBA8C6",
"T+	c #D5AFC5",
"U+	c #CDBAC5",
"V+	c #C9BFC4",
"W+	c #D4B1C5",
"X+	c #D5B0C5",
"Y+	c #CABDC4",
"Z+	c #919090",
"`+	c #575757",
" @	c #2C2B2B",
".@	c #585757",
"+@	c #9E9A9C",
"@@	c #D2C5CC",
"#@	c #DFD0D8",
"$@	c #ACA8AA",
"%@	c #5B7752",
"&@	c #2F5120",
"*@	c #26401A",
"=@	c #394435",
"-@	c #3A3237",
";@	c #3E2D37",
">@	c #3E2E37",
",@	c #3A3437",
"'@	c #656464",
")@	c #C6C6C6",
"!@	c #919191",
"~@	c #474245",
"{@	c #564E52",
"]@	c #646363",
"^@	c #A6A4A5",
"/@	c #C1B5BB",
"(@	c #C9BEC4",
"_@	c #CBBCC5",
":@	c #D6AFC5",
"<@	c #DDA4C6",
"[@	c #D9ABC6",
"}@	c #6A696A",
"|@	c #525151",
"1@	c #424141",
"2@	c #535051",
"3@	c #4B4247",
"4@	c #32282D",
"5@	c #221C1E",
"6@	c #141C0E",
"7@	c #233C18",
"8@	c #4B4A4B",
"9@	c #7B7578",
"0@	c #937586",
"a@	c #976E87",
"b@	c #8F7986",
"c@	c #9D9D9D",
"d@	c #6E6D6D",
"e@	c #323131",
"f@	c #343333",
"g@	c #A6A5A5",
"h@	c #7B7478",
"i@	c #CAAABC",
"j@	c #D3B3C5",
"k@	c #D6AEC5",
"l@	c #C8BFC4",
"m@	c #D1B4C5",
"n@	c #D3B2C5",
"o@	c #CBBCC4",
"p@	c #ACACAC",
"q@	c #7E7E7E",
"r@	c #5C5C5C",
"s@	c #0D0820",
"t@	c #0D081B",
"u@	c #10081B",
"v@	c #10080F",
"w@	c #232D18",
"x@	c #345425",
"y@	c #7A7979",
"z@	c #BCBABB",
"A@	c #D9AAC6",
"B@	c #696969",
"C@	c #3C3B3B",
"D@	c #A7A3A5",
"E@	c #C8AEBC",
"F@	c #DCA6C6",
"G@	c #E09FC6",
"H@	c #C6C1C4",
"I@	c #D8ACC5",
"J@	c #D7ADC5",
"K@	c #CDB9C5",
"L@	c #D59ABD",
"M@	c #B592A6",
"N@	c #0D0834",
"O@	c #0D0817",
"P@	c #0D0825",
"Q@	c #0C0748",
"R@	c #0E0747",
"S@	c #110831",
"T@	c #1A092C",
"U@	c #260C2E",
"V@	c #1D0A21",
"W@	c #250B35",
"X@	c #554F52",
"Y@	c #807D7E",
"Z@	c #B3A5AC",
"`@	c #908F8F",
" #	c #4C4C4C",
".#	c #585758",
"+#	c #302F2F",
"@#	c #6F6F6F",
"##	c #979797",
"$#	c #D9ABC5",
"%#	c #DAA8C6",
"&#	c #CFB7C5",
"*#	c #E19EC6",
"=#	c #CBBDC4",
"-#	c #EA8DC7",
";#	c #C8ADBC",
">#	c #B690A6",
",#	c #9E8191",
"'#	c #79636F",
")#	c #694A5D",
"!#	c #4C3D45",
"~#	c #0D0734",
"{#	c #0C074F",
"]#	c #0C0754",
"^#	c #0C0665",
"/#	c #0B057A",
"(#	c #0A039F",
"_#	c #0901B5",
":#	c #1A02BD",
"<#	c #360AB5",
"[#	c #4E1491",
"}#	c #51176B",
"|#	c #310E3A",
"1#	c #1B0A21",
"2#	c #230B40",
"3#	c #87747F",
"4#	c #C48CAE",
"5#	c #D8ABC5",
"6#	c #BCBBBB",
"7#	c #262525",
"8#	c #DEA2C6",
"9#	c #DEA3C6",
"0#	c #C0B6BB",
"a#	c #AF9AA6",
"b#	c #A07E92",
"c#	c #9C6687",
"d#	c #A45687",
"e#	c #8F587A",
"f#	c #6A5C64",
"g#	c #545152",
"h#	c #474345",
"i#	c #3A3337",
"j#	c #260C35",
"k#	c #180921",
"l#	c #0D0742",
"m#	c #0C0658",
"n#	c #0902A6",
"o#	c #0800BD",
"p#	c #2504BD",
"q#	c #460FBE",
"r#	c #6319BE",
"s#	c #8325C0",
"t#	c #952BC1",
"u#	c #7320A9",
"v#	c #541685",
"w#	c #4B1562",
"x#	c #250B32",
"y#	c #78556A",
"z#	c #BB9AAD",
"A#	c #D4B2C5",
"B#	c #CCBBC5",
"C#	c #605F5F",
"D#	c #565656",
"E#	c #D4D4D4",
"F#	c #434242",
"G#	c #BA9CAD",
"H#	c #A28B98",
"I#	c #8E7C86",
"J#	c #7F7079",
"K#	c #6F686C",
"L#	c #5D575A",
"M#	c #5A4953",
"N#	c #503645",
"O#	c #402A37",
"P#	c #3F2C37",
"Q#	c #402B37",
"R#	c #2A0D35",
"S#	c #150834",
"T#	c #260B35",
"U#	c #481451",
"V#	c #3A1061",
"W#	c #0B057E",
"X#	c #2003BD",
"Y#	c #4C11BE",
"Z#	c #731FBF",
"`#	c #962BC1",
" $	c #AF34C2",
".$	c #B737C3",
"+$	c #A731C2",
"@$	c #7520BF",
"#$	c #2D06BD",
"$$	c #410FA7",
"%$	c #390F6C",
"&$	c #1B0A23",
"*$	c #88737F",
"=$	c #BDB9BB",
"-$	c #BDBDBD",
";$	c #B4B2B3",
">$	c #9F9B9D",
",$	c #656263",
"'$	c #110820",
")$	c #1A0A21",
"!$	c #1D0A35",
"~$	c #1A0934",
"{$	c #0E0660",
"]$	c #240974",
"^$	c #591793",
"/$	c #7D23A9",
"($	c #5C17BE",
"_$	c #4A11BE",
":$	c #8B27C0",
"<$	c #B436C2",
"[$	c #B536C3",
"}$	c #A12FC1",
"|$	c #7D23BF",
"1$	c #1301BD",
"2$	c #370D93",
"3$	c #42125D",
"4$	c #1D0A1E",
"5$	c #584C53",
"6$	c #959595",
"7$	c #C2B4BC",
"8$	c #0F074F",
"9$	c #0B0574",
"0$	c #0B0580",
"a$	c #130580",
"b$	c #14058B",
"c$	c #3408BD",
"d$	c #440EBE",
"e$	c #7F23C0",
"f$	c #8E28C0",
"g$	c #681BBF",
"h$	c #3709BD",
"i$	c #5514BE",
"j$	c #681D92",
"k$	c #401251",
"l$	c #130920",
"m$	c #B0A9AC",
"n$	c #AEABAC",
"o$	c #86757F",
"p$	c #65515C",
"q$	c #4A3F45",
"r$	c #150934",
"s$	c #0E0820",
"t$	c #0C066B",
"u$	c #0B048B",
"v$	c #0A0398",
"w$	c #0901AD",
"x$	c #390ABD",
"y$	c #711EBF",
"z$	c #8626B7",
"A$	c #4A147B",
"B$	c #110834",
"C$	c #110839",
"D$	c #84787F",
"E$	c #D0B7C5",
"F$	c #6A6869",
"G$	c #A6A6A6",
"H$	c #7C7C7C",
"I$	c #232320",
"J$	c #1F0A39",
"K$	c #1C0A21",
"L$	c #220A48",
"M$	c #170856",
"N$	c #0F0668",
"O$	c #17049F",
"P$	c #2E07B5",
"Q$	c #3007BD",
"R$	c #8F29C0",
"S$	c #942BC1",
"T$	c #5516A7",
"U$	c #100758",
"V$	c #61565C",
"W$	c #C193AE",
"X$	c #787275",
"Y$	c #999999",
"Z$	c #9C9B9C",
"`$	c #727171",
" %	c #270B4F",
".%	c #431261",
"+%	c #671D80",
"@%	c #7822A1",
"#%	c #6A1DB6",
"$%	c #410DBE",
"%%	c #6F1EBF",
"&%	c #6A1CBF",
"*%	c #3C0BBE",
"=%	c #7C22BF",
"-%	c #9A2DC1",
";%	c #8224C0",
">%	c #0F073F",
",%	c #180934",
"'%	c #8C6E7F",
")%	c #C290AE",
"!%	c #CEB9C5",
"~%	c #84797F",
"{%	c #201E1F",
"]%	c #171314",
"^%	c #3F3E3E",
"/%	c #0D081E",
"(%	c #1704A6",
"_%	c #9B2DC1",
":%	c #992DC1",
"<%	c #5013BE",
"[%	c #5916BE",
"}%	c #932AC1",
"|%	c #0803BD",
"1%	c #0806BD",
"2%	c #080DBD",
"3%	c #080FBC",
"4%	c #0814BC",
"5%	c #0816BC",
"6%	c #0819BC",
"7%	c #081ABC",
"8%	c #081BBC",
"9%	c #0818BC",
"0%	c #0812BC",
"a%	c #080ABD",
"b%	c #5715BE",
"c%	c #9029C0",
"d%	c #6119BE",
"e%	c #120834",
"f%	c #280C40",
"g%	c #AD9BA6",
"h%	c #5B5A5B",
"i%	c #5B595A",
"j%	c #898889",
"k%	c #5F5E5E",
"l%	c #414041",
"m%	c #0D080F",
"n%	c #0C0663",
"o%	c #10048F",
"p%	c #2B06B5",
"q%	c #6018BE",
"r%	c #7E23C0",
"s%	c #8C28C0",
"t%	c #8E29C0",
"u%	c #721FBF",
"v%	c #B235C2",
"w%	c #9C2DC1",
"x%	c #0809BD",
"y%	c #080EBC",
"z%	c #0820BB",
"A%	c #092CBA",
"B%	c #0938B8",
"C%	c #0A46B6",
"D%	c #0A4DB4",
"E%	c #0B56B2",
"F%	c #0B58B1",
"G%	c #0B5BB0",
"H%	c #0C5BB0",
"I%	c #0B52B3",
"J%	c #0A47B6",
"K%	c #0A3EB7",
"L%	c #092BBA",
"M%	c #5E1CBE",
"N%	c #8B28C0",
"O%	c #7821BF",
"P%	c #60575C",
"Q%	c #B3A6AC",
"R%	c #D2B3C5",
"S%	c #D1B6C5",
"T%	c #929292",
"U%	c #8F8F8F",
"V%	c #918D8F",
"W%	c #CEB2C2",
"X%	c #D7AEC5",
"Y%	c #C4B2BC",
"Z%	c #636363",
"`%	c #5B5759",
" &	c #251F22",
".&	c #635F61",
"+&	c #0F066F",
"@&	c #2C07AD",
"#&	c #701EBF",
"$&	c #9F2FC1",
"%&	c #A531C2",
"&&	c #8425C0",
"*&	c #5615BE",
"=&	c #7620BF",
"-&	c #7B22BF",
";&	c #922AC0",
">&	c #0801BD",
",&	c #081EBB",
"'&	c #0A3FB7",
")&	c #0A4AB5",
"!&	c #0B57B1",
"~&	c #0C64AE",
"{&	c #0D6EAA",
"]&	c #0E76A6",
"^&	c #0F849F",
"/&	c #119297",
"(&	c #119595",
"_&	c #119793",
":&	c #119496",
"<&	c #129595",
"[&	c #139793",
"}&	c #139496",
"|&	c #149595",
"1&	c #159793",
"2&	c #149496",
"3&	c #149893",
"4&	c #139595",
"5&	c #128A9C",
"6&	c #0F76A6",
"7&	c #0D5FAF",
"8&	c #4430BB",
"9&	c #6029BD",
"0&	c #481DBD",
"a&	c #1310BC",
"b&	c #0807BD",
"c&	c #150674",
"d&	c #0F0834",
"e&	c #262424",
"f&	c #AFA7AB",
"g&	c #A5A9A4",
"h&	c #4D4E45",
"i&	c #271C22",
"j&	c #675961",
"k&	c #4D4D4D",
"l&	c #0D073F",
"m&	c #2506AA",
"n&	c #661ABF",
"o&	c #AA32C2",
"p&	c #A230C1",
"q&	c #7A21BF",
"r&	c #B537C3",
"s&	c #882AC0",
"t&	c #0924BB",
"u&	c #0A48B5",
"v&	c #0C5FAF",
"w&	c #0D6CAA",
"x&	c #0F7EA3",
"y&	c #109098",
"z&	c #129F8E",
"A&	c #13A687",
"B&	c #14AD80",
"C&	c #15B37B",
"D&	c #16B676",
"E&	c #17B874",
"F&	c #18B677",
"G&	c #19B974",
"H&	c #1AB678",
"I&	c #1CB875",
"J&	c #1FB678",
"K&	c #21B974",
"L&	c #24B678",
"M&	c #25B875",
"N&	c #26B678",
"O&	c #25B975",
"P&	c #20BA73",
"Q&	c #1EB677",
"R&	c #1DA787",
"S&	c #179C90",
"T&	c #148A9C",
"U&	c #117AA4",
"V&	c #1D68AC",
"W&	c #2657B2",
"X&	c #1B48B5",
"Y&	c #0934B9",
"Z&	c #1A0FBD",
"`&	c #4110BE",
" *	c #4912A0",
".*	c #1C0948",
"+*	c #647B5D",
"@*	c #CBDBC7",
"#*	c #3E4B30",
"$*	c #281B22",
"%*	c #6C5461",
"&*	c #0C0749",
"**	c #A430C1",
"=*	c #8024C0",
"-*	c #2D09BD",
";*	c #7321BF",
">*	c #A636C1",
",*	c #7538BC",
"'*	c #0B57B2",
")*	c #0D72A8",
"!*	c #119A92",
"~*	c #14AF7F",
"{*	c #15B974",
"]*	c #16BB71",
"^*	c #17BC6F",
"/*	c #18B875",
"(*	c #19BB71",
"_*	c #1AC463",
":*	c #1CC465",
"<*	c #24B777",
"[*	c #27B875",
"}*	c #2CB679",
"|*	c #30B976",
"1*	c #36B67A",
"2*	c #36B878",
"3*	c #3CB67B",
"4*	c #3EB978",
"5*	c #44B67C",
"6*	c #43B879",
"7*	c #45B67C",
"8*	c #42B978",
"9*	c #43B67B",
"0*	c #3BBA76",
"a*	c #36BB74",
"b*	c #28C466",
"c*	c #23B17D",
"d*	c #1EAC82",
"e*	c #18A589",
"f*	c #159595",
"g*	c #127DA3",
"h*	c #0D5BB1",
"i*	c #0A45B6",
"j*	c #2527BB",
"k*	c #5C21BD",
"l*	c #7E28B6",
"m*	c #421261",
"n*	c #4C494B",
"o*	c #515050",
"p*	c #444343",
"q*	c #2C4621",
"r*	c #90B985",
"s*	c #314D1F",
"t*	c #6E5062",
"u*	c #2905BD",
"v*	c #5B16BE",
"w*	c #6C1DBF",
"x*	c #5213BE",
"y*	c #200FBD",
"z*	c #522ABC",
"A*	c #793CBC",
"B*	c #4F61B0",
"C*	c #0E7DA3",
"D*	c #119695",
"E*	c #13A985",
"F*	c #18CA58",
"G*	c #18CB56",
"H*	c #1BC562",
"I*	c #22BC70",
"J*	c #30AF81",
"K*	c #37AD83",
"L*	c #3CAC85",
"M*	c #45A68B",
"N*	c #4EA093",
"O*	c #5C959D",
"P*	c #61989C",
"Q*	c #68959F",
"R*	c #69989D",
"S*	c #7095A0",
"T*	c #71989E",
"U*	c #7695A2",
"V*	c #75989F",
"W*	c #7895A2",
"X*	c #7798A0",
"Y*	c #7795A2",
"Z*	c #75999E",
"`*	c #729A9E",
" =	c #63A493",
".=	c #57AA8B",
"+=	c #39BA76",
"@=	c #2FBC72",
"#=	c #26C16A",
"$=	c #21BD6F",
"%=	c #1EA985",
"&=	c #199496",
"*=	c #156EAA",
"==	c #1F56B2",
"-=	c #4F51B5",
";=	c #7E3DBC",
">=	c #692485",
",=	c #270D35",
"'=	c #1F0A35",
")=	c #5B9D41",
"!=	c #305021",
"~=	c #261E22",
"{=	c #6F5062",
"]=	c #132ABA",
"^=	c #2044B6",
"/=	c #3462AF",
"(=	c #1D849F",
"_=	c #14B17C",
":=	c #16C06A",
"<=	c #17C85C",
"[=	c #19C563",
"}=	c #1EC463",
"|=	c #26BD6F",
"1=	c #35B080",
"2=	c #4B9C95",
"3=	c #628CA3",
"4=	c #777CAF",
"5=	c #8271B6",
"6=	c #866CB8",
"7=	c #8967BC",
"8=	c #8F62BE",
"9=	c #995AC3",
"0=	c #945DC1",
"a=	c #965AC2",
"b=	c #9B5DC2",
"c=	c #A05AC5",
"d=	c #995DC2",
"e=	c #9A5AC3",
"f=	c #9C5AC3",
"g=	c #995EC2",
"h=	c #9A66C0",
"i=	c #956ABD",
"j=	c #897FB2",
"k=	c #7D90A6",
"l=	c #6B9F98",
"m=	c #5AA98D",
"n=	c #47B47F",
"o=	c #38BD71",
"p=	c #2DC269",
"q=	c #2FB17E",
"r=	c #2AA788",
"s=	c #22A28C",
"t=	c #35869E",
"u=	c #616DAD",
"v=	c #6E4BA1",
"w=	c #43165A",
"x=	c #63535C",
"y=	c #508D36",
"z=	c #3D5335",
"A=	c #6D5262",
"B=	c #DDA5C6",
"C=	c #0926BB",
"D=	c #0A43B6",
"E=	c #0B5AB1",
"F=	c #0E75A7",
"G=	c #15AF7F",
"H=	c #18C069",
"I=	c #18D04B",
"J=	c #1EC06A",
"K=	c #29B07E",
"L=	c #3E9F91",
"M=	c #598FA0",
"N=	c #737AAF",
"O=	c #8766BB",
"P=	c #9653C3",
"Q=	c #A143C9",
"R=	c #AA36CE",
"S=	c #A430CD",
"T=	c #A12ECD",
"U=	c #A82ECF",
"V=	c #A22ECD",
"W=	c #9E2DCD",
"X=	c #9C2FCC",
"Y=	c #9A2DCC",
"Z=	c #942DCA",
"`=	c #912BCA",
" -	c #8F2AC9",
".-	c #8F27C9",
"+-	c #8F26CA",
"@-	c #8F24CA",
"#-	c #9026C9",
"$-	c #9527CB",
"%-	c #9F39CC",
"&-	c #9B47C8",
"*-	c #9E55C6",
"=-	c #9A64C0",
"--	c #8D78B6",
";-	c #7D8BA9",
">-	c #6D9D9B",
",-	c #66A097",
"'-	c #52AB89",
")-	c #2CCA5B",
"!-	c #2AC761",
"~-	c #4EB779",
"{-	c #829999",
"]-	c #8168B1",
"^-	c #3C2B66",
"/-	c #271034",
"(-	c #3D2E36",
"_-	c #A48797",
":-	c #5F7A57",
"<-	c #90E770",
"[-	c #79E446",
"}-	c #93E875",
"|-	c #4C5749",
"1-	c #695761",
"2-	c #4D4B4C",
"3-	c #0D68AC",
"4-	c #108E9A",
"5-	c #16BA72",
"6-	c #17BF6B",
"7-	c #1FBF6C",
"8-	c #2EB080",
"9-	c #3AA889",
"0-	c #5B7FA9",
"a-	c #7861BA",
"b-	c #9050C3",
"c-	c #9E43C9",
"d-	c #A434CC",
"e-	c #A82FCF",
"f-	c #A52CCD",
"g-	c #982DCB",
"h-	c #913EC7",
"i-	c #8E49C4",
"j-	c #874FC1",
"k-	c #8455BF",
"l-	c #795DBB",
"m-	c #745BBA",
"n-	c #6A5AB9",
"o-	c #6258B8",
"p-	c #5C57B7",
"q-	c #5B4EBA",
"r-	c #5A43BC",
"s-	c #5B38BE",
"t-	c #5C2EC0",
"u-	c #6123C1",
"v-	c #7123C5",
"w-	c #7A22C6",
"x-	c #8924C8",
"y-	c #8F26C9",
"z-	c #9831CA",
"A-	c #9D43C9",
"B-	c #9E54C6",
"C-	c #9B59C4",
"D-	c #9568BE",
"E-	c #7F96A3",
"F-	c #5FB087",
"G-	c #3BCA5D",
"H-	c #5CC95F",
"I-	c #A79A9D",
"J-	c #B182AC",
"K-	c #655587",
"L-	c #281C35",
"M-	c #271733",
"N-	c #79616D",
"O-	c #CCA7BC",
"P-	c #ADEC9B",
"Q-	c #7EE552",
"R-	c #7CE44C",
"S-	c #665C61",
"T-	c #CCBCC5",
"U-	c #5F595C",
"V-	c #0E0749",
"W-	c #0925BB",
"X-	c #0A42B6",
"Y-	c #0C68AC",
"Z-	c #14B17D",
"`-	c #16C463",
" ;	c #17C464",
".;	c #20B479",
"+;	c #369796",
"@;	c #5C7AAC",
"#;	c #7F63BA",
"$;	c #8E5AC0",
"%;	c #A137CC",
"&;	c #A331CD",
"*;	c #A03ECA",
"=;	c #9350C4",
"-;	c #885ABF",
";;	c #7869B7",
">;	c #696EB2",
",;	c #5975AD",
"';	c #4F86A3",
");	c #47929B",
"!;	c #419797",
"~;	c #3F9598",
"{;	c #359697",
"];	c #2F9696",
"^;	c #289894",
"/;	c #239596",
"(;	c #1F8E9A",
"_;	c #1F82A1",
":;	c #1F76A7",
"<;	c #216CAC",
"[;	c #2F67AE",
"};	c #365DB2",
"|;	c #4454B5",
"1;	c #4F4AB9",
"2;	c #5E3FBD",
"3;	c #7032C3",
"4;	c #822CC6",
"5;	c #8C26C9",
"6;	c #9628CB",
"7;	c #964AC6",
"8;	c #9962C0",
"9;	c #9290AB",
"0;	c #73B18A",
"a;	c #84B188",
"b;	c #B0A596",
"c;	c #D278B6",
"d;	c #A57299",
"e;	c #4D4553",
"f;	c #16131D",
"g;	c #534E4F",
"h;	c #AF98A4",
"i;	c #B9D6B1",
"j;	c #80E555",
"k;	c #5B585A",
"l;	c #78636F",
"m;	c #190934",
"n;	c #0E0834",
"o;	c #0A0492",
"p;	c #0939B8",
"q;	c #0C63AE",
"r;	c #108C9B",
"s;	c #14B07E",
"t;	c #16BF6A",
"u;	c #17BB71",
"v;	c #1CA985",
"w;	c #348F9B",
"x;	c #5E6AB2",
"y;	c #824CC1",
"z;	c #A23BCB",
"A;	c #AD3FCE",
"B;	c #9C4DC7",
"C;	c #8D59C1",
"D;	c #796BB6",
"E;	c #6285A7",
"F;	c #489A96",
"G;	c #39A38D",
"H;	c #2EAD83",
"I;	c #27AA85",
"J;	c #1DB07F",
"K;	c #1BBB71",
"L;	c #1BBA73",
"M;	c #1AB479",
"N;	c #1AB37A",
"O;	c #18BB71",
"P;	c #18BA72",
"Q;	c #17B677",
"R;	c #16B479",
"S;	c #15B17C",
"T;	c #15AB83",
"U;	c #15A787",
"V;	c #159F8E",
"W;	c #179992",
"X;	c #189297",
"Y;	c #1E8A9D",
"Z;	c #2B7AA6",
"`;	c #3B68AF",
" >	c #4856B6",
".>	c #5847BB",
"+>	c #6837C1",
"@>	c #7A25C5",
"#>	c #8E44C5",
"$>	c #A164C0",
"%>	c #BC6CC0",
"&>	c #BB82B2",
"*>	c #C57CB4",
"=>	c #D676B7",
"->	c #C783AF",
";>	c #5B6A62",
">>	c #162729",
",>	c #101831",
"'>	c #848081",
")>	c #E0A0C6",
"!>	c #927686",
"~>	c #393436",
"{>	c #0B50B3",
"]>	c #0F81A1",
"^>	c #13AB82",
"/>	c #15BD6E",
"(>	c #17B578",
"_>	c #1B9595",
":>	c #3775A9",
"<>	c #545BB5",
"[>	c #7E47C2",
"}>	c #A13ACB",
"|>	c #9E61C1",
"1>	c #8B6BBB",
"2>	c #7682AC",
"3>	c #559899",
"4>	c #3CA988",
"5>	c #2EAF81",
"6>	c #24BA73",
"7>	c #1EC465",
"8>	c #20BD6F",
"9>	c #20C366",
"0>	c #22BD6F",
"a>	c #25BB71",
"b>	c #25BA73",
"c>	c #26B47A",
"d>	c #26B37B",
"e>	c #25BB72",
"f>	c #25B678",
"g>	c #25B876",
"h>	c #22BF6D",
"i>	c #1EC365",
"j>	c #1DBC70",
"k>	c #18B874",
"l>	c #16B17C",
"m>	c #17AC81",
"n>	c #17A489",
"o>	c #1C9298",
"p>	c #2578A6",
"q>	c #3451B5",
"r>	c #4B38BD",
"s>	c #6728C2",
"t>	c #A530C9",
"u>	c #BF4BC8",
"v>	c #CD4CCA",
"w>	c #C455C7",
"x>	c #C26ABC",
"y>	c #C37DB2",
"z>	c #6C8C77",
"A>	c #15413B",
"B>	c #0D111D",
"C>	c #626361",
"D>	c #777576",
"E>	c #B5B1B3",
"F>	c #878285",
"G>	c #2006BD",
"H>	c #0936B9",
"I>	c #129E8E",
"J>	c #15BA72",
"K>	c #16B874",
"L>	c #1C9695",
"M>	c #406BAE",
"N>	c #5B47BC",
"O>	c #832EC6",
"P>	c #9C27CC",
"Q>	c #A63FCB",
"R>	c #8270B7",
"S>	c #4DAC88",
"T>	c #35B778",
"U>	c #27C564",
"V>	c #24C06B",
"W>	c #27BD6F",
"X>	c #2CBA74",
"Y>	c #38B37D",
"Z>	c #43B082",
"`>	c #4CAA8A",
" ,	c #4EA88C",
".,	c #559D96",
"+,	c #57989A",
"@,	c #59959C",
"#,	c #57969B",
"$,	c #59969B",
"%,	c #579999",
"&,	c #549D96",
"*,	c #51A58F",
"=,	c #48AA89",
"-,	c #3EAF83",
";,	c #35B27E",
">,	c #2EB876",
",,	c #24B875",
"',	c #1EBA73",
"),	c #1ABC70",
"!,	c #18C168",
"~,	c #17BD6E",
"{,	c #16A08D",
"],	c #167FA2",
"^,	c #1D5BB1",
"/,	c #4E46BA",
"(,	c #6E28C1",
"_,	c #932AC5",
":,	c #A426CB",
"<,	c #AF36CE",
"[,	c #B458C6",
"},	c #C376B7",
"|,	c #9F82A1",
"1,	c #2B5D5A",
"2,	c #0E202D",
"3,	c #3A3A39",
"4,	c #8C8589",
"5,	c #8E878B",
"6,	c #A3979E",
"7,	c #170680",
"8,	c #4C17BE",
"9,	c #1A26BB",
"0,	c #0B51B3",
"a,	c #0F83A0",
"b,	c #14AE80",
"c,	c #17C661",
"d,	c #17AA84",
"e,	c #2B76A7",
"f,	c #5546BB",
"g,	c #8A2BC8",
"h,	c #A41BCF",
"i,	c #B124D2",
"j,	c #9154C2",
"k,	c #5D88A5",
"l,	c #2DBB73",
"m,	c #1BD343",
"n,	c #26C85E",
"o,	c #37B37D",
"p,	c #4CA58E",
"q,	c #64989C",
"r,	c #728BA7",
"s,	c #827DB1",
"t,	c #8B72B8",
"u,	c #8E6BBB",
"v,	c #8B68BB",
"w,	c #8E5EBF",
"x,	c #915EC0",
"y,	c #935CC0",
"z,	c #8F5BC0",
"A,	c #8E5CC0",
"B,	c #9067BC",
"C,	c #8A6ABA",
"D,	c #8773B6",
"E,	c #7C7EB0",
"F,	c #728CA6",
"G,	c #60939E",
"H,	c #519A98",
"I,	c #439F91",
"J,	c #35A988",
"K,	c #29B57A",
"L,	c #1EC168",
"M,	c #18C464",
"N,	c #16AD81",
"O,	c #189694",
"P,	c #1A68AC",
"Q,	c #3554B4",
"R,	c #4B1EC0",
"S,	c #6B0CC5",
"T,	c #8E1DCB",
"U,	c #AB4BCA",
"V,	c #BF6EBD",
"W,	c #B789AB",
"X,	c #5A857D",
"Y,	c #192D3F",
"Z,	c #0E0E1F",
"`,	c #665F62",
" '	c #CEA3BC",
".'	c #ABA1A6",
"+'	c #8B7983",
"@'	c #210880",
"#'	c #8029BF",
"$'	c #3740B8",
"%'	c #0D6AAB",
"&'	c #12A18C",
"*'	c #16C069",
"='	c #1E9993",
"-'	c #435BB3",
";'	c #702DC3",
">'	c #9E1ACD",
",'	c #B619D4",
"''	c #AE25D1",
")'	c #825DBC",
"!'	c #3CA38E",
"~'	c #22C75F",
"{'	c #27C95C",
"]'	c #45BC75",
"^'	c #7292A3",
"/'	c #8C6EB9",
"('	c #975DC1",
"_'	c #A150C7",
":'	c #A141CA",
"<'	c #A935CE",
"['	c #A72BCF",
"}'	c #A228CE",
"|'	c #9F27CD",
"1'	c #AA26CF",
"2'	c #A825D0",
"3'	c #A324CF",
"4'	c #A025CD",
"5'	c #A928CF",
"6'	c #A72ACF",
"7'	c #9E36CB",
"8'	c #AA44CC",
"9'	c #9257C2",
"0'	c #8C5FBF",
"a'	c #8269B9",
"b'	c #7278B0",
"c'	c #588DA1",
"d'	c #38A789",
"e'	c #23C365",
"f'	c #1ACF4F",
"g'	c #1AB776",
"h'	c #18A48A",
"i'	c #1668AC",
"j'	c #2B26BC",
"k'	c #4714BF",
"l'	c #7115C5",
"m'	c #9738C9",
"n'	c #AE6FBC",
"o'	c #AE8CAB",
"p'	c #7C9793",
"q'	c #224A4D",
"r'	c #11121D",
"s'	c #504349",
"t'	c #B88CA7",
"u'	c #9E9D9D",
"v'	c #D7D1D4",
"w'	c #685F64",
"x'	c #D0A1BD",
"y'	c #1F0780",
"z'	c #A733C2",
"A'	c #9B39BF",
"B'	c #5251B5",
"C'	c #108A9C",
"D'	c #14B479",
"E'	c #17C75F",
"F'	c #18A985",
"G'	c #387DA6",
"H'	c #5B4DBA",
"I'	c #8E1ECA",
"J'	c #AC17D2",
"K'	c #AE16D2",
"L'	c #6C68B5",
"M'	c #33AC84",
"N'	c #20CA59",
"O'	c #44B37F",
"P'	c #7993A4",
"Q'	c #9E70BD",
"R'	c #AE40CD",
"S'	c #A529CE",
"T'	c #9D20CD",
"U'	c #981BCC",
"V'	c #9316CC",
"W'	c #9212CC",
"X'	c #8F10CB",
"Y'	c #9010CB",
"Z'	c #9210CC",
"`'	c #9211CC",
" )	c #8F13CB",
".)	c #9417CC",
"+)	c #961ACB",
"@)	c #A31FCF",
"#)	c #A322CF",
"$)	c #A427CE",
"%)	c #A632CE",
"&)	c #A043C9",
"*)	c #8C59C0",
"=)	c #6E81AB",
"-)	c #46AD86",
";)	c #28C95D",
">)	c #1CD246",
",)	c #19B973",
"')	c #157DA3",
"))	c #1551B3",
"!)	c #3116BE",
"~)	c #520CC1",
"{)	c #7E34C5",
"])	c #9C60C1",
"^)	c #A08DAE",
"/)	c #6CB088",
"()	c #367A5A",
"_)	c #22222E",
":)	c #2D1334",
"<)	c #826C79",
"[)	c #8E8E8E",
"})	c #F4F2F3",
"|)	c #DFA1C6",
"1)	c #9E8F98",
"2)	c #14076B",
"3)	c #5B18BE",
"4)	c #9C34C0",
"5)	c #A549BD",
"6)	c #676CAE",
"7)	c #12A08D",
"8)	c #16C267",
"9)	c #17B37A",
"0)	c #279397",
"a)	c #4D5BB4",
"b)	c #8337C5",
"c)	c #A11CCE",
"d)	c #B016D3",
"e)	c #9411CC",
"f)	c #7228C4",
"g)	c #4E72AD",
"h)	c #2FAC83",
"i)	c #31BB73",
"j)	c #56AD89",
"k)	c #9478B8",
"l)	c #AE43CE",
"m)	c #A626CF",
"n)	c #9214CC",
"o)	c #7B0DC7",
"p)	c #6D09C5",
"q)	c #6307C3",
"r)	c #5D07C3",
"s)	c #6007C3",
"t)	c #5E07C3",
"u)	c #5B06C2",
"v)	c #6207C3",
"w)	c #700AC5",
"x)	c #7E0DC8",
"y)	c #8C0FCA",
"z)	c #9413CC",
"A)	c #9E18CE",
"B)	c #A61FCF",
"C)	c #A739CD",
"D)	c #9C5BC3",
"E)	c #46C16F",
"F)	c #1ED248",
"G)	c #22C661",
"H)	c #20A588",
"I)	c #2859B1",
"J)	c #2D1ABC",
"K)	c #3B0ABF",
"L)	c #6921C3",
"M)	c #994CC7",
"N)	c #8F89AD",
"O)	c #67B584",
"P)	c #509D71",
"Q)	c #373645",
"R)	c #5D595A",
"S)	c #AA9FA5",
"T)	c #B1A8AC",
"U)	c #3C12B5",
"V)	c #8536BE",
"W)	c #9D58B9",
"X)	c #6C89A1",
"Y)	c #14B578",
"Z)	c #17BA71",
"`)	c #24A18C",
" !	c #406EAD",
".!	c #6D46BF",
"+!	c #9820CC",
"@!	c #B31AD4",
"#!	c #9C12CE",
"$!	c #7C0CC7",
"%!	c #4B28BF",
"&!	c #2E76A8",
"*!	c #33AA87",
"=!	c #3CBD71",
"-!	c #66AA8E",
";!	c #9578B8",
">!	c #A02ECC",
",!	c #8C13CA",
"'!	c #6608C4",
")!	c #4B04C1",
"!!	c #3902BF",
"~!	c #2C01BE",
"{!	c #2301BE",
"]!	c #2208BE",
"^!	c #220DBE",
"/!	c #2011BD",
"(!	c #2113BD",
"_!	c #2117BD",
":!	c #221ABD",
"<!	c #201CBD",
"[!	c #2318BD",
"}!	c #3D14BE",
"|!	c #4810C0",
"1!	c #560EC2",
"2!	c #680BC4",
"3!	c #7A0CC7",
"4!	c #8C14CA",
"5!	c #9B1ECD",
"6!	c #A737CD",
"7!	c #9D7BB8",
"8!	c #64B088",
"9!	c #3CC764",
"0!	c #21D04B",
"a!	c #3CAC84",
"b!	c #5460B1",
"c!	c #5C26BD",
"d!	c #3105BE",
"e!	c #5F14C3",
"f!	c #8A45C4",
"g!	c #9D78B6",
"h!	c #8E98A2",
"i!	c #68A790",
"j!	c #33494E",
"k!	c #13131D",
"l!	c #444443",
"m!	c #B6B0B3",
"n!	c #9C9C9C",
"o!	c #1F0F9E",
"p!	c #583DBA",
"q!	c #716DAF",
"r!	c #54A28E",
"s!	c #16BF6C",
"t!	c #18B27B",
"u!	c #34889F",
"v!	c #6355B9",
"w!	c #8B2BC9",
"x!	c #AB1CD0",
"y!	c #A815D1",
"z!	c #5706C2",
"A!	c #3828BD",
"B!	c #2B71AA",
"C!	c #37AF82",
"D!	c #42C468",
"E!	c #6AAF8B",
"F!	c #9372B9",
"G!	c #842CC6",
"H!	c #4303C0",
"I!	c #1F01BE",
"J!	c #1403BD",
"K!	c #0E09BD",
"L!	c #0B10BC",
"M!	c #0935B9",
"N!	c #0A4CB4",
"O!	c #0C5CB0",
"P!	c #0B59B1",
"Q!	c #0E57B2",
"R!	c #1152B3",
"S!	c #1446B6",
"T!	c #1A39B8",
"U!	c #2629BB",
"V!	c #3717BE",
"W!	c #4813BF",
"X!	c #5C0DC3",
"Y!	c #780DC7",
"Z!	c #962ACB",
"`!	c #9864BF",
" ~	c #879DA0",
".~	c #51C270",
"+~	c #49C16F",
"@~	c #5DAB88",
"#~	c #8B67B3",
"$~	c #8431BE",
"%~	c #3507BE",
"&~	c #4410C0",
"*~	c #8239C3",
"=~	c #B456C4",
"-~	c #B86EBC",
";~	c #7C999E",
">~	c #2D7555",
",~	c #11222C",
"'~	c #0D1332",
")~	c #828282",
"!~	c #4A3E45",
"~~	c #222020",
"{~	c #0B0C7A",
"]~	c #1448B5",
"^~	c #23889E",
"/~	c #20B27C",
"(~	c #1FA589",
"_~	c #4375AB",
":~	c #7C40C2",
"<~	c #A520CF",
"[~	c #A917D1",
"}~	c #9110CB",
"|~	c #4704C0",
"1~	c #1E27BC",
"2~	c #3273AA",
"3~	c #47AC87",
"4~	c #40C862",
"5~	c #74AD90",
"6~	c #8574B6",
"7~	c #6E2AC3",
"8~	c #3F03C0",
"9~	c #1E01BE",
"0~	c #1200BD",
"a~	c #0922BB",
"b~	c #0937B9",
"c~	c #0A4BB5",
"d~	c #107FA2",
"e~	c #128F99",
"f~	c #139893",
"g~	c #139694",
"h~	c #10879E",
"i~	c #0F72A8",
"j~	c #105AB1",
"k~	c #154CB4",
"l~	c #2134BA",
"m~	c #3317BE",
"n~	c #5111C1",
"o~	c #631CC3",
"p~	c #8C4DC3",
"q~	c #8892A8",
"r~	c #6CB784",
"s~	c #60B97D",
"t~	c #879B9A",
"u~	c #A769B5",
"v~	c #8232BE",
"w~	c #2805BD",
"x~	c #380ABF",
"y~	c #7321C3",
"z~	c #B43DC7",
"A~	c #CE5DC3",
"B~	c #9C8DA9",
"C~	c #49857D",
"D~	c #16353A",
"E~	c #0E0F1E",
"F~	c #5F5D5D",
"G~	c #ACA8AB",
"H~	c #A09B9D",
"I~	c #948D90",
"J~	c #716C6F",
"K~	c #5E595C",
"L~	c #4D4A4C",
"M~	c #221D1F",
"N~	c #8F898C",
"O~	c #251E22",
"P~	c #50454B",
"Q~	c #989195",
"R~	c #0C0C64",
"S~	c #119396",
"T~	c #15B973",
"U~	c #17B973",
"V~	c #2E9B92",
"W~	c #5B65B4",
"X~	c #8F31C8",
"Y~	c #AA1AD1",
"Z~	c #9E13CE",
"`~	c #790CC7",
" {	c #2E02BE",
".{	c #1C29BA",
"+{	c #3774A9",
"@{	c #50AC88",
"#{	c #5BBB7B",
"${	c #6CAC8E",
"%{	c #7E75B3",
"&{	c #5A2BBF",
"*{	c #2F02BE",
"={	c #110DBD",
"-{	c #0916BC",
";{	c #0A35B9",
">{	c #0F5CB0",
",{	c #157CA4",
"'{	c #199794",
"){	c #1EBD6F",
"!{	c #20BB72",
"~{	c #25B47A",
"{{	c #25B37B",
"]{	c #20BB71",
"^{	c #1EBA72",
"/{	c #1CB677",
"({	c #18B479",
"_{	c #16AA84",
":{	c #107DA3",
"<{	c #105BB0",
"[{	c #1745B6",
"}{	c #1E1CBD",
"|{	c #481DBF",
"1{	c #7241C0",
"2{	c #897DB3",
"3{	c #70AD8F",
"4{	c #71BC79",
"5{	c #A495A1",
"6{	c #A364B7",
"7{	c #5D31BC",
"8{	c #0F03BD",
"9{	c #2802BE",
"0{	c #5B0EC2",
"a{	c #A333C8",
"b{	c #CE55C6",
"c{	c #B879B6",
"d{	c #609B8C",
"e{	c #22484D",
"f{	c #13101E",
"g{	c #393034",
"h{	c #362C31",
"i{	c #2C2227",
"j{	c #35292F",
"k{	c #464345",
"l{	c #69455B",
"m{	c #52454C",
"n{	c #383737",
"o{	c #848484",
"p{	c #C3BABF",
"q{	c #5B5056",
"r{	c #75626D",
"s{	c #363435",
"t{	c #0C0C53",
"u{	c #0B53A9",
"v{	c #119694",
"w{	c #19B874",
"x{	c #389696",
"y{	c #765CBB",
"z{	c #9E25CC",
"A{	c #A416D0",
"B{	c #8E10CB",
"C{	c #3502BF",
"D{	c #1500BD",
"E{	c #1828BA",
"F{	c #4076A9",
"G{	c #58AA8C",
"H{	c #54BE76",
"I{	c #6AAA8F",
"J{	c #7277B1",
"K{	c #572ABF",
"L{	c #200CBE",
"M{	c #0C16BC",
"N{	c #0E59B1",
"O{	c #1362AE",
"P{	c #1A81A1",
"Q{	c #23A688",
"R{	c #2CB678",
"S{	c #2DC06B",
"T{	c #36BE70",
"U{	c #3DBB75",
"V{	c #46B57E",
"W{	c #48B47F",
"X{	c #3CBB75",
"Y{	c #37BA75",
"Z{	c #31B679",
"`{	c #27B975",
" ]	c #19C561",
".]	c #18C267",
"+]	c #13AC82",
"@]	c #0C67AC",
"#]	c #1453B3",
"$]	c #301DBD",
"%]	c #6233C0",
"&]	c #7A71B4",
"*]	c #6BAB8E",
"=]	c #89B484",
"-]	c #B092A5",
";]	c #8A6EB1",
">]	c #3230BA",
",]	c #0B05BD",
"']	c #1900BD",
")]	c #4B07C1",
"!]	c #8F28C7",
"~]	c #BF51C6",
"{]	c #BA75B9",
"]]	c #739D98",
"^]	c #365561",
"/]	c #261932",
"(]	c #34292F",
"_]	c #25191F",
":]	c #191014",
"<]	c #21161C",
"[]	c #372630",
"}]	c #563F4D",
"|]	c #63545C",
"1]	c #706D6F",
"2]	c #C6B0BC",
"3]	c #AB899C",
"4]	c #C3C2C2",
"5]	c #F4F1F3",
"6]	c #6D686A",
"7]	c #5C4653",
"8]	c #CCA6BC",
"9]	c #0C0C47",
"0]	c #0C4F93",
"a]	c #16B677",
"b]	c #21B678",
"c]	c #449499",
"d]	c #8356BE",
"e]	c #A723D0",
"f]	c #4A04C1",
"g]	c #0E00BD",
"h]	c #1628BB",
"i]	c #4471AC",
"j]	c #54AF86",
"k]	c #4AC46A",
"l]	c #65AF8A",
"m]	c #7471B3",
"n]	c #522BBE",
"o]	c #1F11BD",
"p]	c #0A3DB8",
"q]	c #1259B1",
"r]	c #198E9A",
"s]	c #22A887",
"t]	c #2AB17E",
"u]	c #34B47C",
"v]	c #44B380",
"w]	c #5AAE88",
"x]	c #6BA495",
"y]	c #779A9F",
"z]	c #7696A1",
"A]	c #7796A1",
"B]	c #7D97A2",
"C]	c #72999F",
"D]	c #64999B",
"E]	c #44A38F",
"F]	c #34AF81",
"G]	c #19C464",
"H]	c #17CE4F",
"I]	c #0F5DB0",
"J]	c #211DBD",
"K]	c #5027BF",
"L]	c #7570B4",
"M]	c #6DA892",
"N]	c #94AC8F",
"O]	c #A19B9E",
"P]	c #6679AA",
"Q]	c #1837B9",
"R]	c #0808BD",
"S]	c #7D1EC7",
"T]	c #A356C4",
"U]	c #A180B1",
"V]	c #7793A2",
"W]	c #437178",
"X]	c #221F2F",
"Y]	c #201029",
"Z]	c #41343B",
"`]	c #55464E",
" ^	c #5E5057",
".^	c #B5A2AD",
"+^	c #C19EB2",
"@^	c #727272",
"#^	c #393838",
"$^	c #8F8E8E",
"%^	c #B790A6",
"&^	c #0D0A34",
"*^	c #0D4780",
"=^	c #129D8F",
"-^	c #17B775",
";^	c #27B47B",
">^	c #5B8EA1",
",^	c #9052C3",
"'^	c #6808C4",
")^	c #3602BF",
"!^	c #1600BD",
"~^	c #0A00BD",
"{^	c #1627BB",
"]^	c #3E73AB",
"^^	c #53AC89",
"/^	c #45C863",
"(^	c #6CAD8E",
"_^	c #7874B3",
":^	c #5230BF",
"<^	c #1C34BA",
"[^	c #174DB4",
"}^	c #1E869F",
"|^	c #2EA789",
"1^	c #29C85E",
"2^	c #33C664",
"3^	c #5FA195",
"4^	c #7C8AA9",
"5^	c #8D7DB4",
"6^	c #9D71BD",
"7^	c #9B63C1",
"8^	c #985EC2",
"9^	c #985DC1",
"0^	c #A45CC5",
"a^	c #A95DC6",
"b^	c #9666BF",
"c^	c #856DB8",
"d^	c #4A8AA0",
"e^	c #1BAE80",
"f^	c #17C463",
"g^	c #18D149",
"h^	c #0C65AD",
"i^	c #1A20BB",
"j^	c #4D27BF",
"k^	c #766EB5",
"l^	c #71A595",
"m^	c #7CB485",
"n^	c #7AA890",
"o^	c #4882A4",
"p^	c #1A3DB8",
"q^	c #1901BD",
"r^	c #3E05BF",
"s^	c #6F1DC5",
"t^	c #8F53C2",
"u^	c #8F8BAD",
"v^	c #5FB186",
"w^	c #3C9B72",
"x^	c #1C3741",
"y^	c #5D5B5B",
"z^	c #ABA8AA",
"A^	c #8C7783",
"B^	c #0D0C34",
"C^	c #0D3861",
"D^	c #12A28B",
"E^	c #18BF6C",
"F^	c #6888A7",
"G^	c #9E4BC8",
"H^	c #A41ECF",
"I^	c #8A0FCA",
"J^	c #2701BE",
"K^	c #1429BA",
"L^	c #3A74AA",
"M^	c #51AC88",
"N^	c #58BB7A",
"O^	c #6FAC8F",
"P^	c #7B76B3",
"Q^	c #533ABD",
"R^	c #1F59B2",
"S^	c #1C7DA4",
"T^	c #3C9C93",
"U^	c #31C663",
"V^	c #4ABD74",
"W^	c #6AAC8E",
"X^	c #8A8FAA",
"Y^	c #A159C5",
"Z^	c #A142CA",
"`^	c #9638C9",
" /	c #942ECA",
"./	c #8E25C9",
"+/	c #9223CB",
"@/	c #9F24CE",
"#/	c #B027D1",
"$/	c #B72BD3",
"%/	c #9C3EC9",
"&/	c #5E60B6",
"*/	c #29919A",
"=/	c #16BD6E",
"-/	c #14B579",
";/	c #1A24BB",
">/	c #4D26BF",
",/	c #776BB6",
"'/	c #5ABE76",
")/	c #57B184",
"!/	c #4183A3",
"~/	c #1A40B7",
"{/	c #080BBD",
"]/	c #2704BD",
"^/	c #5B14BF",
"//	c #7F24C4",
"(/	c #924EC3",
"_/	c #8792A8",
":/	c #57BB79",
"</	c #154C49",
"[/	c #0D0F1E",
"}/	c #454444",
"|/	c #D7C7D0",
"1/	c #5B5257",
"2/	c #6E5764",
"3/	c #0D324E",
"4/	c #129277",
"5/	c #1ABF6C",
"6/	c #36B080",
"7/	c #757FAD",
"8/	c #9F42CA",
"9/	c #810DC8",
"0/	c #4904C0",
"a/	c #1A00BD",
"b/	c #0B00BD",
"c/	c #1228BA",
"d/	c #3676A8",
"e/	c #4EAA8A",
"f/	c #52BD75",
"g/	c #6EAA90",
"h/	c #7C78B2",
"i/	c #5C43BC",
"j/	c #226CAB",
"k/	c #1FA787",
"l/	c #32C16B",
"m/	c #57B87D",
"n/	c #7E9E9D",
"o/	c #A076BC",
"p/	c #A860C5",
"q/	c #9B49C7",
"r/	c #8621C8",
"s/	c #7119C5",
"t/	c #6216C2",
"u/	c #6214C2",
"v/	c #6713C4",
"w/	c #8116C7",
"x/	c #A915D1",
"y/	c #B41AD4",
"z/	c #A822D0",
"A/	c #7642C1",
"B/	c #3186A0",
"C/	c #16B27C",
"D/	c #0E79A5",
"E/	c #4E25BF",
"F/	c #766BB6",
"G/	c #70A595",
"H/	c #53BF74",
"I/	c #52B283",
"J/	c #4283A3",
"K/	c #7920C0",
"L/	c #A230C4",
"M/	c #A552C2",
"N/	c #8B8DA9",
"O/	c #61B384",
"P/	c #40BC75",
"Q/	c #1D6F61",
"R/	c #0D1A2F",
"S/	c #FFBDE4",
"T/	c #F4C2DF",
"U/	c #795F6E",
"V/	c #5B4953",
"W/	c #0D0F33",
"X/	c #0D202D",
"Y/	c #10775A",
"Z/	c #1DBB71",
"`/	c #40A989",
" (	c #7D79B2",
".(	c #A23ACB",
"+(	c #9A17CD",
"@(	c #760BC6",
"#(	c #1400BD",
"$(	c #1028BB",
"%(	c #2D71AB",
"&(	c #46AF84",
"*(	c #47C46A",
"=(	c #67AF8A",
"-(	c #8273B5",
";(	c #5D4FB9",
">(	c #2481A2",
",(	c #2CCB59",
"'(	c #A475BD",
")(	c #B04ECC",
"!(	c #A534CD",
"~(	c #882BC8",
"{(	c #5A46BC",
"](	c #3E43B9",
"^(	c #2F43B8",
"/(	c #2643B7",
"((	c #3543B8",
"_(	c #6F14C5",
":(	c #A817D1",
"<(	c #A71FD0",
"[(	c #813DC4",
"}(	c #3A79A8",
"|(	c #16AB83",
"1(	c #17C85D",
"2(	c #756CB6",
"3(	c #58BC79",
"4(	c #53B086",
"5(	c #1A42B7",
"6(	c #080EBD",
"7(	c #2A05BD",
"8(	c #6A1BBF",
"9(	c #A532C4",
"0(	c #B952C3",
"a(	c #AC7EB5",
"b(	c #7DAA8F",
"c(	c #4EBA77",
"d(	c #27907A",
"e(	c #0D2848",
"f(	c #FFC4E7",
"g(	c #FFA7DD",
"h(	c #FFC0E5",
"i(	c #917F89",
"j(	c #494B48",
"k(	c #0D151B",
"l(	c #0F593E",
"m(	c #1FB46B",
"n(	c #48A68D",
"o(	c #8572B7",
"p(	c #9414CC",
"q(	c #3402BF",
"r(	c #1100BD",
"s(	c #0D27BB",
"t(	c #2872A9",
"u(	c #45AC86",
"v(	c #73AD90",
"w(	c #8375B4",
"x(	c #5D56B8",
"y(	c #2D9398",
"z(	c #2DBB72",
"A(	c #49BC76",
"B(	c #75A993",
"C(	c #A56BC1",
"D(	c #AC2DD0",
"E(	c #8D29C9",
"F(	c #5D50B9",
"G(	c #3D61B1",
"H(	c #1C8C9C",
"I(	c #188C9B",
"J(	c #1F8B9C",
"K(	c #3844B8",
"L(	c #6313C3",
"M(	c #8D13CB",
"N(	c #A11DCE",
"O(	c #A02DCC",
"P(	c #7E51BF",
"Q(	c #3C79A8",
"R(	c #16AE80",
"S(	c #15BC6F",
"T(	c #12A38A",
"U(	c #0C5DB0",
"V(	c #1A1CBC",
"W(	c #766CB6",
"X(	c #59BC79",
"Y(	c #54B086",
"Z(	c #430DBE",
"`(	c #6116C0",
" _	c #8729C3",
"._	c #B152C4",
"+_	c #BB7CB6",
"@_	c #A29F9C",
"#_	c #79B383",
"$_	c #4A9D91",
"%_	c #142F58",
"&_	c #0F0920",
"*_	c #FFC2E6",
"=_	c #BDB4B9",
"-_	c #797778",
";_	c #606460",
">_	c #0D161B",
",_	c #0E442C",
"'_	c #1BA158",
")_	c #4DA88C",
"!_	c #8C6CBB",
"~_	c #A52CCE",
"{_	c #5F07C3",
"]_	c #2601BE",
"^_	c #0D00BD",
"/_	c #0B29BA",
"(_	c #2574A8",
"__	c #42AC86",
":_	c #55BB79",
"<_	c #71AC8F",
"[_	c #8577B4",
"}_	c #5B5FB5",
"|_	c #319895",
"1_	c #3DB977",
"2_	c #56BA7B",
"3_	c #8599A3",
"4_	c #946ABD",
"5_	c #8D28C9",
"6_	c #6A2BC2",
"7_	c #3D60B2",
"8_	c #1B9B91",
"9_	c #2F8E9B",
"0_	c #5446BB",
"a_	c #7818C6",
"b_	c #9622CC",
"c_	c #A638CD",
"d_	c #9652C4",
"e_	c #319C92",
"f_	c #16AC82",
"g_	c #0F889D",
"h_	c #1C19BD",
"i_	c #4F26BF",
"j_	c #54BF74",
"k_	c #173DB7",
"l_	c #3913BD",
"m_	c #9429C2",
"n_	c #912BC6",
"o_	c #9D59C1",
"p_	c #AA8AAE",
"q_	c #A8A09B",
"r_	c #9FA098",
"s_	c #828DA0",
"t_	c #353A77",
"u_	c #1A0B34",
"v_	c #2D0D35",
"w_	c #907383",
"x_	c #D7C8D0",
"y_	c #6D6B6C",
"z_	c #666063",
"A_	c #BB9BAD",
"B_	c #848984",
"C_	c #0D2530",
"D_	c #0E3021",
"E_	c #15773D",
"F_	c #4D9C89",
"G_	c #8D68BC",
"H_	c #A528CE",
"I_	c #2201BE",
"J_	c #0900BD",
"K_	c #0A28BA",
"L_	c #2176A7",
"M_	c #46AA89",
"N_	c #4FBD75",
"O_	c #6FAA90",
"P_	c #8179B2",
"Q_	c #6161B5",
"R_	c #389895",
"S_	c #47B67D",
"T_	c #61B682",
"U_	c #7D98A1",
"V_	c #855ABE",
"W_	c #6625C2",
"X_	c #4433BC",
"Y_	c #1F73A9",
"Z_	c #17CE50",
"`_	c #2E9596",
" :	c #704FBC",
".:	c #9333C8",
"+:	c #A342CB",
"@:	c #966ABD",
"#:	c #7883AC",
"$:	c #48A38F",
"%:	c #23B777",
"&:	c #108E99",
"*:	c #0C61AF",
"=:	c #0E3EB7",
"-:	c #1F19BD",
";:	c #552CBF",
">:	c #776EB5",
",:	c #6EA694",
"':	c #51B283",
"):	c #3D7FA4",
"!:	c #1639B8",
"~:	c #3710BD",
"{:	c #8123C0",
"]:	c #B133C4",
"^:	c #B337C7",
"/:	c #AD62C1",
"(:	c #A193A6",
"_:	c #99A793",
"::	c #959F98",
"<:	c #9B7DAC",
"[:	c #6B429B",
"}:	c #2B0F48",
"|:	c #200B21",
"1:	c #6F5564",
"2:	c #F4E4ED",
"3:	c #9E9C9D",
"4:	c #40363B",
"5:	c #98758A",
"6:	c #A8ADA8",
"7:	c #566657",
"8:	c #0D1C16",
"9:	c #134A32",
"0:	c #47837E",
"a:	c #8E5FBE",
"b:	c #A425CF",
"c:	c #0928BB",
"d:	c #2270AA",
"e:	c #41AF83",
"f:	c #69AF8B",
"g:	c #5E63B5",
"h:	c #409499",
"i:	c #4BB97A",
"j:	c #5AB97D",
"k:	c #7A95A3",
"l:	c #7A5CBB",
"m:	c #551FC1",
"n:	c #2732BA",
"o:	c #147FA2",
"p:	c #15BB71",
"q:	c #16C266",
"r:	c #308E9B",
"s:	c #6679AD",
"t:	c #9473BA",
"u:	c #8980B1",
"v:	c #6D95A0",
"w:	c #41B978",
"x:	c #27C661",
"y:	c #1BCD53",
"z:	c #15A886",
"A:	c #0F82A1",
"B:	c #0E43B6",
"C:	c #1421BB",
"D:	c #3218BE",
"E:	c #5B3CBE",
"F:	c #7D75B3",
"G:	c #6EA991",
"H:	c #53BE75",
"I:	c #4EAB88",
"J:	c #3777A8",
"K:	c #1A33B9",
"L:	c #3D11BE",
"M:	c #7D22C0",
"N:	c #BC37C5",
"O:	c #D343C8",
"P:	c #CB64C1",
"Q:	c #B68FA9",
"R:	c #8EAB8D",
"S:	c #61A98A",
"T:	c #7878AA",
"U:	c #7640B3",
"V:	c #3D1361",
"W:	c #53414B",
"X:	c #D7D5D6",
"Y:	c #6D666A",
"Z:	c #6D5864",
"`:	c #B1A7AC",
" <	c #C0C5C0",
".<	c #778577",
"+<	c #0E2629",
"@<	c #102B26",
"#<	c #405570",
"$<	c #9153C2",
"%<	c #A422CF",
"&<	c #0927BB",
"*<	c #2072A9",
"=<	c #40AC85",
"-<	c #3FC861",
";<	c #8476B5",
"><	c #6361B6",
",<	c #439897",
"'<	c #4EB67E",
")<	c #5DB680",
"!<	c #7899A0",
"~<	c #7A5ABC",
"{<	c #5425C0",
"]<	c #1F32BA",
"^<	c #0F7CA4",
"/<	c #14AF7E",
"(<	c #16C660",
"_<	c #17BA72",
":<	c #28AF80",
"<<	c #4CA88B",
"[<	c #59A492",
"}<	c #54AD88",
"|<	c #38BF6E",
"1<	c #21CC55",
"2<	c #19D442",
"3<	c #19BB70",
"4<	c #129197",
"5<	c #1A3CB8",
"6<	c #3013BD",
"7<	c #4A1AC0",
"8<	c #6F50BC",
"9<	c #7E87AB",
"0<	c #6EB08B",
"a<	c #46A48E",
"b<	c #2F68AE",
"c<	c #2C2BBA",
"d<	c #671CBF",
"e<	c #A22EC2",
"f<	c #CB3DC6",
"g<	c #DF4AC8",
"h<	c #D367C0",
"i<	c #A49B9F",
"j<	c #6ABC77",
"k<	c #2FAC84",
"l<	c #3571A9",
"m<	c #4E34BA",
"n<	c #581986",
"o<	c #340F36",
"p<	c #270C35",
"q<	c #F4F0F2",
"r<	c #9E9298",
"s<	c #3E383B",
"t<	c #C2C4C2",
"u<	c #9DA79D",
"v<	c #424A42",
"w<	c #0E0D15",
"x<	c #272243",
"y<	c #742F9A",
"z<	c #A61FD0",
"A<	c #0928BA",
"B<	c #1E74A8",
"C<	c #3DAC86",
"D<	c #52BB79",
"E<	c #8978B5",
"F<	c #6A63B6",
"G<	c #419B94",
"H<	c #47BB77",
"I<	c #5ABB7B",
"J<	c #799C9F",
"K<	c #7C6EB6",
"L<	c #5428C0",
"M<	c #1F30BB",
"N<	c #0E65AD",
"O<	c #119992",
"P<	c #15B874",
"Q<	c #17C069",
"R<	c #1FC563",
"S<	c #28BB73",
"T<	c #27BB72",
"U<	c #1ECE50",
"V<	c #19D345",
"W<	c #19C168",
"X<	c #136BAB",
"Y<	c #1A41B7",
"Z<	c #3016BD",
"`<	c #5818C1",
" [	c #7333C2",
".[	c #885FBD",
"+[	c #7E9D9E",
"@[	c #5CBB7A",
"#[	c #49BB77",
"$[	c #3D9797",
"%[	c #2459B2",
"&[	c #3920BC",
"*[	c #7E23BF",
"=[	c #AD32C3",
"-[	c #C03AC7",
";[	c #D353C5",
">[	c #C776B9",
",[	c #85AA8F",
"'[	c #34C366",
")[	c #21A886",
"![	c #116BAB",
"~[	c #432ABC",
"{[	c #7E24A9",
"][	c #4E1652",
"^[	c #C5C2C3",
"/[	c #BBB9B8",
"([	c #60615F",
"_[	c #1D1B1B",
":[	c #140A1F",
"<[	c #691F8A",
"[[	c #A81BD1",
"}[	c #9311CC",
"|[	c #6308C3",
"1[	c #1D74A8",
"2[	c #3EAA87",
"3[	c #6CAA90",
"4[	c #8979B4",
"5[	c #755EBA",
"6[	c #429B94",
"7[	c #3CC26C",
"8[	c #4EC26F",
"9[	c #6BB289",
"0[	c #5B3FBD",
"a[	c #292DBB",
"b[	c #1150B3",
"c[	c #0E74A7",
"d[	c #15A985",
"e[	c #17B479",
"f[	c #17B47A",
"g[	c #17AE80",
"h[	c #17BC70",
"i[	c #15A687",
"j[	c #1675A7",
"k[	c #2058B2",
"l[	c #3D1EBE",
"m[	c #5A14C1",
"n[	c #791FC6",
"o[	c #9949C7",
"p[	c #977CB7",
"q[	c #76A993",
"r[	c #41C666",
"s[	c #42B280",
"t[	c #3882A3",
"u[	c #1749B5",
"v[	c #2C18BC",
"w[	c #6117BF",
"x[	c #8322C2",
"y[	c #9C33C7",
"z[	c #BD5EC3",
"A[	c #BD8AAE",
"B[	c #8CAD8B",
"C[	c #41BB74",
"D[	c #1CA28C",
"E[	c #2761AF",
"F[	c #6127BE",
"G[	c #561862",
"H[	c #160921",
"I[	c #6A6A6A",
"J[	c #282527",
"K[	c #160827",
"L[	c #4B0C65",
"M[	c #A918D1",
"N[	c #9812CD",
"O[	c #1D6BAC",
"P[	c #38AC85",
"Q[	c #3FC468",
"R[	c #66AF8A",
"S[	c #8A7BB4",
"T[	c #478C9F",
"U[	c #37C06D",
"V[	c #2CD14C",
"W[	c #5DBB7B",
"X[	c #7892A3",
"Y[	c #6365B5",
"Z[	c #3B4DB6",
"`[	c #1A3BB8",
" }	c #0D70A9",
".}	c #0F7EA2",
"+}	c #10849F",
"@}	c #11859F",
"#}	c #1179A5",
"$}	c #146CAA",
"%}	c #1765AD",
"&}	c #2654B3",
"*}	c #4823BE",
"=}	c #6421C2",
"-}	c #8526C7",
";}	c #9E40C9",
">}	c #A269C1",
",}	c #8C99A5",
"'}	c #57BC79",
")}	c #3FBD72",
"!}	c #34A38D",
"~}	c #296AAC",
"{}	c #1538B8",
"]}	c #1B10BC",
"^}	c #3F05BF",
"/}	c #6818C3",
"(}	c #933FC7",
"_}	c #AA6FBB",
":}	c #B095A5",
"<}	c #93B386",
"[}	c #51B877",
"}}	c #238D9A",
"|}	c #4D52B5",
"1}	c #852DBF",
"2}	c #52167F",
"3}	c #130834",
"4}	c #C2C2C2",
"5}	c #B5B5B5",
"6}	c #FFE7F5",
"7}	c #8B8A8B",
"8}	c #7A7778",
"9}	c #B6A1AD",
"0}	c #535053",
"a}	c #430A5F",
"b}	c #A114C8",
"c}	c #A013CF",
"d}	c #7B0CC7",
"e}	c #081FBB",
"f}	c #1A67AC",
"g}	c #36A68A",
"h}	c #3FC469",
"i}	c #63B385",
"j}	c #8587AD",
"k}	c #7A60BA",
"l}	c #4A7CA8",
"m}	c #3AB17F",
"n}	c #3FC763",
"o}	c #40CC5B",
"p}	c #5FB780",
"q}	c #639D98",
"r}	c #5171AD",
"s}	c #2557B3",
"t}	c #1F2BBB",
"u}	c #1E30BB",
"v}	c #1A32B9",
"w}	c #1B37B9",
"x}	c #1D40B8",
"y}	c #2238B9",
"z}	c #2A2FBB",
"A}	c #3627BD",
"B}	c #441FBF",
"C}	c #501DC0",
"D}	c #6B1CC4",
"E}	c #8F25C9",
"F}	c #9E52C6",
"G}	c #9F76BB",
"H}	c #8E96A7",
"I}	c #5EB97D",
"J}	c #3FC764",
"K}	c #35B877",
"L}	c #2984A0",
"M}	c #1525BB",
"N}	c #2A09BE",
"O}	c #510EC1",
"P}	c #7F25C6",
"Q}	c #9755C4",
"R}	c #9487AF",
"S}	c #87AB8E",
"T}	c #77B77C",
"U}	c #4AAD84",
"V}	c #427BA5",
"W}	c #7A41BB",
"X}	c #9830C0",
"Y}	c #3A0DA0",
"Z}	c #0F0742",
"`}	c #0F0820",
" |	c #4A4949",
".|	c #403F3F",
"+|	c #BDBBBC",
"@|	c #1C1618",
"#|	c #5E4F57",
"$|	c #656163",
"%|	c #110821",
"&|	c #2D0946",
"*|	c #8710AE",
"=|	c #A514D0",
"-|	c #5806C2",
";|	c #3002BE",
">|	c #1300BD",
",|	c #0C00BD",
"'|	c #081CBC",
")|	c #165DB0",
"!|	c #369C92",
"~|	c #4CB77C",
"{|	c #7A9A9F",
"]|	c #7B65B8",
"^|	c #4F67B1",
"/|	c #4186A2",
"(|	c #45C961",
"_|	c #32D14E",
":|	c #53BF73",
"<|	c #4EA98A",
"[|	c #5476AC",
"}|	c #5360B4",
"||	c #4C2BBE",
"1|	c #5017C0",
"2|	c #4D11C0",
"3|	c #500DC1",
"4|	c #4F0DC1",
"5|	c #580EC2",
"6|	c #5F0DC3",
"7|	c #6B0EC5",
"8|	c #7918C6",
"9|	c #861EC8",
"0|	c #9122CB",
"a|	c #A23DCB",
"b|	c #A468C2",
"c|	c #82A19C",
"d|	c #52C270",
"e|	c #32CE55",
"f|	c #26CD53",
"g|	c #33A888",
"h|	c #1A69AC",
"i|	c #1336B9",
"j|	c #1812BC",
"k|	c #4106C0",
"l|	c #6715C3",
"m|	c #8F3EC6",
"n|	c #986ABE",
"o|	c #73A396",
"p|	c #4EBC75",
"q|	c #42B779",
"r|	c #369696",
"s|	c #6261B1",
"t|	c #913CBE",
"u|	c #8E2BC0",
"v|	c #1903B5",
"w|	c #13084F",
"x|	c #D698BD",
"y|	c #3A3939",
"z|	c #F4EFF2",
"A|	c #83777E",
"B|	c #563D4B",
"C|	c #BB88A7",
"D|	c #130835",
"E|	c #1D0836",
"F|	c #6D0D96",
"G|	c #AD16D2",
"H|	c #9912CD",
"I|	c #720AC6",
"J|	c #4403C0",
"K|	c #2901BE",
"L|	c #0817BC",
"M|	c #154DB4",
"N|	c #3684A2",
"O|	c #4AB380",
"P|	c #50C072",
"Q|	c #73A596",
"R|	c #7C6FB5",
"S|	c #5A4DBA",
"T|	c #4659B5",
"U|	c #588AA3",
"V|	c #5FB484",
"W|	c #48CA5F",
"X|	c #27D345",
"Y|	c #4DC36D",
"Z|	c #5DB186",
"`|	c #727AAF",
" 1	c #7E52BF",
".1	c #7F3AC3",
"+1	c #8425C7",
"@1	c #8123C7",
"#1	c #8420C8",
"$1	c #8421C8",
"%1	c #9530CA",
"&1	c #9B36CA",
"*1	c #9A51C5",
"=1	c #986BBE",
"-1	c #878DAB",
";1	c #5CB780",
">1	c #29D04D",
",1	c #1ED345",
"'1	c #29BC71",
")1	c #1B9596",
"!1	c #1856B2",
"~1	c #1620BB",
"{1	c #3809BF",
"]1	c #5612C1",
"^1	c #8820C8",
"/1	c #9B4DC6",
"(1	c #8887AE",
"_1	c #55B185",
":1	c #35C368",
"<1	c #36AC84",
"[1	c #3677A6",
"}1	c #5E47B8",
"|1	c #7B2BBF",
"11	c #641CBF",
"21	c #150760",
"31	c #130820",
"41	c #4B3E45",
"51	c #ADADAD",
"61	c #595959",
"71	c #6E6E6E",
"81	c #ABA0A6",
"91	c #8D7683",
"01	c #9B9397",
"a1	c #170835",
"b1	c #4A0A72",
"c1	c #9D13C7",
"d1	c #A714D0",
"e1	c #880ECA",
"f1	c #3C03BF",
"g1	c #0F10BC",
"h1	c #1136B9",
"i1	c #3170AB",
"j1	c #47A989",
"k1	c #4FBF72",
"l1	c #69B189",
"m1	c #7C85AC",
"n1	c #6756BA",
"o1	c #4643B9",
"p1	c #5165B2",
"q1	c #718BA6",
"r1	c #5EB483",
"s1	c #4FC669",
"t1	c #24D442",
"u1	c #4FC36E",
"v1	c #73A397",
"w1	c #8584AF",
"x1	c #926ABC",
"y1	c #9363BF",
"z1	c #975AC2",
"A1	c #985FC1",
"B1	c #976EBC",
"C1	c #8C7FB3",
"D1	c #8686AE",
"E1	c #6FA298",
"F1	c #5BB185",
"G1	c #49B67D",
"H1	c #33C467",
"I1	c #27C85E",
"J1	c #24BE6D",
"K1	c #1AA985",
"L1	c #196EAA",
"M1	c #1A45B6",
"N1	c #3115BE",
"O1	c #530FC1",
"P1	c #8922C6",
"Q1	c #A648C5",
"R1	c #AB60C3",
"S1	c #6E9A9C",
"T1	c #40BE71",
"U1	c #55B67B",
"V1	c #66929C",
"W1	c #505FB1",
"X1	c #3430BA",
"Y1	c #3914BD",
"Z1	c #0F0674",
"`1	c #928E90",
" 2	c #6D6A6C",
".2	c #ADABAC",
"+2	c #5A595A",
"@2	c #100821",
"#2	c #2B0852",
"$2	c #800EB9",
"%2	c #A113CF",
"&2	c #7F0DC8",
"*2	c #5405C2",
"=2	c #3802BF",
"-2	c #1607BD",
";2	c #1428BA",
">2	c #275AB2",
",2	c #45929B",
"'2	c #4CBC76",
")2	c #5CBC79",
"!2	c #7766B8",
"~2	c #504BB9",
"{2	c #5140BC",
"]2	c #5162B3",
"^2	c #6B7CAD",
"/2	c #5EB186",
"(2	c #52BF73",
"_2	c #3ECB5B",
":2	c #51C170",
"<2	c #74A199",
"[2	c #7B96A3",
"}2	c #7B98A1",
"|2	c #7C95A3",
"12	c #7796A2",
"22	c #6E9E9A",
"32	c #5AB185",
"42	c #43C070",
"52	c #38C368",
"62	c #27CB58",
"72	c #24C75E",
"82	c #26AE82",
"92	c #219894",
"02	c #19859F",
"a2	c #1371A9",
"b2	c #1758B1",
"c2	c #3C20BD",
"d2	c #581DC1",
"e2	c #8221C5",
"f2	c #B03FC8",
"g2	c #C35AC6",
"h2	c #988CAA",
"i2	c #57AC89",
"j2	c #749799",
"k2	c #976CB2",
"l2	c #814CBA",
"m2	c #3C21BD",
"n2	c #0805BD",
"o2	c #767575",
"p2	c #1A0843",
"q2	c #500A8F",
"r2	c #9814CD",
"s2	c #AB17D1",
"t2	c #9A14CD",
"u2	c #7C0EC7",
"v2	c #4E06C1",
"w2	c #3905BF",
"x2	c #2417BD",
"y2	c #2444B7",
"z2	c #3E76A9",
"A2	c #55A490",
"B2	c #3CCB5B",
"C2	c #6AB288",
"D2	c #7397A0",
"E2	c #6B63B6",
"F2	c #4F51B8",
"G2	c #483CBC",
"H2	c #4B64B1",
"I2	c #4E75AB",
"J2	c #54929D",
"K2	c #54AB8A",
"L2	c #42C16D",
"M2	c #3DC566",
"N2	c #4DB87B",
"O2	c #4DB67E",
"P2	c #4CB97A",
"Q2	c #4BB67D",
"R2	c #45B879",
"S2	c #3CB978",
"T2	c #2EC367",
"U2	c #1FD04D",
"V2	c #1CD04C",
"W2	c #20BE6E",
"X2	c #1CAC83",
"Y2	c #178E99",
"Z2	c #1159B1",
"`2	c #1143B6",
" 3	c #1534B9",
".3	c #2620BC",
"+3	c #4F1EC0",
"@3	c #8324C6",
"#3	c #A754C4",
"$3	c #C45CC5",
"%3	c #B77AB7",
"&3	c #78A791",
"*3	c #2CCB5A",
"=3	c #38A689",
"-3	c #6979A8",
";3	c #A051BB",
">3	c #9F3DBF",
",3	c #6120BE",
"'3	c #1A03BD",
")3	c #350C93",
"!3	c #1B0940",
"~3	c #736A6F",
"{3	c #311373",
"]3	c #8223C7",
"^3	c #A327CE",
"/3	c #AD28D0",
"(3	c #9620CC",
"_3	c #7F12C8",
":3	c #372FBC",
"<3	c #3956B4",
"[3	c #4B8F9E",
"}3	c #5BAA8D",
"|3	c #3CCD59",
"13	c #68B585",
"23	c #6CA396",
"33	c #6582A9",
"43	c #4C72AD",
"53	c #4259B4",
"63	c #354EB6",
"73	c #3B5BB3",
"83	c #3A7EA5",
"93	c #399E91",
"03	c #32B778",
"a3	c #30B876",
"b3	c #33B679",
"c3	c #2FB976",
"d3	c #2FB679",
"e3	c #29B876",
"f3	c #26B875",
"g3	c #1EC267",
"h3	c #1CC06A",
"i3	c #1BB973",
"j3	c #1CA38B",
"k3	c #1D71A9",
"l3	c #1F43B7",
"m3	c #2A16BD",
"n3	c #380FBF",
"o3	c #4D15C0",
"p3	c #6A1CC4",
"q3	c #9B49C5",
"r3	c #BC67C1",
"s3	c #B78DAC",
"t3	c #91A298",
"u3	c #47C567",
"v3	c #2ABB73",
"w3	c #239993",
"x3	c #4A58B3",
"y3	c #8E3DBD",
"z3	c #A835C1",
"A3	c #7D24BF",
"B3	c #5414BE",
"C3	c #8526AA",
"D3	c #59196D",
"E3	c #2E0D35",
"F3	c #4C3643",
"G3	c #A78498",
"H3	c #C6B9C0",
"I3	c #514F50",
"J3	c #0E0A20",
"K3	c #1E235B",
"L3	c #6253B9",
"M3	c #8154BF",
"N3	c #984DC5",
"O3	c #AB37CE",
"P3	c #A51ECF",
"Q3	c #7B10C7",
"R3	c #5B18C1",
"S3	c #4C44BA",
"T3	c #435AB4",
"U3	c #57919E",
"V3	c #60AE89",
"W3	c #38CF52",
"X3	c #4EC669",
"Y3	c #5FA492",
"Z3	c #5A7BAA",
"`3	c #555CB6",
" 4	c #5055B7",
".4	c #4B5DB4",
"+4	c #4869AF",
"@4	c #467EA6",
"#4	c #41919B",
"$4	c #409598",
"%4	c #3E9896",
"&4	c #3E9796",
"*4	c #3E9598",
"=4	c #3B9D92",
"-4	c #408B9F",
";4	c #4475AA",
">4	c #4769AF",
",4	c #4B51B7",
"'4	c #5122BF",
")4	c #551BC1",
"!4	c #5D1BC2",
"~4	c #6A22C3",
"{4	c #7A2CC4",
"]4	c #8D4DC3",
"^4	c #AA61C2",
"/4	c #B688AF",
"(4	c #9FA597",
"_4	c #5BCA5F",
":4	c #33B975",
"<4	c #269795",
"[4	c #1575A7",
"}4	c #2E4EB5",
"|4	c #6824BE",
"14	c #8D2AC0",
"24	c #A02FC1",
"34	c #B035C2",
"44	c #AE34C2",
"54	c #732184",
"64	c #2E0D36",
"74	c #917786",
"84	c #797477",
"94	c #50474C",
"04	c #AEAAAC",
"a4	c #0D0A20",
"b4	c #15334C",
"c4	c #358895",
"d4	c #4A8F9E",
"e4	c #7274B1",
"f4	c #9852C5",
"g4	c #B425D3",
"h4	c #B21CD3",
"i4	c #9018CA",
"j4	c #5F1AC2",
"k4	c #4D44BA",
"l4	c #4F5CB5",
"m4	c #60979C",
"n4	c #2BD249",
"o4	c #39CF53",
"p4	c #55BF74",
"q4	c #65A98F",
"r4	c #6D92A1",
"s4	c #7080AC",
"t4	c #776AB6",
"u4	c #7864B9",
"v4	c #7964B9",
"w4	c #7961BA",
"x4	c #7B5BBC",
"y4	c #7B55BE",
"z4	c #7D4AC1",
"A4	c #8042C3",
"B4	c #8231C6",
"C4	c #812EC6",
"D4	c #812AC7",
"E4	c #862BC8",
"F4	c #8C34C7",
"G4	c #9168BD",
"H4	c #9278B7",
"I4	c #9598A3",
"J4	c #95A497",
"K4	c #70C36C",
"L4	c #3EBF6E",
"M4	c #2BAA85",
"N4	c #176AAB",
"O4	c #0E46B6",
"P4	c #1331B9",
"Q4	c #3016BC",
"R4	c #3F0CBE",
"S4	c #41108C",
"T4	c #170934",
"U4	c #7A7578",
"V4	c #FFECF7",
"W4	c #FFD3EC",
"X4	c #FFC7E8",
"Y4	c #91818A",
"Z4	c #3D2E37",
"`4	c #0E2B3E",
" 5	c #189766",
".5	c #28B47B",
"+5	c #479B95",
"@5	c #7F64BA",
"#5	c #9B44C8",
"$5	c #B024D2",
"%5	c #B81ED4",
"&5	c #A315D0",
"*5	c #8A18C9",
"=5	c #621AC2",
"-5	c #5047BA",
";5	c #536BB0",
">5	c #4BBE73",
",5	c #42C862",
"'5	c #4DC767",
")5	c #59BF75",
"!5	c #5CB97D",
"~5	c #6BAA8F",
"{5	c #72A595",
"]5	c #7D93A4",
"^5	c #8684AF",
"/5	c #8E74B7",
"(5	c #916CBB",
"_5	c #9264BE",
":5	c #9460C0",
"<5	c #965EC1",
"[5	c #9560C0",
"}5	c #945FC1",
"|5	c #955DC1",
"15	c #975CC1",
"25	c #965DC1",
"35	c #955CC1",
"45	c #945FC0",
"55	c #9466BE",
"65	c #9279B7",
"75	c #8D84B1",
"85	c #7BA09B",
"95	c #62B484",
"05	c #59BB78",
"a5	c #53C862",
"b5	c #46B081",
"c5	c #2C9F8F",
"d5	c #1A7AA4",
"e5	c #125AB1",
"f5	c #201EBC",
"g5	c #2911BD",
"h5	c #200ABD",
"i5	c #110498",
"j5	c #FFDEF1",
"k5	c #FFBBE3",
"l5	c #C69EB5",
"m5	c #493942",
"n5	c #726C6F",
"o5	c #0D0E33",
"p5	c #0D1E2E",
"q5	c #116F59",
"r5	c #1ACB57",
"s5	c #2EB17F",
"t5	c #49919C",
"u5	c #7261B8",
"v5	c #9847C7",
"w5	c #AA27CF",
"x5	c #B41CD4",
"y5	c #A215CF",
"z5	c #8517C8",
"A5	c #6E21C4",
"B5	c #5758B7",
"C5	c #5473AD",
"D5	c #4F89A2",
"E5	c #5B9F96",
"F5	c #5BB086",
"G5	c #5EB681",
"H5	c #5AB97C",
"I5	c #4CC46B",
"J5	c #5ABB7A",
"K5	c #5BBA7B",
"L5	c #5DB780",
"M5	c #64B188",
"N5	c #6EA892",
"O5	c #789D9D",
"P5	c #7A98A1",
"Q5	c #7A97A2",
"R5	c #7A99A0",
"S5	c #7B96A2",
"T5	c #7C97A2",
"U5	c #7C96A2",
"V5	c #6BA891",
"W5	c #57BB7A",
"X5	c #4EC762",
"Y5	c #44C664",
"Z5	c #33AB85",
"`5	c #309398",
" 6	c #1662AE",
".6	c #104EB4",
"+6	c #2031BA",
"@6	c #4C1EBD",
"#6	c #671BBF",
"$6	c #0902A5",
"%6	c #E1A8C9",
"&6	c #795C6D",
"*6	c #5E5A5C",
"=6	c #130F1F",
"-6	c #28494D",
";6	c #17B776",
">6	c #19CA59",
",6	c #24B17E",
"'6	c #45919B",
")6	c #6363B6",
"!6	c #8A41C5",
"~6	c #9F29CD",
"{6	c #A721D0",
"]6	c #A51CCF",
"^6	c #8A2AC8",
"/6	c #6E38C1",
"(6	c #5D4DBA",
"_6	c #5561B4",
":6	c #5875AD",
"<6	c #5B8AA3",
"[6	c #5C9D97",
"}6	c #59A78E",
"|6	c #4EB77D",
"16	c #4ABA78",
"26	c #4DB77C",
"36	c #3EC469",
"46	c #44C06F",
"56	c #4EB67D",
"66	c #50B481",
"76	c #4CB87B",
"86	c #49B97A",
"96	c #3FBF71",
"06	c #39C565",
"a6	c #59CA5F",
"b6	c #82AF87",
"c6	c #72A192",
"d6	c #2A8C9C",
"e6	c #155AB1",
"f6	c #1045B6",
"g6	c #2514BC",
"h6	c #611BBE",
"i6	c #FFBFE5",
"j6	c #9E718B",
"k6	c #3D294B",
"l6	c #2E9888",
"m6	c #17C168",
"n6	c #18C95A",
"o6	c #1EB07E",
"p6	c #3A8E9C",
"q6	c #556FAF",
"r6	c #6D5CB9",
"s6	c #8951C1",
"t6	c #9F3FCA",
"u6	c #AE34CF",
"v6	c #A22CCE",
"w6	c #962BCA",
"x6	c #832DC6",
"y6	c #7132C2",
"z6	c #5B3DBE",
"A6	c #4D52B7",
"B6	c #465FB3",
"C6	c #4477AA",
"D6	c #418A9F",
"E6	c #3AA18F",
"F6	c #38A68A",
"G6	c #32B17F",
"H6	c #32B27D",
"I6	c #32B37C",
"J6	c #2EBB73",
"K6	c #2EBA74",
"L6	c #30B679",
"M6	c #2FB876",
"N6	c #30B67A",
"O6	c #31B67A",
"P6	c #2AB876",
"Q6	c #29B27D",
"R6	c #32B777",
"S6	c #69A88A",
"T6	c #9F8FA2",
"U6	c #9A69B3",
"V6	c #4858B3",
"W6	c #0C41B7",
"X6	c #160858",
"Y6	c #323030",
"Z6	c #FFCBEA",
"`6	c #D79ABF",
" 7	c #5B4F56",
".7	c #666163",
"+7	c #1D0B21",
"@7	c #401A42",
"#7	c #54658D",
"$7	c #1AA588",
"%7	c #18C266",
"&7	c #1DB479",
"*7	c #27A58A",
"=7	c #3B9995",
"-7	c #578AA3",
";7	c #7385AA",
">7	c #827AB3",
",7	c #9271BA",
"'7	c #9866BF",
")7	c #9C53C5",
"!7	c #962ECB",
"~7	c #8023C7",
"{7	c #6822C3",
"]7	c #552EBF",
"^7	c #563FBB",
"/7	c #5848B9",
"(7	c #4D58B4",
"_7	c #2F65AF",
":7	c #2972A9",
"<7	c #227DA4",
"[7	c #1C9496",
"}7	c #1B9695",
"|7	c #199893",
"17	c #199694",
"27	c #199695",
"37	c #169198",
"47	c #158D9A",
"57	c #2079A5",
"67	c #5769AE",
"77	c #975CB7",
"87	c #AD53BC",
"97	c #732CBD",
"07	c #1A16BC",
"a7	c #080CBD",
"b7	c #8726C0",
"c7	c #2D0C5E",
"d7	c #0E0825",
"e7	c #646464",
"f7	c #F4C9E2",
"g7	c #6D6469",
"h7	c #210C34",
"i7	c #331135",
"j7	c #593271",
"k7	c #2B78A6",
"l7	c #15B776",
"m7	c #20B876",
"n7	c #2DB47B",
"o7	c #33B67A",
"p7	c #4FB480",
"q7	c #6DA297",
"r7	c #9078B7",
"s7	c #9E5BC4",
"t7	c #9A4AC7",
"u7	c #9033C9",
"v7	c #8D26CA",
"w7	c #8826C5",
"x7	c #A02EC6",
"y7	c #962DC5",
"z7	c #6B2BC1",
"A7	c #5736BE",
"B7	c #4B40BB",
"C7	c #374CB6",
"D7	c #2755B3",
"E7	c #0F57B1",
"F7	c #0B54B2",
"G7	c #0B4FB4",
"H7	c #3729BC",
"I7	c #7A2CBF",
"J7	c #AD38C1",
"K7	c #9630C0",
"L7	c #3E0CBE",
"M7	c #5D17BE",
"N7	c #982CC1",
"O7	c #A330C1",
"P7	c #431272",
"Q7	c #F6FBF4",
"R7	c #F7F2F0",
"S7	c #8F8B8D",
"T7	c #A68096",
"U7	c #521C5A",
"V7	c #5748AE",
"W7	c #13A886",
"X7	c #15B578",
"Y7	c #27BA73",
"Z7	c #41BD6F",
"`7	c #42C565",
" 8	c #23CD55",
".8	c #22CE52",
"+8	c #3EBD72",
"@8	c #5BAC8A",
"#8	c #75999F",
"$8	c #887FB2",
"%8	c #9F6BC0",
"&8	c #9860C1",
"*8	c #A33BC9",
"=8	c #C436CC",
"-8	c #C937CB",
";8	c #A120CD",
">8	c #9118CB",
",8	c #7716C6",
"'8	c #5A17C1",
")8	c #2916BD",
"!8	c #0D18BC",
"~8	c #0813BC",
"{8	c #0810BC",
"]8	c #5C18BE",
"^8	c #9D2EC1",
"/8	c #AB33C2",
"(8	c #3308BD",
"_8	c #912AC0",
":8	c #A631C2",
"<8	c #421172",
"[8	c #A3EA8D",
"}8	c #C5F0B9",
"|8	c #BCBFBA",
"18	c #6D696B",
"28	c #76626D",
"38	c #B0A8AC",
"48	c #411344",
"58	c #742EA0",
"68	c #1B43B6",
"78	c #0D71A8",
"88	c #18899D",
"98	c #4E9895",
"08	c #879A99",
"a8	c #7BA78C",
"b8	c #24C069",
"c8	c #1EC760",
"d8	c #24C760",
"e8	c #2DC465",
"f8	c #39C16C",
"g8	c #51B87C",
"h8	c #60AF89",
"i8	c #8689AD",
"j8	c #9D62C0",
"k8	c #BD52C6",
"l8	c #D646CA",
"m8	c #C333CF",
"n8	c #5A06C2",
"o8	c #AC33C2",
"p8	c #C63DC4",
"q8	c #BD39C3",
"r8	c #992CC1",
"s8	c #4E12BE",
"t8	c #641ABF",
"u8	c #741FBF",
"v8	c #3D1072",
"w8	c #F7F4F1",
"x8	c #BFEFB1",
"y8	c #84E55C",
"z8	c #86E25A",
"A8	c #ABE28F",
"B8	c #C6E0B8",
"C8	c #A6A2A4",
"D8	c #3D393B",
"E8	c #7F7E7E",
"F8	c #310E36",
"G8	c #712281",
"H8	c #0929BA",
"I8	c #0A3BB8",
"J8	c #374DB5",
"K8	c #805BB6",
"L8	c #A665B6",
"M8	c #797BA9",
"N8	c #139397",
"O8	c #16A18C",
"P8	c #1DAF7F",
"Q8	c #25C563",
"R8	c #1ED149",
"S8	c #32C663",
"T8	c #4FB184",
"U8	c #699F97",
"V8	c #957AB2",
"W8	c #C75AC2",
"X8	c #C14CC6",
"Y8	c #9835C8",
"Z8	c #7711C7",
"`8	c #BA38C3",
" 9	c #CA3EC4",
".9	c #C03AC3",
"+9	c #2404BD",
"@9	c #691BBF",
"#9	c #8B28AA",
"$9	c #2F0C5E",
"%9	c #676666",
"&9	c #7E7D7D",
"*9	c #F8E9ED",
"=9	c #CCF0C0",
"-9	c #B0EC9E",
";9	c #A8E28B",
">9	c #A9CE7C",
",9	c #C1D4A2",
"'9	c #B5D1A9",
")9	c #A8A1A5",
"!9	c #1E0A21",
"~9	c #591962",
"{9	c #681CBF",
"]9	c #2913BC",
"^9	c #6C26BE",
"/9	c #A437C0",
"(9	c #8E38BE",
"_9	c #3440B8",
":9	c #1761AF",
"<9	c #2877A7",
"[9	c #389298",
"}9	c #43B37C",
"|9	c #38BF6D",
"19	c #26C662",
"29	c #21CB58",
"39	c #30BB73",
"49	c #5DA58E",
"59	c #A17FAD",
"69	c #BD5FBC",
"79	c #8937C1",
"89	c #3A02BF",
"99	c #1601BD",
"09	c #8D28C0",
"a9	c #651ABF",
"b9	c #9C2EC1",
"c9	c #6E1DBF",
"d9	c #8124C0",
"e9	c #691D94",
"f9	c #180938",
"g9	c #DAECCE",
"h9	c #C5CCA2",
"i9	c #BCBC8C",
"j9	c #B8DD9D",
"k9	c #B0BDAC",
"l9	c #636263",
"m9	c #6E6B6C",
"n9	c #C2B4BB",
"o9	c #664F5D",
"p9	c #380F50",
"q9	c #4912A7",
"r9	c #5017BE",
"s9	c #2019BC",
"t9	c #542FBB",
"u9	c #7843BA",
"v9	c #8963B4",
"w9	c #9073AE",
"x9	c #6F8AA1",
"y9	c #27A787",
"z9	c #18B07D",
"A9	c #19BB72",
"B9	c #33B777",
"C9	c #749F93",
"D9	c #B45FBA",
"E9	c #9C3CC0",
"F9	c #3C0FBD",
"G9	c #1700BD",
"H9	c #972CC1",
"I9	c #8827C0",
"J9	c #3609BD",
"K9	c #9E2EC1",
"L9	c #571882",
"M9	c #1E0A43",
"N9	c #5D5C5D",
"O9	c #CCD9B3",
"P9	c #C8BB9C",
"Q9	c #B1CC87",
"R9	c #B5E1A6",
"S9	c #6C7B66",
"T9	c #50444B",
"U9	c #B196A6",
"V9	c #350F3A",
"W9	c #6B1CBF",
"X9	c #3F0FBE",
"Y9	c #8E2AC0",
"Z9	c #B73CC2",
"`9	c #BA42C1",
" 0	c #B047BF",
".0	c #8256B7",
"+0	c #2A64AE",
"@0	c #0E7EA3",
"#0	c #109198",
"$0	c #199B91",
"%0	c #4E88A0",
"&0	c #9D62B6",
"*0	c #AC3FC0",
"=0	c #5B1ABE",
"-0	c #5E18BE",
";0	c #8525C0",
">0	c #4810BE",
",0	c #902AB8",
"'0	c #6F1FA1",
")0	c #2C0C5A",
"!0	c #0D0813",
"~0	c #EAEDE0",
"{0	c #C4CBA1",
"]0	c #AFCA81",
"^0	c #8DE062",
"/0	c #6C9656",
"(0	c #323824",
"_0	c #946B84",
":0	c #B99DAD",
"<0	c #644658",
"[0	c #140918",
"}0	c #2A098B",
"|0	c #7F25C0",
"10	c #6F21BF",
"20	c #541FBD",
"30	c #341DBC",
"40	c #0931B9",
"50	c #1550B4",
"60	c #344FB5",
"70	c #7246B9",
"80	c #953BBF",
"90	c #601BBE",
"00	c #8826C0",
"a0	c #4611A7",
"b0	c #3F0F84",
"c0	c #260A60",
"d0	c #170848",
"e0	c #0E0827",
"f0	c #C9E5B7",
"g0	c #96D869",
"h0	c #73C648",
"i0	c #6AA54D",
"j0	c #445830",
"k0	c #957A89",
"l0	c #866879",
"m0	c #21171C",
"n0	c #13091B",
"o0	c #170766",
"p0	c #4C1CBD",
"q0	c #541DBD",
"r0	c #3F19BD",
"s0	c #561CBD",
"t0	c #3C11BE",
"u0	c #8626C0",
"v0	c #6219BE",
"w0	c #0C0660",
"x0	c #D2F3CA",
"y0	c #94E674",
"z0	c #5EA83E",
"A0	c #30551F",
"B0	c #284419",
"C0	c #423F41",
"D0	c #565455",
"E0	c #A08E98",
"F0	c #4B3743",
"G0	c #250B4D",
"H0	c #711EB6",
"I0	c #2105AD",
"J0	c #1A0598",
"K0	c #3D0F8C",
"L0	c #641C83",
"M0	c #722184",
"N0	c #411175",
"O0	c #0E074F",
"P0	c #110842",
"Q0	c #100820",
"R0	c #160934",
"S0	c #636062",
"T0	c #838182",
"U0	c #B3B2B2",
"V0	c #DFF6DA",
"W0	c #73AB60",
"X0	c #2F591C",
"Y0	c #1A2812",
"Z0	c #545052",
"`0	c #6D5964",
" a	c #886479",
".a	c #A6959E",
"+a	c #310E33",
"@a	c #1D0A26",
"#a	c #120758",
"$a	c #11039F",
"%a	c #2105A6",
"&a	c #3D0F93",
"*a	c #491382",
"=a	c #5D1A76",
"-a	c #661D6B",
";a	c #370F5E",
">a	c #280B5E",
",a	c #2A0B5E",
"'a	c #1A085D",
")a	c #10075D",
"!a	c #0C065D",
"~a	c #14075D",
"{a	c #260B5E",
"]a	c #270B5E",
"^a	c #220A5E",
"/a	c #330E5E",
"(a	c #4B155F",
"_a	c #431258",
":a	c #230A4F",
"<a	c #160842",
"[a	c #170842",
"}a	c #140834",
"|a	c #240B35",
"1a	c #220B35",
"2a	c #5B5157",
"3a	c #796A73",
"4a	c #9E8995",
"5a	c #D7BECC",
"6a	c #F4E6ED",
"7a	c #F6F8F3",
"8a	c #91CE7D",
"9a	c #4E942E",
"0a	c #396B21",
"aa	c #2D511E",
"ba	c #485644",
"ca	c #3D2F37",
"da	c #7E787B",
"ea	c #56454F",
"fa	c #140914",
"ga	c #12082A",
"ha	c #26088B",
"ia	c #671CA8",
"ja	c #752195",
"ka	c #6C1F83",
"la	c #712084",
"ma	c #752184",
"na	c #7A2384",
"oa	c #641C6D",
"pa	c #40115A",
"qa	c #180849",
"ra	c #1E0949",
"sa	c #210B21",
"ta	c #170921",
"ua	c #493E44",
"va	c #6D686B",
"wa	c #83737C",
"xa	c #BD9AAE",
"ya	c #D7AFC6",
"za	c #F4C7E1",
"Aa	c #CAE8BA",
"Ba	c #84E359",
"Ca	c #74DA45",
"Da	c #72D148",
"Ea	c #97BF8B",
"Fa	c #8E8D8D",
"Ga	c #6D6067",
"Ha	c #5B4A54",
"Ia	c #494446",
"Ja	c #2E2C2D",
"Ka	c #3B3437",
"La	c #1C1719",
"Ma	c #0E0813",
"Na	c #140831",
"Oa	c #3D1151",
"Pa	c #330F36",
"Qa	c #320F36",
"Ra	c #2C0D35",
"Sa	c #290C35",
"Ta	c #494447",
"Ua	c #5B4853",
"Va	c #5B4C54",
"Wa	c #5B4753",
"Xa	c #5B5358",
"Ya	c #5B5A5A",
"Za	c #776670",
"`a	c #8E7282",
" b	c #9E969A",
".b	c #AEA6AB",
"+b	c #BDB2B8",
"@b	c #D7D4D6",
"#b	c #F4EDF1",
"$b	c #EDDEDC",
"%b	c #A0DA79",
"&b	c #83E052",
"*b	c #7EE34E",
"=b	c #BCE8A9",
"-b	c #F4E0EB",
";b	c #D7C4CF",
">b	c #1C191A",
",b	c #656062",
"'b	c #796771",
")b	c #917B88",
"!b	c #CDBCC6",
"~b	c #DFCAD6",
"{b	c #DFCFD8",
"]b	c #DFB0CB",
"^b	c #DFBFD1",
"/b	c #DFDBDD",
"(b	c #DFDDDE",
"_b	c #DFD5DA",
":b	c #DFCCD7",
"<b	c #DFC8D5",
"[b	c #DFC5D4",
"}b	c #DFC2D2",
"|b	c #DFC3D3",
"1b	c #DFCDD7",
"2b	c #DFD2D9",
"3b	c #DFD6DB",
"4b	c #E9E8E9",
"5b	c #FFC3E6",
"6b	c #BBCA93",
"7b	c #9ED26F",
"8b	c #8CDD5E",
"9b	c #B9DD9F",
"0b	c #C3C0C1",
"ab	c #474646",
"bb	c #C6CFA5",
"cb	c #B1C783",
"db	c #A2D175",
"eb	c #CDD8B4",
"fb	c #F4EEF1",
"gb	c #D7D6D7",
"hb	c #CDCDCD",
"ib	c #D6D6D6",
"jb	c #D7E9C9",
"kb	c #BCD9A0",
"lb	c #BED7A1",
"mb	c #DEDAC9",
"nb	c #FFCEEB",
"                                                                        . + @                                                                                                                           ",
"                                                                      # $ % & #                                 . + @                                                                                   ",
"                                                                      # * = - ;                               # $ % & #                                                                                 ",
"                                                                        . & > & #                             # * = - ;                                                                                 ",
"                                                                        # , - = '         # . )                 . & > & #                                                                               ",
"                                                                        ! ~ { > ] !     # ; ^ / !               # , - = '         # . )                                                                 ",
"                                                                          ( _ : < .   ! [ } | 1                 ! ~ { > ] !     # ; ^ / !                                                               ",
"                                                                          ! ' 2 3 4   . 5 6 7 #   ! # ) . #       ( _ : < .   ! [ } | 1                                                                 ",
"                                                                            # 8 _ [ ( 1 < { [   ( ; 5 9 9 * !     ! ' 2 3 4   . 5 6 7 #   ! # ) . #                                                     ",
"                                      # . )                                       ! ~ 9 0 *   ! + a b b c d #       # 8 _ [ ( 1 < { [   ( ; 5 9 9 * !                                                   ",
"                                  e f g h d i             e j j k   ! # (     ! # ( [ l , i     . / ] , ~ #               ! ~ 9 0 *   ! + a b b c d #                                                   ",
"                                  j m n o p ~             q r s t   . 1 , # ! . 1 * # i                     ! ( @ ~ [ # # ( [ l , i     . / ] , ~ #                                                     ",
"                                  j u v w x h i           y z z y ( l < & # i ; % A '                       . / ^ B { + 1 * # i                         ( [ [ !                                         ",
"                                  k C D E F 3 [         G H I J K ' { A $     [ L > h i ! ) @ [ ' ; * 4 [ ) l | a M N h % A '                         i 8 2 { .                                         ",
"                                    O P Q R S T       G U V W X Y Z `  ...+.+.@.#.$.%.&.*.=.-.;.- >.,.'.7 4 { | d ).,.).L > h i ! ) @ [ ' ; * 4 [ !   i ; A !.*                                         ",
"                                      ~.{.].^./.)   (._.:.<.[.}.|.1.2.3.4.4.4.4.5.6.7.5.3.8.9.0.a.b.c.d.e.d M } @ l - L / '.f.g.g.h.0 M - >.,.'.h (     @ ).,.]                                         ",
"                                      O i.j.k.l.m.n.o.p.q.r.r.s.t.u.u.t.s.s.s.s.s.s.t.s.t.v.v.r.w.x.y.z.A.B.C.D.! [ 5 l [ ] E.F.G.H.I.,.N - | J.$ !     # l - 9                                         ",
"                                      K.L.M.N.O.P.w.Q.R.S.T.U.V.W.X.Y.Z.`. + +.+.+++++++@+#+$+%+&+x.*+x.r.=+-+%+;+>+i i   # ,+'+)+!+~+{+]+^+/+@.+.+.+.+.+.(+_+#.+.+.+.;+:+<+[+}+}+|+1+                  ",
"                                (.2+3+4+5+s.6+r.6+7+8+9+0+a+b+c+d+e+f+g+h+i+j+k+l+m+i+b+b+b+b+n+o+p+q+r+U.s+t+u+v+w+x+y+#   z+A+B+C+3+D+6.E+6.|.F+F+F+4.4.4.4.4.4.4.4.G+H+r.w.w.I+J+;+                  ",
"                          K.K+n.3+L+w.r.w.s.&+%+4+M+N+O+P+b+b+Q+R+S+e+T+U+i+V+W+g+X+Y+i+b+b+b+b+b+b+b+b+n+Z+`+ @*+.@+@@@#@$@%@&@*@=@w.w.-@;@>@,@s.s.s.s.s.s.s.s.s.s.s.x.w.s.&+&+ @r.'@(.                ",
"                      (.)@!@4+s.w.s.~@{@]@o.^@/@Y+c+Y+Y+i+b+b+i+(@_@(@Q+i+b+i+P+:@<@[@k+Q+b+b+i+j+Q+i+b+b+b+2+}@|@1@2@3@4@5@r.6@7@s.8@]@9@0@a@b@.+++++++++ +.+ +++++++p+Z+c@2+n.d@e@f@g@                ",
"                  (.g@w+4.s.w.s.%+h@0+i@c+b+m+j@k@l@i+b+b+b+b+b+b+b+b+b+b+b+b+Q+m@e+S+g+n@(@c+o@X+h+i+b+p@q@r@e@I+s@t@u@r.r.v@w@x@y@c@z@P+j@<@A@Y+b+b+b+c+Y+U+l@b+b+b+b+b+b+b+b+p@B@r.3+1+              ",
"              (.g@w+s.r.s.C@]@o.D@E@F@j@i+b+Q+T+G@d+i+b+i+c+H@Q+j+l@l@Q+i+b+b+j+I@G@n@I@F@J@K@h+L@M@o.]@%+N@r.O@t@P@Q@R@S@T@U@V@W@X@Y@Z@:@:@A@<@d+i+b+i+P+n@X+o@b+b+b+b+b+b+b+b+b+`@ #w.;+              ",
"          )@w+.#+#r.s.r@@###p@b+Y+$#%#o@b+b+i+&#*#A@H@i+o@h+R+W+T+J@J@&#c+b+i+=#S+-#G@n@;#>#,#'#)#!#N@s@r.~#{#]#^#/#(#_#:#<#[#}#|#1#2#3#4#5#R+f+X+j+b+j+h+5#j@j+b+b+i+i+i+i+b+b+b+b+%+r.'@K.            ",
"        6#w+7#r.+#r@q@p@b+b+b+b+h+f+j@c+b+b+b+V+I@e+l@m+W+<@8#8#9#9#F@R+Q+0#a#b#c#d#e#f#g#h#i#j#r.k#~#l#m#/#n#o#o#o#p#q#r#s#t#u#v#w#x#j#y#z#=#A#R+j+H@k+I@T+=#i+c+(@B#k+U+j+b+b+b+b+C#w.D#K+            ",
"    E#g@w+r.x.F#@#p@b+b+b+b+b+b+j@I@(@b+b+b+b+i+o@k+H@H@d+k@X+G#H#I#J#K#L#M#N#O#P#Q#R#s@r.s@S#T#U#V#W#(#_#o#o#o#X#Y#Z#`# $.$+$@$#$$$%$&$Q#*$=$l@V+H@=#T+I@K@i+i+o@X+g+F@k@o@i+b+b+b+@+s.4.-$            ",
"    )@.#+#r+q@p@b+b+b+b+b+b+b+b+B#B#i+b+b+b+i+i+i+i+n+;$>$M+,$%+s.s.s.s@'$r.)$!$S#~$~$l#{#{$]$^$/$($o#o#o#o#o#:#_$:$<$[$}$|$_$:#o#1$2$3$4$5$6$i+i+c+B#W+d+Q+b+i+B#k@e+J@h+V+b+b+b+b+##C@s.!@K.          ",
"    )@w+r@##b+b+b+b+b+b+b+b+b+b+i+i+b+b+b+i+P+7$D@o.]@8@&+N@s@r.N@~#~#l#l#8${$9$0$a$b$(#_#o#:#c$d$X#o#o#o#o#o#:#_$e$f$g$h$o#o#o#o#X#i$j$k$l$4+m$Y+j+j+Y+m+b+b+i+Q+Y+=#l@c+i+b+b+c+Q+n$]@w.4+K+          ",
"K.K+c@w+%+5+r+#+B@q+q+##p@b+b+b+b+b+b+b+b+n$o$p$q$r$s$s@s@~#l#m#t$0$u$v$w$_#o#o#o#o#o#o#o#o#o#o#o#o#o#o#o#o#o#o#o#:#1$o#o#o#o#o#1$x$y$z$A$B$C$D$X+E$H@b+b+b+b+b+b+b+b+b+b+b+b+i+_@h+B#F$x.G+G$          ",
"6#H$G+I$I+w.w.w.x.*+x.s.r@@+c@2+n+b+b+n+6$4+J$r.K$W@L$M$N$W#O$P$Q$1$o#o#o#o#o#o#o#o#o#o#o#o#o#o#o#o#o#o#o#o#o#o#o#o#o#o#o#o#o#o#p#($R$S$T$U$r.V$W$$#=#b+i+c+c+Q+m+j+l@j+c+b+b+c+E$g+X+X$*+7#Y$          ",
";+J+*+*+e@&+&+&+x.*+x.s.r.s.C@C@r@##Z$`$8@s@B$ %.%+%@%#%$%X#x$%%&%X#o#o#o#o#o#o#o#o#o#o#o#o#o#o#o#o#o#o#o#o#o#o#o#o#o#o#o#o#o#o#*%=%-%;%$%/#>%,%'%)%d+c+j+!%h+j@X+k@J@n@=#i+b+i+!%f+S+~%x.x.;+          ",
"4+r.C@p+;+n.n.c@p+q+q+@#r@s.{%]%I+^%F#/%s@{#/#(%Y#|$_%:%e$<%[%}$}%X#o#o#o#o#o#o#o#|%1%2%3%4%5%6%7%8%7%8%7%8%7%8%7%9%4%0%2%a%|%o#b%c%S$d%X#n#/#e%f%'%h+j+!%$#9#8#8#9#<@J@B#i+b+i+Y+5#f+g%8@w.3+K.        ",
"h%w.i%b+b+b+b+b+b+b+b+b+p@j%k%l%*+r.m%~#n%o%p%d$q%r%s%t%:%e$u%v%w%1$o#o#|%x%y%4%7%z%A%B%C%D%E%F%G%F%H%F%G%F%H%F%H%F%I%J%K%L%9%0%M%N%O%x$o#o#n#U$r.P%Q%H@_@n@:@W+R%S%&#B#Q+b+T%U%V%W%X%Y%]@w.Z%K+        ",
"`% &.&b+b+b+b+b+b+b+b+b+b+b+b+p@^%m%t@+&@&<%#&s%$&%&&&*&=&=%-&<$;&>&y%9%,&A%'&)&!&~&{&]&^&/&(&_&:&_&<&[&}&[&|&1&2&3&4&5&6&7&I%K%8&9&0&a&b&o#:#c&d&d&j%b+i+Q+H@c+i+b+b+b+b+b+f@]%e&f&_@j+o.s.s.g&        ",
"h&i&j&c+b+b+b+b+b+b+b+b+b+b+b+b+k&r.l&m&n&t#%&o&p&:$q%:#Q$Y#q&r&s&4%t&u&v&w&x&y&_&z&A&B&C&D&E&F&G&H&I&J&K&L&M&N&O&L&P&Q&R&S&T&U&V&W&X&Y&5%Z&`& *.*s$]@n+b+b+b+b+b+b+b+b+b+b+f@r.{%n.i+b+o+%+w.+*@*      ",
"#*$*%*P+b+b+b+b+b+b+b+b+b+b+b+b+ #r.&*h$=%**-%=*d%*%1$o#o#-*;*>*,*C%'*)*!*~*{*]*^*/*(*_*:*<*[*}*|*1*2*3*4*5*6*7*8*9*0*a*b*[*c*d*e*f*g*h*i*j*k*l*m*l$n*^@b+b+b+b+b+b+b+b+b+b+o*p*p*+.b+b+n+@#s.q*r*O     ",
"s*q.t*d+i+b+b+b+b+b+i+b+b+b+b+b+ #r.&*u*v*w*x*#$o#o#o#o#|%y*z*A*B*C*D*E*]*F*G*H*I*J*K*L*M*N*O*P*Q*R*S*T*U*V*W*X*Y*Z*`* =.=6*+=@=#=$=%=&=*===-=;=>=,='=9@i+b+b+i+c+i+b+b+b+b+b+b+b+b+b+b+b+++s.*@)=i.O   ",
"!=~={=J@V+b+b+b+i+j+(@Q+b+b+b+n+ #r.{#o#1$1$o#o#o#o#|%2%5%]=^=/=(=_=:=<=[=}=|=1=2=3=4=5=6=7=8=9=0=a=b=c=d=e=b=f=g=d=h=i=j=k=l=m=n=o=p=q=r=s=t=u=v=w=r.x=Z@c+c+o@k+(@i+b+b+b+b+b+b+b+b+b+b+Z+s.s.y=z ~.j ",
"z= &A=B=k+i+b+b+j+d+n@o@b+b+b+n+&+s@{#o#o#o#o#o#o#|%2%C=D=E=F=/&G=H=I=J=K=L=M=N=O=P=Q=R=S=T=U=V=W=X=Y=Z=`= -.-+-@-#-$-%-&-*-=---;->-,-'-)-!-~-{-]-^-/-(-_-!%Y+n@A@k+i+b+b+b+b+b+b+b+b+b+b+o+&+w.:-<-[-}-",
"|-v.1-9#W+Q+b+c+k+5#T+(@b+b+b+z@2-r.{#o#o#o#o#o#|%2%C=D=3-4-E*5-6-7-8-9-0-a-b-c-d-e-f-g-h-i-j-k-l-m-n-o-p-q-r-s-t-u-v-w-x-y-z-A-B-C-D-E-F-G-H-I-J-K-L-M-N-O-h+5#<@&#b+b+b+b+b+b+b+b+b+b+b+n+ #r.4+P-Q-R-",
"5+w.S-I@X+l@i+T-k@I@U+i+i+H@l@P+U-r.V-n#o#o#o#o#x%W-X-Y-4-Z-`- ;.;+;@;#;$;%;&;*;=;-;;;>;,;';);!;~;{;];^;/;(;_;:;<;[;};|;1;2;3;4;5;6;7;8;9;0;a;b;c;d;e;f;g;h;R+e+f+!%b+b+b+b+b+b+b+b+b+b+b+b+r@r.'@i;P j;",
"5+w.k;o@_@Q+V+W+A@d+c+i+V+d+:@I@l;m;n;o;o#o#o#o#0%p;q;r;s;t;u;v;w;x;y;z;A;B;C;D;E;F;G;H;I;J;K;L;M;N;O;P;Q;R;S;T;U;V;W;X;Y;Z;`; >.>+>@>#>$>%>&>*>=>->;>>>,>'>U+e+F@!%b+b+b+b+b+b+b+b+b+b+b+b+@#s.4.)@O i.",
"4+r.%+n+b+c+U+k@n@j+b+c+!%e+)>9#!>~>n;0$o#o#o#b&7%{>]>^>/>(>_>:><>[>}>|>1>2>3>4>5>6>7>8>9>0>a>b>c>d>e>b>f>g>h>i>j>L;k>k>l>m>n>o>p>q>r>s>t>u>v>w>x>y>z>A>B>C>Q%5#<@m@i+b+b+b+b+b+b+b+b+b+b+b+++s.4.+.  O ",
"D>w.&+E>m+Q+Y+K@(@i+b+i+V+!%k+o@F>s.~#0$X#u*G>0%H>q;I>J>K>L>M>N>O>P>Q>R>S>T>U>V>W>X>Y>Z>`> ,.,+,@,#,$,%,%,&,*,=,-,;,>,,,',),!,~,{,],^,/,(,_,:,<,[,},|,1,2,3,4,X+9#n@b+b+b+b+b+b+b+b+b+b+b+b+##F#s.!@(.  ",
"5,w.7+6,S%B#c+i+b+b+b+b+b+b+b+b+++s.~#7,_$d%8,9,0,a,b,c,d,e,f,g,h,i,j,k,l,m,n,o,p,q,r,s,t,u,v,w,x,y,z,A,8=B,C,D,E,F,G,H,I,J,K,L,M,N,O,P,Q,R,S,T,U,V,W,X,Y,Z,`, '%#B#b+b+i+i+c+i+b+b+b+b+b+b+p@@#s..#)@  ",
".'4.t.+'S+k@V+b+b+i+i+i+i+c+c+c+ +s.~#@'Z#:%#'$'%'&'*'6-='-';'>',''')'!'~'{']'^'/'('_':'<'['}'|'1'2'3'4'5'6'V=7'8'B;9'0'a'b'c'd'e'f'g'h'i'j'k'l'm'n'o'p'q'r's't'E$i+i+m+o@!%&#Y+i+b+b+b+b+b+b+Z+s.4.u'  ",
"v'Z%w.w'x'f+k+i+c+P+B#U+k+E$S%!%W.s.~#y'u%z'A'B'C'D'E'F'G'H'I'J'K'P>L'M'N'O'P'Q'R'S'T'U'V'W'X'Y'Y'Z'X'Y'Y'`' ).)+)@)#)$)%)&)*)=)-);)>),)')))!)~){)])^)/)()_):)<)Q+b+c+d+e+f+g+h+i+b+b+b+b+b+b+c@&+w.[)  ",
"})4+w.n*i@F@R+m+B#k@g+<@8#|)|)A@1)s.N@2)3)4)5)6)7)8)9)0)a)b)c)d)e)f)g)h)i)j)k)l)m)n)o)p)q)r)s)t)r)u)s)t)r)u)v)v)w)x)y)z)A)B)C)D);-E)F)G)H)I)J)K)L)M)N)O)P)Q)r.R)n+b+Q+R+S+e+T+U+i+b+b+b+b+b+b+n.&+w.}+  ",
"  3+r.2-S)h+K@j+k+A@<@F@e+J@X+d+T)%+r.m#U)V)W)X)Y)Z)`) !.!+!@!#!$!%!&!*!=!-!;!>!,!'!)!!!~!{!]!^!/!(!_!:!<!:![!!)}!|!1!2!3!4!5!6!7!8!9!0!a!b!c!d!e!f!g!h!i!j!k!l!o+b+i+(@_@(@Q+i+b+b+i+a+m!n.n.n!l%w.}+  ",
"  u's.s.j%i+i+i+c+l@j+H@i+i+b+b+b+]@s@l#o!p!q!r!s!t!u!v!w!x!y!y)z!A!B!C!D!E!F!G!t)H!I!J!K!L!6%M!X-N!I%O!E=P!Q!R!S!T!U!V!W!X!Y!Z!`! ~.~+~@~#~$~%~&~*~=~-~;~>~,~'~)~b+b+b+b+b+p@##++@+,$5$!~7+&+C@w.~~}+  ",
"  K+D+v.,$z@b+b+b+b+b+b+b+b+b+b+b+B@P@P@{~]~^~/~~,(~_~:~<~[~}~p)|~1~2~3~4~5~6~7~8~9~0~b&a~b~c~7&d~e~f~4&g~g~f~<&h~i~j~k~l~m~n~o~p~q~r~s~t~u~v~w~x~y~z~A~B~C~D~E~F~G~H~I~J~K~L~s.s.s.v.r.$*M~I+I+r.J+|+  ",
"  })N~O~P~Q~i+b+b+b+b+b+b+b+b+b+b+p+*+t@R~{>S~T~U~V~W~X~Y~Z~`~)! {.{+{@{#{${%{&{*{={-{7%;{>{,{'{%=){!{~{{{]{^{/{({_{!*:{<{[{}{|{1{2{3{4{5{6{7{8{9{0{a{b{c{d{e{f{g{!~h{i{j{r.r.t.s.s.k{M#l{m{{%H+n{o{1+  ",
"  # p{q{i&r{o@c+b+b+b+i+i+b+b+b+b+Z+s{O@t{u{v{K>w{x{y{z{A{B{s)C{D{E{F{G{H{I{J{K{L{M{D=N{O{P{Q{R{S{T{U{V{W{X{Y{Z{`{ ].]+](&@]#]$]%]&]*]=]-];]>],]'])]!]~]{]]]^]/](]_]:]<][]}]|]1]++Z+^@2]*#3]^%u+D#4]    ",
". ) 5]6]r.7]8]k+j+i+i+j+Y+m+b+b+b+n+]@s@9]0]_&a]b]c]d]e]Z~`~f]{!g]h]i]j]k]l]m]n]o]p]q]r]s]t]u]v]w]x]y]z]A]B]C]D]E]F]G]H]Y)&'I]J]K]L]M]N]O]P]Q]R]D{8~S]T]U]V]W]X]Y]Z]`] ^I#.^(@i+b+b+b+(@5#+^@^#^7#$^K.  ",
"d d . o.v.q$%^A@R%Y+j+h+k@U+i+b+b+b+@+N@&^*^=^-^;^>^,^<~e)'^)^!^~^{^]^^^/^(^_^:^<^[^}^|^1^2^3^4^5^6^7^8^9^0^a^b^c^d^e^f^g^+]h^i^j^k^l^m^n^o^p^x%q^r^s^t^u^v^w^x^r.y^z@i+b+b+b+b+b+b+b+c+o@_@n+4+w.Z%4]  ",
"2 = , z^t.~>A^I@e+W+k+J@<@E$b+b+b+b+##s.B^C^D^E^q=F^G^H^I^z!J^g]o#K^L^M^N^O^P^Q^R^S^T^U^V^W^X^Y^Z^`^ /./+/@/#/$/%/&/*/=/`--/)*;/>/,/l^'/)/!/~/{/]/^///(/_/:/U{</[/}/o+b+b+b+b+b+b+b+b+b+i+i+b+6$8@w.$^K.",
"^ > a |/1/q.2/S%h+X+n@e+B=k+b+b+b+b+p@r@r.3/4/5/6/7/8/h,9/0/a/b/o#c/d/e/f/g/h/i/j/k/l/m/n/o/p/q/r/s/t/u/v/w/x/y/z/A/B/C/J>+]D/;/E/F/G/H/I/J/~/2%c$K/L/M/N/O/P/Q/R/&^@+b+b+b+b+b+b+b+b+b+b+b+b+n+]@w.Z%K+",
"1 I.S/T/U/r.V/Q%c+Y+&#e+g+U+b+b+b+b+b+@+W/X/Y/Z/`/ (.(+(@(8~#(o#o#$(%(&(*(=(-(;(>(N&,((^'()(!(~({(](^(/(((_(e):(<([(}(|(1(A&3-;/E/2(G/3(4(J/5(6(7(8(9(0(a(b(c(d(e(r.U.=$b+b+b+b+b+b+b+b+b+b+b+b+B@x.G+G$",
"_ f(g(h(i(i#t.##H@U+R%A@A@o@b+b+b+b+b+o+j(k(l(m(n(o(d-p('!q(r(o#o#s(t(u(4~v(w(x(y(z(A(B(C(D(E(F(G(H(I(J(K(L(M(N(O(P(Q(R(S(T(U(V(>/W(l^X(Y(J/5(y*Z(`( _._+_@_#_$_%_&_7.g%i+b+b+b+b+b+b+b+b+b+b+b+q+*+7#Y$",
"4 a *_'.=_4.s.-_B#J@:@j@S%j+b+b+b+b+b+n+;_>_,_'_)_!_~_W'{_]_^_o#o#/_(___:_<_[_}_|_1_2_3_4_5_6_7_8_N,1(9_0_a_b_c_d_>;e_f_+]g_E%h_i_W(l^j_I/!/k_l_=&m_n_o_p_q_r_s_t_u_v_w_i+b+b+b+b+b+b+b+b+b+b+b+p+x.G+;+",
"! [ 2 - x_y_w.z_A_A@&#j+c+i+i+c+i+b+b+b+B_C_D_E_F_G_H_Y't)I_J_o#o#K_L_M_N_O_P_Q_R_S_T_U_V_W_X_Y_N,Z_R;`_ :.:+:@:#:$:%: ;&:*:=:-:;:>:,:H/':):!:~:{:]:^:/:(:_:::<:[:}:|:1:n+b+b+b+b+b+b+b+b+b+b+b+Z+&+J+u'",
"  # , L 2:3:t.4:5:R+m+i+Q+Y+U+l+_@c+b+b+6:7:8:9:0:a:b:Y't)I_o#o#o#c:d:e:*(f:6~g:h:i:j:k:l:m:n:o:p:q:E&r:s:t:u:v:w:x:y:z:A:B:C:D:E:F:G:H:I:J:K:L:M:N:O:P:Q:R:S:T:U:V:|:W:o+b+b+b+b+b+b+b+b+b+b+b+Z+s.4.u'",
"    ( ~ . X:Y:i&Z:`:i+c+k+I@F@g+j@m+b+b+ <.<+<@<#<$<%<Y't)I_o#o#o#&<*<=<-<v(;<><,<'<)<!<~<{<]<^</<(<_<:<<<[<}<|<1<2<3<4<Q!5<6<7<8<9<0<N_a<b<c<d<e<f<g<h<i<j<k<l<m<n<o<p<@+b+b+b+b+b+b+b+b+b+b+b+++s.4.+.",
"      ! i q<r<1.s<j%b+c+E$A@e+k@k+c+b+b+t<u<v<w<x<y<z<Y't){!b/o#o#A<B<C<D<O^E<F<G<H<I<J<K<L<M<N<O<P<Q<R<V>S<T<U<V<W<T;X<Y<Z<`< [.[+[@[#[$[%[&[*[=[-[;[>[,['[)[![~[{[][r.r@n+b+b+b+b+b+b+b+b+b+b+Z+s.4.u'",
"(   # [ ' ) {+`%w.]@b+i+l@o@P+j+i+b+b+i+^[/[([_[:[<[[[}[|[~!g]o#o#C=1[2[V^3[4[5[6[7[8[9[F:0[a[b[c[y&d[e[f[g[9)h[(>i[j[k[l[m[n[o[p[q[r[s[t[u[v[w[x[y[z[A[B[C[D[E[F[_%G[H[&+o+b+b+b+b+b+b+b+b+b+b+c@&+w.[)",
"[   ) d J.; })I[r.C@##b+b+b+b+b+b+b+b+c+!%h+W.J[K[L[M[N[p)!!#(o#o#t&O[P[Q[R[S[l-T[U[V[W[X[Y[Z[`[J%E= }.}a,+}@}#}$}%}&}*}=}-};}>},}'})}!}~}{}]}^}/}(}_}:}<}[}}}|}1}-%2}3}N@o.i+c+c+i+b+b+4}2+2+5}n.&+w.}+",
"@   ) 6}'.^ ) 7}y.t+8}Q+m+j+l@Q+i+b+b+Q+W+<@9}0}r.a}b}c}d}0/a/^_o#e}f}g}h}i}j}k}l}m}n}o}p}q}r}s}t}u}v}w}p^x}y}z}A}B}C}D}E}F}G}H}I}J}K}L}))M}N}O}P}Q}R}S}T}U}V}W}X}s#Y}Z}`}w'd+j@d+V+b+b+n. |.|r+2+&+w.[+",
"#   i $ c | + +|h#@|#|i@X+X%J@h+j+b+b+c+R%*#X+$|%|&|*|=|B{-|;|>|,|'|)|!|~|p}{|]|^|/|G{(|_|:|<|[|}|||1|2|3|4|5|6|7|8|9|0|a|b|c|d|e|f|g|h|i|j|k|l|m|n|o|p|q|r|s|t|u|[%v|w|r.7]x|)>5#B#i+b+n.y|u+r+n+ #r.4+",
"      @ 9 0 4 z|A|i&B|C|9#9#f+W+j+b+b+i+U+9#A@9@D|E|F|G|H|I|J|K|r(L|M|N|O|P|Q|R|S|T|U|V|W|X|Y|Z|`| 1.1+1@1#1$1.-%1&1*17^=1-1;1>1,1'1)1!1~1{1]1^1/1(1_1:1<1[1}1|111u*o#2131410+h+T-H@b+b+51616171b+ #r.'@",
"      # ' , @ ) 811.R.91R+d+k+Y+i+b+b+b+j+T+:@01s+a1b1c1d1e1|[f1']g1h1i1j1k1l1m1n1o1p1q1r1s1t1u1v1w1x1y1z10=z1A1B1C1D1E1F1G1H1I1J1K1L1M1N1O1P1Q1R1S1T1U1V1W1X1Y1u*o#o#Z1d&t.`1c+i+b+b+i+H@j+H@b+b+ #r.'@",
"    i i ! #     X: 2w.]@.2b+b+b+b+b+b+b+i+Y+_@.2+2@2#2$2=|%2&2*2=2-2;2>2,2'2)2v1!2~2{2]2^2/2(2_2:2W^<2[2}2|2}212223242526272829202a2b2c2d2e2f2g2h2i2)}j2k2l2m2n2o#o#o#0$~#s.++b+b+b+b+c+!%X+&#c+b+ #r.'@",
"  i [ 8 . !     K.}+x. @++b+b+b+b+b+b+b+b+b+i+b+o2s$p2q2r2s2t2u2v2w2x2y2z2A2B2C2D2E2F2G2H2I2J2K2L2M2~|N2O2P2Q2R2S2T2U2V2W2X2Y2Z2`2 3.3+3@3#3$3%3&3*3=3-3;3>3,3'3X#h$$%)3!3,%~3`:H@b+b+c+E$B=J@l@b+ #r.'@",
"  # 1 ).d ~ # # . ..7#*+r+b+b+b+b+b+b+b+b+b+b+b+[)&+&_{3]3^3/3(3_3|[n~:3<3[3}3|31323334353637383931=03a3b3c3d3e3f3g3h3i3j3k3^,l3m3n3o3p3q3r3s3t3u3v3w3x3y3z3A3x$B3|$c%C3D3E3F3G3U+i+b+i+U+g+F@B#b+ #r.'@",
"  # ; ).% } $ * h H34.r.I3i+b+b+b+b+b+b+b+b+b+b+n.&+J3K3L3M3N3O3P3N[Q3R3S3T3U3V3W3X3f/Y3Z3`3 4.4+4@4#4$4%4h:&4*4=4&4-4;4>4,4'4)4!4~4{4]4^4/4(4_4:4<4[4}4|414@$q##&2434445464>@74o@i+b+b+V+k@F@k+b+4.r.4.",
"    # + h a B 2 c < 84r.9404b+b+b+b+b+b+b+b+b+b+2+8@a4b4c4d4e4f4g4h4%2i4j4k4l4m42_n4o4p4q4r4s4k^t4!2u4v4w4a-l-w4x4y4z4A4B4C4D4E4F4b-G4H4I4J4K4L4M4N4O4P4Q4_$R4u*_$g$w*r#S4T4Q.U4i+b+b+b+c+!%n@T-b+C#]%J+",
"      ! @ V4a W4X4b Y4Z4Z401b+b+b+b+b+b+b+b+b+b+n+]@a4`4 5.5+5@5#5$5%5&5*5=5-5;5)_>5,5'5)5!5~5{5{|]5^5/5(5_5:5<5[5}5|515253545556575859505a5b5c5d5e5f5g5h51$1$o#:#p#p#:#i5l#s@#+b+b+b+b+b+c+m+c+b+@^e@~~",
"    # . ; d } j5> k5l5m5;@n5b+b+i+c+i+b+b+b+b+b+b+o.o5p5q5r5s5t5u5v5w5x5y5z5A5B5C5D5E5F5G5H5I5J5K5L5M5N5O5P5Q5R5}2S5Q5T5U5S5Q5O5V5W5:|X5Y5Z5`5 6.6+6@6#6[%Q$1$o#o#o#o#o#$6l#s@r+b+b+b+b+b+b+b+b+b+c@s.4.",
"# [ 1 & < 3 9 $ 9 I.%6&6r.*6p@i+j+U+=#b+b+b+b+b+b+o+l!=6-6;6>6,6'6)6!6~6{6]6(3^6/6(6_6:6<6[6}6|6162636465666#[1656'<7676'<'<76869606a6b6c6d6e6f66%g6h6f$;&#&$%:#o#o#o#o#w$l#s@$+b+b+b+b+b+b+b+b+b+c@&+J+",
"; J.3 - = { , ( ~ L i6j6Z4t.j%Q+E$J@k+b+b+b+b+b+b+n+X@r.k6l6m6n6o6p6q6r6s6t6u6v6w6x6y6z6A6B6C6D6*4E6F6G6H6I6J6K6L6Z{M6M6N6O6>,P6Q6R6S6T6U6V6W65%2%1$*%%%}%-%;%b%#$o#1$#$<#X6r.%+p@b+b+b+b+b+b+b+o+:+C@Y6",
"l A < & $ @ i   # , Z6`6 7w.,$U+I@J@Y+b+b+i+i+c+i+b+.7+7@7#7$7s!%7&7*7=7-7;7>7,7'7)7!7~7{7]7^7/7(7_7:7<7J([7}7|7'{1717172727O,3747576777879707a7o#o#1$Q$($b7_%c%w*R4h$g$r%c7d7x.++b+b+b+b+b+b+p@e7+#{%6$",
"' , + (           @ } f7g7r.{@O-A@!%i+i+j+_@!%!%(@i+j%h7i7j7k7O<l7m6W<m7n7o7X{p7q7r7s7t7u7v7w7x7y7z7A7B7C7D7E7P!H%E=P!P!E=E=F7G7C%p;H7I7J7K7R4o#o#o#o#X#L7M7;%-%N7-&q%s%O7P7t@*+q+b+b+b+b+n+6$o.#^x.w+1+",
"                  Q7g R7S7v.!~T7h+c+b+j+R+%#F@A@k+i+p@X@r.U7V7 }&:W7X7Y7Z7`7 8.8+8@8#8$8%8&8*8=8-8;8>8,8'8)8!87%8%8%7%7%8%6%5%~8{8a7h5]8^8/8&%1$o#1$(8q%b7S$s%&&s%_8;%:%:8<8P@x.q+b+b+n+o+@+%+v+r@g@)@  ",
"            i Q7j i.[8}8|818~=2838b+i+V+A#S+$#A#o@i+b+,$k#485868P!78889808a8b8c8d8e8f8g8h8i8j8k8l8m8N(n)n8K|^_o#o#o#o#o#o#o#o#o#o#o#1$$%;%44t%Q$#$x*r%o8p8q8r8#6s8t8u8_%O7v8P@x.q+b+##r+f@x.{%H$6#      ",
"          ( ' w8x8y8z8A8B8C8s<D8E8n+b+c+(@o@V+Q+i+b+b+o.!$F8G80&H8I8J8K8L8M8N8O8P8!{Q8R8S8T8U8V8W8X8Y8Z8n8K|^_:##$#$1$o#o#o#o#o#o#o#o#p#r#$&24b%v*`#`8 9.9;&[%(8+9*%@9w%#9$9t@*+%9@#F#I+u+{%&94]K.      ",
"        # ; & *9=9-9;9>9,9'9$^w.%+6$b+b+b+b+b+b+b+b+i+)9!~!9~9{9x%]9^9/9(9_9G7:9<9[9}9|9192939495969793|89K|99*%&%d%:#o#o#o#o#o#o#o#o#1$$%q&09($a9b9[$ $e$L7u*d$($c9d9t#e9f9t@Y6*+x.r.7#}/3+)@          ",
"        @ 7 A d i ! g9h9i9j9k9l9w.m9*.Q+j+l@j+c+b+b+i+n9o9r.p9q9:#($^8_%r93%s9t9u9v9w9x9y9z9A9B9C9D9E9F9G9r(7(&%H9q&1$o#o#o#o#o#o#o#o#o#X#R4<%*%s8I9}$e$J91$q#r%^8O7K9L9M9s$n{r.7#7#N9!@)@              ",
"      # $ % j5'     . O9P9Q9R9S9 &T9U9W+:@J@T+K@i+b+i+(@'%V9'=/#<#&&O7W9o#o#X9Y9Z9`9 0.0+0@0#0$0%0&0*0=0o#X#b%}%_%-0o#1$:#p##$p#:#X#X#o#o#1$X#p#Y#e$;0>0o#:#Y#;0K9,0'0)0!07#I[}+I[!@)@                  ",
"      ) ^ | V4#     i ~0{0]0^0/0(0P#_08#9#<@e+E$c+i+H@m+:0<0[0C$}0Z#u8p#o#o#Q$W9|010203040i*{>50607080901$>00024u8p#:#R4v*&%#&b%J9x*B3:#1$c$x*<%*%*&Y#:#o#1$#$a0b0c0d0e0P@'@>+) )                       ",
"      . & 9 [         ) f0g0h0i0j0j{k0j@h+&#U+l@c+K@E$H@B#l0m0n0o0X#1$o#o#o#o#o#o#o#o#n22%0%g6p0q0r0s0t0#$Z#24u0x$o#c$@$w%**}$=%v0b7O%u*:#<%;0;0$%1$_#(#u$9$w0{#N@s@s@l&g@x+[ V4l #                     ",
"      # 4 + !       i i x0y0z0A0B0C0D0-_Z+c@2+z@B#g+X%c+Q+E0F0r.G0n#o#o#o#o#o#o#1$1$1$o#1$X#Y#c%_%q#X#X#x$=%t%x*o#o#x$r%$&_%s%@$&&^8H0I0J0K0L0M0N0{$O0P0e%e%Q0r.R0S0T0U0(.i 8 a 6 '                     ",
"        # !       ( ' + # V0W0X0r.Y0w.s.s.&+&+Z0`0 aZ.Z+o+q<.a+a@a#a$aQ$q#_$x*[%d%r#s8X#%a&a*a=a-a;a>a,a'a,a,a)a!a!a~a{ac7]a^a/a(a_a:a<a[a}a|aF8p<`}r.l$1a6.2a3a4a5a6a#   ! ~ B N _                     ",
"                ! @ 5 9 1 7a8a9a0aaaba4.4.w.w.r.$*cat.s.&+4+daeafagahaiajakalamanaoapaqaraT#j#|asa1#k#)$'$s@s@s@s@s@s@s@s@s@`}k#V@H[r.H[ta|.3.ua1.k;vawa,#xayazac < V4#     . h !.&                     ",
"                  ) _ j5B ] AaBaCaDaEa+|3:Fa[+GaHaIa4.4.J+r.JaKaLaMaNaOaPaQaF864RaSar.r.r.v_6.TaUaVaq{WaXah%5+h%Yai%i%i%k;k;`%2aq{k;A.Za`a b...b+b@b#b5 L } 7 5 l $ [       # * j5h                     ",
"                    ) $ 9 % $b%b&b*b=b1 * !   -b;b+|+.u'3+4+5+v+>br.!0r.m;5.|.4.4.4.'@,b'b)b/+=$!b~b{b]b^b/b(b_b:b~b<b[b}b|b1b2b3b4bq<9 5bh i ! #   i ) . ( # !               ) ; '                     ",
"                      # + ^ 0 6b7b8b9bA & !   ( #         5]0b$^abG+1@w+!@+.+.+.+.)@(.d = 6}#   i # [ B 0 [ . & c '.'.- - 3 h . !   # _ X46 + #                                 ! !                     ",
"                  ! ( [ $ 6}).bbcbdbeb!.J.              ( , d fbgbhbibK.              7 j5~         # ; 1 ) ) d { 9 ^ 5 V41 ~ !       ' | '.9 1 . !                                                     ",
"              ! ) + d { 6 | ] jbkblbmb>.&               ) h = { ; #                   4 * i       i # ! #   ! ) . ( # !               ( , 9 j5B ] ' #     ! ( #                                         ",
"              ) _ % W4- A ^ + i ) + } nb5                 . h M 6 V4.     i . . !     # i       # ' ; (                                 i . $ 9 % 9 $ . # @ 1 * !                                       ",
"            ! [ & 3 B 5 ; )       . h | ,                   i 4 a p ).+ # [ J.& #               ( V4{ l @ i                                 # + ^ 0 j5d ' 1 A & !                                       ",
"              ) 4 $ [ #           ( ; l @                     # ; { = 0 , $ > 6 !               # $ j5% ^ 8 (     ! ( (                 ! ( [ $ 6}).{ j5] 7 !.J.                                        "};
