/* XPM */
static char * hero2_xpm[] = {
"100 100 865 2",
"  	c #FFFFFF",
". 	c #E6D9DE",
"+ 	c #CFB2BD",
"@ 	c #B1748D",
"# 	c #AE6E89",
"$ 	c #AD6B87",
"% 	c #B57F95",
"& 	c #B78398",
"* 	c #F9F7F7",
"= 	c #B2778F",
"- 	c #BD91A3",
"; 	c #B27890",
"> 	c #CAAAB7",
", 	c #EBE1E5",
"' 	c #DFCED4",
") 	c #CAAAB6",
"! 	c #C198A8",
"~ 	c #C39BAB",
"{ 	c #D4BBC4",
"] 	c #F4EEF0",
"^ 	c #BC8FA1",
"/ 	c #F0E8EB",
"( 	c #E3D4DA",
"_ 	c #C39DAC",
": 	c #B1758E",
"< 	c #C7A4B2",
"[ 	c #BA899D",
"} 	c #AD6986",
"| 	c #AB6483",
"1 	c #E1E1E1",
"2 	c #C6C6C6",
"3 	c #AEAEAE",
"4 	c #999999",
"5 	c #EFE7E9",
"6 	c #C6A2B0",
"7 	c #E7DADE",
"8 	c #AC6885",
"9 	c #B37991",
"0 	c #AD6C88",
"a 	c #B47C93",
"b 	c #B57E95",
"c 	c #DBC7CE",
"d 	c #CBCBCB",
"e 	c #959595",
"f 	c #4F4E4E",
"g 	c #494848",
"h 	c #353434",
"i 	c #262525",
"j 	c #454444",
"k 	c #B3B3B3",
"l 	c #F4F4F4",
"m 	c #C096A6",
"n 	c #BB8C9F",
"o 	c #AA6382",
"p 	c #AB6684",
"q 	c #C49FAE",
"r 	c #D1B6C1",
"s 	c #CEB1BC",
"t 	c #C9A8B5",
"u 	c #8A8A8A",
"v 	c #2E2D2D",
"w 	c #5B5B5B",
"x 	c #D2B8C2",
"y 	c #C8A5B3",
"z 	c #BD8FA1",
"A 	c #D7D7D7",
"B 	c #CDCDCD",
"C 	c #DFDEDE",
"D 	c #E9E9E9",
"E 	c #656464",
"F 	c #0D0809",
"G 	c #515050",
"H 	c #6F6F6F",
"I 	c #1C1A1A",
"J 	c #A6A5A5",
"K 	c #E0CFD5",
"L 	c #BB95A4",
"M 	c #AA6884",
"N 	c #A36981",
"O 	c #8D6E7A",
"P 	c #6D6C6C",
"Q 	c #838383",
"R 	c #9E9D9D",
"S 	c #606060",
"T 	c #3D3C3C",
"U 	c #797979",
"V 	c #D5BEC6",
"W 	c #A5A1A2",
"X 	c #8F6D7B",
"Y 	c #7C4F61",
"Z 	c #703C53",
"` 	c #3E222E",
" .	c #27151D",
"..	c #919191",
"+.	c #BCBBBB",
"@.	c #403F3F",
"#.	c #B9AEB2",
"$.	c #B78F9F",
"%.	c #AF728C",
"&.	c #563141",
"*.	c #673B4F",
"=.	c #704056",
"-.	c #79465D",
";.	c #6D3F53",
">.	c #653A4D",
",.	c #5D3547",
"'.	c #4E2C3B",
").	c #8E8E8E",
"!.	c #7C7C7C",
"~.	c #676767",
"{.	c #394435",
"].	c #875A6D",
"^.	c #A05C7A",
"/.	c #A3607D",
"(.	c #9B7182",
"_.	c #AEA9AB",
":.	c #A6A6A6",
"<.	c #323030",
"[.	c #7C485F",
"}.	c #A96483",
"|.	c #C17295",
"1.	c #DB82AA",
"2.	c #D17CA2",
"3.	c #B86D8F",
"4.	c #A25F7D",
"5.	c #2A171F",
"6.	c #565656",
"7.	c #888888",
"8.	c #807F7F",
"9.	c #6A6A6A",
"0.	c #1D1015",
"a.	c #582E41",
"b.	c #864763",
"c.	c #A15677",
"d.	c #96506F",
"e.	c #79435B",
"f.	c #3B393A",
"g.	c #2A2929",
"h.	c #543040",
"i.	c #8E536D",
"j.	c #3C212D",
"k.	c #6E6E6E",
"l.	c #BDBDBD",
"m.	c #737373",
"n.	c #2D1821",
"o.	c #381F2A",
"p.	c #955773",
"q.	c #874E68",
"r.	c #7C445D",
"s.	c #A35779",
"t.	c #8E4B69",
"u.	c #522A3C",
"v.	c #190D12",
"w.	c #383737",
"x.	c #5C3446",
"y.	c #A05D7B",
"z.	c #A76281",
"A.	c #714156",
"B.	c #9F9F9F",
"C.	c #848484",
"D.	c #747474",
"E.	c #211218",
"F.	c #4B2A39",
"G.	c #77455B",
"H.	c #9B5B77",
"I.	c #B06888",
"J.	c #AF6285",
"K.	c #A4587B",
"L.	c #A15778",
"M.	c #884865",
"N.	c #492735",
"O.	c #76445A",
"P.	c #A15E7C",
"Q.	c #432532",
"R.	c #878787",
"S.	c #A5A5A5",
"T.	c #424141",
"U.	c #161313",
"V.	c #24141A",
"W.	c #D17BA2",
"X.	c #BC6A8E",
"Y.	c #AC5D81",
"Z.	c #AE5F82",
"`.	c #985573",
" +	c #482836",
".+	c #4B4A4A",
"++	c #474646",
"@+	c #222020",
"#+	c #AE6687",
"$+	c #C9749A",
"%+	c #B7668A",
"&+	c #C47297",
"*+	c #7A475E",
"=+	c #361E28",
"-+	c #925571",
";+	c #140B0E",
">+	c #522E3E",
",+	c #452634",
"'+	c #C07195",
")+	c #D77FA7",
"!+	c #C57197",
"~+	c #B8678B",
"{+	c #AD5E82",
"]+	c #BE6B90",
"^+	c #C47196",
"/+	c #AD6586",
"(+	c #5B3345",
"_+	c #7E7D7D",
":+	c #8E536E",
"<+	c #7F4A62",
"[+	c #2F1A23",
"}+	c #62384B",
"|+	c #C77399",
"1+	c #BB698E",
"2+	c #AF5F83",
"3+	c #B7668B",
"4+	c #C26F94",
"5+	c #777676",
"6+	c #555454",
"7+	c #402330",
"8+	c #3A202B",
"9+	c #D37CA3",
"0+	c #CE789F",
"a+	c #D67EA6",
"b+	c #969696",
"c+	c #804A62",
"d+	c #995A76",
"e+	c #8D526D",
"f+	c #E7F9E3",
"g+	c #462735",
"h+	c #CBF2C0",
"i+	c #A9EB94",
"j+	c #B86C8E",
"k+	c #A3607E",
"l+	c #D27DA3",
"m+	c #93E875",
"n+	c #BBEFAC",
"o+	c #321B25",
"p+	c #341D27",
"q+	c #422431",
"r+	c #945772",
"s+	c #D67FA6",
"t+	c #CBF2C1",
"u+	c #84E55B",
"v+	c #5F3648",
"w+	c #9A5A76",
"x+	c #CE7AA0",
"y+	c #854D67",
"z+	c #5D5C5D",
"A+	c #BBEFAD",
"B+	c #7EE552",
"C+	c #7BE44A",
"D+	c #4C2B3A",
"E+	c #DA81A9",
"F+	c #F6FDF4",
"G+	c #A9EB95",
"H+	c #80E555",
"I+	c #82E558",
"J+	c #B5EEA5",
"K+	c #C6759A",
"L+	c #C8769B",
"M+	c #9DE984",
"N+	c #98E87C",
"O+	c #DFF7DA",
"P+	c #BD6F92",
"Q+	c #DA82A9",
"R+	c #818081",
"S+	c #C3C2C2",
"T+	c #92E874",
"U+	c #EEFAEB",
"V+	c #6B3E52",
"W+	c #512D3D",
"X+	c #583243",
"Y+	c #A2EA8B",
"Z+	c #8FE76E",
"`+	c #CADBC6",
" @	c #D37DA4",
".@	c #B1698A",
"+@	c #A2607E",
"@@	c #8A536B",
"#@	c #9A5C77",
"$@	c #A46280",
"%@	c #C8779B",
"&@	c #BE7194",
"*@	c #CA789D",
"=@	c #5E3547",
"-@	c #6A3D51",
";@	c #C1D1BD",
">@	c #C67599",
",@	c #9E5E7A",
"'@	c #834E65",
")@	c #6E4356",
"!@	c #673E50",
"~@	c #663E4F",
"{@	c #76475C",
"]@	c #D880A7",
"^@	c #573142",
"/@	c #201B1B",
"(@	c #362F2E",
"_@	c #292323",
":@	c #D780A7",
"<@	c #AD6786",
"[@	c #76475B",
"}@	c #673F51",
"|@	c #79495E",
"1@	c #A9B8A6",
"2@	c #8B516B",
"3@	c #472936",
"4@	c #533140",
"5@	c #714357",
"6@	c #7C4B61",
"7@	c #724559",
"8@	c #6E4255",
"9@	c #643D4E",
"0@	c #653D4F",
"a@	c #4C4442",
"b@	c #463F3D",
"c@	c #7E726F",
"d@	c #7F7370",
"e@	c #2C2726",
"f@	c #694052",
"g@	c #6B4153",
"h@	c #8A526B",
"i@	c #BF7194",
"j@	c #834C65",
"k@	c #C1F0B4",
"l@	c #88E663",
"m@	c #7CE44C",
"n@	c #89E665",
"o@	c #95A292",
"p@	c #A66381",
"q@	c #633C4D",
"r@	c #623C4D",
"s@	c #643D4F",
"t@	c #74465A",
"u@	c #875169",
"v@	c #D9C5C0",
"w@	c #C4B2AD",
"x@	c #90827F",
"y@	c #B56C8D",
"z@	c #7B4A60",
"A@	c #A86483",
"B@	c #87E661",
"C@	c #7AE448",
"D@	c #79E446",
"E@	c #61785A",
"F@	c #965974",
"G@	c #6C4154",
"H@	c #8B536C",
"I@	c #A76382",
"J@	c #C57599",
"K@	c #695E5C",
"L@	c #AD9D99",
"M@	c #F6E0DA",
"N@	c #B5A4A0",
"O@	c #857875",
"P@	c #D981A8",
"Q@	c #925771",
"R@	c #6B4154",
"S@	c #613B4D",
"T@	c #563444",
"U@	c #7E4A61",
"V@	c #6E3F54",
"W@	c #74DA45",
"X@	c #406035",
"Y@	c #8C536C",
"Z@	c #5F3A4A",
"`@	c #633C4E",
" #	c #6F4356",
".#	c #A86482",
"+#	c #534B49",
"@#	c #615755",
"##	c #A0918D",
"$#	c #EBD6D0",
"%#	c #D17CA3",
"&#	c #935872",
"*#	c #714458",
"=#	c #979797",
"-#	c #89E664",
";#	c #6ED03F",
">#	c #2E511E",
",#	c #422532",
"'#	c #915570",
")#	c #C47498",
"!#	c #A4617F",
"~#	c #7A495F",
"{#	c #6A4052",
"]#	c #2A3326",
"^#	c #405439",
"/#	c #9EC294",
"(#	c #B3EDA2",
"_#	c #61B737",
":#	c #2C511C",
"<#	c #786C69",
"[#	c #B96E8F",
"}#	c #6B4053",
"|#	c #714457",
"1#	c #5D7058",
"2#	c #60994C",
"3#	c #6FC947",
"4#	c #84E15F",
"5#	c #A7EB92",
"6#	c #C4F1B8",
"7#	c #50982D",
"8#	c #8A7D79",
"9#	c #BCAAA6",
"0#	c #5F725A",
"a#	c #81CC67",
"b#	c #7FE553",
"c#	c #C5F1B9",
"d#	c #D8F5D1",
"e#	c #3C7422",
"f#	c #D47DA4",
"g#	c #5D5351",
"h#	c #AC9C98",
"i#	c #1B1616",
"j#	c #4A4240",
"k#	c #494E47",
"l#	c #9CAD98",
"m#	c #9EE986",
"n#	c #E5F8E1",
"o#	c #70C94A",
"p#	c #32601C",
"q#	c #814B63",
"r#	c #25201F",
"s#	c #6F6461",
"t#	c #988A86",
"u#	c #BFADA9",
"v#	c #756966",
"w#	c #3D3635",
"x#	c #8D8D8D",
"y#	c #E4F8DF",
"z#	c #6BC147",
"A#	c #224013",
"B#	c #75445A",
"C#	c #726764",
"D#	c #CFBDB8",
"E#	c #554C4A",
"F#	c #636363",
"G#	c #61974E",
"H#	c #244514",
"I#	c #584F4D",
"J#	c #8C7F7C",
"K#	c #332D2B",
"L#	c #151011",
"M#	c #536B4C",
"N#	c #9F5D7B",
"O#	c #B7A6A1",
"P#	c #A89995",
"Q#	c #7B6F6C",
"R#	c #665C5A",
"S#	c #564E4B",
"T#	c #847774",
"U#	c #3B3433",
"V#	c #683C50",
"W#	c #897C78",
"X#	c #645A57",
"Y#	c #423B39",
"Z#	c #948682",
"`#	c #827672",
" $	c #7C706D",
".$	c #4A2937",
"+$	c #585758",
"@$	c #844D65",
"#$	c #E8D3CD",
"$$	c #91837F",
"%$	c #D0BDB8",
"&$	c #383230",
"*$	c #403937",
"=$	c #532F3F",
"-$	c #7D4860",
";$	c #4F2D3C",
">$	c #514947",
",$	c #918480",
"'$	c #302A29",
")$	c #5B5250",
"!$	c #535252",
"~$	c #824C64",
"{$	c #8F8E8E",
"]$	c #ECD7D1",
"^$	c #C6B4AF",
"/$	c #663B4E",
"($	c #504745",
"_$	c #766A67",
":$	c #867976",
"<$	c #E1CDC7",
"[$	c #864E67",
"}$	c #8B8B8B",
"|$	c #B6A5A1",
"1$	c #4D4C4C",
"2$	c #A59591",
"3$	c #443D3B",
"4$	c #AC6585",
"5$	c #F1DBD5",
"6$	c #D57EA5",
"7$	c #D47EA5",
"8$	c #D981A9",
"9$	c #B85771",
"0$	c #D2556D",
"a$	c #EB617B",
"b$	c #F76F86",
"c$	c #FC788D",
"d$	c #FC758B",
"e$	c #FD738A",
"f$	c #FD7188",
"g$	c #FD748B",
"h$	c #FC798D",
"i$	c #FC7C90",
"j$	c #FC8596",
"k$	c #FB99A3",
"l$	c #F8C3C3",
"m$	c #F7D8D3",
"n$	c #C25973",
"o$	c #F8647F",
"p$	c #FC6682",
"q$	c #FD6682",
"r$	c #FD6783",
"s$	c #FD6A84",
"t$	c #FC8294",
"u$	c #FAB1B5",
"v$	c #9D8F8B",
"w$	c #D5C2BD",
"x$	c #FAA6AD",
"y$	c #FC778D",
"z$	c #FD7189",
"A$	c #FD6D86",
"B$	c #FD6984",
"C$	c #FB929E",
"D$	c #D880A8",
"E$	c #F6637E",
"F$	c #FD6883",
"G$	c #FAA2AA",
"H$	c #796D6A",
"I$	c #8A7D7A",
"J$	c #AE9E9A",
"K$	c #FC7E91",
"L$	c #A25975",
"M$	c #E65D77",
"N$	c #FC6581",
"O$	c #FD6E86",
"P$	c #FAABB0",
"Q$	c #6D625F",
"R$	c #FC7A8E",
"S$	c #BE4D63",
"T$	c #E75F78",
"U$	c #F66C83",
"V$	c #FB778C",
"W$	c #FC8797",
"X$	c #FC8A99",
"Y$	c #FB8E9B",
"Z$	c #F8CAC9",
"`$	c #FD6B85",
" %	c #BEA09D",
".%	c #612835",
"+%	c #7F3D47",
"@%	c #9E5A62",
"#%	c #A36168",
"$%	c #A8686E",
"%%	c #D29E9F",
"&%	c #F9BDBE",
"*%	c #5F5654",
"=%	c #FB9DA7",
"-%	c #FB9BA5",
";%	c #EF98A0",
">%	c #D3868D",
",%	c #D7C3BE",
"'%	c #3A3838",
")%	c #525050",
"!%	c #444242",
"~%	c #A59692",
"{%	c #F3F3F3",
"]%	c #FDFDFD",
"^%	c #271F22",
"/%	c #86586C",
"(%	c #AB6986",
"_%	c #694152",
":%	c #523C45",
"<%	c #282121",
"[%	c #FCFCFC",
"}%	c #4F2E3D",
"|%	c #A76482",
"1%	c #7E5B6A",
"2%	c #66575D",
"3%	c #2B2424",
"4%	c #2A1E21",
"5%	c #291C20",
"6%	c #291B1F",
"7%	c #291B20",
"8%	c #302429",
"9%	c #241E20",
"0%	c #332E30",
"a%	c #61374A",
"b%	c #9C5B78",
"c%	c #E0E0E0",
"d%	c #28171E",
"e%	c #DB84AB",
"f%	c #B0728D",
"g%	c #8D5D72",
"h%	c #694A57",
"i%	c #60434F",
"j%	c #42343A",
"k%	c #463E41",
"l%	c #0E1D11",
"m%	c #0F2414",
"n%	c #2A2022",
"o%	c #302428",
"p%	c #22161B",
"q%	c #2F2025",
"r%	c #402D35",
"s%	c #513943",
"t%	c #573845",
"u%	c #563342",
"v%	c #563242",
"w%	c #5D3748",
"x%	c #663C4F",
"y%	c #6D4054",
"z%	c #6D3F54",
"A%	c #79475D",
"B%	c #76455B",
"C%	c #845067",
"D%	c #875E6F",
"E%	c #A8798C",
"F%	c #CC799E",
"G%	c #31282B",
"H%	c #6E4557",
"I%	c #DB83AA",
"J%	c #DC87AD",
"K%	c #C17396",
"L%	c #875068",
"M%	c #7C5566",
"N%	c #5C5356",
"O%	c #144F2A",
"P%	c #196838",
"Q%	c #113A1F",
"R%	c #0E190F",
"S%	c #5C5155",
"T%	c #774B5E",
"U%	c #A36681",
"V%	c #B97191",
"W%	c #D17DA3",
"X%	c #DC86AC",
"Y%	c #DE91B2",
"Z%	c #9D5C79",
"`%	c #DD8DB0",
" &	c #DC88AE",
".&	c #755361",
"+&	c #201B1C",
"@&	c #11371D",
"#&	c #239954",
"$&	c #31D275",
"%&	c #16582F",
"&&	c #0D0F0B",
"*&	c #7B6D72",
"=&	c #A6768A",
"-&	c #DC85AC",
";&	c #DC88AD",
">&	c #DD8BAF",
",&	c #A7798C",
"'&	c #603749",
")&	c #484647",
"!&	c #343031",
"~&	c #A15F7D",
"{&	c #E2A2BD",
"]&	c #EFD0DC",
"^&	c #E5AEC4",
"/&	c #4A2B39",
"(&	c #140E10",
"_&	c #10301A",
":&	c #218F4E",
"<&	c #2BB966",
"[&	c #144E29",
"}&	c #7D626D",
"|&	c #AF6D8A",
"1&	c #DF94B4",
"2&	c #E09BB8",
"3&	c #DD8AAE",
"4&	c #E19FBB",
"5&	c #BC9FAA",
"6&	c #536F47",
"7&	c #3F2731",
"8&	c #3F2631",
"9&	c #3F2832",
"0&	c #412F36",
"a&	c #573946",
"b&	c #A1617E",
"c&	c #DD8EB1",
"d&	c #ECC8D7",
"e&	c #E8B8CC",
"f&	c #27161D",
"g&	c #35282D",
"h&	c #26A259",
"i&	c #231A1E",
"j&	c #663D4F",
"k&	c #995B77",
"l&	c #E1A0BC",
"m&	c #F4DFE7",
"n&	c #E3A4BE",
"o&	c #DE90B2",
"p&	c #F8ECF0",
"q&	c #558843",
"r&	c #14200C",
"s&	c #939393",
"t&	c #C9C9C9",
"u&	c #8C516B",
"v&	c #A36781",
"w&	c #965873",
"x&	c #AA6483",
"y&	c #E7B5C9",
"z&	c #534A4E",
"A&	c #3B3135",
"B&	c #140C0E",
"C&	c #472A36",
"D&	c #C27A9A",
"E&	c #E6B2C7",
"F&	c #E9BCCE",
"G&	c #DD8CB0",
"H&	c #E3A7C0",
"I&	c #6CAB55",
"J&	c #9C9C9C",
"K&	c #5F5E5E",
"L&	c #C0BDBE",
"M&	c #7E5A69",
"N&	c #6A4D59",
"O&	c #0F2916",
"P&	c #20884A",
"Q&	c #766F71",
"R&	c #2A2023",
"S&	c #3B222C",
"T&	c #71485A",
"U&	c #9F8891",
"V&	c #A3A3A3",
"W&	c #685D61",
"X&	c #543944",
"Y&	c #76465B",
"Z&	c #C27899",
"`&	c #E099B7",
" *	c #DF95B5",
".*	c #E2A1BC",
"+*	c #91DE76",
"@*	c #4D932C",
"#*	c #2C4722",
"$*	c #FBFBFB",
"%*	c #F6F6F6",
"&*	c #BAB6B7",
"**	c #E5AFC5",
"=*	c #D384A7",
"-*	c #C690A7",
";*	c #D3BFC7",
">*	c #2F282A",
",*	c #75676D",
"'*	c #A9969D",
")*	c #229451",
"!*	c #7D6F74",
"~*	c #4D3740",
"{*	c #37222B",
"]*	c #474244",
"^*	c #37232B",
"/*	c #C27C9B",
"(*	c #DE92B3",
"_*	c #E19CB9",
":*	c #487636",
"<*	c #1F1F1D",
"[*	c #BCD7B6",
"}*	c #B0EC9E",
"|*	c #D0F3C7",
"1*	c #DE91B3",
"2*	c #A88090",
"3*	c #41393C",
"4*	c #10351C",
"5*	c #27A95D",
"6*	c #F1EDEE",
"7*	c #CBB4BD",
"8*	c #95848A",
"9*	c #685E62",
"0*	c #392F2C",
"a*	c #BD7E94",
"b*	c #DC8EAE",
"c*	c #EABFD0",
"d*	c #578E42",
"e*	c #292B27",
"f*	c #96AB90",
"g*	c #B8EEA9",
"h*	c #EBC4D3",
"i*	c #DE8FB1",
"j*	c #D799B3",
"k*	c #817077",
"l*	c #161213",
"m*	c #2FC970",
"n*	c #ABABAB",
"o*	c #283324",
"p*	c #5F6645",
"q*	c #CC9F9D",
"r*	c #C9AE9F",
"s*	c #B6CE93",
"t*	c #D2F4CA",
"u*	c #ABEC97",
"v*	c #6EB354",
"w*	c #353C33",
"x*	c #2A2B27",
"y*	c #53644E",
"z*	c #94CF82",
"A*	c #83E55A",
"B*	c #A0EA89",
"C*	c #A2A1A1",
"D*	c #DFB4C5",
"E*	c #868384",
"F*	c #196B3A",
"G*	c #29B162",
"H*	c #15512C",
"I*	c #789471",
"J*	c #A3C18D",
"K*	c #A4D780",
"L*	c #95D466",
"M*	c #91E772",
"N*	c #9BE981",
"O*	c #B0ED9F",
"P*	c #76CA55",
"Q*	c #8FAA87",
"R*	c #83A878",
"S*	c #7CC362",
"T*	c #E8D1DA",
"U*	c #D6D6D6",
"V*	c #123F22",
"W*	c #229250",
"X*	c #15502B",
"Y*	c #8DE76C",
"Z*	c #7DE44E",
"`*	c #99E97E",
" =	c #F1D6E0",
".=	c #175E32",
"+=	c #8AE667",
"@=	c #95E878",
"#=	c #1E8146",
"$=	c #0E2112",
"%=	c #B9D6B1",
"&=	c #20874A",
"*=	c #84E55D",
"==	c #1D7A42",
"-=	c #186235",
";=	c #85E65E",
">=	c #27A75C",
",=	c #15552D",
"'=	c #1B703D",
")=	c #2DC06B",
"!=	c #1B713D",
"~=	c #196637",
"{=	c #8CE669",
"]=	c #96E87A",
"^=	c #D6F5CF",
"/=	c #134A27",
"(=	c #0E150D",
"_=	c #9FEA87",
":=	c #7EE550",
"<=	c #A5EB8F",
"[=	c #10331B",
"}=	c #81E557",
"|=	c #C2C2C2",
"1=	c #D3F4CB",
"2=	c #BAEFAC",
"3=	c #DEF6D8",
"4=	c #BAEEAB",
"5=	c #696868",
"6=	c #A1EA8A",
"7=	c #F0F0F0",
"8=	c #A4EA8E",
"                                                                . + @ # $ % & + .                                                                                                                       ",
"                                                              * + = % - - % ; @ > , ' ) ! ~ { .                                                                                                         ",
"                                                              ] ^ @ ~ * / ( _ : % < [ } | # @ > /                                                             1 2 3 4 4 3 1                             ",
"                                                              5 [ @ 6       7 & 8 9 0 } a b # % c                                                           d e f g h i j k l                           ",
"                                                              ] m @ ~ /     * n o p q r ' s @ 8 t                                                           u v h g h i v w u 1                         ",
"                                                              * x % & c       y 0 z .   * ) } $ r 1 A B C C C C C C C C C D l                             1 E F G 4 4 4 H I g J                         ",
"                                                                , m @ < /     K K K     * L M N O E g w w w w w w w w w w w E E P Q R 2 A l l             1 S T T u 1   k S F U 1                       ",
"                                                                * V & & V *           1 W X Y Z F F `  . . . . . . . . . . .F F F  .` g E w U ..2 1       1 +.U @.E 1     R g g k                       ",
"                                              1 2 3 3 3 3 3 3 3 3 #.$.%.m ,       d e P ` F ` ` &.*.=.-.;.;.;.;.;.;.;.;.;.>.,.&.&.'.` ` F  .F ` f e d         2 J J 1     B w v ).                      ",
"                                      1 R !.~.P {.{.{.g g g g g g g ].^./.(._.:.J U <.F ` *.[.}.|.1.1.1.1.1.1.1.1.1.1.1.1.1.1.1.2.3.4.[.=.,.,.` ` 5.U J A                 B 6.v 7.                      ",
"                                1 3 8.9.h I 0.F ` ` ` ` ` ` ` ` ` ` a.b.c.d.e.T f.g.h.*.i.|.1.1.1.1.1.1.1.1.1.1.1.1.1.1.1.1.1.1.1.1.1.1.1.1.|.}.[.>. .j.k.R 2             l.h v m.                      ",
"      +.+.+.                  +.u h i F n. .o.*.[.p.p.p.p.p.p.p.p.q.=.r.d.s.t.u.v.w.x.y.2.1.1.1.1.1.1.1.1.1.1.1.1.1.1.1.1.1.1.1.1.1.1.1.1.1.1.1.2.z.A.` 0.g.P d         l :.T I ..                      ",
"    l E F 6.d   l D C B B.C.m.D.F n.E.F.G.H.I.2.1.1.1.1.1.1.1.1.1.1.1.2.J.K.L.M.N.F  .'.O.P.1.1.1.1.1.1.1.1.1.1.1.1.1.1.1.1.1.1.1.1.1.1.1.1.1.1.1.1.|.i.Q.E.0.R.S.2 k 3 ..S f.P k                       ",
"    D T.F U.E E E w w f i U.0.V.=.;.p.}.1.1.1.1.1.1.1.1.1.1.1.1.1.1.1.1.W.X.Y.Z.`.*.'. .F O.P.2.1.1.1.1.1.1.1.1.1.1.1.1.1.1.1.1.1.1.1.1.1.1.1.1.1.1.1.2.4.G. +F .+.+f g g v E +.                        ",
"    D ++I g.F F F  . .@+U.F E.A.#+1.1.1.1.1.1.1.1.1.1.1.1.1.1.1.1.1.1.1.1.$+%+Y.X.&+z.*+>.=+-+2.1.1.1.1.1.1.1.1.1.1.1.1.1.1.1.1.1.1.1.1.1.1.1.1.1.1.1.1.1.2.q.n.;+<..+g f Q k 1                         ",
"    l m.@+5.>+&.,.>.&.,+ .Q.G.'+1.1.1.1.1.1.1.1.1.1.1.1.1.1.1.1.1.1.1.1.1.)+!+~+{+]+^+W./+P.P.2.1.1.1.1.1.1.1.1.1.1.1.1.1.1.1.1.1.1.1.1.1.1.1.1.1.1.1.1.1.1.|.(+v.T _+:.2 1                             ",
"      u i E.:+1.1.1.<+[+}+I.2.1.1.1.1.1.1.1.1.1.1.1.1.1.1.1.1.1.1.1.1.1.1.1.)+|+1+2+3+4+W.1.1.1.1.1.1.1.1.1.1.1.1.1.1.1.1.1.1.1.1.1.1.1.1.1.1.1.1.1.1.1.1.1.1.z.*+ .5+k                                 ",
"      3 f.n.;.2.1.|.,.V.,.2.1.1.1.1.1.1.1.1.1.1.1.1.1.1.1.1.1.1.1.1.1.1.1.1.1.1.|+]+3+4+W.1.1.1.1.1.1.1.1.1.1.1.1.1.1.1.1.1.1.1.1.1.1.1.1.1.1.1.1.1.1.1.1.1.1.1.#+>+F 6+l.                              ",
"      1 m.0.Q.4.1.i.7+8+q.2.1.1.1.1.1.1.1.1.1.1.1.1.1.1.1.1.1.1.1.1.1.1.1.1.1.1.)+9+0+W.a+1.1.1.1.1.1.1.1.1.1.1.1.1.1.1.1.1.1.1.1.1.1.1.1.1.1.1.1.1.1.1.1.1.1.1.1.=.v.v.C.A                             ",
"        b+i E.c+1.*.F &.|.1.1.1.1.1.1.1.1.1.1.1.1.1.1.1.1.1.1.1.1.1.1.1.1.1.1.1.1.1.1.1.1.1.1.1.1.1.1.1.1.1.1.1.1.1.1.1.1.1.1.1.1.1.1.1.1.1.1.1.1.1.1.1.1.1.1.1.1.d+&.E.5.m.A l                         ",
"        l.w 0.}+e+&.F *.1.1.1.1.1.1.1.1.1.1.1.1.1.1.1.1.1.1.1.1.1.1.1.1.1.1.1.1.1.1.1.1.1.1.1.1.1.1.1.1.1.1.1.1.1.1.1.1.1.1.1.1.1.1.1.1.1.1.1.1.1.1.1.1.1.1.1.1.1.1.|.*.v.n.!.+.                        ",
"        l +.U F F.=+` i.1.1.1.1.1.1.1.1.1.1.1.1.1.1.1.1.1.1.1.1.1.1.1.1.1.1.1.1.1.1.1.1.1.1.1.1.1.1.1.1.1.1.1.1.1.1.1.1.1.1.1.1.1.1.1.1.1.1.1.1.1.1.1.1.1.1.1.1.1.1.1.d+=.8+ .U J 1                     ",
"            J g I F Q.|.1.1.1.1.1.1.1.1.1.1.1.1.1.1.1.1.1.1.1.1.1.1.1.1.1.1.1.1.1.1.1.1.1.1.1.1.1.1.1.1.1.1.1.1.1.1.1.1.1.1.1.1.1.1.1.1.1.1.1.1.1.1.1.1.1.1.1.1.1.1.1.1.|.d+=.F g u l                   ",
"            1 U F F F.1.1.1.1.1.1.1.1.1.1.1.1.1.1.1.1.1.1.1.1.1.1.1.1.1.1.1.1.1.1.1.1.1.1.1.1.1.1.1.1.1.1.1.1.1.1.1.1.1.1.1.1.1.1.1.1.1.1.1.1.1.1.1.1.1.1.1.1.1.1.1.1.1.1.1.P.,.v.w k                   ",
"    f+f+f+    U E.0.*.1.1.1.1.1.1.1.1.1.1.1.1.1.1.1.1.1.1.1.1.1.1.1.1.1.1.1.1.1.1.1.1.1.1.1.1.1.1.1.1.1.1.1.1.1.1.1.1.1.1.1.1.1.1.1.1.1.1.1.1.1.1.1.1.1.1.1.1.1.1.1.1.1.1.1.1.d+g+F S A                 ",
"    h+i+h+  1 U F }+j+1.1.1.1.1.|.k+d+#+l+1.1.1.1.1.1.1.1.1.1.1.1.1.1.1.1.1.1.1.1.1.1.1.1.1.1.1.1.1.1.1.1.1.1.1.1.1.1.1.1.1.1.1.1.1.1.1.1.1.1.1.1.1.1.1.1.1.1.1.1.1.1.1.1.1.1.1.=.v.v R 1               ",
"  f+i+m+n+  R f.o+[.1.1.1.1.1.d+,.p+q+r+2.1.1.1.1.1.1.1.s+2.2.s+1.1.1.1.1.1.1.1.1.1.1.1.1.1.1.1.1.1.1.|.|.|.1.1.1.1.1.1.1.1.1.1.1.1.1.1.1.1.1.1.1.1.1.1.1.1.1.1.1.1.1.1.1.2.2.2.d+(+E.T ..              ",
"  t+u+u+i+1 9.v.=+}.1.1.1.1.}.F.;+0.v+y.2.1.1.1.1.1.1.1.|.w+w+|.1.1.1.1.1.1.1.1.1.1.1.1.1.1.1.1.1.1.1.P.O.P.1.1.1.1.1.1.1.1.1.1.1.1.1.1.1.1.1.1.1.1.1.1.1.1.1.1.1.1.1.1.x+[.A.y+1.}.=+F z+2             ",
"  A+B+C+i+A @. .>+|.1.1.1.2.[.0.;+D+4.2.E+1.1.1.1.1.1.|.i.,.=.|.1.1.1.1.1.1.1.1.1.1.1.1.1.1.1.1.1.1.2.O.&.<+1.1.1.1.1.1.1.1.1.1.1.1.1.1.1.1.1.1.1.1.1.1.1.1.1.1.1.1.1.1.|.F.v.*.1.|.*.V.0.U l           ",
"F+G+H+I+J+:.@.0.A.1.1.1.1.3.>+0.'.4.1.1.1.1.1.1.1.1.1.d+D+Q.-+K+1.1.1.1.1.1.1.1.1.1.1.1.1.1.1.1.1.1.L+,.[+-.1.1.1.1.1.1.1.1.1.1.1.1.1.1.1.1.1.1.K+#+#+K+1.1.1.1.1.1.1.1.|.>+5.>+P.1.|.,.v.f k l         ",
"F+M+B+N+O+:.i E.O.1.1.1.|.q.` F.d+1.1.1.1.1.1.1.1.1.2.=. .h.3.1.1.1.1.1.1.1.1.1.1.1.1.1.1.1.1.1.1.1.P+Q.E.v+1.1.1.1.1.1.1.1.1.Q+1.1.1.1.1.1.1.1.|.,.,.i.1.1.1.1.1.1.1.1.x+}.v+F &.}.1.d+=. .R+S+        ",
"F+M+B+T+U+8.n.n.p.1.1.2.i.F.Q.i.|.1.1.1.1.1.1.1.1.1.-+j.0.V+2.1.1.1.1.1.1.1.1.1.1.1.1.1.1.1.1.1.1.1.q.[+F W+|.1.1.1.1.1.1.1.1.1.1.1.1.1.1.1.1.1.|.X+F *.2.1.1.1.1.1.1.1.1.1.G.E.E.q.1.1.#+*.E.~.k       ",
"  Y+B+Z+`+U F *.|.1.1.3.,. .=.|.1.1.1.1.1.1.1.1.1.1.V+v. .-+1.1.1. @.@+@@@#@$@2.1.1.1.1.1.1.1.1.1.1.=.F v.[+q.L+1.1.1.1.E+1. @%@3.&@*@1.1.1.1.1.s+=@0.=+4.1.1.1.1.1.1.1.1.1.H.o.0.-@1.1.1.i.o+v.U 1     ",
"  Y+B+Z+;@g ` =.1.1.1.q.` ` d+1.1.1.1.1.1.1.1.1.1.|.>+F F.3.1.>@,@'@)@!@!@~@{@>@1.1.]@1.1.1.1.1.1.|.^@/@(@_@h.w+1.1.1.1.:@1.<@[@}@!@|@<@1.1.1.1.1.O.E.E.:+1.1.1.1.1.1.1.1.1.L+,. .>.|.1.1.3.}+=+@.J +.  ",
"  Y+B+Z+1@w  .q.1.1.1.*.F &.|.1.1.1.1.1.1.1.1.1.2.2@3@4@5@6@7@8@}@9@9@0@9@~@{@>@1.1.1.1.1.1.1.1.1.i.a@b@c@d@e@A.P.1.1.1.1.1.<@f@9@9@9@~@g@h@i@1.1.j@n.n.j@1.1.1.1.1.1.1.1.1.2.;.n.o+p.1.1.1.4.}+6+F +.  ",
"k@l@m@n@o@h n.O.1.1.}.` F (+1.1.1.1.1.1.1.1.1.1.p@q@r@s@0@9@9@9@9@9@0@f@t@u@$@2.1.1.1.1.1.1.1.1.#+*.F d@v@w@x@F A.w+2.1.1.1.y@'@g@0@9@9@9@9@g@z@A@:+` ` p.1.1.1.1.1.1.1.1.1.1.:+E.E.O.1.2.3.q.F.F u +.  ",
"B@C@D@B+E@i E.p.1.1.p.E.E.;.1.1.1.1.1.1.1.1.1.1.F@9@9@9@9@9@0@!@G@|@H@I@J@1.1.1.1.1.1.1.1.1.1.|.<+e@K@L@M@M@N@O@F ,.i.|.1.1.1.P@%@Q@R@0@9@9@9@9@0@s@S@T@U@1.1.1.1.1.1.1.1.1.1.4.Q.0.}+j+V@7+ .8+u +.    ",
"B@C@D@W@X@F Q.}.1.1.j@n.n.j@1.1.1.1.1.1.1.1.1.1.Y@Z@`@0@ #6@h@.#i@ @1.1.1.1.1.1.1.1.1.1.1.2.z.-++#@###$#M@M@M@N@O@e@a@<+#+1.1.1.1.1.%#&#*#0@9@9@9@9@9@9@}@<@1.1.1.1.1.1.1.1.1.2.;.n. .&.p+F E.=#1       ",
"k@-#C@;#># .>.1.1.1.p.` ` p.1.1.1.1.1.1.1.1.1.1.p.,#,#'#1.1.1.1.1.1.1.1.1.1.1.1.1.1.1.2.3.q.,.(@O@N@v@M@M@M@M@M@w@x@a@e@A.w+2.1.1.1.1.1.)#!#~#{#0@9@9@9@9@<@1.1.1.1.1.1.1.1.1.1.:+E.v.0.0.]#^#/#f+      ",
"  (#C@_#:# .-.1.1.1.q.` ` 4.1.1.1.1.1.1.1.1.1.1.p.` ` p.1.1.1.1.1.1.1.1.1.1.1.1.1.2.4.G.>+b@e@<#N@M@M@M@M@M@M@M@M@v@##K@F ,.i.|.1.1.1.1.1.1.1. @[#}#r@`@|#<@1.1.1.1.1.1.1.1.1.1.4.o.;+<.1#2#3#4#N+5#6#f+",
"  A+m@7#` ` -+1.1.1.=. .'.3.1.1.1.1.1.1.1.1.1.1.p.` ` p.1.1.1.1.1.1.1.1.1.2.L+H.G.(+o.E./@a@8#9#$#M@M@M@M@M@M@M@M@M@$#L@d@_@o+>+q.|.1.1.1.1.1.1.1.>. .'.L+1.1.1.1.1.1.1.1.1.1.1.2.(+F v 0#a#Z+B@D@b#N+c#",
"  d#H+e# .'.3.1.1.1.,.F &.2.1.1.1.1.1.1.1.1.1.1.}.Q.` [.f#1.1.1.1.2.3.4.[.*.'.o.E.F /@_@g#h#v@M@M@M@M@M@M@M@M@M@M@M@M@M@w@c@_@i#j#[.}.|.1.1.1.1.|.,.F *.2.1.1.1.1.1.1.1.1.1.1.1.1.;.0.U.k#l#t+J+m#T+N+c#",
"  n#o#p#F *.2.1.1.1.&.F &.1.1.1.1.1.1.1.1.1.1.1.|.<+5.X+q#q.=.,.&.&.'.` b@F e@/@r#a@s#t#u#M@M@M@M@M@M@M@M@M@M@M@M@M@M@M@M@u#v#a@w#b@` &.(+;.p.}.i.` 8+*.P.2.1.1.1.1.1.1.1.1.1.1.1.j@ .U.@+x#l   F+y#O+f+",
"  U+z#A#` =.1.1.1.1.,.F F.3.1.1.1.1.1.1.1.1.1.1.1.#+B# .8+b@e@F F F e@b@b@K@C#<#t#u#M@M@M@M@M@M@M@M@M@M@M@M@M@M@M@M@M@M@M@M@$#D#t#E#b@F F E.n.g+5.[+E 5.,.4.1.1.1.1.1.1.1.1.1.1.1.p.8+i @+F#A           ",
"  F+G#H#V.q.1.1.1.1.<+E.V.}+3.1.1.1.1.1.1.1.1.1.2.2.w+-@b@b@I#@#@#K@c@t#u#v@M@M@M@M@M@M@M@M@M@M@M@M@M@M@M@M@M@M@M@M@M@M@M@M@M@M@v@u#J#v#b@r#K#F L#b@O@b@_@V+#+1.1.1.1.1.1.1.1.1.1.p.` 5.<.g R           ",
"    M#E.n.d+1.1.1.1.#+,.v. .&.;.j@4.I.i@i@i@N#-+=.c+'#O###h#D#$#M@M@M@M@M@M@M@M@M@M@M@$#D#D#v@M@M@M@M@M@M@M@M@M@M@M@M@M@M@M@M@M@M@M@M@M@u#P#Q#R#S#T#u#O@b@_@*.i.|.1.1.1.1.1.1.1.1.p.` =+,+F U 1         ",
"  2 @.F q+|.1.1.1.1.1.d+*.=+F E.n.` '.'.'.'.'. .` =+e+####v@M@M@M@M@M@M@M@M@M@M@$#D#t#g#U#(@c@w@M@M@M@M@M@M@M@M@M@M@M@M@M@M@M@M@M@M@M@M@M@M@M@$#$#$#M@v@##K@F F.[.}.|.1.1.1.1.1.1.4.` ` &.g g J         ",
"  R @+0.V#1.1.1.1.|.|.|.|.i.F.E.n.`  . . . . .'.Q.=.=.v#J#v@M@M@M@M@M@M@M@v@h#W#X#Y#/@F F L#e@N@M@M@M@M@M@M@M@M@M@M@M@M@M@P#Z#`#u#v@M@M@M@M@M@M@M@M@M@M@$#L@ $Y#8+.$q.3.2.1.1.1.1.3.'. .}+(+F +$2       ",
"1 m.@+Q.4.1.2.4.c+}+,.B#P.P.}.p.j@q.-.;.;.;.@$-+3.j@8+w#Z##$M@M@M@$#D#$$O@@#U#L#L#F F F F r#K@N@M@M@M@M@M@M@M@M@M@M@M@M@%$&$F F i#*$@#Q#P#v@M@M@M@M@M@M@M@M@u#s#T =+` h.=.d+|.1.1.2.*.F ,.;.g.i ..l     ",
"J T h =$-$;.;$o+0.0.&.,.F O.2.1.1.1.1.1.1.1.1.1.1.j@E.r#Z#M@v@u#$$g#(@i#F L#L#F F F F /@>$,$D#$#M@M@M@M@M@M@M@M@M@M@M@M@w@/@F F F F F i#'$s#O@P#v@M@M@M@M@M@u#)$!$v+F. . .` ,.}+O.j@(+p+8+~$X+0.S S+    ",
"b+@+I v n.E.F ;+v.Q.i.}+ .'.3.1.1.1.1.1.1.1.1.1.1.;.K#K#P#M@N@Y#/@F F F F F F F F _@I#t#v@M@M@M@M@M@M@M@M@M@M@M@M@M@M@M@w@>$r#F F F F F L#L#i#'$K@8#9#$#M@M@9#a@Q.-.d+=.h.` F v.;+v.V.E.` }.z.h. .{$l   ",
"+.E g.h h i g.V.Q.4.2.q.` ` 4.1.1.1.1.1.1.1.1.1.1.*.F @#v@M@O@r#F F F F F L#F /@>$t#D#$#M@M@M@M@M@M@M@M@M@M@M@M@M@M@M@M@]$$#^$O@_@L#F L#F F F L#F L#+###M@M@^$I#e@-.1.2.3.q.*.E.F F U.;+/$|.2.}+0.++l.  ",
"  2 3 4 4 3 E F *.2.1.q.` ` 4.1.1.1.1.1.1.1.1.1.2.&.F K@M@M@##F L#i#r#'$($+#R#J#u#M@M@M@M@M@M@M@M@M@M@M@M@M@M@M@M@M@M@M@M@M@M@v@P#_$E#_@F F F F F F L#:$M@M@<$K@e@>.|.1.1.1.2.=@v.U.U.5.[$1.1.q. .i }$1 ",
"            Q  .'.3.1.q. .'.4.1.1.1.1.1.1.1.1.1.3.'.e@c@M@M@N@x@c@t#P#|$^$<$$#M@M@M@M@M@M@M@M@M@M@M@M@M@M@M@M@M@M@M@M@M@M@M@M@M@M@M@v@J#b@e@/@F F F L#Y#N@M@$###@#.$d+#+1.1.1.N#Q.;+0.=+p.1.1.}.F.n.1$1 ",
"            R ` ` 4.1.q.` ` 4.1.1.1.1.1.1.1.1.1.4.` b@t#M@M@M@M@M@M@M@M@M@M@M@M@M@M@M@M@M@M@M@M@M@M@M@M@M@M@M@M@M@M@M@M@M@M@M@M@M@M@M@$#<$^$2$K@3$/@L#F N@M@M@v@N@O@[+O.P.1.1.L+'.E.F.4$I.1.1.1.[.F E 2 ",
"            3 g ` p.1.p.` ` p.1.1.1.1.1.1.1.1.1.p.` b@P#M@M@M@M@M@M@M@M@M@M@M@M@M@M@M@M@M@M@M@M@M@M@M@M@M@M@M@M@M@M@M@5$$#$#5$M@M@M@M@M@M@M@M@M@v@t#s#c@N@M@M@M@M@N@<#F *.i.3.2.&.F X+6$7$1.1.1.[.` g 2 ",
"            3 g ` p.1.p.` ` p.1.1.1.1.1.1.1.1.1.p.` b@P#M@M@M@M@M@M@M@M@M@M@M@M@M@M@M@M@M@M@M@M@M@M@$#N@N@w@M@M@M@M@M@v@L@L@v@M@M@M@M@M@M@M@M@M@M@M@M@M@M@M@M@M@M@$#L@8#r# .>+}.&.F =$8$Q+1.1.1.[.` g 2 ",
"            R g ` 4.1.p.` ` p.1.1.1.1.1.1.1.1.1.9$0$a$b$c$d$e$f$g$h$i$j$k$l$m$M@M@$#N@N@w@M@M@M@M@M@^$*$/@X#M@M@M@M@M@h#K@K@D#M@M@M@M@M@M@M@M@M@M@M@M@M@M@M@M@M@M@M@M@w@R#L#E.[.(+F h.|.1.E+1.|.*.F U 1 ",
"            ). .'.I.1.p.` ` p.1.1.1.1.1.1.1.1.1.n$o$p$q$q$q$q$q$q$q$q$r$s$t$u$M@M@$#<#w#x@M@M@M@M@M@v$i#F 3$$#M@M@M@v@`#'$C#w$M@M@M@M@M@M@m$x$j$y$z$A$s$B$B$B$B$B$e$C$M@P#j#v q+;.` ` }.1.D$|.i.` F.J   ",
"          l 5+ .h.L+1.}.` ` [.1.1.1.1.1.1.1.1.1.n$E$q$q$q$q$q$r$r$B$F$q$q$B$G$M@M@$#d@F K@w@M@M@M@v@H$L#F r#I$$#$#J$_$U#a@##$#M@M@M@M@M@M@u$K$F$q$q$q$q$q$q$q$q$q$q$K$m$h#E#F }+:+` ` q.1.1.d+F.` R 1   ",
"          l F# .,.2.1.|.&.F *.1.1.1.1.1.1.1.1.1.L$M$N$r$F$F$F$B$O$q$B$F$F$z$P$M@M@M@L@<#'$Q#Q#Q#Q$g#&$K#i#F w#C#C#Y#i#/@x@v@M@M@M@M@M@M@u$K$r$r$F$F$r$r$q$q$q$q$q$q$R$m$W#i# .q#3.h. .=.2.#+-.5.!.A     ",
"          D E F >.1.1.1.,.F &.2.1.1.1.1.1.1.1.1.p.S$T$U$V$V$R$R$e$t$W$X$Y$G$Z$M@M@M@$#N@O@'$e@e@e@F e@H$E#K#/@e@e@/@r#@#w@M@M@M@M@M@M@M@u$q$q$q$q$q$q$q$q$`$e$A$s$K$u$ %X#/@'.I.2.X+0.n./$,.[+u +.l     ",
"          D w  .>.1.1.1.}+0.o.4.1.1.1.1.1.1.1.1.j@.%+%@%#%$%%%&%l$Z$M@M@M@M@M@M@M@M@M@M@N@<#I#I#+#@#O@w@v@h#c@*%*%s#t#u#M@M@M@M@M@M@M@M@u$C$K$K$K$K$K$K$t$Y$=%-%;%>%O@s#F O.P.2.1.-@v.0.V. .R.+.        ",
"          B w  .-.1.1.1.q.E.E.G.1.1.1.1.1.1.1.1.:+E.i E#/@e@g#8#2$$#M@M@M@M@M@M@M@M@M@M@$#<$,%,%<$$#M@M@M@M@$#<$<$$#M@M@M@M@M@M@M@M@M@M@M@M@M@M@M@M@M@M@$#D#|$t#c@&$r#/@O.P.1.1.1.c+n.E.++C.S+l         ",
"          :.h n.O.1.1.1.}.F.F (+|.1.1.1.1.1.1.1.4.8+v.'%)%!%w#/@a@d@~%<$$#M@M@M@M@M@M@M@M@M@M@M@M@M@M@M@M@M@M@M@M@M@M@M@M@M@M@M@M@M@$#<$,%,%^$##Z#Z#t#c@K@I#b@b@e@K#E.'.P.1.1.1.1.3.'.V.!.{%]%          ",
"          8.i E.p.1.1.1.1.i.` ` i.1.1.1.1.1.1.1.2.;.E.^%/%(%_%:%<%F I#I#v#J#|$^$,%,%,%,%,%,%,%,%,%,%,%,%,%,%,%,%,%^$##Z#Z#t#c@K@@#@#@#I#I#I#I#K#r#K#b@e@F e@*$o.^@;.:+4.2.1.1.1.1.2.A.F P d [%          ",
"        1 1$F =+}.1.1.1.1.|.*.F (+}.1.1.1.1.1.1.1.p.[+E.}%}.2.|%1%2%3%e@F b@b@I#I#+#a@a@+#I#I#I#I#I#I#I#I#I#I#I#I#I#K#r#K#b@e@F F F F 4%5%6%7%8%9%0%` '.,.}+a%V#-@b%3.1.1.1.1.1.1.1.w+,. .e c%          ",
"        J h F *.1.1.1.1.1.1.i.`  .[.|.1.1.1.1.1.1.|.;.E.d%p.1.1.e%f%g%h%i%j%k%e@e@r#i#i#l%m%m%m%m%m%m%m%m%m%l%r#r#n%o%p%q%r%s%t%u%v%w%x%y%z%A%B%C%D%E%I.L+j+F%N#` 5.8+}+q.|.1.1.1.1.2.q.=+f.Q 1         ",
"      d Q F &.i.1.1.1.1.1.2.4.}+=+8+}+q.}.1.1.1.1.1.p.` G%H%P.1.I%e%J%e%K%}.L%M%N%w.I m%O%P%P%P%P%P%P%P%P%P%Q%R%v S%T%C%C%U%V%W%1.1.1.I%1.1.1.1.I%X%Y%P.-+Z%1.P.` ;+;+v.o+a%-@;.;.;.;.h. .U.T 2         ",
"    A E @+>+P.1.1.1.|.d+-.>.h.F.*.F.0.E.Q.=.q.p.p.p.j@;.1$F v%P.I%X%`% &1.1.1.W%.&+&U.@&#&$&$&$&$&$&$&$&$&$&%&&&F *&=&-&-&J%X%1.1.1.I%I%I%1.1.1.I%;&>&,&j.O.P.j+q.=@p+ .V.0.E. . . . . .F I f.2         ",
"  l R i U.Q.4.4.:+O.'&7+V. . .&.e+i.Q.E.F  .` ` ` ` ` )&!&F F ~&e%{&]&^&-&1.1.z./&(&@+_&:&$&$&$&$&$&$&$&$&<&[&F h F }&|&I%e% &J%1&2&>& &I%1.1.1.X%3&4&5&6&E.'.4.1.2.H.(+h <.f w w w w w +$g u 1         ",
"  l {$@+I v ` '.n.E.v.5.=+.$=.d+|.2.4.G.(+'.` 7&8&9&r%0&9&a&{@b&c&d&    e&;&1.*+f&g&h Q%:&$&$&$&$&$&$&$&$&h&Q%Q%E P i&j&k&e%e%l&m&m&n&e%e%I%1.-& &o&d&p&q&r&E.c+1.|.A.o+g.s&t&C C C C D A 1 1           ",
"  l +.u F#g g v h i T.T..$u&2.1.1.1.1.|.j+4.v&w&p.p.p.p.x&K%e%-&l&p&      y&|&,.F z&j Q%:&$&$&$&$&$&$&$&$&:&Q%g :.J A&B&C&L%D&E&    F& &e%e%G&`%>&H&p&  I&H#0.}+4.q.o. .U d                             ",
"      l A l.R R u :.J&K&5.-$1.1.1.1.P.O.&.P.Y%1.1.1.1.1.1.I%e%>&F&      l L&M&d%N&S h O&P&$&$&$&$&$&$&$&$&:&Q%g 3 1 Q&R&;+S&T&U&B V&W&X&Y&Z&`& *.*d&    +*@*#*Q.(+7+=+..2         $*%*                  ",
"                    D P  .>.|.1.2.w+A.F &.&*** &1.1.1.1.1.X%=*-*;*D   1 J 5+>*,*'*5+I m%)*$&$&$&$&$&$&$&$&:&Q%g 3   A !*~*{*R&]*T.v F F ^*/*(*_*d&p&    M+3#:*<*i @+U [*}*}*|*                          ",
"                    l 8.n.o+p.1.P.-@F U J 1 p&F&1*I%1.I%>&>&2*3*@+g.!$E g <.u +.l ~.R%4*5*$&$&$&$&$&$&$&$&:&Q%g 3     6*7*8*9*g I F F F 0*a*b*c*p&      Y+B+d*e*F f.f*g*b#I+c#                          ",
"                      3 i E.V#P.O.5.u +.      p&h*i* & &;&j*k*l*F F F F f e d   l P F %&m*$&$&$&$&$&$&$&$&h&Q%Q%..        l A n*G U.F o*p*q*r*s*t*f+    u*B+v*w*x*y*z*A*m+B*c#                          ",
"                      2 f F ` >.5.C*d           p&c*G&X%>&D*E*U.F U.T.U J 1     A w m%F*$&$&$&$&$&$&$&$&$&G*H*F Q               d u U I*J*K*L*B@M*N*O*t+O*B@P*Q*R*S*B@O*c#F+F+                          ",
"                        Q g.w.F u d               m&H& &{&T*+.U K&Q U*        l R Q%V*W*$&$&$&$&$&$&$&$&$&m*X*m%P l                       n+i+m+Y*m@Z*Z+`*H+H+5#m#D@N*O+F+                              ",
"                        k g i m.+.                   = = =    l l l           l P m%%&<&$&$&$&$&$&$&$&$&$&m*.=R%++l.                          f+n+n@Z*Z*+=C+Z*@=H+H+Y+                                  ",
"                        1 u E J                                               A E F F*$&$&$&$&$&$&$&$&$&$&$&#=$=i }$l                           F+t+O*B*C+C+Z*+=Z*Z*A+                                  ",
"                          1 1 %=i+i+t*                                      l J Q%V*&=$&$&$&$&$&$&$&$&$&$&$&h&%&m%C.l                                 |**=D@Z*-#m@*=t+                                  ",
"                              k@H+H+k@                                      k P m%==<&$&$&$&$&$&$&$&$&$&$&$&m*F*-=Q l                                 F+*=D@C@;=D@m#F+                                  ",
"                              Y+H+H+k@                                      C.F H*>=$&$&$&$&$&$&$&$&$&$&$&$&5*,=l%e                                   F+;=D@D@Z*n@n+                                    ",
"                              m#D@m+f+                                    1 E F Q%'=P&5*)=m*$&$&$&$&<&G*!=~=4*l%h e                                     {=D@D@C@]=f+                                    ",
"          ^=}*}*|*          F+m+D@N+                                      1 E g I l%O&/=/=H*H*H*H*H*H*Q%4*F (=I U 1                                     m#C@D@C@_=                                      ",
"          ^=u+:=<=h+        U+Z+B+M+                                      1 +.u v U.I l%m%F F F F F F [=&&i h Q k                                       t*T+C@}=(#                                      ",
"          ^=i+Z+D@M*N*i+f+  n#Z+B+Y+                                          |=j F i !.5+P E E E E U E T T.:.l                                           1=2=2=y#                                      ",
"            F+c#J+H+C@}=J+O+3=Z+B+Y+                                    l l S+e @+v E 1               3 g g 3                                                                                           ",
"                f+m+B+B+B@B*4=Z+B+Y+                                  1 ..P E w.5=R A                 R g g l.                                                                                          ",
"                  O+t+G+Y*B+6=*=B+M+                              7=S.U f.@+g {$k l                   ).v w B                                                                                           ",
"                      f+6#8=D@B+D@l@f+                            1 9.F g.K&{$A l                     5+v w D                                                                                           ",
"                          h+}*C@D@Z*t*                            1 E I i m.                          P F E l                                                                                           ",
"                            ^=H+D@C@]=                            7=l.T.F i F#d                       E F +$2 1 1                                                                                       ",
"                              `*D@D@H+O+                            l m.I F U.u l                     K&F U.++6.e d                                                                                     ",
"                              k@C+D@C@J+                              A g I U.!.l                     Q U.F I g @.+.                                                                                    ",
"                                Z+D@C+J+                                A V&=#k l                     k +$f.G U b++.                                                                                    ",
"                                n+m#m#t*                                                                l D D D l l                                                                                     ",
"                                                                                                                                                                                                        ",
"                                                                                                                                                                                                        "};
