/* XPM */
static char * hero1_xpm[] = {
"100 100 917 2",
"  	c #FFFFFF",
". 	c #EDE4E7",
"+ 	c #C29BAA",
"@ 	c #B57F95",
"# 	c #B2778F",
"$ 	c #B88599",
"% 	c #BF95A6",
"& 	c #D4BCC5",
"* 	c #DECCD3",
"= 	c #D2B8C2",
"- 	c #BC8EA0",
"; 	c #AB6483",
"> 	c #A7597C",
", 	c #AA6281",
"' 	c #AE6E89",
") 	c #D9C3CB",
"! 	c #E1D1D7",
"~ 	c #C7A3B1",
"{ 	c #AF6F8A",
"] 	c #B0728C",
"^ 	c #F6F6F6",
"/ 	c #CAAAB7",
"( 	c #A85C7E",
"_ 	c #B37991",
": 	c #AD6986",
"< 	c #BA899D",
"[ 	c #C39BAB",
"} 	c #C49EAD",
"| 	c #A96080",
"1 	c #AD6C88",
"2 	c #C1C1C1",
"3 	c #989797",
"4 	c #7B7B7B",
"5 	c #737373",
"6 	c #9E9D9D",
"7 	c #C9C9C9",
"8 	c #BD90A2",
"9 	c #A85D7F",
"0 	c #AD6B87",
"a 	c #D5BEC6",
"b 	c #F8F5F6",
"c 	c #E7DBE0",
"d 	c #BC8FA1",
"e 	c #A95F80",
"f 	c #A75B7D",
"g 	c #AC6885",
"h 	c #B9879B",
"i 	c #AC6785",
"j 	c #E6E6E6",
"k 	c #3D3C3C",
"l 	c #454444",
"m 	c #535252",
"n 	c #353434",
"o 	c #BE93A4",
"p 	c #ECE2E5",
"q 	c #D5BCC6",
"r 	c #B5B5B5",
"s 	c #656464",
"t 	c #3B393A",
"u 	c #6E6E6E",
"v 	c #838383",
"w 	c #4F4E4E",
"x 	c #C49EAC",
"y 	c #E2D3D8",
"z 	c #C7A4B2",
"A 	c #606060",
"B 	c #969696",
"C 	c #BFBFBF",
"D 	c #CFCFCF",
"E 	c #767575",
"F 	c #494848",
"G 	c #848484",
"H 	c #E2DADD",
"I 	c #BCA1AC",
"J 	c #A68E97",
"K 	c #B3A4A9",
"L 	c #CDCDCD",
"M 	c #DFDEDE",
"N 	c #D9D6D7",
"O 	c #BDAAB1",
"P 	c #C4B6BB",
"Q 	c #E9E9E9",
"R 	c #F4F4F4",
"S 	c #A2A2A2",
"T 	c #DDDDDD",
"U 	c #B3B3B3",
"V 	c #D0C8CB",
"W 	c #AC8192",
"X 	c #9F5576",
"Y 	c #B9899C",
"Z 	c #E1E1E1",
"` 	c #636363",
" .	c #5B5B5B",
"..	c #6D6C6C",
"+.	c #777676",
"@.	c #8E8E8E",
"#.	c #BDBDBD",
"$.	c #ACACAC",
"%.	c #C7C7C7",
"&.	c #939393",
"*.	c #4D4C4C",
"=.	c #383737",
"-.	c #D7D7D7",
";.	c #AEAEAE",
">.	c #55484C",
",.	c #583544",
"'.	c #6E4255",
").	c #99828B",
"!.	c #A4A4A4",
"~.	c #787878",
"{.	c #474646",
"].	c #2E2D2D",
"^.	c #27151D",
"/.	c #0D0809",
"(.	c #807F7F",
"_.	c #A6A5A5",
":.	c #BCBBBB",
"<.	c #7A7A7A",
"[.	c #6A6A6A",
"}.	c #B3B8B2",
"|.	c #898D88",
"1.	c #696B68",
"2.	c #2A171F",
"3.	c #371E29",
"4.	c #29151D",
"5.	c #29141D",
"6.	c #2E2126",
"7.	c #241E20",
"8.	c #161313",
"9.	c #1C1A1A",
"0.	c #5D5C5D",
"a.	c #888888",
"b.	c #744359",
"c.	c #6D3F53",
"d.	c #653A4D",
"e.	c #5D3547",
"f.	c #4E2C3B",
"g.	c #3E222E",
"h.	c #585758",
"i.	c #919191",
"j.	c #BEBEBE",
"k.	c #C3C2C2",
"l.	c #EAEAEA",
"m.	c #8A8A8A",
"n.	c #403F3F",
"o.	c #D5D5D5",
"p.	c #9B9B9B",
"q.	c #BBBBBB",
"r.	c #C6C6C6",
"s.	c #485643",
"t.	c #4D2A3A",
"u.	c #301923",
"v.	c #170C10",
"w.	c #120A0D",
"x.	c #190D12",
"y.	c #24141A",
"z.	c #676767",
"A.	c #6E3F54",
"B.	c #A15E7C",
"C.	c #DB82AA",
"D.	c #D17CA2",
"E.	c #C8769B",
"F.	c #B06888",
"G.	c #A25F7D",
"H.	c #874E68",
"I.	c #79465D",
"J.	c #543040",
"K.	c #424141",
"L.	c #7E7D7D",
"M.	c #797979",
"N.	c #323030",
"O.	c #2A2929",
"P.	c #1D1015",
"Q.	c #704056",
"R.	c #955773",
"S.	c #D27DA3",
"T.	c #B86D8F",
"U.	c #814861",
"V.	c #4A2636",
"W.	c #3C1E2B",
"X.	c #422331",
"Y.	c #5C3345",
"Z.	c #5C3446",
"`.	c #341D27",
" +	c #BF7194",
".+	c #4B2A39",
"++	c #2D1821",
"@+	c #4F2D3C",
"#+	c #563141",
"$+	c #F0F0F0",
"%+	c #666666",
"&+	c #211218",
"*+	c #3C212D",
"=+	c #844D65",
"-+	c #A76281",
";+	c #D77FA6",
">+	c #BD6A8F",
",+	c #AB5C7F",
"'+	c #AC5D80",
")+	c #B56588",
"!+	c #714156",
"~+	c #7A475E",
"{+	c #AE6687",
"]+	c #C17295",
"^+	c #A96483",
"/+	c #7C485F",
"(+	c #140B0E",
"_+	c #8E536D",
":+	c #76445A",
"<+	c #A6A6A6",
"[+	c #999999",
"}+	c #ABABAB",
"|+	c #4B4A4A",
"1+	c #262525",
"2+	c #522E3E",
"3+	c #77455B",
"4+	c #D079A0",
"5+	c #B66589",
"6+	c #B06083",
"7+	c #C77399",
"8+	c #422431",
"9+	c #3A202B",
"0+	c #834C65",
"a+	c #EDEDED",
"b+	c #A8A8A8",
"c+	c #C37095",
"d+	c #AB5C80",
"e+	c #B46488",
"f+	c #C16E93",
"g+	c #D27BA2",
"h+	c #62384B",
"i+	c #90546F",
"j+	c #A85A7D",
"k+	c #B06084",
"l+	c #C8749A",
"m+	c #9A5A76",
"n+	c #A05D7B",
"o+	c #C9779C",
"p+	c #BB698E",
"q+	c #AF6083",
"r+	c #6B3E52",
"s+	c #361E28",
"t+	c #6C6B6B",
"u+	c #9B5B77",
"v+	c #D57DA4",
"w+	c #CC779D",
"x+	c #995A76",
"y+	c #673B4F",
"z+	c #482836",
"A+	c #462735",
"B+	c #583243",
"C+	c #8B8B8B",
"D+	c #854D67",
"E+	c #222020",
"F+	c #603749",
"G+	c #B96D8F",
"H+	c #D67FA6",
"I+	c #C6759A",
"J+	c #381F2A",
"K+	c #232320",
"L+	c #7F4A62",
"M+	c #4A2937",
"N+	c #824B64",
"O+	c #60675D",
"P+	c #432532",
"Q+	c #8C516B",
"R+	c #9E5C7A",
"S+	c #8A506A",
"T+	c #405439",
"U+	c #2F1A23",
"V+	c #DA81A9",
"W+	c #B66B8C",
"X+	c #A66280",
"Y+	c #C57599",
"Z+	c #D37DA4",
"`+	c #B96E8F",
" @	c #CC799E",
".@	c #96A293",
"+@	c #202F19",
"@@	c #402330",
"#@	c #8F556F",
"$@	c #73465A",
"%@	c #6A4052",
"&@	c #6D4255",
"*@	c #77485C",
"=@	c #9A5C77",
"-@	c #F6FDF4",
";@	c #64815C",
">@	c #15200E",
",@	c #8E536E",
"'@	c #593344",
")@	c #935671",
"!@	c #7B475E",
"~@	c #CD799F",
"{@	c #321B25",
"]@	c #D981A8",
"^@	c #885169",
"/@	c #6B4154",
"(@	c #653D4F",
"_@	c #643D4E",
":@	c #663D4F",
"<@	c #734559",
"[@	c #935772",
"}@	c #CBCBCB",
"|@	c #EEFAEB",
"1@	c #48713A",
"2@	c #9D5E7A",
"3@	c #925771",
"4@	c #955974",
"5@	c #C67599",
"6@	c #867976",
"7@	c #534B49",
"8@	c #D981A9",
"9@	c #DA82A9",
"0@	c #6C4154",
"a@	c #673E50",
"b@	c #673F51",
"c@	c #653E50",
"d@	c #959595",
"e@	c #C9F2BE",
"f@	c #467335",
"g@	c #D880A7",
"h@	c #A46280",
"i@	c #6B4153",
"j@	c #AD6786",
"k@	c #362F2E",
"l@	c #786C69",
"m@	c #AD9D99",
"n@	c #837773",
"o@	c #1B1616",
"p@	c #9F5E7B",
"q@	c #76475C",
"r@	c #865068",
"s@	c #693F53",
"t@	c #BA6E90",
"u@	c #804A62",
"v@	c #ACEC98",
"w@	c #396A24",
"x@	c #D47DA4",
"y@	c #D880A8",
"z@	c #985A76",
"A@	c #663E4F",
"B@	c #5D5351",
"C@	c #857875",
"D@	c #B5A4A0",
"E@	c #EBD6D0",
"F@	c #A59591",
"G@	c #4C4442",
"H@	c #201B1B",
"I@	c #78485D",
"J@	c #704457",
"K@	c #915771",
"L@	c #824E65",
"M@	c #643D4F",
"N@	c #633C4E",
"O@	c #814C64",
"P@	c #6A3D51",
"Q@	c #CDF3C4",
"R@	c #91DE76",
"S@	c #32601C",
"T@	c #D57EA5",
"U@	c #A2607E",
"V@	c #7B4A60",
"W@	c #965974",
"X@	c #A86482",
"Y@	c #423B39",
"Z@	c #554C4A",
"`@	c #F6E0DA",
" #	c #A0918D",
".#	c #714458",
"+#	c #8B536C",
"@#	c #D07BA1",
"##	c #633D4E",
"$#	c #6A3E52",
"%#	c #95E878",
"&#	c #C4F1B8",
"*#	c #86D46B",
"=#	c #2A5117",
"-#	c #402531",
";#	c #6A3F52",
">#	c #694052",
",#	c #6E4356",
"'#	c #814D64",
")#	c #2C2726",
"!#	c #8C7F7C",
"~#	c #D9C5C0",
"{#	c #8A7D79",
"]#	c #B36B8B",
"^#	c #673D50",
"/#	c #593646",
"(#	c #5C3647",
"_#	c #7AE448",
":#	c #9EE986",
"<#	c #75C854",
"[#	c #2E1A23",
"}#	c #593645",
"|#	c #683F51",
"1#	c #7E4C62",
"2#	c #9F5F7C",
"3#	c #756966",
"4#	c #BFADA9",
"5#	c #BCAAA6",
"6#	c #695E5C",
"7#	c #575D54",
"8#	c #84E55D",
"9#	c #79E446",
"0#	c #6FC849",
"a#	c #2B1921",
"b#	c #5D3949",
"c#	c #855067",
"d#	c #3B3433",
"e#	c #90827F",
"f#	c #C4B2AD",
"g#	c #B86C8E",
"h#	c #4D8637",
"i#	c #89AF7E",
"j#	c #C1E7B8",
"k#	c #7EE552",
"l#	c #63B83C",
"m#	c #221319",
"n#	c #5F394A",
"o#	c #CF7BA1",
"p#	c #463F3D",
"q#	c #71B858",
"r#	c #93E875",
"s#	c #D6F5CF",
"t#	c #A9EB94",
"u#	c #58A832",
"v#	c #224013",
"w#	c #988A86",
"x#	c #48403F",
"y#	c #ADEC9B",
"z#	c #7CE44C",
"A#	c #C5F1B9",
"B#	c #549C34",
"C#	c #5E3547",
"D#	c #6F6461",
"E#	c #D6D6D6",
"F#	c #D2F4CA",
"G#	c #80E555",
"H#	c #559C36",
"I#	c #332D2B",
"J#	c #AC9C98",
"K#	c #E7F9E3",
"L#	c #649E4F",
"M#	c #3D3635",
"N#	c #CFBDB8",
"O#	c #64394C",
"P#	c #5F3648",
"Q#	c #BAB9B9",
"R#	c #8AA583",
"S#	c #394435",
"T#	c #968885",
"U#	c #443D3B",
"V#	c #302A29",
"W#	c #734258",
"X#	c #A1A1A1",
"Y#	c #CFBCB7",
"Z#	c #BCABA6",
"`#	c #847774",
" $	c #726764",
".$	c #615755",
"+$	c #665C5A",
"@$	c #7B6F6C",
"#$	c #7D4860",
"$$	c #925571",
"%$	c #A79793",
"&$	c #383230",
"*$	c #A89995",
"=$	c #5A504E",
"-$	c #AF6787",
";$	c #8D526D",
">$	c #6C3E53",
",$	c #B6A5A1",
"'$	c #25201F",
")$	c #5F5654",
"!$	c #532F3F",
"~$	c #626161",
"{$	c #8F536E",
"]$	c #8E817D",
"^$	c #AE9E9A",
"/$	c #292323",
"($	c #998B87",
"_$	c #151011",
":$	c #E1CDC7",
"<$	c #D07CA2",
"[$	c #5B3345",
"}$	c #7C706D",
"|$	c #D7C3BE",
"1$	c #645A57",
"2$	c #948682",
"3$	c #716663",
"4$	c #9F5D7B",
"5$	c #C6B4AF",
"6$	c #B76C8E",
"7$	c #945772",
"8$	c #584F4D",
"9$	c #9F908C",
"0$	c #7E726F",
"a$	c #515050",
"b$	c #8B516B",
"c$	c #864E67",
"d$	c #512D3D",
"e$	c #897C78",
"f$	c #6B615E",
"g$	c #4A4240",
"h$	c #6D625F",
"i$	c #766A67",
"j$	c #514947",
"k$	c #ADADAD",
"l$	c #555454",
"m$	c #B2A19D",
"n$	c #9C8D89",
"o$	c #DFCBC5",
"p$	c #7F7370",
"q$	c #504745",
"r$	c #887B78",
"s$	c #F7D8D3",
"t$	c #F7D0CD",
"u$	c #F8C9C7",
"v$	c #F9C2C2",
"w$	c #FAA6AD",
"x$	c #FB9EA7",
"y$	c #FB9AA4",
"z$	c #FAA7AE",
"A$	c #F9B7BA",
"B$	c #AE8D8C",
"C$	c #F5DFD9",
"D$	c #ECD7D1",
"E$	c #F8CAC8",
"F$	c #FBA2AA",
"G$	c #FC8293",
"H$	c #FD798D",
"I$	c #FD758B",
"J$	c #FD6B85",
"K$	c #FD6682",
"L$	c #FD6581",
"M$	c #FD6783",
"N$	c #FD6B84",
"O$	c #FD6E87",
"P$	c #F18190",
"Q$	c #A27678",
"R$	c #FC8C9A",
"S$	c #FC7F91",
"T$	c #FC8696",
"U$	c #FC8F9C",
"V$	c #9D8F8B",
"W$	c #928481",
"X$	c #FC919E",
"Y$	c #FD7289",
"Z$	c #FD6883",
"`$	c #FD6A84",
" %	c #FD6481",
".%	c #FD6782",
"+%	c #DD838D",
"@%	c #634245",
"#%	c #FC8B9A",
"$%	c #FD7088",
"%%	c #FD748A",
"&%	c #FB9FA8",
"*%	c #F9BBBD",
"=%	c #403937",
"-%	c #FD6983",
";%	c #FD6582",
">%	c #FB95A1",
",%	c #63353B",
"'%	c #FB98A2",
")%	c #D0BDB8",
"!%	c #FC8797",
"~%	c #AE7F81",
"{%	c #633339",
"]%	c #FAB0B5",
"^%	c #FD7D90",
"/%	c #FC8193",
"(%	c #FC8D9B",
"_%	c #FAABB0",
":%	c #C09C9A",
"<%	c #634043",
"[%	c #FD6984",
"}%	c #FC8A99",
"|%	c #F9B5B8",
"1%	c #615452",
"2%	c #EEADB0",
"3%	c #F0949E",
"4%	c #F18593",
"5%	c #FB939F",
"6%	c #FB9DA6",
"7%	c #5B5250",
"8%	c #91837F",
"9%	c #5B5557",
"0%	c #4B4447",
"a%	c #2E2629",
"b%	c #7A6E6B",
"c%	c #484546",
"d%	c #8C898A",
"e%	c #A29198",
"f%	c #BB95A4",
"g%	c #C3809D",
"h%	c #A76381",
"i%	c #804C63",
"j%	c #583946",
"k%	c #DE92B3",
"l%	c #C68BA4",
"m%	c #B38D9C",
"n%	c #866F78",
"o%	c #615258",
"p%	c #3E3538",
"q%	c #332E30",
"r%	c #3A3738",
"s%	c #0E190F",
"t%	c #0E2112",
"u%	c #0F2414",
"v%	c #0E1D11",
"w%	c #2F2127",
"x%	c #291D22",
"y%	c #3B2930",
"z%	c #523E46",
"A%	c #614651",
"B%	c #73505F",
"C%	c #8A5D70",
"D%	c #99677C",
"E%	c #A67087",
"F%	c #B2728E",
"G%	c #C97A9D",
"H%	c #D27EA3",
"I%	c #DB83AA",
"J%	c #D17DA3",
"K%	c #C9799C",
"L%	c #B2738F",
"M%	c #A56D85",
"N%	c #9A6C80",
"O%	c #805A6A",
"P%	c #5F3F4D",
"Q%	c #503440",
"R%	c #513842",
"S%	c #3F2F35",
"T%	c #2D2427",
"U%	c #1B1718",
"V%	c #0F2715",
"W%	c #134525",
"X%	c #134A27",
"Y%	c #10331B",
"Z%	c #0D0F0B",
"`%	c #312E2F",
" &	c #493E42",
".&	c #5E3D4B",
"+&	c #683C50",
"@&	c #79475D",
"#&	c #814C63",
"$&	c #A96583",
"%&	c #C8789C",
"&&	c #956875",
"*&	c #516242",
"=&	c #DB84AB",
"-&	c #DC85AC",
";&	c #A86382",
">&	c #5A3545",
",&	c #3B3135",
"'&	c #186135",
")&	c #29B363",
"!&	c #2AB765",
"~&	c #1E8247",
"{&	c #271F22",
"]&	c #3C2A31",
"^&	c #553040",
"/&	c #704156",
"(&	c #DA93AE",
"_&	c #A0C379",
":&	c #56A034",
"<&	c #56774C",
"[&	c #8F8E8E",
"}&	c #884F69",
"|&	c #4E2F3D",
"1&	c #DF94B4",
"2&	c #DE8FB1",
"3&	c #4B2B39",
"4&	c #7E5064",
"5&	c #9F818D",
"6&	c #7F7C7D",
"7&	c #1B703D",
"8&	c #31D275",
"9&	c #27A95D",
"0&	c #113A1F",
"a&	c #0E150D",
"b&	c #3B3034",
"c&	c #563845",
"d&	c #27161D",
"e&	c #3E242F",
"f&	c #683C4F",
"g&	c #C17396",
"h&	c #DC8EAF",
"i&	c #D98BA9",
"j&	c #DA86A9",
"k&	c #DB84AA",
"l&	c #DD8EB0",
"m&	c #CDAFA5",
"n&	c #8EDE64",
"o&	c #7DDB56",
"p&	c #8AB57D",
"q&	c #412F36",
"r&	c #DD8CB0",
"s&	c #ECC7D6",
"t&	c #E9BCCE",
"u&	c #DE91B2",
"v&	c #AE6887",
"w&	c #28161D",
"x&	c #E7B4C9",
"y&	c #7E7B7C",
"z&	c #0F2916",
"A&	c #218F4E",
"B&	c #6D4F5B",
"C&	c #925671",
"D&	c #553241",
"E&	c #412D35",
"F&	c #AA6584",
"G&	c #DE93B3",
"H&	c #E6F0DE",
"I&	c #91E772",
"J&	c #9FD274",
"K&	c #C6B29C",
"L&	c #DB8FAE",
"M&	c #DA96AE",
"N&	c #B1CF8D",
"O&	c #4C2B3A",
"P&	c #44393D",
"Q&	c #99667C",
"R&	c #DD8AAE",
"S&	c #E9BECF",
"T&	c #FCF6F8",
"U&	c #F4E1E8",
"V&	c #7B5C69",
"W&	c #38202A",
"X&	c #684051",
"Y&	c #9B617A",
"Z&	c #C17597",
"`&	c #DD8EB1",
" *	c #777475",
".*	c #15512C",
"+*	c #2BB966",
"@*	c #2DC06B",
"#*	c #684453",
"$*	c #D384A7",
"%*	c #C191A5",
"&*	c #948289",
"**	c #533F47",
"=*	c #7D4D62",
"-*	c #E3A7C0",
";*	c #B0EC9E",
">*	c #85E65E",
",*	c #89E664",
"'*	c #CDBAAA",
")*	c #DE94B3",
"!*	c #D59DA9",
"~*	c #8BDD5F",
"{*	c #8FE76E",
"]*	c #7C7C7C",
"^*	c #898989",
"/*	c #856B75",
"(*	c #C4829E",
"_*	c #F7E8ED",
":*	c #615A5D",
"<*	c #6B3F53",
"[*	c #D387A9",
"}*	c #DF95B5",
"|*	c #E2A3BE",
"1*	c #186235",
"2*	c #6A4F5A",
"3*	c #E5ADC4",
"4*	c #A49098",
"5*	c #402932",
"6*	c #3B212C",
"7*	c #A2617E",
"8*	c #DD8BAF",
"9*	c #EBC4D4",
"0*	c #98E87C",
"a*	c #D6C0B8",
"b*	c #D09FA3",
"c*	c #FEFEFE",
"d*	c #4A4547",
"e*	c #B097A1",
"f*	c #EECDDA",
"g*	c #2B2225",
"h*	c #7E5B69",
"i*	c #DF97B6",
"j*	c #1C7741",
"k*	c #2FC970",
"l*	c #65565C",
"m*	c #E6B2C7",
"n*	c #F0D4DF",
"o*	c #675B5F",
"p*	c #1A1114",
"q*	c #190E12",
"r*	c #7B4E62",
"s*	c #D0F3C7",
"t*	c #92E874",
"u*	c #B1E49A",
"v*	c #E1A5BC",
"w*	c #DB85AB",
"x*	c #C3AF96",
"y*	c #87E661",
"z*	c #8D7B82",
"A*	c #E099B7",
"B*	c #DC87AD",
"C*	c #E5B0C6",
"D*	c #144E29",
"E*	c #45343B",
"F*	c #D9CCD1",
"G*	c #D5CABA",
"H*	c #E7B4C8",
"I*	c #D1ACA9",
"J*	c #AFC585",
"K*	c #CBF2C1",
"L*	c #A8ADA7",
"M*	c #3F463D",
"N*	c #83A47A",
"O*	c #9C9899",
"P*	c #F1D8E2",
"Q*	c #249B55",
"R*	c #175E32",
"S*	c #A4EA8E",
"T*	c #7EE451",
"U*	c #97E77B",
"V*	c #DFF7DA",
"W*	c #9FD090",
"X*	c #72AF5C",
"Y*	c #65AD48",
"Z*	c #5B9D41",
"`*	c #CBF2C0",
" =	c #FAFAFA",
".=	c #C4829F",
"+=	c #CCA1B2",
"@=	c #9A848C",
"#=	c #9C8A91",
"$=	c #15502B",
"%=	c #29B162",
"&=	c #1E8146",
"*=	c #C1F0B4",
"==	c #89E565",
"-=	c #87E561",
";=	c #F5FCF4",
">=	c #85E360",
",=	c #84E15F",
"'=	c #7ED65A",
")=	c #B5BAB3",
"!=	c #FDFDFD",
"~=	c #94B28D",
"{=	c #95A192",
"]=	c #5A424C",
"^=	c #857D80",
"/=	c #DFDDDE",
"(=	c #FFFEFE",
"_=	c #196B3A",
":=	c #16562E",
"<=	c #565656",
"[=	c #B5EEA5",
"}=	c #86E561",
"|=	c #89E665",
"1=	c #C0EFB4",
"2=	c #A3EA8C",
"3=	c #D5F4CE",
"4=	c #BBEFAC",
"5=	c #A5EB8F",
"6=	c #CBDBC7",
"7=	c #229250",
"8=	c #196838",
"9=	c #D3D3D3",
"0=	c #F7F7F7",
"a=	c #8CE56B",
"b=	c #BEEFB1",
"c=	c #84E55B",
"d=	c #7FE553",
"e=	c #A0EA89",
"f=	c #AFEC9D",
"g=	c #81E557",
"h=	c #16582F",
"i=	c #20884A",
"j=	c #FCFCFC",
"k=	c #82E459",
"l=	c #88E663",
"m=	c #ADEC9A",
"n=	c #9DE984",
"o=	c #7FE453",
"p=	c #83E55A",
"q=	c #7BE44A",
"r=	c #AFEC9E",
"s=	c #A3E98D",
"t=	c #FDFBFC",
"u=	c #8AE667",
"v=	c #BAEEAC",
"w=	c #8DE76C",
"x=	c #165930",
"y=	c #229451",
"z=	c #0F2C18",
"A=	c #A2EA8B",
"B=	c #7DE44E",
"C=	c #7EE550",
"D=	c #9AE97F",
"E=	c #96E87A",
"F=	c #11371D",
"G=	c #134726",
"H=	c #15542D",
"I=	c #A9EB95",
"J=	c #F8F8F8",
"K=	c #D8F5D1",
"L=	c #E5F8E1",
"M=	c #9A9A9A",
"N=	c #5A5959",
"O=	c #9D9D9D",
"P=	c #8CE76B",
"Q=	c #EFEFEF",
"R=	c #C2C2C2",
"S=	c #BBEFAD",
"T=	c #B6EEA7",
"U=	c #AAEB96",
"V=	c #979797",
"W=	c #CCCCCC",
"X=	c #5F5E5E",
"                                                                                                                                                                                                        ",
"                                                                      . + @ # @ $ % & .         . * = = * .                                                                                             ",
"                                                                    * - ; > > > > , ' + )   ! ~ $ { ' ' ] ~ !                                                                                           ",
"                ^ ^ ^                                               / , ( ' # @ @ _ : > < [ } , | 1 ' ' : , + .                                                                                         ",
"          ^ 2 3 4 5 4 4 6 7                                         8 9 0 a     b c d e f g > @ $ [ = = h i ' *                                                                                         ",
"        j 6 5 k l m l n l 6                                         o , _ p         = e > f + q b b   b [ 1 { *                                                                                         ",
"      j r s t u v v v w n 4 ^                                       x , _ y         * : e @ !         b z : ~ .                                                                                         ",
"    j r 5 A B C     D E F G ^                                       & ' ' /         H I J K L M M M M N O O P M M M M M M M M M Q R                                                                     ",
"    D 5 s S j ^ T U G l s r ^                                 R Q M V W X Y c   Z U v `  .F  . . . . . . . . . . . . . . . . . . ...+.@.6 #.L Q R                                                       ",
"    $.s s %.  7 &.*.=.*.6 j           R -.#.;.;.;.;.;.;.6 @.+... . .` >.,.'.).!.~.{.].].].F ^.^.^.^.^.^.^.^.^.^.^.^.^.^.^.^.^.^.^./.^.^.F F  .` +.(.@.U Z                         Z _._.:.              ",
"  ^ B m <.T   7 [.*.F @.j     R Q }.|.1. .F F F F F F F F ^.^./.^.^.2.3.4.5.6.7.8.9.=.0.a.b.b.c.c.c.c.c.c.c.c.c.c.c.c.c.c.c.c.c.d.e.f.f.g.g.^.^.^.^.^.F h.[.i.j.k.k.l.          Z m.n./.m.Z             ",
"  T <.m B ^   o.C p.q.D   r.6 5 ` s.^./.^.g.g.g.g.g.g.g.g.f.f.e.d.c.b.c.t.u.v./.w.x.y.z...A.B.C.C.C.C.C.C.C.C.C.C.C.C.C.C.C.C.C.C.D.E.F.G.H.I.d.J.f.f.g././.n.5 K.w L.6 r.Z   Z M.n 9.N.F _.R           ",
"  %.s s $.            R k.z.O.P.^.^.f.e.Q.H.R.R.R.R.R.R.G.F.E.D.C.C.C.S.T.U.V.W.X.Y.Z.^.y.`.B.C.C.C.C.C.C.C.C.C.C.C.C.C.C.C.C.C.C.C.C.C.C.C.C.D.E. +F.H..+++++2.8.8.8.n.h.v v A ]./.@+#+]...-.          ",
"  %.s s $.        $+r.i.%+P.&+*+d.=+-+D.C.C.C.C.C.C.C.C.C.C.C.C.C.C.C.C.C.;+>+,+'+)+-+!+J.~+{+C.C.C.C.C.C.C.C.C.C.C.C.C.C.C.C.C.C.C.C.C.C.C.C.C.C.C.C.C.]+^+/+g.(+/.8.O.=.F ^././.#+_+:+++n <+          ",
"  o.u w [+        }+|+1+&+2+3+G.D.C.C.C.C.C.C.C.C.C.C.C.C.C.C.C.C.C.C.C.C.C.4+5+> 6+>+7+D.D.C.C.C.C.C.C.C.C.C.C.C.C.C.C.C.C.C.C.C.C.C.C.C.C.C.C.C.C.C.C.C.C.]+R.8+y.&+&+m 9+f.#+:+B.C.0+&+1+[+          ",
"  a+5 k s b+q.$.u N./.(+J.-+D.C.C.C.C.C.C.C.C.C.C.C.C.C.C.C.C.C.C.C.C.C.C.C.C.c+5+> d+e+f+g+C.C.C.C.C.C.C.C.C.C.C.C.C.C.C.C.C.C.C.C.C.C.C.C.C.C.C.C.C.C.C.C.C.C.T.G.3+e.y.h+H.E.C.C.C.0+++n [+          ",
"  ^ 6 n.n *.s h.8././.`.i+C.C.C.C.C.C.C.C.C.C.C.C.C.C.C.C.C.C.C.C.C.C.C.C.C.C.C.c+5+,+j+k+l+C.C.C.C.C.C.C.C.C.C.C.C.C.C.C.C.C.C.C.C.C.C.C.C.C.C.C.C.C.C.C.C.C.C.C.C.D.m+A.^.f.!+T.C.C.0+++n [+          ",
"    o.v K.*.s *.=./..+n+o+C.C.C.C.C.C.C.C.C.C.C.C.C.C.C.C.C.C.C.C.C.C.C.C.C.C.C.C.4+p+q+k+l+C.C.C.C.C.C.C.C.C.C.C.C.C.C.C.C.C.C.C.C.C.C.C.C.C.C.C.C.C.C.C.C.C.C.C.C.C.D.-+r+x.s+H.]+C.:+&+1+<+          ",
"      D q.b+q.t+&+@+u+C.C.C.C.C.C.C.C.C.C.C.C.C.C.C.C.C.C.C.C.C.C.C.C.C.C.C.C.C.C.C.v+w+w+g+C.C.C.C.C.C.C.C.C.C.C.C.C.C.C.C.C.C.C.C.C.C.C.C.C.C.C.C.C.C.C.C.C.C.C.C.C.C.C.x+y+s+z+_+R.A+x.l #.          ",
"            :.s /.:+C.C.C.C.C.C.C.C.C.C.C.C.C.C.C.C.C.C.C.C.C.C.C.C.C.C.C.C.C.C.C.C.C.C.C.C.C.C.C.C.C.C.C.C.C.C.C.C.C.C.C.C.C.C.C.C.C.C.C.C.C.C.C.C.C.C.C.C.C.C.C.C.C.C.C.C.]+H.g.8+#+y.].i.R           ",
"          R m./.B+m+C.C.C.C.C.C.C.C.C.C.C.C.C.C.C.C.C.C.C.C.C.C.C.C.C.C.C.C.C.C.C.C.C.C.C.C.C.C.C.C.C.C.C.C.C.C.C.C.C.C.C.C.C.C.C.C.C.C.C.C.C.C.C.C.C.C.C.C.C.C.C.C.C.C.C.C.C.T.e.&+].=.M.r.            ",
"          #.K.P.h+C.C.C.C.C.C.C.C.C.C.C.C.C.C.C.C.C.C.C.C.C.C.C.C.C.C.C.C.C.C.C.C.C.C.C.C.C.C.C.C.C.C.C.C.C.C.C.C.C.C.C.C.C.C.C.C.C.C.C.C.C.C.C.C.C.C.C.C.C.C.C.C.C.C.C.C.C.C.D./+^.9.[.Z               ",
"          C+1+&+D+C.C.C.C.C.C.C.C.C.C.C.C.C.C.C.C.C.C.C.C.C.C.C.C.C.C.C.C.C.C.C.C.C.C.C.C.C.C.C.C.C.C.C.C.C.C.C.C.C.C.C.C.C.C.C.C.C.C.C.C.C.C.C.C.C.C.C.C.C.C.C.C.C.C.C.C.C.C.C.^+++&+[.                ",
"          [./.g.^+C.C.C.C.C.C.C.C.C.C.C.C.C.C.C.C.C.C.C.C.C.C.C.C.C.C.C.C.C.C.C.C.C.C.C.C.C.C.C.C.C.C.C.C.C.C.C.C.C.C.C.C.C.C.C.C.C.C.C.C.C.C.C.C.C.C.C.C.C.C.C.C.C.C.C.C.C.C.C.]+@+/.*.r.              ",
"        R s /.e.C.C.C.C.C.C.C.C.C.C.C.C.C.C.C.C.C.C.C.C.C.C.C.C.C.C.C.C.C.C.C.C.C.C.C.C.C.C.C.C.C.C.C.C.C.C.C.C.C.C.C.C.C.C.C.C.C.C.C.C.C.C.C.C.C.C.C.C.C.C.C.C.C.C.C.C.C.C.C.C.C.3+&+E+m.Z             ",
"        #.K.P.F+C.C.C.C.C.C.C.C.C.G+{+{+S.C.C.C.C.C.C.C.C.C.C.C.C.C.C.C.C.C.C.C.C.C.C.C.C.C.C.C.C.C.C.C.C.C.C.C.C.C.C.C.C.C.C.C.C.C.C.C.C.C.C.C.C.C.C.C.C.C.C.C.C.C.H+]+]+I+C.C.C.G.J+(+k :.            ",
"        C+K+&+H.C.C.C.C.C.C.C.C.]+L+M+N+D.C.C.C.C.C.C.C.C.C.C.C.C.C.C.C.C.C.C.C.C.C.C.C.C.C.C.C.C.C.C.C.C.C.C.C.C.C.C.C.C.C.C.C.C.C.C.C.C.C.C.C.C.C.C.C.C.C.C.C.C.C.D.m+L+{+C.C.C.D.y+/.O.M.            ",
"      R O+/.P+^+C.C.C.C.C.C.C.{+x+M+f.Q+D.C.C.C.C.C.C.C.C.R+S+S+I+C.C.C.C.C.C.C.C.C.C.C.C.C.C.C.C.C.C.C.C.C.C.C.C.C.C.C.C.C.C.C.C.C.C.C.C.C.C.C.C.C.C.C.C.C.C.C.C.C.D.m+d.Q._+T.C.C._+2./.m k.          ",
"      -.T+^.Q.C.C.C.C.C.C.C.C.:+U+2+m+T.V+C.C.C.C.C.C.C.C.Q.&+P+T.C.C.C.C.C.C.C.C.C.C.C.C.C.C.C.C.W+^+X+Y+D.H+C.C.C.C.C.C.C.C.C.C.C.C.Z+ +`+`+ @Z+C.C.C.C.C.C.C.C.C.H+]+x+2.J+!+]+C.]+e.x.x.G Z         ",
"      .@+@++:+C.C.C.C.C.C.C.{+#+/.!+C.C.C.C.C.C.C.C.C.C.]+2+x.@@T.C.C.C.C.C.C.C.C.C.C.C.C.C.C.C.C._+.+@+h+!+^+C.C.C.C.C.C.C.C.C.C.C. +#@$@%@&@*@=@Z+C.C.C.C.C.C.C.C.C.C.{+y+^.9+_+]+C.{+y+^.9+_.        ",
"    -@;@>@&+,@C.C.C.C.C.C.]+L+^.'@)@C.C.C.C.C.C.C.C.C.C.x+g.J+!@~@C.C.C.C.C.C.C.C.C.C.C.C.C.C.C.B.y+s+g.2.{@G.C.C.C.C.C.C.]@C.C.Z+^@/@(@_@(@_@_@:@<@[@C.C.C.C.C.C.C.C.C.C.^+/+9+.+_+D.C.T.r+/.M.}@      ",
"    |@1@P.J+u+C.C.C.C.C.C._+P+g._+D.C.C.C.C.C.C.C.C.C.C.I.^.f.F.C.C.C.C.C.C.C.C.Z+2@3@4@5@C.C.{+:+/.6@7@9.++Q+C.C.C.C.C.8@9@C.C.#@0@_@_@a@b@b@b@_@_@c@[@C.C.C.C.C.C.C.C.C.C.]+h+P.P+G.C.C.m+J.^.d@R     ",
"    e@f@^.f. +C.C.C.C.C.D.y+/.e.]+C.C.C.C.C.C.C.C.C.C.C.d.^.f.E.g@C.C.C.C.C.5@h@$@a@_@i@j@C.]+x+k@l@m@n@o@^.Q+C.C.C.C.C.9@C.Z+p@q@_@a@&@r@h@h@#@b@_@_@s@t@C.C.C.C.C.C.C.C.C.C.u@&+&+u@C.C.D.L+2.` U R   ",
"    v@w@^.f.E.C.C.C.C.C.T.f.^.Q.C.C.C.C.C.C.C.C.C.C.C.D.e./.e.x@y@C.C.5@z@q@i@A@_@_@_@i@j@]+_+B@C@D@E@F@G@H@r+]+C.C.C.9@C.C. +I@(@J@K@Z+C.C.C.C.L@M@_@N@O@C.C.C.C.C.C.C.C.C.C.u+J+P.P@C.C.C.{+Q.y. .<+Z ",
"Q@  R@S@/.e.D.C.C.C.C.C.F.g.g.I.C.C.C.C.C.C.C.C.C.C.C.T.f.^.Q.T@Z+U@V@/@(@_@_@_@(@A@'.W@X@!+Y@Z@D@`@`@E@ #G@G@_+D.C.C.C.C.C. +.#i@+#C.C.C.C.C.C.@#I@####$#D.C.C.C.C.C.C.C.C.C.E.f.^.d.C.C.C.C.x+s+x.k _.",
"%#&#*#=#^.d.C.C.C.C.C.C.G.f.^.H.C.C.C.C.C.C.C.C.C.C.C.,@++-#;#.#>#a@_@_@_@_@A@,#'#h@5@C._+J+)#!#~#`@`@`@~#{#)#e.-+C.C.V+V+C.5@p@p@]#C.C.C.9@C.C.9@j@^#/#(#T.C.C.C.C.C.C.C.C.C.D.y+/.e.]+C.C.C.]+2+x.E+6 ",
"_#:#<#=#^.c.C.C.C.C.C.C.G.g.g.H.C.C.C.C.C.C.C.C.C.C.C.:+[#}#a@_@_@_@A@|#0@1#2#Z+C.C.C.{+Q.)#3#4#`@`@`@`@`@5#6#)#~+]+C.C.C.C.C.C.C.C.C.C.C.]@C.C.C.C.x+g.g.H.C.C.C.C.C.C.C.C.C.C.H.g.g.x+C.C.T._+#+&+7##.",
"8#9#0#=#^.c.C.C.C.C.C.C.R.g.g.R.C.C.C.C.C.C.C.C.C.C.C.h+a#b#(@b@a@0@c#`+Z+C.C.C.C.C.]+_+d#e#f#`@`@`@`@`@`@E@ #G@Y@/+T.C.C.C.C.C.C.C.C.C.C.C.C.C.C.C.T.#+/.Q.C.C.C.C.C.C.C.C.C.C.T.J.^.Q.g#_+h+J+2.h#i#j#",
"v@k#l#=#^.I.C.C.C.C.C.C.R.g.g.R.C.C.C.C.C.C.C.C.C.C.C.e.m#n#z@2@ @o#C.C.C.C.C.C.C.]+:+p#6#D@`@`@`@`@`@`@`@`@~#e#)#Y@H.]+C.C.C.C.C.C.C.C.C.C.C.C.C.C.D.J.^.e.D.C.C.C.C.C.C.C.C.C.D.d.^.J.)@#+/.g.;@q#9#r#",
"s#t#u#v#g.H.C.C.C.C.C.C.R.g.g.R.C.C.C.C.C.C.C.C.C.C.C.e./.#+D.C.C.C.C.C.C.C.C.C.T.y+++)#w#E@`@`@`@`@`@`@`@`@`@f#C@p#x#Q.x+]+C.C.C.C.C.C.C.C.C.C.C.C.D.Q.^.J.T.C.C.C.C.C.C.C.C.C.C.S+^.f.r+s M._.Z y#k#z#",
"  A#B#v#g.R.C.C.C.C.C.C.R.g.g.R.C.C.C.C.C.C.C.C.C.C.C.~+^.f.-+C.C.C.C.C.C.C.]+H.C#^.o@D#4#`@`@`@`@`@`@`@`@`@`@`@~# #Z@)#Z@_+]+C.C.C.C.C.C.C.C.C.C.C.C.H.g.g.G.C.C.C.C.C.C.C.C.C.C.{+e./.5 E#Z     F#:#G#",
"  -@H#v#g.R.C.C.C.C.C.C.R.g.g.R.C.C.C.C.C.C.C.C.C.C.C.-+J.^.~+D.C.C.C.C.C.^+/+J+x.I#3#J#`@`@`@`@`@`@`@`@`@`@`@`@`@~# #6#p#p#y+_+]+C.D.E.E.D.C.C.C.C.C.0+++++0+C.C.C.C.C.C.C.C.C.C.C.d.^. .Q         K#t#",
"  -@L#v#g.R.C.C.C.C.C.C.R.g.g.R.C.C.C.C.C.C.C.C.D.G.H.H.Q.2.J.m+D.C.]+_+y+g.&+P.].M# #~#`@`@`@`@`@`@`@`@`@`@`@`@`@`@E@N#w#Z@/.Z@c.C#z+8+O#B.C.C.C.C.D.P#x.x.0+C.C.C.C.C.C.C.C.C.C.C.=+^. .Q#          K#",
"    R#S#g.R.C.C.C.C.C.C.R.g.g.R.C.C.C.C.C.C.D.T.H.2+++#+x+e#M#T#F.H.y+p#/./.)#n.9.o@U#6#D@~#`@`@`@`@`@`@`@`@`@`@`@`@`@`@~# #3#p#V#/././.x.@+{+C.C.C.D..+/.x.W#C.C.C.C.C.C.C.C.C.C.C.S+P+1+X#            ",
"    6 F g.G.C.C.C.C.C.C.R.g.s+W#R.R.R.R.R.H.Q.J.g.y.g.!+Y#Z#D@`# $p#/.p#.$+$@$x#/././.H@.$4#`@`@`@`@`@`@`@`@`@`@`@`@`@`@`@`@~# #I#/./././.(+_+C.C.C.D.P#(+(+z+-+D.C.C.C.C.C.C.C.C.C.#$P.E+M.            ",
"    6 ].f.G.C.C.C.C.C.C.^+#+F 8+g.g.g.g.g.g.^.^.P+Q.$$Q+%$f#`@D@M#p#3# #~#`@4#&$/./././.M#*$`@`@`@`@`@`@`@`@`@`@`@`@`@`@`@`@`@~#=$/././././.c.C.C.C.C.0+&+/.x.P@B.C.C.C.C.C.C.C.C.C.B+/./.z.            ",
"    @.F g.F.C.C.C.C.C.C.-$;$y+M+g.g.g.g.g.g.J.Q.x+]+T.>$7@J#`@f#J#J#~#`@`@`@,$'$/./././.k@*$`@`@`@`@`@`@`@`@`@`@`@`@`@`@`@`@`@`@)$/././././.s+y+3+^+]+R.++1+n y.2+Q.H.^+]+C.C.C.C.C.!$/./.~$            ",
"    @.^.f.F.C.C.C.C.C.C.{+L+H.G.R.R.R.R.R.G.T.D.C.C.{${@&$]$`@`@`@`@`@`@`@`@^$H@/././././$*$`@`@`@`@`@`@`@`@`@`@`@`@`@`@`@`@`@E@U#/././././.H@/.Y@P+P@#+s+|+..|+/.^.g.P+d.=+u@c.B+B+J+(+8.E             ",
"    +.^.f.E.C.C.C.C.C.B.L+e.m+D.C.C.C.C.C.C.C.C.C.C.c.&+'$*$`@`@`@`@`@`@`@`@($_$/././././$*$`@`@`@`@`@`@`@`@`@`@`@`@`@`@`@`@`@:$I#/././././.M#.$Y@p#/$&$)#e#@$n n 9+g.g.^.^.J+(+/./.(+8.1+(.            ",
"  R ../.e.<$C.C.C.C.C.:+/.y+]+H+C.C.C.C.C.C.C.C.C.]+[$/.Z@4#`@`@`@`@`@`@`@`@}$_$/./././.'$*$`@`@`@`@`@`@`@`@`@`@`@`@`@`@`@`@`@|$I#/././././.6#~#4#!#1$p#`#f#2$)#y.#$G./+e.f.P.(+/./.8.9./._.            ",
"  -. .^.Q.V+C.C.C.C.D.#+/.e.C.C.C.C.C.C.C.C.C.C.C.^+g.p#!#`@`@`@`@`@`@`@`@`@3$_$/./././.'$*$`@`@`@`@`@`@`@`@`@`@`@`@`@`@`@`@`@|$d#/././././.d#E@`@E@N#N#~#`@*$I#I#c.C.D.E.4$u@@+g.g.[.5 d@:.            ",
"  }+g.g.$$V+C.C.C.D.F.M+^.Q.C.C.C.C.C.C.C.C.C.C.D./+p#G@4#`@`@`@`@`@`@`@`@`@3$_$/./././.H@*$`@`@`@`@`@`@`@`@`@`@`@`@`@`@`@`@`@|$G@/./././././$5$`@`@`@`@`@`@~#6#/.y+D.C.C.C.C.]+d.e._.R                 ",
"r.A P.2+6$9@E. +7$3+2+++g.H.C.C.C.C.C.C.C.C.C.C.E.e.)# $~#`@`@`@`@`@`@`@`@`@3$_$/./././.o@*$`@`@`@`@`@`@`@`@`@`@`@`@`@`@`@`@`@:$8$/././././._$9$`@`@`@`@`@`@`@0$)#f.T.C.C.C.C.I+b.&+a$}+                ",
"(.E+x.!$b$c$d$s+^.&+P.n g.R.C.C.C.C.C.C.C.C.C.C.F.f.)#e$`@`@`@`@`@`@`@`@`@`@1$/././././._$2$`@`@`@`@`@`@`@`@`@`@`@`@`@`@`@`@`@E@3#/././.8./._$f$E@`@`@`@`@`@`@J#g$I#h+^+C.C.C.C.Q+^.9.a.                ",
"A 8.9.U+*+g.(+/.(+y.g.t g.R.C.C.C.C.C.C.C.C.C.C.G.g.p#w#`@`@`@`@`@`@`@`@`@`@h$/./././././.($`@`@`@`@`@`@`@`@`@`@`@`@`@`@`@`@`@`@ #_$/././././.g$:$`@`@`@`@`@`@~#@$'$^.R.C.C.C.C.F.*+P.z.R               ",
"m.F t F {.F O./.++H.W#g.g.R.C.C.C.C.C.C.C.C.C.C.R.g.p#*$`@`@`@`@`@`@`@`@`@`@i$_$/././././.9$`@`@`@`@`@`@`@`@`@`@`@`@`@`@`@`@`@`@~#H@/././.8._$j$:$`@`@`@`@`@`@`@*$I#I#c.C.C.C.C.D.h+P.{.#.              ",
"Z r.;.;.k$#.l$/.#+C.R.g.g.R.C.C.C.C.C.C.C.C.C.C.H.g.p#,$`@`@`@`@`@`@`@`@`@`@($_$/./././._$D@`@`@`@`@`@`@`@`@`@`@`@`@`@`@`@`@`@`@`@j$/./._$'$p#!#E@`@`@`@`@`@`@`@~#3#/.y+]+C.C.C.C.:+&+1+<+              ",
"            s /.#+C.R.g.g.R.C.C.C.C.C.C.C.C.C.C.I.)#8$5$`@`@`@`@`@`@`@`@`@`@,$o@/././._$V#5$`@`@`@`@`@`@`@`@`@`@`@`@`@`@`@`@`@`@`@w#g$_$M#0$D@~#`@`@`@`@`@`@`@`@`@ #p#p#_+C.C.C.C.0+++n [+              ",
"            s /.#+C.R.g.g.R.C.C.C.C.C.C.C.C.C.C.d.)#8$:$`@`@`@`@`@`@`@`@`@`@~#Y@/././..$9$~#`@`@`@`@`@`@`@`@`@`@`@`@`@`@`@`@`@`@`@`@m$n$n$o$`@`@`@`@`@`@`@`@`@`@`@~#p$/.y+{+C.C.C.R.g.F ;.              ",
"            s /.#+C.G.g.g.H.C.C.C.C.C.C.C.C.C.C.e./..$E@`@`@`@`@`@`@`@`@`@`@`@T#1$q$r$D@`@`@`@`@`@`@`@`@`@`@`@`@`@`@`@`@`@`@`@`@`@`@`@`@`@`@s$t$u$u$v$w$x$y$z$z$z$A$B$6#/$Q.^+C.C.R.g.F ;.              ",
"            s /.#+C.T.f.^.Q.C.C.C.C.C.C.C.C.C.C.#+/..$`@`@`@`@`@`@`@`@`@`@`@`@E@E@E@`@`@`@`@`@`@`@`@`@`@`@`@`@`@`@C$E@E@D$`@`@`@`@`@`@`@`@E$F$G$H$I$J$K$L$K$M$N$N$O$P$Q$I#/$y+C.C.R.g.F ;.              ",
"            s /.#+C.D.y+/.e.]+C.C.C.C.C.C.C.C.C.#+/..$`@s$F$R$S$T$U$y$z$A$E$`@`@`@`@`@`@`@`@`@`@`@`@`@`@`@`@`@`@`@N#V$W$f#`@`@`@`@`@`@`@E$X$Y$Z$`$Z$L$ % % %L$L$.%K$.%+%G@/..+D.C.^+g.g.i.              ",
"            s /.#+C.C./+g.g.^+C.C.C.C.C.C.C.C.C.#+/.@%#%$%.%L$L$L$K$J$Y$%%T$&%*%`@`@`@`@`@`@`@`@ # # #`@`@`@`@`@`@p$=%M#f#`@`@`@`@`@`@`@E$Y$K$Z$`$-%K$L$L$;%L$.%.%L$.%>%1$/$P+E.C.T.#+/.v               ",
"            s /.#+C.C.^+g.g./+C.C.C.C.C.C.C.C.C.#+/.,%K$L$ %L$L$L$L$Z$-%Z$K$Z$'%`@`@`@`@`@`@`@`@3#/.B@N#E@E@E@ #C@U#/.6#)%`@`@`@`@`@`@`@E$!% % % % % % % % % % %Z$O$!%~%7@H@'@E.C.D.f.^...              ",
"          Z s /.y+C.C.]+y+/.y+]+C.C.C.C.C.C.C.C.#+/.{%L$L$L$K$M$Z$`$-%M$L$L$.%'%`@`@`@`@`@`@`@`@3#'$H@Z@.$7@.$Z@/.M#!# #`@`@`@`@`@`@`@`@`@]%X$^%^%^%^%^%^%^%^%/%(%_%:%D#_${@H.D.C.D.e./...R             ",
"          r.F g./+C.C.C.H.g.g.x+C.C.C.C.C.C.C.C.#+/.<%/%Z$[%`$`$`$`$Y$J$M$`$}%|%`@`@`@`@`@`@`@`@4#3#/$/./.)#/./$6#C@~#`@`@`@`@`@`@`@`@`@`@`@`@`@`@`@`@`@`@`@E@:$5$w#+$'$++y+T.C.C.C.Q.^. .-.            ",
"          ;.F g.R.C.C.C.T.f.^.Q.C.C.C.C.C.C.C.C.#+/.1%2%3%4%#%#%#%5%6%y$y$z$E$`@`@`@`@`@`@`@`@`@`@f#e#6#6#1$6#C@f#`@`@`@`@`@`@`@`@`@`@`@`@`@`@`@`@E@:$5$F@e$3$7%7@U#/.g.:+]+C.C.C.C.I.g.F L             ",
"          6 g.g.G.C.C.C.D.y+/.e.]+C.C.C.C.C.C.C.#+/..$ #6#+$*$~#`@`@`@`@`@`@`@`@`@`@`@`@`@`@`@`@`@`@`@`@`@`@`@`@`@`@`@`@`@`@`@`@`@`@`@E@N#,$*$w#e$ $)$8$p#)#/$H@o@{@y+_+]+C.C.C.C.C.x+^. .6             ",
"          v ^.f.T.C.C.C.C./+g.g.^+C.C.C.C.C.C.C.#+/..$ #H@'$Y@h$1$D#C@4#~#`@`@`@`@`@`@`@`@`@`@`@`@`@`@`@`@`@`@`@`@`@E@:$|$|$5$8%l@h$ $6#8$p#p#p#)#)#)#)#F  .9%0%a%F+x+C.C.C.C.C.C.C.x+#+/.6             ",
"          ../.#+D.C.C.C.C.^+.+g./+]+C.C.C.C.C.C.#+/.s U ..t M#)#H@o@&$G@ $@$@$@$@$@$@$@$@$D#f$f$l@@$@$@$@$@$i$i$i$b% $)$8$8$8$I#o@H@)#/.)#p#c%c% .` +.d%e%f%g%h%i%{@L+{+C.C.C.C.C.C.]+P+g.M.R           ",
"          s /.#+C.C.C.C.C.]+c.++s+R.C.C.C.C.C.C.#+/.j%k%l%m%n%o%p%q%r%p#)#)#)#)#)#'$H@H@H@H@o@s%t%u%u%u%u%u%v%o@o@'$/$)#)#)#)#w%x%y%z%A%B%C%D%E%F%G%H%I%I%C.C.C.B.i@2.L+{+C.C.C.C.C.]+d.^...Q           ",
"        }@s /.!+C.C.C.C.C.C.0+&+&+0+C.C.C.C.C.C.#+/.#+C.C.C.J%K%L%M%N%O%P%Q%R%S%T%7.U%9.E+1+v%V%W%X%X%X%X%X%Y%Z%8.9.`% &.&+&@&#&u+$&%&H%C.C.C.C.C.C.C.C.C.C.C.C.J%&&*&2.[$c.,@]+C.C.C.=+^. .Q#          ",
"      R d@].J.m+C.C.~@g#g#I+R.{@++c.D.C.C.C.C.C.e./.#+J%C.C.C.C.=&-&=&D.E. +;&>&&+/.,&n.n.N.s%'&)&!&!&!&!&!&~&V%8.9.{&]&^&/&x+]+C.I%I%C.C.C.C.C.C.C.C.C.C.C.C.I%(&_&:&<&P.P.`.c.R.^+C.-+f.^.[&          ",
"      }+l E+J.}&0+c.h+M+e.{+]+L+^.e.m+C.C.C.C.C.Q.^.|&`+C.C.C.C.1&2&C.C.h%u@e.{@&+3&4&5&6&E+v%7&8&8&8&8&8&8&9&0&a&b&c&g.d&^.e&f&_+g&=&I%C.=&h&i&j&k&C.C.C.C.=&l&m&n&o&p&A 1+2.2.&+z+_+g#:+/.+.}@        ",
"      L.8.8.t ++&+++/.&+P+L+]+{+y+/.!+]+C.C.C.C.H.g.q&G.C.C.C.r&s&t&u&v&~+w&^.A+/+^+I%x&y&z&z&A&8&8&8&8&8&8&!&X%u%B&G+C&/&D&E&/.++#+F&I%C.G&H&I&J&K&L&C.C.I%=&M&N&k#v@K#r.;.(.].9./.g.:+;$e.].m.R       ",
"      v /.9.1+n 1+n [.s 9+O&^+C.H.g.g.x+C.C.C.C.R.g.P&Q&C.=&R&S&T&  U&V&w&W&X&Y&Z&C.`&S& */..*+*8&8&8&8&8&8&@*X%u%#*C.I%$*%*&***(+&+=*H%=&-*K#;*>*,*'*)*C.=&=&!*~*{*e@      r.0.E+t ++s Z d@t ]*R       ",
"      :.d@+.@.^*[+;.Z ;.F g.R.C.T.2+P.2+^+C.C.C.^+.+g./*(*`&S&_*    }@:*/.<*[*}*C.|*s&Z s /.1*8&8&8&8&8&8&8&@*.*/.2*C.-&3*    4*5*(+6*7*8*9*  K#v@k#0*a*u&I%=&b*k#0*|@      r.w w M._._.Z k.U U R       ",
"              c*      ;.F g.c.B.m+/+y.y./+D.C.C.]+Q.s+d*e*f*_*  :.m.=.8.g*h*=&=&i*s&  r.F 0&j*8&8&8&8&8&8&8&k*X%u%l*m*m*n*    Z o*p*q*r*S&_*    s*t*k#u*v*=&w*x*y*y#-@      ;.F F ;.                    ",
"                      6 n.]..+/.B.r...P.2+m+C.C.C.H.P.].C+      i./././.9.z*A*B*C*T&  ;.F 0&A&8&8&8&8&8&8&8&k*D*/.w -.        :.n././.E*F*      -@v@k#t*G*H*I*J*y*K*        L*M*S#N*F#K#                ",
"        c*            v E+E+/.m.:.  }@m./.!+B.C.C.x+g.++6       i.9./.8.8.O*f*f*P*    6 0&0&Q*8&8&8&8&8&8&8&8&R*a&].#.      R m.]././.O.r.        s*{*k#v@K#S*T*U*V*    -@V*W*X*Y*Z*r#`*                ",
"                      d@/.n G :.   =  :.m./.:+B..=+=@=#=r.      r.s n t [&%.        R v u%$=%=8&8&8&8&8&8&8&8&&=z&z&C+      R B ].8./.=.r.        -@:#9#0**===-=y#;=  s#;*t*>=k#,='=r#`*                ",
"                  -@-@)=_._.Z     !=K#`*~={=]=^=/=(=              Z r.r.Z           -.` u%_=k*8&8&8&8&8&8&8&8&+*:=/.h.r.    R :.m.<= .m.Z           [=y*-=:#}=}=*=c*`*t#k#k#|=S*[=1=F#K#                ",
"              -@`*t#2=A#-@        3=4=r#5=6=:.q.Z                                   6 0&0&7=8&8&8&8&8&8&8&8&8&8&8=v%1+;.        R Q 9=}@0=!=        V*{*T*a=y*}=1=`*t#9#t*S*&#K#                        ",
"              -@b=c=d=e=`*        f=g={*A#K#                                      R M./.h=+*8&8&8&8&8&8&8&8&8&8&i=z&z&m.            !=        j=    -@:#9#k=c=l=m=t#9#5=A#-@                            ",
"              -@`*;*n=o=t#`*    s#0*9#5=-@            (=(=                        #.K.s%R*8&8&8&8&8&8&8&8&8&8&8&%=h=t%5 r.                            [=p=q=z#t*n=d=r=`*                                ",
"                    s#s=9#t#K#  ;*k#{*A#            t=(=(=                      Z C+1+u%&=8&8&8&8&8&8&8&8&8&8&8&k*&=z&1+5 Z                           V*u=9#q=>*k#5=s#                                  ",
"                      v=w=y*4=F#0*9#:#-@              c*                        U w n x=Q*8&8&8&8&8&8&8&8&8&8&8&k*y=z=8.N.:.                          -@A=B=z#C=D=A#            c*                      ",
"                      K#A=k#g=E=y*y*[=                                          _.].t F=G=:=_=&=A&A&A&A&&=_=H=D*D*W%u%/.l :.                          c*F#t#0*I=A#|@            J=j=                    ",
"                        *=B=q=>*k#{*K=                                          :.]*1+9././.u%0&0&0&0&0&0&u%/././.v%F M._.Z                                                                             ",
"                        F#I&G#G#B={*L=                                          R M=N=N.{.A  .F F F F F F  .F 8.8.l O=Z                                                                                 ",
"                          V*n=z#q=P=K=                                          r.v N.G -.Q=-.#.;.;.;.;.#.-.R=L.n F U                                                                                   ",
"                          -@S*q=q=p=K*                                          v O.n 6 R                     L <=].v                                                                                   ",
"                            &#G#_#C=S=                                        }@A 9.<=-.                      R [./.w r.                                                                                ",
"                            K#|=9#q=T=                                        U ].w C+R                         C+1+1+6                                                                                 ",
"                              I&9#q=U=                                        @.F F L                           <+K.E+m.                                                                                ",
"                              t#B=B=S=                                  Z r.;.N=8.N.@.                          B ].O.4 Q R                                                                             ",
"                              F#t#t#F#                                  :.s F 1+/./.V=                          M.8./.N. .m.:.                                                                          ",
"                                                                        :.s F N.E+n.6                           C+9./.9.]./.:.                                                                          ",
"                                                                        Z r.;.!.;.r.$+                          W=M.X=s +.d@:.                                                                          ",
"                                                                                                                                                                                                        "};
