/* XPM */
static char * hero_xpm[] = {
"100 100 500 2",
"  	c #FFFFFF",
". 	c #F4F4F4",
"+ 	c #E9E9E9",
"@ 	c #DEDEDE",
"# 	c #BBBBBB",
"$ 	c #7C7C7C",
"% 	c #5A5A5A",
"& 	c #787878",
"* 	c #A5A5A5",
"= 	c #E0E0E0",
"- 	c #9D9D9D",
"; 	c #727272",
"> 	c #7D7D7D",
", 	c #B9B9B9",
"' 	c #898989",
") 	c #2A2A2A",
"! 	c #000000",
"~ 	c #474747",
"{ 	c #BDBDBD",
"] 	c #424242",
"^ 	c #161616",
"/ 	c #1C1C1C",
"( 	c #767676",
"_ 	c #5C5C5C",
": 	c #7F7F7F",
"< 	c #3B3B3B",
"[ 	c #494949",
"} 	c #878787",
"| 	c #555555",
"1 	c #323232",
"2 	c #2E2E2E",
"3 	c #949494",
"4 	c #262626",
"5 	c #AEAEAE",
"6 	c #8B8B8B",
"7 	c #8D8D8D",
"8 	c #E8FAEA",
"9 	c #E1F9E4",
"0 	c #DADDDA",
"a 	c #C5C5C5",
"b 	c #0D0D0D",
"c 	c #585858",
"d 	c #828282",
"e 	c #B2B2B2",
"f 	c #222222",
"g 	c #3D3D3D",
"h 	c #CDF5D1",
"i 	c #65E97C",
"j 	c #B5F2BD",
"k 	c #565656",
"l 	c #F1FCF2",
"m 	c #2AE65A",
"n 	c #BCF3C3",
"o 	c #C9CCC9",
"p 	c #DBF8DE",
"q 	c #84EC93",
"r 	c #D0F6D5",
"s 	c #D7D7D7",
"t 	c #636363",
"u 	c #4D4D4D",
"v 	c #CBCBCB",
"w 	c #C6F4CC",
"x 	c #5BE874",
"y 	c #A1EFAB",
"z 	c #E7FAE9",
"A 	c #D5F7D8",
"B 	c #BFF3C5",
"C 	c #EFFCF0",
"D 	c #919191",
"E 	c #999999",
"F 	c #909791",
"G 	c #949B95",
"H 	c #7A807B",
"I 	c #626262",
"J 	c #6C6C6C",
"K 	c #AAAAAA",
"L 	c #C7F4CC",
"M 	c #E6F1E7",
"N 	c #A6A6A6",
"O 	c #719175",
"P 	c #3B9E4D",
"Q 	c #6CA373",
"R 	c #A3ACA4",
"S 	c #606060",
"T 	c #292A29",
"U 	c #1C201C",
"V 	c #242F25",
"W 	c #264129",
"X 	c #242925",
"Y 	c #8E8E8E",
"Z 	c #BEBEBE",
"` 	c #D6D6D6",
" .	c #B3B3B3",
"..	c #BBD9BE",
"+.	c #4BB45D",
"@.	c #4F9158",
"#.	c #6B7E6D",
"$.	c #222F24",
"%.	c #13401B",
"&.	c #29422C",
"*.	c #363A37",
"=.	c #0A0C0A",
"-.	c #09140B",
";.	c #0A2C11",
">.	c #204125",
",.	c #555F56",
"'.	c #756F76",
").	c #7E717F",
"!.	c #6C6B6C",
"~.	c #5F5F5F",
"{.	c #404040",
"].	c #B4B4B4",
"^.	c #687369",
"/.	c #374939",
"(.	c #053F13",
"_.	c #1C281E",
":.	c #343734",
"<.	c #1F3121",
"[.	c #436247",
"}.	c #958A98",
"|.	c #D39AD6",
"1.	c #F1B0F4",
"2.	c #FCB8FF",
"3.	c #D59BD7",
"4.	c #A97AAA",
"5.	c #817282",
"6.	c #353535",
"7.	c #696969",
"8.	c #C2C2C2",
"9.	c #414642",
"0.	c #3D453E",
"a.	c #445C47",
"b.	c #757A77",
"c.	c #857786",
"d.	c #977099",
"e.	c #8E8190",
"f.	c #949497",
"g.	c #A289A4",
"h.	c #877688",
"i.	c #666666",
"j.	c #6E6C6E",
"k.	c #917292",
"l.	c #827283",
"m.	c #6D6C6D",
"n.	c #444444",
"o.	c #212221",
"p.	c #A376A5",
"q.	c #DEA2E0",
"r.	c #8D738E",
"s.	c #383838",
"t.	c #4F4F4F",
"u.	c #4B4B4B",
"v.	c #AC7DAE",
"w.	c #838383",
"x.	c #907291",
"y.	c #BB87BD",
"z.	c #F3B1F5",
"A.	c #FBB7FE",
"B.	c #C38EC5",
"C.	c #887389",
"D.	c #B080B2",
"E.	c #E7A8E9",
"F.	c #DCA0DE",
"G.	c #9B709D",
"H.	c #CB94CD",
"I.	c #7C717D",
"J.	c #7B707C",
"K.	c #FBB8FE",
"L.	c #FCB8FE",
"M.	c #B180B3",
"N.	c #937294",
"O.	c #8C738D",
"P.	c #CDCDCD",
"Q.	c #787078",
"R.	c #C992CB",
"S.	c #6F6C70",
"T.	c #EEAEF0",
"U.	c #726E72",
"V.	c #515151",
"W.	c #9F73A1",
"X.	c #C08CC2",
"Y.	c #8A8A8A",
"Z.	c #686868",
"`.	c #757575",
" +	c #5D5D5D",
".+	c #A97BAB",
"++	c #A477A6",
"@+	c #868686",
"#+	c #B986BB",
"$+	c #DB9FDD",
"%+	c #D49AD6",
"&+	c #F7B4FA",
"*+	c #868C86",
"=+	c #565956",
"-+	c #5F6960",
";+	c #6F7470",
">+	c #716D71",
",+	c #7F7280",
"'+	c #364437",
")+	c #234127",
"!+	c #987A9A",
"~+	c #858B86",
"{+	c #145120",
"]+	c #CA93CC",
"^+	c #7A7978",
"/+	c #AAA4A0",
"(+	c #94908D",
"_+	c #6A7B6C",
":+	c #172719",
"<+	c #425544",
"[+	c #DBA0DE",
"}+	c #A19B97",
"|+	c #B9B2AE",
"1+	c #D7CFCA",
"2+	c #C2BBB6",
"3+	c #5C715E",
"4+	c #1A281C",
"5+	c #5E615F",
"6+	c #898684",
"7+	c #CBC3BE",
"8+	c #F4EBE5",
"9+	c #8A8785",
"0+	c #82807E",
"a+	c #FFF6F0",
"b+	c #83817F",
"c+	c #4C5E4E",
"d+	c #1F2821",
"e+	c #A59F9B",
"f+	c #E0D8D3",
"g+	c #BDB5B1",
"h+	c #B2ACA7",
"i+	c #B3ACA8",
"j+	c #6C6C6B",
"k+	c #ABB9AC",
"l+	c #364438",
"m+	c #3A443B",
"n+	c #8E8A88",
"o+	c #ECFBED",
"p+	c #FAFEFA",
"q+	c #61E979",
"r+	c #90A893",
"s+	c #334335",
"t+	c #3B443C",
"u+	c #767574",
"v+	c #867387",
"w+	c #ACF0B4",
"x+	c #58A063",
"y+	c #2A422D",
"z+	c #947295",
"A+	c #7D7B7A",
"B+	c #C2BAB6",
"C+	c #F5ECE6",
"D+	c #B2ABA7",
"E+	c #95EDA1",
"F+	c #56E871",
"G+	c #C5F4CA",
"H+	c #3FAB53",
"I+	c #19401F",
"J+	c #7C7A79",
"K+	c #ADA6A2",
"L+	c #BAB3AE",
"M+	c #D6CEC9",
"N+	c #787776",
"O+	c #ABABAB",
"P+	c #A2EFAC",
"Q+	c #A6F0B0",
"R+	c #D7F7DA",
"S+	c #62C572",
"T+	c #0E501D",
"U+	c #212922",
"V+	c #454545",
"W+	c #9D719F",
"X+	c #918C8A",
"Y+	c #BBB4B0",
"Z+	c #6A6A6A",
"`+	c #888583",
" @	c #9D9793",
".@	c #52E86F",
"+@	c #B4E8BA",
"@@	c #22612E",
"#@	c #6B6B6C",
"$@	c #C5BEB9",
"%@	c #C08BC2",
"&@	c #E3F9E6",
"*@	c #B2F1BA",
"=@	c #557A59",
"-@	c #1C281D",
";@	c #A174A3",
">@	c #98709A",
",@	c #B785B9",
"'@	c #CCF5D0",
")@	c #95AD98",
"!@	c #384439",
"~@	c #464746",
"{@	c #7F7D7C",
"]@	c #E9E0DB",
"^@	c #797979",
"/@	c #FCFEFD",
"(@	c #646A65",
"_@	c #DED6D1",
":@	c #7E7E7E",
"<@	c #C3C3C3",
"[@	c #727171",
"}@	c #A3A3A3",
"|@	c #999390",
"1@	c #B381B4",
"2@	c #FAF0EA",
"3@	c #DAD1CC",
"4@	c #A49E9A",
"5@	c #616261",
"6@	c #6E6E6E",
"7@	c #3C453D",
"8@	c #AEA7A3",
"9@	c #4B574D",
"0@	c #232924",
"a@	c #69756A",
"b@	c #959595",
"c@	c #95908D",
"d@	c #535353",
"e@	c #9A709B",
"f@	c #967197",
"g@	c #857386",
"h@	c #AC7CAD",
"i@	c #677068",
"j@	c #78867A",
"k@	c #869588",
"l@	c #AAADAB",
"m@	c #CDC5C1",
"n@	c #A69F9B",
"o@	c #DED6D0",
"p@	c #A39C99",
"q@	c #393C3A",
"r@	c #0F1410",
"s@	c #051908",
"t@	c #1F2820",
"u@	c #3C3D3C",
"v@	c #777675",
"w@	c #C4BCB7",
"x@	c #9A9A9A",
"y@	c #535954",
"z@	c #535853",
"A@	c #494B49",
"B@	c #2B332C",
"C@	c #031305",
"D@	c #090C0A",
"E@	c #151615",
"F@	c #2A292A",
"G@	c #474547",
"H@	c #232923",
"I@	c #19271B",
"J@	c #121A13",
"K@	c #061307",
"L@	c #141B15",
"M@	c #121512",
"N@	c #494049",
"O@	c #7A5C7C",
"P@	c #8C628D",
"Q@	c #9B749D",
"R@	c #958295",
"S@	c #767D77",
"T@	c #5C785F",
"U@	c #237333",
"V@	c #3E6643",
"W@	c #1F4124",
"X@	c #041906",
"Y@	c #354437",
"Z@	c #6B746D",
"`@	c #696A72",
" #	c #737373",
".#	c #524653",
"+#	c #A36EA5",
"@#	c #FCAAFF",
"##	c #FCABFF",
"$#	c #9C7C9D",
"%#	c #F6FDF7",
"&#	c #D9F8DD",
"*#	c #98EEA4",
"=#	c #86EC95",
"-#	c #42A253",
";#	c #16421E",
">#	c #303F32",
",#	c #666E78",
"'#	c #7779B1",
")#	c #7C7EB9",
"!#	c #FAFAFA",
"~#	c #774F78",
"{#	c #B97CBB",
"]#	c #7A5D7C",
"^#	c #FBFEFB",
"/#	c #DDF8E0",
"(#	c #CFF6D3",
"_#	c #A6F0AF",
":#	c #60DF76",
"<#	c #35693D",
"[#	c #0E140F",
"}#	c #2E332E",
"|#	c #4A4B71",
"1#	c #6B6B6F",
"2#	c #837C83",
"3#	c #885989",
"4#	c #C887CB",
"5#	c #6E5170",
"6#	c #C4C4C4",
"7#	c #E6FAE8",
"8#	c #A6BDA9",
"9#	c #39423A",
"0#	c #0C0C0C",
"a#	c #555781",
"b#	c #A1A1A1",
"c#	c #B3AEB3",
"d#	c #755876",
"e#	c #2A192A",
"f#	c #936294",
"g#	c #644F65",
"h#	c #6B6B6D",
"i#	c #626393",
"j#	c #5F608F",
"k#	c #969696",
"l#	c #B2A3B3",
"m#	c #755976",
"n#	c #2E212E",
"o#	c #463A47",
"p#	c #957296",
"q#	c #67699B",
"r#	c #6B6B70",
"s#	c #717171",
"t#	c #585A85",
"u#	c #505171",
"v#	c #7173A9",
"w#	c #D4DED5",
"x#	c #C6DBC8",
"y#	c #5C5D72",
"z#	c #5A5C88",
"A#	c #B7F2BE",
"B#	c #53547D",
"C#	c #636494",
"D#	c #DFF9E2",
"E#	c #C9F5CE",
"F#	c #5FE978",
"G#	c #6C6DA1",
"H#	c #85EC94",
"I#	c #75EA87",
"J#	c #B8F2BF",
"K#	c #C2F4C7",
"L#	c #87EC96",
"M#	c #69E97F",
"N#	c #8DED9A",
"O#	c #D6F7DA",
"P#	c #BDF3C4",
"Q#	c #68699B",
"R#	c #6A6A71",
"S#	c #C3F4C9",
"T#	c #81EB91",
"U#	c #B1F1B9",
"V#	c #6EEA83",
"W#	c #636373",
"X#	c #76EA88",
"Y#	c #6CE981",
"Z#	c #91ED9E",
"`#	c #42E765",
" $	c #8EED9C",
".$	c #59E873",
"+$	c #7AEB8C",
"@$	c #3FE764",
"#$	c #44E766",
"$$	c #4CE76B",
"%$	c #9CEEA7",
"&$	c #2EE65B",
"*$	c #AEF1B6",
"=$	c #E3F9E5",
"-$	c #B1B1B1",
";$	c #A8F0B1",
">$	c #3AE761",
",$	c #94EDA0",
"'$	c #C8F5CD",
")$	c #C1F3C7",
"!$	c #8FED9C",
"~$	c #DAF8DD",
"{$	c #C2F4C8",
"]$	c #DEF8E1",
"^$	c #F8FDF8",
"/$	c #707070",
"($	c #777777",
"_$	c #ABF0B4",
":$	c #B0F1B9",
"<$	c #8BEC99",
"[$	c #ADF1B5",
"}$	c #AEF1B7",
"|$	c #4AE76A",
"1$	c #92ED9F",
"2$	c #BEF3C5",
"3$	c #50E86E",
"4$	c #71EA84",
"5$	c #BEF3C4",
"6$	c #A0EFAB",
"7$	c #68E97E",
"8$	c #99EEA4",
"9$	c #D9F8DC",
"0$	c #F3FDF4",
"a$	c #F8FEF9",
"                                                                                                                                                                                                        ",
"                                                                                                                                                                                                        ",
"                                                                  . + @ + .                                                                                                                             ",
"                                                                  # $ % % & * =       = - ; > , .                                                                                                       ",
"                                                                # ' ) ) ) ! ~ ' . { - & ] ^ / ( #                                                                                                       ",
"                                                              . ' ! _ : ( < ! [ } | 1 ~ ] 2 ) ) 3                                                                                                       ",
"                                                              + % ) (     % ^ / 4 4 ~ & 5 6 ~ 4 7                                                                                                       ",
"                                                        8 9 9 0 % ) :   a [ b b c d e = = ; f g e                                                                                                       ",
"                                                        h i j 0 % ) :   * 4 ^ % , .     = k 1 & =                                                                                                       ",
"                                                      l j m n o % ) 7   * k & a         = * * a                                                                   = # # =                               ",
"                                                      p q q r s ~ ~ d   = = =                                                                                     a t u - v                             ",
"                                      9 9 9           w x y z = & ! & =             . + @ @ @ @ @ @ @ @ @ @ @ @ @ @ @ @ @ @ + .                                   ' 1 ^ 4 '                             ",
"                                      9 m A l         B x y C   * ~ ~ D a 5 E E F G H I % % % % % % % % % % % % % % % % % % % t J d K s .                         ; ^ b ! t .                           ",
"                                      9 n q L M s N E O P Q R E S 4 ! ^ ^ 4 T U V W X ) ) ) ) ) ) ) ) ) ) ) ) ) ) ) ) ) ) ) ) ! ! ) ~ % J Y Z ` a  .5 a =       5 < ! / f | +                           ",
"                                        ..+.@.#.I 1 f $.%.&.*.4 b ! ! ! ! ! =.-.;.>.,.'.).).).).).).).).).).).).).).).).).).'.!.t % ~ ) ! / [ ~.% [ ~ k & d ( : % b f ] / {.].                          ",
"                              . s { - 7 ^./.(._.X 1 f $.%.&.:.b b ^ ! ! ! ! =.<.[.}.|.1.2.2.2.2.2.2.2.2.2.2.2.2.2.2.2.2.2.2.2.2.1.3.4.5.~.) ^ 4 4 ) 6.~ ~ ! ) ) f 1 t 7.f f N                           ",
"                          . 8.Y I ~ ~ ) ) 9.0.a.b.c.d.e.f.g.h.i.j.k.l.m.c n.o./ k p.q.2.2.2.2.2.2.2.2.2.2.2.2.2.2.2.2.2.2.2.2.2.2.2.2.2.3.r.t s./ / t._ u.t % % !.p.q.v.g 1 : =                         ",
"                      .  .w.% ) ) ~ ~ % !.x.y.3.1.2.2.2.2.2.z.1.1.A.2.2.2.B.x.~.s.~ C.1.2.2.2.2.2.2.2.2.2.2.2.2.2.2.2.2.2.2.2.2.2.2.2.2.2.2.q.D.5.I ! u.x.y.E.F.E.1.2.q.x.~ k a                         ",
"                  = e d _ ! 4 _ 5.G.y.H.E.1.2.2.2.2.2.2.2.2.2.2.2.2.2.2.2.2.1.3.I.4 J.1.2.2.2.2.2.2.2.2.2.2.2.2.2.2.2.2.2.2.2.2.2.2.2.K.L.2.2.2.1.M.l.~ k p.q.2.2.2.2.2.G.~ ~ {                         ",
"              .  .w.] / / 6.% 4.1.2.2.2.2.2.2.2.2.2.2.2.2.2.2.2.2.2.2.2.2.2.2.2.D.p.p.1.2.2.2.2.2.2.2.2.2.2.2.2.2.2.2.2.2.2.2.2.2.2.2.K.2.2.2.2.2.2.q.p.k k !.N.D.2.2.2.O.) % P.                        ",
"            = ' % ! ) 4 / ~.p.q.2.2.2.2.2.2.2.2.2.2.2.2.2.2.2.2.2.2.2.2.2.2.2.2.2.2.2.2.2.2.2.2.2.2.2.2.2.2.2.2.2.2.2.2.2.2.2.2.2.2.2.2.2.2.2.2.2.2.2.q.p.7.] / Q.R.2.2.'.) % +                         ",
"          s - ] b < ) f S.p.q.T.2.2.2.2.2.2.2.2.2.2.2.2.2.2.2.2.2.2.2.2.2.2.2.2.2.2.2.2.2.2.2.2.2.2.2.2.2.2.2.2.2.2.L.L.2.2.2.2.2.2.2.2.2.2.2.2.2.2.2.2.q.B.U.V.) W.R.B.u ! 7..                         ",
"          * u ) [ / u r.X.1.2.2.2.2.2.2.2.2.2.2.2.2.2.2.2.2.2.2.2.2.2.2.2.2.2.2.2.2.2.2.2.2.2.2.2.2.2.2.2.2.2.2.2.2.2.2.2.2.2.2.2.2.2.2.2.L.2.2.2.2.2.2.2.2.E.M.U.) Q.7./ / Y.                          ",
"          * 2 ~ f Z.p.q.2.2.2.2.2.2.2.2.2.2.2.2.2.2.2.2.2.2.2.2.2.2.2.2.2.2.2.2.2.2.2.2.2.2.2.2.2.2.2.2.2.2.2.2.2.2.2.2.2.2.2.2.2.2.2.2.2.2.2.2.2.2.2.2.2.2.2.2.p.s.^ 4 b {.{                           ",
"          e `.f  +.+1.2.2.2.2.2.2.2.2.2.2.2.2.2.2.2.2.2.2.2.2.2.2.2.2.2.2.2.2.2.2.2.2.2.2.2.2.2.2.2.2.2.2.2.2.2.2.2.2.2.2.2.2.2.2.2.2.2.2.2.2.2.2.2.2.2.2.2.2.2.3.t ^ ! 6.' .                           ",
"        . * u [ G.E.2.2.2.2.2.2.2.2.2.2.2.2.2.2.2.2.2.2.2.2.2.2.2.2.2.2.2.2.2.2.2.2.2.2.2.2.2.2.2.2.2.2.2.2.2.2.2.2.2.2.2.2.2.2.2.2.2.2.2.2.2.2.2.2.2.2.2.2.2.2.2.++) f t =                             ",
"        s J ) 5.q.2.2.2.2.2.2.2.2.2.2.2.2.2.2.2.2.2.2.2.2.2.2.2.2.2.2.2.2.2.2.2.2.2.2.2.2.2.2.2.2.2.2.2.2.2.2.2.2.2.2.2.2.2.2.2.2.2.2.2.2.2.2.2.2.2.2.2.2.2.2.2.2.H.| 4 @+                              ",
"      . - ~ u D.2.2.2.2.2.2.2.2.2.2.2.2.2.2.2.2.2.2.2.2.2.2.2.2.2.2.2.2.2.2.2.2.2.2.2.2.2.2.2.2.2.2.2.2.2.2.2.q.#+#+q.2.2.2.2.2.2.2.2.2.2.2.2.2.2.2.2.2.2.2.2.2.2.E.~./ | a                             ",
"      8.J ) r.q.2.2.2.2.2.2.2.2.2.2.2.2.2.2.2.2.2.2.2.2.2.2.2.2.2.2.2.2.2.$+%+%+&+2.2.2.2.2.2.2.2.2.2.2.2.2.2.D.u ~ G.1.2.2.2.2.2.2.2.2.2.2.2.2.2.2.2.2.2.2.2.2.2.1.).f 4 5                             ",
"      *+X =+X.2.2.2.2.2.2.2.2.2.2.2.2.2.2.2.2.2.2.2.2.2.2.2.2.2.2.2.2.1.X.S.u.5.1.2.2.2.2.2.2.2.2.2.2.2.2.2.2.O.f b I M.1.2.2.2.2.2.2.2.2.2.2.2.2.2.2.2.2.2.2.2.2.2.v.1 1 :                             ",
"    = -+! ;+1.2.2.2.2.2.2.2.2.2.2.2.2.2.2.2.2.2.2.2.2.2.2.2.2.2.2.2.1.M.>+^ ^ i.1.2.2.2.2.2.2.2.2.2.2.2.2.2.1.'.f 6.) ,+X.2.2.2.2.2.2.2.2.2.2.2.2.2.2.2.#+#+#+2.2.2.q.Q.! & =                           ",
"    e '+)+!+2.2.2.2.2.2.2.2.2.2.2.2.q.#+#+q.2.2.2.2.2.2.2.2.2.2.2.2.#+J.4 4 / j.&+2.2.2.2.2.2.2.2.2.2.2.2.2.3.I ) i.i.) l.1.2.2.2.2.2.2.2.2.2.2.2.2.2.3.l.! p.2.2.2.2.p.~ ~ *                           ",
"    ~+_.{+]+2.2.2.2.2.2.2.2.2.2.2.2.B.t t B.2.2.2.2.2.2.2.2.2.2.3.p.Q.6.^+] 4 ).2.2.2.2.2.2.2.2.2.2.2.2.2.2.4.~ ~ /+(+4 % M.2.2.2.2.2.2.2.2.2.2.2.2.2.p.{.~ p.2.2.2.2.q.7.! k a                         ",
"    _+:+<+[+2.2.2.2.2.2.2.2.2.2.2.2.B.~ ~ x.2.2.2.2.2.2.2.2.2.q.G.u 2 }+|+~./ | B.2.2.2.2.2.2.2.2.2.2.2.2.1.5.) I 1+2+~.! l.2.2.2.2.2.2.2.2.2.2.2.1.#+Q.2 C.q.2.2.2.2.2.x.f f D                         ",
"  . 3+4+5+E.2.2.2.2.2.2.2.2.2.2.2.2.q.Q.! Q.q.2.2.2.2.2.2.2.R.N.[ ~ 6+7+8+9+f 4 G.2.2.2.2.2.2.2.2.2.2.2.2.3.I ) 0+8+a+b+! t R.2.2.2.2.2.2.2.2.2.2.M.J.2 W.R.2.2.2.2.2.2.B.t ! 7.#                       ",
"9 s c+d+5.1.2.2.2.2.2.2.2.2.2.2.2.2.2.G.~ ~ D.2.2.2.2.2.2.R.N.2 k e+f+a+a+g+u / U.q.2.2.2.2.2.2.2.2.2.2.1.G.~ u h+a+a+i+j+) N.q.2.2.2.2.2.2.2.2.q.l.! Q.R.2.2.2.2.2.2.2.2.#+Q.! ' =         9 9 9       ",
"h k+l+m+G.2.2.2.2.2.2.2.2.2.2.2.2.2.2.3.u f i.1.2.2.2.2.#+C.) j+e+f+a+a+a+8+e+u u p.1.2.2.2.2.2.2.2.2.2.X.!.) n+f+a+a+8+e+u u p.1.2.2.2.2.2.2.2.D.~ ~ G.2.2.2.2.2.2.2.2.2.2.p.k ~ * =       9 m r o+p+  ",
"q+r+s+t+v.2.2.2.2.2.2.2.2.2.2.2.2.2.2.1.< ! f y.2.2.2.#+C.! u+i+8+a+a+a+a+a+f+(+2 !.M.1.2.2.2.2.2.2.2.E.v+) I 2+a+a+a+a+f+0+) !.3.2.2.2.2.2.2.q.5.) !.3.2.2.2.2.2.2.2.2.2.2.q.p.t ~.e v     9 L q j 9   ",
"w+x+y+t+v.2.2.2.2.1.#+#+R.2.2.2.2.2.2.2.s.! ! z+2.2.R.C.! A+i+B+7+7+a+a+a+a+a+7+n+) '.X.2.2.2.2.2.2.2.M.c ) (+8+a+a+C+8+8+D+~ ~ G.2.2.2.2.2.2.p.u ~ p.1.2.2.2.2.2.2.2.2.2.2.2.q.#+Q.6.w.s .   9 E+F+n A ",
"G+H+I+t+G.2.2.2.2.1.,+< r.1.2.2.2.2.2.2.[ ! ! m.1.B.!./ ~.i+a+6+g 6+a+a+a+a+a+a+2+J+) r.#+2.2.2.2.E.M.I.2 6+7+a+a+a+7+K+L+M+N+! Q.q.2.2.2.2.q.Q.! Q.q.2.2.2.2.2.2.2.2.2.2.2.2.2.2.p.% ~ Y O++ M p P+m Q+",
"R+S+T+U+5.2.2.2.2.1.~./ V+3.2.2.2.2.2.2.I.b ! s.W+).f 4 X+8+a+t ! t a+a+a+a+a+a+8+Y+N+! C.q.2.2.1..+Z+2 }+7+a+a+a+8+(+| `+8+ @~ ~ D.2.2.2.1.5.1 6.G.2.1.E.F.F.F.F.F.F.H.y.v.v.v.d.,+~.V+^ 6.I #   n F+.@",
"l +@@@! #@1.2.2.2.2.I.^ 1 4.2.2.2.2.2.2.G.4 ! b V+2 / j+$@a+a+~.! ~.a+a+a+a+a+a+a+a+e+u g x.3.q.p.Z.) 6+7+a+a+a+a+8+Z.2 u+C+1+u+) 5.R.2.2.%@] ! V+3.2.#+J.% % % % % % % ~ ~ ~ ~ 1 f 1 f ^ ! ) #   &@*@i ",
"  o+=@-@% 3.2.2.2.2.;@V+f O.2.2.2.2.2.2.B.< b ! ! 6.6+7+a+a+a+j+! t 8+a+a+a+a+a+a+a+f+(+) s.~.!.~ 2 (+7+a+a+a+a+a+8+t ! j+a+8+i+J+1 >@,@M.I.b ! u E.2.#+g ) ) ) ) ) ) ) ~ ~ ~ ~ 1 f 1 % V+u.( v     &@'@",
"    )@!@~@G.2.2.2.2.E.I ) '.1.2.2.2.2.2.q.5.^ b ^ {@f+a+a+a+a+u+) % ]@a+a+a+a+a+a+a+a+7+b+{.) ! u (+7+a+a+a+a+a+a+a+t ! t a+a+8+Y+t f k !.! 6./ % E.2.R.W.).).Z+t t ^@7 - 5 5 5 E E N P.@ + .       /@p+",
"    = (@! Q.1.2.2.2.E.!.) Z+1.2.2.2.2.2.2.G.6.f t $@a+a+a+a+a+{@) % _@a+a+a+a+a+a+a+a+a+1+e+N+0+e+f+a+a+a+a+a+a+a+a+t ! t a+a+a+a+6+4 1 ) b+Z+4 % ,@2.2.2.2.2.W.| :@+                                   ",
"      d ) % 3.2.2.2.1.Z+) !.E.2.2.2.2.2.2.y.~ ~  @a+a+a+a+a+a+{@) % _@a+a+a+a+a+a+a+a+a+a+a+a+a+a+a+a+a+a+a+a+a+a+a+t ! t a+a+a+a+2+n+V.(+7+|+% ) >@2.2.2.2.2.).4 c @                                   ",
"      K ~ ~ 4.2.2.2.1.'.) I E.2.2.2.2.2.2.3.% ) 0+a+a+a+a+a+a+{@) % _@a+a+a+a+a+a+a+a+a+a+a+a+a+a+a+a+a+a+a+a+a+a+a+j+! t 8+a+a+a+a+f+f+f+a+]@I ) '.1.2.2.2.2.Z+/ g <@                                  ",
"      s % ) 5.2.2.2.2.O.) % H.2.2.2.2.2.2.1.Q.! j+f+a+a+a+a+a+u+) % ]@a+a+a+a+a+a+a+a+a+a+a+a+a+a+a+a+a+a+a+a+a+a+a+u+) % ]@a+a+a+a+a+a+a+a+8+[@/ V+y.2.2.2.2.v+^ ) }@                                  ",
"      . & ! !.q.2.2.2.C.1 1 ++2.2.2.2.2.2.2.x.~ ~ $@a+a+a+a+a+j+! t 8+a+a+a+a+a+a+a+a+a+a+a+a+a+a+a+a+a+a+a+a+a+a+a+{@) % _@a+a+a+a+a+a+a+a+a+6+f f ++2.2.2.2.4.{./ >                                   ",
"        D ~ ~ B.2.2.2.++f f C.2.2.2.2.2.2.2.y.~ ~  @a+a+a+a+f+t ! N+a+a+a+a+a+a+a+a+a+a+a+a+a+a+a+a+a+a+a+a+a+a+a+a+{@) % _@a+a+a+a+a+a+a+a+a+|@1 1 d.2.2.2.2.1.!.! J .                                 ",
"        5 ~ ~ v.2.2.2.1@{./ J.2.2.2.2.2.2.2.3.I ) 0+8+a+a+a+f+t t e+a+a+a+a+a+a+a+a+a+a+a+a+a+a+a+a+a+a+a+a+a+a+a+a+u+) % ]@a+a+a+a+a+a+a+a+a+$@u ~ x.1.2.2.2.2.5.) % s                                 ",
"        a u ~ x.1.2.2.E.!.) '.q.2.2.2.2.2.2.1.5.) I 1+a+a+a+f+Y+Y+f+a+a+a+2@]@_@3@_@_@_@_@_@_@_@_@_@_@_@]@8+a+a+a+a+(+! 6+8+a+a+a+a+a+a+a+a+a+f+u+) !.E.2.2.2.2.4.~ ~ K                                 ",
"        = d ) !.3.2.2.1.p.~ u p.2.2.2.2.2.2.2.4.~ ~ /+a+a+a+a+a+a+a+a+a+a+f+b+| u % % % % % % % % % % V.j+4@2@a+a+a+Y+Y+Y+a+a+a+a+a+a+a+a+a+a+a+}+) % .+2.2.2.2.3.!.) d =                               ",
"          7 ~ ~ H.2.2.2.q.C.! Q.#+2.2.2.2.2.2.3.I ) 0+8+a+a+a+a+a+a+a+f+Y+4@ +f 4 ) ) ) ) ) ) ) ) ) ) f f 0+8+a+a+a+a+a+a+a+a+a+a+a+a+a+a+a+a+a+7+6+! l.#+2.2.2.1.p.~ u *                               ",
"          - ) % y.2.2.2.2.#+7.! k v.2.2.2.2.2.1.5.T 5@1+a+a+a+a+a+a+a+$@t c $ : ; : : : : : : : : : 6@~ ] J+8+a+a+a+a+a+a+a+a+a+a+a+a+a+a+a+a+a+a+Y+N+! C.q.2.2.2.q.Q.! & =                             ",
"          K ~ ~ 4.2.2.2.2.2.x.f ^ x.2.2.2.2.2.2.4.m+7@/+a+a+a+a+a+a+a+8@~ ~ 5                       s c k  @2@a+a+a+a+a+a+a+a+a+a+a+a+a+a+a+a+a+a+a+e+] 1 Q.3.2.2.2.p.~ ~ *                             ",
"          P.% ) O.2.2.2.2.2.B.~.1 7.R.2.2.2.2.2.3.9@0@0+a+a+a+a+a+a+a+g+~ ~ -                       { % )  @a+a+a+a+a+a+a+a+a+a+a+a+a+a+a+a+a+a+a+a+f+[@^ s.y.2.2.2.q.7.! k a                           ",
"          @ % ) ).2.2.2.2.2.2.3.z+1 r.M.2.2.2.2.1.a@! j+f+a+a+a+a+a+a+1+% ) d                       b@1 1 c@a+a+a+a+a+a+a+a+a+a+a+a+a+a+a+a+a+a+a+a+a+b+) ) z+2.2.2.2.).f f 5                           ",
"          ].{./ J.1.1.1.2.2.2.1.#+t ! C.2.2.2.2.2.x.~@~ $@a+a+a+a+a+a+8+j+! J .                   . ; ^ 1 g+a+a+a+a+a+a+a+a+a+a+a+a+a+a+a+a+a+a+a+a+h+d@/ / e@F.F.F.F.f@2 4 6@=                         ",
"          N f f !.N.g@#+2.2.2.2.R.V.b 4 m.y.1.2.2.B.~ ~ X+a+a+a+a+a+a+a+(+2 | K =               a w.1 ^ ~.1+a+a+a+a+a+a+a+a+a+a+a+a+a+a+a+a+a+8+1+1+J+b b 1 V+% % % % u s.f k =                         ",
"        v w.4 / s.f s.#+2.2.2.2.#+) b ! b [ !.5.G.h@~.! N+8+a+a+a+a+a+a+7+6+) [ i@j@k@l@5 E : 7.~ / b ~ h+a+a+a+a+a+a+a+a+a+a+a+8+]@m@m@g+/+0+j+| ~ [ / 6.) ) ) ) ) ) ) 4 ~ ' =                         ",
"      = ' 4 s.^ ! 4 i.R.2.2.2.2.#+'.4 ! b / ! ) ~ ~ 6.b 4 [@n@m@_@_@o@_@_@p@j+q@r@s@t@u@g ) / ! ! ^ 6.v@w@_@_@_@_@_@_@_@]@1+$@ @0+I % ~ % ~ ) ! ) {.2 3 3 x@: : : : : : 7 e =                           ",
"      = t {.4 ~ 4 / v+2.2.2.2.2.1.E.e@~ ^ V+i.% ~ ~ ! ! ! ^ 1 % % % y@z@% | A@B@C@! D@E@^ b ! ^ f 2 {.| % % % % % % % % % t {.s.f 4 F@G@F@~ % J > d * v                                                 ",
"      =  .Y }@* V.) I.2.2.2.2.2.2.2.1.5.) I H.3.y.x.~./ ! b 1 ) ) ) H@I@U+U J@K@L@M@E@^ ^ b / / ) ) ) ) ) ) ) ) ) ) ) ) ) ! g f 4 N@O@P@Q@R@-  .=                                                       ",
"              @ % ) ).2.2.2.2.1.E.,@>@k 2 s.G.1.2.2.F.c / [ w.7 : S@T@U@V@W@X@Y@Z@`@`@u 4 s.6@:@: : : : : : : : : : : : ( d :  #s..#+#@###$#~ ~ {                                                       ",
"              @ % ) ).2.2.q.B.x.!.% ) 4 / / !.3.2.2.1.'.) I + %#&#*#=#.@-#;#>#,#'#)#)#`@^ 4 ( s                             !#s w.! ~#{#@#]#^ ) ].                                                      ",
"              @ % ) ).1.X.r.u ~ ) ) % % V.1 ~ 4.2.2.2.J./ {.].^#/#(#_#:#<#[#}#|#)#)#)#1#b ! ) - =                               # 2#! 3#4#5#/ {.6#                                                      ",
"              P.% ) J.p.!.) ~ u ( x@, @ 6#( ) I.M.1.2.G.f f Y.      7#8#9#0#/ a#)#)#)#|#^ b / d@* .                 v b#: b#v     c#d#e#f#g#) % @                                                       ",
"              b@2 f ~ ~ ) J D a =       . # ' ! !.p.q.y.~ ! ;       + i.b / h#i#)#)#)#j#~ ! < 2 ~.k#P..             # g f ) ' .   . l#m#n#o#f % @                                                       ",
"            . 7.b b ! u Y 8..               # ' ) ~ U.p#V.) J .   . }@) ! V.q#)#)#)#)#)#r#! u d ) g % D a           # $ < / % s     .  .J b b ] @                                                       ",
"            . J / 4 7.* =                     v 3 u ! 6.6.4 I +   8.| b ^ r#)#)#)#)#)#)#`@1 1 Y.' ~ / f k * =       . P.s#{.d@s       . * ) ! u +                                                       ",
"            .  .- K =                           = * k ^ f ^ u , = K / b ] t#)#)#)#)#)#)#u#f f E = e ~.4 ! ~ & d - - N : u.u * =         = J ~ & .                                                       ",
"                                                    e d 1 ) ) k#t 2 ) / i.v#)#)#)#)#)#)#u#1 1 E     a D 7.~ ! ~ ) ~ ] s.) 3 =             w#x#x#l                     8 9 9 p+                          ",
"                                        . # # v       = - k t k ^ b 4 ~ y#'#)#)#)#)#)#)#z#~ ~ -         = * & ~ % ~ ] ~ ' v               o+E+E+p                   &@j x A#p+                          ",
"                                        + $ g b#        = e % ^ b g 2 ~ B#)#)#)#)#)#)#)#C#% ) 7             = s { { 5 a =                 D#y x (#                l E#x F#E#p+                          ",
"                                        + J ) Z+6#+ s a D & / f t $ ~ ~ z#)#)#)#)#)#)#)#G#% ) :                                           z q q w                 p H#I#J#&@                            ",
"                                        . * ~ 1 u % t ~ ~ ! ~.D a 7 ) % C#)#)#)#)#)#)#)#G#% ) :                                           o+j q+(#l             l K#x w+o+                              ",
"                                          = ' ) 4 ) ! ~ ~ w. ..   : ) % G#)#)#)#)#)#)#)#G#% ) :                                           p+9 n L#L l           &@L#q E#p+                              ",
"                                            v b#: ( d D a =       : ) % G#)#)#)#)#)#)#)#C#% ) 7                                               A M#q A l       p+E#q L#&@                                ",
"                                                                  : ) % G#)#)#)#)#)#)#)#z#~ ~ -                                               &@E#H#N#A l     o+w+x K#l                                 ",
"                                                                  : ) % G#)#)#)#)#)#)#)#B#~ ~ 5                                                 l A N#N#A l   D#q q (#      p+o+o+l                     ",
"                                                                  : ) % G#)#)#)#)#)#)#)#j#u ~ D .                                                 l A q N#A   R+q q R+o+O#P#j y E+9                     ",
"                                                                  : ) % G#)#)#)#)#)#)#'#Q#R#) J s                                                   l S#m n 8 R+q T#B U#V#.@m x E+9                     ",
"                                                                = i.^ g W#B#B#y#r#t 7. +| | ~ t s                                                     /#*@x E#A#X#Y#Z#.@`# $j K#p l                     ",
"                                                                = [ b b / 1 1 g ! ! ! b ! ! ' # =                                                     p+/#w+.$+$@$#$$$%$P#O#p+                          ",
"                                                                = w.^ ! ^ f f g t t 1 ! b  +#                                                           p+A +$$$&$`#*$=$p+                              ",
"                  8 9 9 p+                            9 9 9       ` u ^ 2  #: 5 =   Z.^ 6.-$                                                              l ;$>$`#,$D#                                  ",
"                  p i j o+      8 9 9 p+        p+=$'$j m 9         : ) % @         : ) % @                                                                 )$i !$~$                                    ",
"                  p L#q r p+  l h i {$p+    p+D#G+P+x m L 9         ( ) % +         : ) % @                                                                 7#]$]$^$                                    ",
"                  l K#x w+o+  p L#q r p+  l A *#.$.@y L 9         . J ! J .         /$/ g # .                                                                                                           ",
"                    O#q q O#  K#x y o+p+9 L L#.@x U#=$p+          + % ) (           $ ^ / ($#                                                                                                           ",
"                    o+P+.@_$&@j m :$p+/#j x <$A#(#&@              }@V+f 7           - ~ 1 {.#                                                                                                           ",
"                    p+E#x x E#[$m }$/#B m n p l               = b@V+b s.e           = # 3 e v                                                                                                           ",
"                      &@P+|$q 1$m [$2$m n 9                   # ] ! b J =                                                                                                                               ",
"                        (#x 3$x 4$5$6$6$A                     # ] ) ~.8.                                                                                                                                ",
"                        &@j |$7$8$9$8 8 0$                    = { { s                                                                                                                                   ",
"                          8 K#F#r a$                                                                                                                                                                    ",
"                            8 8 8                                                                                                                                                                       ",
"                                                                                                                                                                                                        ",
"                                                                                                                                                                                                        "};
