/* XPM */
static char * item1_xpm[] = {
"100 100 971 2",
"  	c #FFFFFF",
". 	c #FFFFFE",
"+ 	c #F6FDF4",
"@ 	c #CBF2C0",
"# 	c #D6F5CE",
"$ 	c #FFFFFD",
"% 	c #FFFEFD",
"& 	c #FFFEFC",
"* 	c #FFFEFA",
"= 	c #FFFEF9",
"- 	c #FEFEF8",
"; 	c #FEFDF7",
"> 	c #FEFDF5",
", 	c #FEFDF4",
"' 	c #FEFDF3",
") 	c #FEFDF6",
"! 	c #FFFEFB",
"~ 	c #A0EA89",
"{ 	c #A9EB94",
"] 	c #DFF7D9",
"^ 	c #A1EA89",
"/ 	c #85E55C",
"( 	c #C6F0B7",
"_ 	c #FEFCF3",
": 	c #FEFCF0",
"< 	c #FEFCEE",
"[ 	c #FEFBED",
"} 	c #FEFBEC",
"| 	c #FDFBEA",
"1 	c #FDFAE8",
"2 	c #FDFAE7",
"3 	c #FDFAE4",
"4 	c #FDF9E2",
"5 	c #FDF9E1",
"6 	c #FDF9DE",
"7 	c #FDF8DC",
"8 	c #FDF8DD",
"9 	c #FDF9DF",
"0 	c #FDFAE6",
"a 	c #FEFBEB",
"b 	c #FEFCF2",
"c 	c #81E557",
"d 	c #79E446",
"e 	c #E7F9E3",
"f 	c #C0EFB1",
"g 	c #8CE663",
"h 	c #92E666",
"i 	c #C5EFAF",
"j 	c #FCF7D5",
"k 	c #FCF7D3",
"l 	c #FCF7D4",
"m 	c #FCF6D1",
"n 	c #FCF6CF",
"o 	c #FBF5C9",
"p 	c #FCF5CA",
"q 	c #FBF5C8",
"r 	c #FBF4C4",
"s 	c #FBF4C2",
"t 	c #FBF3BC",
"u 	c #FBF4C0",
"v 	c #FBF4C3",
"w 	c #FBF5C7",
"x 	c #FCF5CB",
"y 	c #FCF6D2",
"z 	c #FCF7D2",
"A 	c #FCF8D9",
"B 	c #FDF9E0",
"C 	c #D6F5CF",
"D 	c #A4EA8E",
"E 	c #82E558",
"F 	c #87E661",
"G 	c #BBEFAC",
"H 	c #E7F8E1",
"I 	c #AAEB8F",
"J 	c #92E65C",
"K 	c #ADE981",
"L 	c #E7F4CA",
"M 	c #FBF3BB",
"N 	c #FAF2B5",
"O 	c #FAF2B7",
"P 	c #FAF2B6",
"Q 	c #FAF2B3",
"R 	c #FAF2B4",
"S 	c #FAF1AC",
"T 	c #FAF1AF",
"U 	c #FAF1B1",
"V 	c #FAF1AE",
"W 	c #FBF2B8",
"X 	c #FBF3BA",
"Y 	c #9EE986",
"Z 	c #8FE76E",
"` 	c #BEEFB1",
" .	c #E7F8E2",
"..	c #BFEFAB",
"+.	c #9EE76D",
"@.	c #ACE877",
"#.	c #D4EEA5",
"$.	c #F7F5CD",
"%.	c #FBF3B9",
"&.	c #FAF1AD",
"*.	c #FAF2B2",
"=.	c #FAF0A8",
"-.	c #FAF1B0",
";.	c #FAF0A5",
">.	c #FCF7D6",
",.	c #7BE44A",
"'.	c #98E87C",
").	c #D4F3C7",
"!.	c #9EE871",
"~.	c #AAE870",
"{.	c #D1ED99",
"].	c #F2F3BB",
"^.	c #FBF4BF",
"/.	c #FBF3BD",
"(.	c #FBF4C1",
"_.	c #FBF3BE",
":.	c #F1EBC2",
"<.	c #E7E1B8",
"[.	c #DDD7B3",
"}.	c #DDD8B6",
"|.	c #DDD8B7",
"1.	c #DDD8B8",
"2.	c #DDD8B9",
"3.	c #DDD9BA",
"4.	c #DDD8B4",
"5.	c #DDD7B1",
"6.	c #DCD6AA",
"7.	c #DCD6A8",
"8.	c #DCD5A5",
"9.	c #D7D4A0",
"0.	c #D6D49C",
"a.	c #D6D49F",
"b.	c #E5DFAF",
"c.	c #F0E8B1",
"d.	c #FAF0AA",
"e.	c #FBF3BF",
"f.	c #FCF6D0",
"g.	c #FDFBE9",
"h.	c #89E665",
"i.	c #7EE550",
"j.	c #E7F9E2",
"k.	c #B8EC9A",
"l.	c #ADE871",
"m.	c #BEE979",
"n.	c #EBF0AD",
"o.	c #FCF7D7",
"p.	c #CCC9B8",
"q.	c #A5A397",
"r.	c #7F7D73",
"s.	c #6E6C65",
"t.	c #686660",
"u.	c #686661",
"v.	c #686662",
"w.	c #68655F",
"x.	c #68655E",
"y.	c #68655D",
"z.	c #68655C",
"A.	c #5C624C",
"B.	c #576145",
"C.	c #596148",
"D.	c #6B6A5C",
"E.	c #999683",
"F.	c #CBC5A3",
"G.	c #FAF0A4",
"H.	c #FCF8D8",
"I.	c #B0ED9F",
"J.	c #88E663",
"K.	c #8AE666",
"L.	c #D3F4C9",
"M.	c #E9F7DC",
"N.	c #BBEB8A",
"O.	c #BAE86F",
"P.	c #DEEC90",
"Q.	c #F5F0A9",
"R.	c #FDFAE5",
"S.	c #EAF7D8",
"T.	c #AFD397",
"U.	c #8FAB7C",
"V.	c #748369",
"W.	c #777572",
"X.	c #706E6C",
"Y.	c #484646",
"Z.	c #3F3B3C",
"`.	c #3F3A3C",
" +	c #403B3C",
".+	c #403C3C",
"++	c #413D3C",
"@+	c #6F6D65",
"#+	c #8F8C7B",
"$+	c #BCB68D",
"%+	c #FBF5C6",
"&+	c #D2F4CA",
"*+	c #8AE662",
"=+	c #B2EC9A",
"-+	c #F6FBEC",
";+	c #CEF0AF",
">+	c #BAE873",
",+	c #D9EB84",
"'+	c #ECED94",
")+	c #FAF0A6",
"!+	c #EBF6D4",
"~+	c #C5E6AC",
"{+	c #95C87B",
"]+	c #72A05C",
"^+	c #5B7E4C",
"/+	c #4D6C41",
"(+	c #415239",
"_+	c #434440",
":+	c #3A3738",
"<+	c #4B4346",
"[+	c #4E4548",
"}+	c #564B4F",
"|+	c #5A4D52",
"1+	c #5A4E52",
"2+	c #5B4E52",
"3+	c #5B4F52",
"4+	c #584D4F",
"5+	c #514848",
"6+	c #BBB58A",
"7+	c #F5F0AB",
"8+	c #F0F3C1",
"9+	c #EBF6D3",
"0+	c #B0EC9E",
"a+	c #85E555",
"b+	c #A6E97F",
"c+	c #D1F0B2",
"d+	c #D1ED9D",
"e+	c #CFEA7D",
"f+	c #E5EC8A",
"g+	c #F4EE97",
"h+	c #F8F5C9",
"i+	c #DDEAC1",
"j+	c #99B484",
"k+	c #688659",
"l+	c #4E6A41",
"m+	c #465F3B",
"n+	c #405239",
"o+	c #3E3A3C",
"p+	c #453E41",
"q+	c #4E4549",
"r+	c #5B4E53",
"s+	c #6E5C63",
"t+	c #8D757F",
"u+	c #937984",
"v+	c #997E89",
"w+	c #997F89",
"x+	c #947A84",
"y+	c #736167",
"z+	c #5F5354",
"A+	c #544B49",
"B+	c #8F8B72",
"C+	c #B5B279",
"D+	c #EEEE96",
"E+	c #DBEC8B",
"F+	c #DCF1B3",
"G+	c #D7F4CD",
"H+	c #ACEB90",
"I+	c #98E65A",
"J+	c #C8EC92",
"K+	c #D7EC8C",
"L+	c #E6EC8B",
"M+	c #ECED8F",
"N+	c #EAEE9D",
"O+	c #EBF1B1",
"P+	c #CAED9B",
"Q+	c #82AE61",
"R+	c #495F3F",
"S+	c #3C3F39",
"T+	c #574B4F",
"U+	c #67575D",
"V+	c #846D76",
"W+	c #9A7F89",
"X+	c #9C8189",
"Y+	c #7E6D6B",
"Z+	c #685E55",
"`+	c #85875D",
" @	c #BCBE74",
".@	c #E4EC8E",
"+@	c #E2F0AE",
"@@	c #CDF0B5",
"#@	c #B8EA83",
"$@	c #C7E979",
"%@	c #E5EC8C",
"&@	c #EDED8F",
"*@	c #E6EC8D",
"=@	c #D9ED97",
"-@	c #BBE18B",
";@	c #7CAD52",
">@	c #598342",
",@	c #3D393A",
"'@	c #474042",
")@	c #6D5C63",
"!@	c #9A8089",
"~@	c #A0878A",
"{@	c #7F7068",
"]@	c #595249",
"^@	c #44403C",
"/@	c #91905F",
"(@	c #E4E495",
"_@	c #F3F2B4",
":@	c #FDF9E3",
"<@	c #FEFCF1",
"[@	c #F7FAE6",
"}@	c #D6EE9F",
"|@	c #DBEB87",
"1@	c #E9EC8C",
"2@	c #E8EC8B",
"3@	c #D5EB82",
"4@	c #BCE977",
"5@	c #74A54E",
"6@	c #5A794A",
"7@	c #584C51",
"8@	c #7B666F",
"9@	c #9D8389",
"0@	c #9D8685",
"a@	c #675D54",
"b@	c #433F3C",
"c@	c #696850",
"d@	c #D4CB8A",
"e@	c #FDFAE3",
"f@	c #EEF2B7",
"g@	c #E8EC8D",
"h@	c #D8EB81",
"i@	c #BEE872",
"j@	c #9EDD61",
"k@	c #60804E",
"l@	c #52484B",
"m@	c #7E6971",
"n@	c #9F868A",
"o@	c #7D6E68",
"p@	c #4C4642",
"q@	c #524D42",
"r@	c #A09A75",
"s@	c #FCF8DB",
"t@	c #FEFDF8",
"u@	c #F8F2B4",
"v@	c #ECED91",
"w@	c #E5EC89",
"x@	c #C8E977",
"y@	c #A7E764",
"z@	c #94C775",
"A@	c #596354",
"B@	c #9C8289",
"C@	c #917C7C",
"D@	c #5B534C",
"E@	c #807C65",
"F@	c #EFE6A1",
"G@	c #FBF4C5",
"H@	c #F1EE96",
"I@	c #D5EA81",
"J@	c #B6E86D",
"K@	c #A4E870",
"L@	c #889B7F",
"M@	c #463F41",
"N@	c #453F41",
"O@	c #715F66",
"P@	c #675A58",
"Q@	c #686459",
"R@	c #C2BB8E",
"S@	c #FCF8DA",
"T@	c #FEFCEF",
"U@	c #FAF1AB",
"V@	c #FAF0A3",
"W@	c #F4F1B1",
"X@	c #D8ED9A",
"Y@	c #BCEB8D",
"Z@	c #99BB86",
"`@	c #636461",
" #	c #51474A",
".#	c #89717B",
"+#	c #7F6D6E",
"@#	c #514A47",
"##	c #423E3C",
"$#	c #938F78",
"%#	c #FAF0A7",
"&#	c #93E875",
"*#	c #FCF6CE",
"=#	c #F8F9DF",
"-#	c #F6FAE8",
";#	c #93958F",
">#	c #444142",
",#	c #615359",
"'#	c #988085",
")#	c #564D4C",
"!#	c #76746A",
"~#	c #F1EAC0",
"{#	c #B5EEA5",
"]#	c #84E55B",
"^#	c #80E555",
"/#	c #A9EB95",
"(#	c #F4F3EE",
"_#	c #757473",
":#	c #9B8189",
"<#	c #635658",
"[#	c #3F3A3B",
"}#	c #5D5B57",
"|#	c #959286",
"1#	c #AFAB94",
"2#	c #B0AB8C",
"3#	c #BDB78E",
"4#	c #D5CE9C",
"5#	c #F0E7AA",
"6#	c #9BE981",
"7#	c #CBF2C1",
"8#	c #D9D8D6",
"9#	c #696767",
"0#	c #766469",
"a#	c #464041",
"b#	c #3D3A3B",
"c#	c #464343",
"d#	c #575451",
"e#	c #5A5753",
"f#	c #595751",
"g#	c #767365",
"h#	c #A8A387",
"i#	c #DED7A8",
"j#	c #85E65E",
"k#	c #DFF7DA",
"l#	c #FAF0A9",
"m#	c #ABAAAA",
"n#	c #4C4A4B",
"o#	c #403B3D",
"p#	c #5E5056",
"q#	c #8E767F",
"r#	c #4A4244",
"s#	c #3F3C3D",
"t#	c #3F3B3B",
"u#	c #433E3D",
"v#	c #44403D",
"w#	c #3F3B3A",
"x#	c #49453E",
"y#	c #8A8776",
"z#	c #B4AF8E",
"A#	c #F0E7A9",
"B#	c #FCF5CC",
"C#	c #EEFAEB",
"D#	c #7EE552",
"E#	c #9DE984",
"F#	c #F3F2E7",
"G#	c #D8D7D3",
"H#	c #A3A2A0",
"I#	c #828180",
"J#	c #706F6F",
"K#	c #525050",
"L#	c #3C3839",
"M#	c #68585E",
"N#	c #8F7781",
"O#	c #8C757E",
"P#	c #857078",
"Q#	c #816D75",
"R#	c #7F6C74",
"S#	c #7B6870",
"T#	c #77666D",
"U#	c #75656B",
"V#	c #736369",
"W#	c #706167",
"X#	c #6F6066",
"Y#	c #716168",
"Z#	c #74646B",
"`#	c #7D6A71",
" $	c #877179",
".$	c #957B86",
"+$	c #574B50",
"@$	c #3C383A",
"#$	c #4A4344",
"$$	c #574E4F",
"%$	c #554D4B",
"&$	c #504A46",
"*$	c #45413E",
"=$	c #848174",
"-$	c #BCB797",
";$	c #C9F2BE",
">$	c #B3EDA2",
",$	c #CDCBC2",
"'$	c #9B9A97",
")$	c #6F6E6D",
"!$	c #5A5859",
"~$	c #3E393B",
"{$	c #6E5D64",
"]$	c #78666D",
"^$	c #6E5F65",
"/$	c #6D5F65",
"($	c #6D5F64",
"_$	c #6C5E64",
":$	c #6C5E63",
"<$	c #77656C",
"[$	c #856F78",
"}$	c #4C4547",
"|$	c #6D5F63",
"1$	c #6E6063",
"2$	c #685C5C",
"3$	c #58514E",
"4$	c #484340",
"5$	c #3E3B3A",
"6$	c #908D7E",
"7$	c #F0EABA",
"8$	c #ACEC98",
"9$	c #D0F3C7",
"0$	c #FBF5CA",
"a$	c #F2EED4",
"b$	c #BEBCB2",
"c$	c #918F8D",
"d$	c #433E3F",
"e$	c #413C3E",
"f$	c #4A4849",
"g$	c #88717A",
"h$	c #7E6B73",
"i$	c #79676E",
"j$	c #52474B",
"k$	c #474143",
"l$	c #685B60",
"m$	c #716364",
"n$	c #504948",
"o$	c #3E3A3A",
"p$	c #6E6C66",
"q$	c #D6D1B1",
"r$	c #FEFFFD",
"s$	c #F7FDF6",
"t$	c #CDF3C4",
"u$	c #D7D5C5",
"v$	c #858380",
"w$	c #3C393A",
"x$	c #423D3E",
"y$	c #494244",
"z$	c #554B4F",
"A$	c #62565A",
"B$	c #544B4E",
"C$	c #927983",
"D$	c #74646A",
"E$	c #564A4F",
"F$	c #65585D",
"G$	c #544C4D",
"H$	c #5A5856",
"I$	c #AEAB9A",
"J$	c #F6FCF4",
"K$	c #CAF2BF",
"L$	c #B1EDA0",
"M$	c #C4F1B8",
"N$	c #95E878",
"O$	c #E0DCC6",
"P$	c #A2A19A",
"Q$	c #413C3D",
"R$	c #534A4D",
"S$	c #4E4649",
"T$	c #3B3839",
"U$	c #65565C",
"V$	c #574D50",
"W$	c #605558",
"X$	c #443F40",
"Y$	c #3D3A3A",
"Z$	c #8A887F",
"`$	c #F1ECC6",
" %	c #C0F0B3",
".%	c #8CE76B",
"+%	c #91E772",
"@%	c #7AE448",
"#%	c #E0DECE",
"$%	c #6C6B69",
"%%	c #5F5458",
"&%	c #484244",
"*%	c #6F5D64",
"=%	c #716268",
"-%	c #8F7780",
";%	c #79656D",
">%	c #4C4447",
",%	c #695C60",
"'%	c #6F6D69",
")%	c #E8E4CA",
"!%	c #F7FDF4",
"~%	c #84E55D",
"{%	c #E1DFD3",
"]%	c #777675",
"^%	c #443F41",
"/%	c #6E6065",
"(%	c #686765",
"_%	c #DEDBC8",
":%	c #ADEC9B",
"<%	c #7CE44C",
"[%	c #F3F2E9",
"}%	c #5C5155",
"|%	c #605257",
"1%	c #726269",
"2%	c #5A5053",
"3%	c #484143",
"4%	c #555353",
"5%	c #B7B5AB",
"6%	c #90E770",
"7%	c #D8D7D2",
"8%	c #75646B",
"9%	c #76636B",
"0%	c #4F474A",
"a%	c #4A4346",
"b%	c #AAA9A2",
"c%	c #C5F1B9",
"d%	c #7DE44E",
"e%	c #9C9A98",
"f%	c #4D4648",
"g%	c #6F6065",
"h%	c #7C6970",
"i%	c #846F77",
"j%	c #8A737C",
"k%	c #8A747C",
"l%	c #8C747D",
"m%	c #88727A",
"n%	c #806C74",
"o%	c #6C5F64",
"p%	c #51494C",
"q%	c #4C4A4A",
"r%	c #918F8C",
"s%	c #FDF8DB",
"t%	c #858482",
"u%	c #554C4F",
"v%	c #937A83",
"w%	c #987D88",
"x%	c #987E88",
"y%	c #947B85",
"z%	c #816D74",
"A%	c #7B6970",
"B%	c #433D3F",
"C%	c #8A8987",
"D%	c #F3F0DF",
"E%	c #E1DFD4",
"F%	c #727171",
"G%	c #7D6A72",
"H%	c #7A686F",
"I%	c #76666D",
"J%	c #957B85",
"K%	c #977D87",
"L%	c #977D88",
"M%	c #937A84",
"N%	c #826E76",
"O%	c #726369",
"P%	c #4D4548",
"Q%	c #6F6D6D",
"R%	c #B6B4AB",
"S%	c #C8C6BE",
"T%	c #5F5D5D",
"U%	c #8D767F",
"V%	c #826D75",
"W%	c #967C86",
"X%	c #7F6B73",
"Y%	c #8B8A85",
"Z%	c #FFFEF8",
"`%	c #B2B0AB",
" &	c #917882",
".&	c #907781",
"+&	c #E0DDCA",
"@&	c #FCF6CD",
"#&	c #9F9D98",
"$&	c #74636A",
"%&	c #8C747E",
"&&	c #867079",
"*&	c #504E4D",
"=&	c #A2A095",
"-&	c #9F9D99",
";&	c #836E76",
">&	c #584E51",
",&	c #7C7A74",
"'&	c #4B4447",
")&	c #7F6972",
"!&	c #79676F",
"~&	c #413F40",
"{&	c #6C6A67",
"]&	c #F2EED2",
"^&	c #B2B1AC",
"/&	c #464042",
"(&	c #6B5A61",
"_&	c #443E40",
":&	c #6B6967",
"<&	c #F2EED6",
"[&	c #B2B1AB",
"}&	c #947A85",
"|&	c #D7D4C2",
"1&	c #979691",
"2&	c #5A5857",
"3&	c #D7D4C4",
"4&	c #8A8984",
"5&	c #CECCBD",
"6&	c #7F7E79",
"7&	c #DEDCCB",
"8&	c #FCF7D8",
"9&	c #878680",
"0&	c #554D4F",
"a&	c #777571",
"b&	c #E8E5CF",
"c&	c #878580",
"d&	c #726268",
"e&	c #7C6971",
"f&	c #73636A",
"g&	c #836E77",
"h&	c #4B4446",
"i&	c #A9A79B",
"j&	c #F2EDCE",
"k&	c #8B747E",
"l&	c #88727B",
"m&	c #76656C",
"n&	c #76656B",
"o&	c #555352",
"p&	c #908E85",
"q&	c #DFDBBD",
"r&	c #87857F",
"s&	c #464344",
"t&	c #8E7780",
"u&	c #535151",
"v&	c #8B8982",
"w&	c #F2EDD0",
"x&	c #A6A49A",
"y&	c #403C3D",
"z&	c #494245",
"A&	c #6E6066",
"B&	c #867179",
"C&	c #484647",
"D&	c #C8C8C6",
"E&	c #ABAAA7",
"F&	c #BFBEB5",
"G&	c #D7D3BE",
"H&	c #CCC9BA",
"I&	c #5A5858",
"J&	c #777676",
"K&	c #E1DFD2",
"L&	c #B6B5B0",
"M&	c #949392",
"N&	c #807F7E",
"O&	c #555354",
"P&	c #917883",
"Q&	c #E1E1DC",
"R&	c #FCF6CC",
"S&	c #E1E1DD",
"T&	c #7D7B7B",
"U&	c #C8C6C0",
"V&	c #777674",
"W&	c #8E7680",
"X&	c #846F78",
"Y&	c #B2B0A8",
"Z&	c #A2A097",
"`&	c #706E6B",
" *	c #87717A",
".*	c #939188",
"+*	c #706E6A",
"@*	c #88707A",
"#*	c #87857D",
"$*	c #7F7D77",
"%*	c #F1ECCB",
"&*	c #706E69",
"**	c #76746F",
"=*	c #777570",
"-*	c #51474B",
";*	c #E8E4CB",
">*	c #7F7E7A",
",*	c #89727B",
"'*	c #6F6D6B",
")*	c #E8E5D0",
"!*	c #878682",
"~*	c #8A737D",
"{*	c #594D52",
"]*	c #686766",
"^*	c #8B747D",
"/*	c #666663",
"(*	c #D9DBC8",
"_*	c #878683",
":*	c #4E6046",
"<*	c #B0D195",
"[*	c #949390",
"}*	c #A4CF88",
"|*	c #A3A19F",
"1*	c #967C87",
"2*	c #4C6C3F",
"3*	c #ADDA97",
"4*	c #B2B1AF",
"5*	c #89727C",
"6*	c #3D4339",
"7*	c #4D5C47",
"8*	c #7B8277",
"9*	c #D8D6CD",
"0*	c #C0BFBD",
"a*	c #5D5C5C",
"b*	c #463F42",
"c*	c #69595F",
"d*	c #7E6871",
"e*	c #82807E",
"f*	c #9C9C9B",
"g*	c #504E4E",
"h*	c #726067",
"i*	c #63545A",
"j*	c #4E4C4C",
"k*	c #BEBDBA",
"l*	c #868584",
"m*	c #757372",
"n*	c #E1DFD7",
"o*	c #CDCCC6",
"p*	c #91908F",
"q*	c #3B3738",
"r*	c #53484D",
"s*	c #7A676F",
"t*	c #816C75",
"u*	c #4D4447",
"v*	c #3E3A3B",
"w*	c #A4A7A0",
"x*	c #CBD9B7",
"y*	c #DEF1B2",
"z*	c #E9EFA0",
"A*	c #F3EFA1",
"B*	c #C8C7C1",
"C*	c #8A8988",
"D*	c #433E3E",
"E*	c #79A760",
"F*	c #B4E875",
"G*	c #D1EA82",
"H*	c #E9ED90",
"I*	c #F1EF9F",
"J*	c #464444",
"K*	c #557D41",
"L*	c #97CD65",
"M*	c #C8EA7E",
"N*	c #E0EC8D",
"O*	c #F0EFA0",
"P*	c #F6FBEE",
"Q*	c #F7F8DC",
"R*	c #F8F3BE",
"S*	c #B6B6B4",
"T*	c #4F504D",
"U*	c #5A4F53",
"V*	c #4A5843",
"W*	c #9BBB82",
"X*	c #D8EFAA",
"Y*	c #ECF0AB",
"Z*	c #F6F0A8",
"`*	c #B3EB94",
" =	c #C8EC90",
".=	c #E9EFA3",
"+=	c #F9F0A9",
"@=	c #7F8E79",
"#=	c #3B3939",
"$=	c #52544F",
"%=	c #BFEFB1",
"&=	c #97E664",
"*=	c #B7E871",
"==	c #E1ED92",
"-=	c #576A50",
";=	c #3B3D38",
">=	c #706F6E",
",=	c #BAED9D",
"'=	c #C5EB8B",
")=	c #ECED96",
"!=	c #DAF4CA",
"~=	c #5B7F4E",
"{=	c #50484A",
"]=	c #4A4345",
"^=	c #E2F3BF",
"/=	c #DEED93",
"(=	c #E6EC8A",
"_=	c #EBED96",
":=	c #F2F2B8",
"<=	c #BBED9D",
"[=	c #609945",
"}=	c #44533D",
"|=	c #41423E",
"1=	c #423D3F",
"2=	c #474142",
"3=	c #9B9994",
"4=	c #CCCABF",
"5=	c #E1EEA0",
"6=	c #E9ED8F",
"7=	c #E9EC8E",
"8=	c #E8EE9D",
"9=	c #E4F1B6",
"0=	c #B5EA83",
"a=	c #80CB4E",
"b=	c #648555",
"c=	c #585856",
"d=	c #413D3E",
"e=	c #5A5855",
"f=	c #6E6C67",
"g=	c #9A978C",
"h=	c #CCC8B5",
"i=	c #EFF4C4",
"j=	c #E7ED93",
"k=	c #EEED90",
"l=	c #E4EC8A",
"m=	c #DAEC8C",
"n=	c #C3E97B",
"o=	c #B2E874",
"p=	c #AFD291",
"q=	c #AAA8A4",
"r=	c #686767",
"s=	c #51554B",
"t=	c #4B5443",
"u=	c #526044",
"v=	c #566149",
"w=	c #677058",
"x=	c #848574",
"y=	c #A19E8F",
"z=	c #BEBBA6",
"A=	c #D6D1B3",
"B=	c #E6EFA3",
"C=	c #E7EC8B",
"D=	c #EEED8F",
"E=	c #DDEB86",
"F=	c #D4EB87",
"G=	c #E6F2BB",
"H=	c #F2EFD9",
"I=	c #F3F0E2",
"J=	c #E9E8DE",
"K=	c #EAE8E3",
"L=	c #CFCECA",
"M=	c #B2B2B0",
"N=	c #B2B2B2",
"O=	c #989797",
"P=	c #828181",
"Q=	c #696768",
"R=	c #5F5D5E",
"S=	c #807F7F",
"T=	c #888787",
"U=	c #888786",
"V=	c #888685",
"W=	c #888684",
"X=	c #94928D",
"Y=	c #94928C",
"Z=	c #94928A",
"`=	c #A2A096",
" -	c #B1AFA2",
".-	c #B1AFA1",
"+-	c #B1AE9D",
"@-	c #B1AE9C",
"#-	c #BEBAA4",
"$-	c #CDC9AD",
"%-	c #E7E2BD",
"&-	c #F1EBC3",
"*-	c #E2F1B8",
"=-	c #DBEC8A",
"--	c #E9EC8D",
";-	c #ECED8E",
">-	c #E6EC8E",
",-	c #F4F1AF",
"'-	c #F4F3F0",
")-	c #EAE9E6",
"!-	c #E0DFDC",
"~-	c #CFCFCC",
"{-	c #B2B1AE",
"]-	c #C8C7C3",
"^-	c #E1E0DB",
"/-	c #EBF3C0",
"(-	c #D9EC8F",
"_-	c #DEEB86",
":-	c #E4EC89",
"<-	c #EEED91",
"[-	c #F4EFA1",
"}-	c #F7F9E4",
"|-	c #C3EB91",
"1-	c #D0EA7D",
"2-	c #DDEB87",
"3-	c #F1EFA0",
"4-	c #FAEFA2",
"5-	c #CBF0B5",
"6-	c #A3E767",
"7-	c #ADE767",
"8-	c #BEE974",
"9-	c #DFEEA1",
"0-	c #E7F8E0",
"a-	c #94E76A",
"b-	c #91E555",
"c-	c #9CE65E",
"d-	c #CCEEA2",
"e-	c #FEFBEA",
"f-	c #94E773",
"g-	c #80E44A",
"h-	c #88E552",
"i-	c #B2EC96",
"j-	c #7EE54F",
"k-	c #BCEFAD",
"l-	c #D2F4C9",
"                                                                                                                                                                                                        ",
"                                                                                                                                                                                                        ",
"                                                                                                                                                                                                        ",
"                                                                                                                                                                                                        ",
"                                                                                                                                                                                                        ",
"                                                                                                                                                                                                        ",
"                                                                                                                                                                                                        ",
"                                                                                                                                                                                                        ",
"                                                                                                                                                                                                        ",
"                                                                                  . . . . . . . . . . . . . . . . . .                                                                                   ",
"                                  + + +                   + @ @ #   . $ $ % & & * * = = - ; > > , , , ' ' , ) ; - = * ! ! ! ! ! & & % $ $ .                                                             ",
"                                  @ ~ { @                 ] ^ / ( ! * ; _ : < [ } | | 1 2 3 4 5 6 6 7 6 8 9 4 3 0 1 } } a a } } a < b , ; * & .                                                         ",
"                                  @ c d { e               f g h i b } 2 6 j k k l j m n o p q r s t u u v s s w x y z z y m y k y k A B 1 < ; ! $ .                                                     ",
"                                  C D E F G             H I J K L 5 k o u M N O O u t N P Q R Q S T S U R Q V T N W O O W N P N X X P u x 5 a _ = &                                                     ",
"                                    e Y d Z ` +        ...+.@.#.$.u %.&.U *.V =.R *.t N P Q R Q O N O W M M N T *.&.-.-.&.*.=.V Q Q &.;.Q r >.1 : * $                                                   ",
"                                      G F ,.'.@     . ).!.~.{.].O -.;.-.%.^./.(._.q q n o :.<.[.}.|.1.2.3.2.4.5.6.6.7.7.6.8.9.0.a.b.c.*.=.d.e.f.g., ! .                                                 ",
"                                      e { h.i.{ j.. * k.l.m.n.U S T X s m o.8 6 9 9 3 p.q.r.s.t.t.u.u.v.u.u.t.w.x.y.y.y.z.y.A.B.C.D.E.F.X S G.s H.a ; %                                                 ",
"                                        + I.J.K.L.& M.N.O.P.Q.d.P q >.4 R.< S.T.U.V.W.X.Y.Z.Z.Z.Z.Z.Z.`.Z.Z.Z.Z. + + +.+.+.+.+.+.+.+++@+#+$+V S %+5 b ! .                                               ",
"                                          &+K.*+=+-+;+>+,+'+)+/.m 5 !+~+{+]+^+/+(+_+:+:+<+[+}+|+|+|+|+|+|+|+1+1+1+1+1+1+1+1+1+2+3+4+5+:+:+#+6+d.7+8+9+- $                                               ",
"                                          e 0+a+b+c+d+e+f+g+X h+i+j+k+l+m+n+o+:+p+<+q+r+s+t+u+v+v+v+v+v+v+v+v+v+v+v+v+v+v+v+v+v+w+x+y+z+A+:+B+C+D+E+F+, * .                                             ",
"                                            G+H+I+J+K+L+M+N+O+P+Q+R+S+:+o+p+<+T+U+V+u+v+v+v+v+v+v+v+v+v+v+v+v+v+v+v+v+v+v+v+v+v+v+v+W+X+Y+Z+:+`+ @.@+@g.- %                                             ",
"                                          . & @@#@$@%@&@*@=@-@;@>@,@,@'@r+)@V+u+v+v+v+v+v+v+v+v+v+v+v+v+v+v+v+v+v+v+v+v+v+v+v+v+v+v+v+!@~@{@]@^@/@(@_@:@<@* .                                           ",
"                                          $ = [@}@|@1@2@3@4@5@6@ +7@U+8@v+v+v+v+v+v+v+v+v+v+v+v+v+v+v+v+v+v+v+v+v+v+v+v+v+v+v+v+v+v+v+W+9@0@a@b@c@d@X m 1 ) ! .                                         ",
"                                      . $ = ' e@f@g@1@h@i@j@k@:+l@m@v+v+v+v+v+v+v+v+v+v+v+v+v+v+v+v+v+v+v+v+v+v+v+v+v+v+v+v+v+v+v+v+v+v+W+n@o@p@q@r@=.e.s@} t@! $ . .                                   ",
"                                  . % ! ; <@3 l u@v@w@x@y@z@A@`.r+v+v+v+v+v+v+v+v+v+v+v+v+v+v+v+v+v+v+v+v+v+v+v+v+v+v+v+v+v+v+v+v+v+v+v+w+B@C@D@:+E@F@V G@6 g.b > - * & $                               ",
"                                & ! ; b a B n W S H@I@J@K@L@M@N@O@v+v+v+v+v+v+v+v+v+v+v+v+v+v+v+v+v+v+v+v+v+v+v+v+v+v+v+v+v+v+v+v+v+v+v+v+W+~@P@++Q@R@;.R r l S@4 1 T@, * % .                           ",
"          e @ @ e             $ * b } 4 k G@P U@V@W@X@Y@Z@`@:+ #.#v+v+v+v+v+v+v+v+v+v+v+v+v+v+v+v+v+v+v+v+v+v+v+v+v+v+v+v+v+v+v+v+v+v+v+v+W+!@+#@###$#N %#Q W _.(.n s@g.b - & .                         ",
"        e G &#Y e           $ * _ g.j q P T S U@_.*#=#-#;#>#,@,#v+v+v+v+v+v+v+v+v+v+v+v+v+v+v+v+v+v+v+v+v+v+v+v+v+v+v+v+v+v+v+v+v+v+v+v+v+v+W+'#)#:+!#~#%.V T U@T U (.l e@T@) ! $                       ",
"        {#]#^#/#e         . ! ' g.o.s d.&.-.%.o H.2 T@(#_#:+'@8@v+v+v+v+v+v+v+v+v+v+v+v+v+v+v+v+v+v+v+v+v+v+v+v+v+v+v+v+v+v+v+v+v+v+v+v+v+v+w+:#<#[#}#|#1#2#3#4#5#S S %.n 9 [ > & .                     ",
"      e 6#,.E 7#          & - } o.s d.U@O o >.R.[ ' = 8#9#o+r+v+v+v+v+v+v+v+v+v+v+v+v+v+v+v+v+v+v+v+v+v+v+v+v+v+v+v+v+v+v+v+v+v+v+v+v+v+v+v+v+W+0#a#b#c#d#e#f#g#h#i#&.U@R p 8 < - %                     ",
"    + G j#E Y k#        $ * : :@%+U@l#%.m 4 [ ' = ! $ m#n#o#p#v+v+v+v+v+v+v+v+v+v+v+v+v+v+v+v+v+v+v+v+v+v+v+v+v+v+v+v+v+v+v+v+v+v+v+v+v+v+v+v+v+q#r#b#s#t#u#v#w#x#y#z#A#d.*.B#3 b ! .                   ",
"    C#'.D#E#e         . & , 1 n P =.W f.3 F#G#H#I#J#J#K#b#L#M#v+v+v+v+v+N#O#P#P#Q#Q#Q#R#S#T#U#U#U#U#U#U#U#U#U#V#W#X#Y#Z#T#T#T#T#T#T#T#`# $.$v+v+u++$`.@$#$$$%$&$*$:+=$-$-.l#W l a - $                   ",
"    ;$Z D#>$          $ = < A ^.=.N x e@,$'$)$!$:+:+:+:+:+~${$v+v+v+v+N#]$X#X#^$/$($_$_$_$_$_$_$_$_$_$_$_$_$_$_$:$:$:$_$($($/$/$/$/$/$/$<$[$v+v+v+8@p+`.}$|$1$2$3$4$5$6$7$U@S %+4 , !                   ",
"    8$D#Z 9$        . & ' R.0$V T u a$b$c$,@@$`.d$d$e$f$b#'@g$v+v+v+h$X#_$:$:$:$:$:$:$:$:$:$:$:$:$:$:$:$:$:$:$:$:$:$:$:$:$:$_$_$_$_$_$($($i$v+v+v+.#j$:+k$l$:$|$m$n$o$p$q$O S %.A [ * . r$+ + s$        ",
"t$  '.d &#+         . = < o.M &.W k u$v$w$x$y$z$A$:$B$,@`.+$C$v+v+[$V#:$:$:$:$:$:$:$:$:$:$:$:$:$:$:$:$:$:$:$:$:$:$:$:$:$:$:$:$:$:$:$:$:$:$D$.$v+v+v+E$o+e$F$:$:$|$G$.+H$I$r T N 0$1 ) % J$K$L$M$e       ",
"N$M$&#d &#          $ ; R.x U -.r O$P$++Q$R$l$:$:$:$S$T$,@U$v+v+.$i$:$:$:$:$:$:$:$:$:$:$:$:$:$:$:$:$:$:$:$:$:$:$:$:$:$:$:$:$:$:$:$:$:$:$_$W#C$v+v+v+U$o+e$V$:$:$:$W$X$Y$Z$`$O U@v 8 <@! J$ %.%+%G e     ",
"@%Y F d &#          & ' B /.-.R n #%$%Z.k$%%:$:$:$l$&%w$e$*%v+v+C$=%_$_$:$:$:$:$:$:$:$:$:$:$:$:$:$:$:$:$_$_$_$_$_$_$:$:$:$:$:$:$:$:$:$:$:$^$-%v+v+v+;%<+L#>%:$:$:$,%k$w$'%)%/.-.O z a - !%# 0+F F { e   ",
"~%d ^#d &#        . * < >.M %#_.A {%]%@$^%l$:$:$:$F$^%L#E$.#v+v+-%=%_$_$:$:$:$:$:$:$:$:$:$:$:$:$:$:$_$_$_$_$:$:$:$:$:$:$:$:$:$($_$:$:$:$:$/%C$v+v+v+u+T+:+^%A$:$:$:$y$w$(%_%x *.U %+4 , &   e :%]#F G @ ",
"8$D#<%d &#        . = 1 *#Q Q u B [%]%:+^%l$:$:$:$}%e$o+|%v+v+v+C$<$_$_$:$:$:$:$:$:$:$_$_$_$_$_$_$:$:$:$:$:$:$:$:$:$:$:$:$:$:$_$:$:$:$:$:$1%.$v+v+v+v+,#p+`.2%:$:$:$3%T$4%5%k X T X o.[ * .   &+G 6%d &#",
"C { d d F         . ) e@v Q Q x e@7%9#L#y$:$:$:$:$R$`.p+)@v+v+v+.$[$8%_$:$:$:$:$:$:$_$_$_$_$_$_$_$:$:$:$:$_$:$:$:$:$:$:$:$:$:$:$:$:$:$:$_$<$v+v+v+v+v+9%p+`.0%:$:$:$a%T$>#b%6 e.&.*.x 1 - .       :%D#<%",
"  c%d%d E         $ , 7 (.S O n | e%n#w$f%:$:$:$:$y$L#<+V+v+v+v+v+v+ $W#:$:$:$:$:$:$:$:$:$:$g%h%i%j%k%l%m%n%V#:$:$:$:$:$:$:$:$:$_$_$o%_$_$]$v+v+v+v+v+V+j$L#y$A$:$:$p%w$q%r%3 w S S r 4 ; .       &+Y ^#",
"  + D#d E         $ b s%W T N j [ t%s#L#u%:$:$:$A$^%:+T+u+v+v+v+v+v+v+ $X#_$_$_$_$:$:$:$:$V#P#v%w%x%x%x%x%y%z%V#:$:$:$:$:$:$_$_$_$($($/$X#A%v+v+v+v+v+u+,#p+Z.2%:$:$%%B%@$C%D%n P S /.9 , $         e { ",
"  + &#d '.        & T@>.X %#t H.E%F%T$Z.}%:$:$:$z$`.p+U+v+v+v+v+v+v+v+v+N#g$G%H%I%1%_$_$8% $J%v+v+x%K%L%v+w%M%N%X#:$_$($/$/%W#=%=%O%]$G%g$N#v+v+v+v+v+v+*%p+`.B$:$:$l$P%L#Q%R%H._.-.t H.: * .         e ",
"    @ @ @         ! } l O -.t 7 S%T%`.}$l$:$:$l$y$L#[+V+v+v+v+v+v+v+v+v+v+v+v+v+K%U%V%1%`#W%v+v+v+v+v+v+v+v+v+C$O%X#X%t+-%-%-%-%-%C$.$v+v+v+v+v+v+v+v+v+8@p+`.}$:$:$:$}%d$:+Y%6 u Q X k 1 Z%.           ",
"                  = | *#O -.v 6 `%!$`.B$:$:$:$F$B%o+E$u+v+v+v+v+v+v+v+v+v+v+v+v+v+v+ &n%8%M%v+v+v+v+v+v+v+v+x%j%g%G%.&v+v+v+v+v+v+v+v+v+v+v+v+v+v+v+v+v+.#j$:+k$l$:$:$:$k$:+X.+&%+V R G@e@) $           ",
"                . = 0 @&Q Q q 5 #&q%w$S$:$:$:$}%e$o+|%v+v+v+v+v+v+v+v+v+v+v+v+v+v+v+K%G%$&j%v+v+v+v+v+v+v+v+%&H%X#&&v+v+v+v+v+v+v+v+v+v+v+v+v+v+v+v+v+v+v+r+o+e$%%:$:$:$}$,@*&=&@&R ;.e.8 _ &           ",
"                . - 0 q N N q 3 -&>#T$S$:$:$:$R$`.p+)@v+v+v+v+v+v+v+v+v+v+v+v+v+v+v+K%Q#:$;&v+v+v+v+v+v+v+v+[$/$D$%&v+v+v+v+v+v+v+v+v+v+v+v+v+v+v+v+v+v+v+p#o#w$p%:$:$:$>&w$s#,&>.W &.N >.< !           ",
"                . - 3 x *.*.x 3 -&n#w$S$:$:$:$'&L#<+)&v+v+v+v+v+v+v+v+v+v+v+v+v+v+v+v+;&:$Q#K%v+v+v+v+v+v+v+n%X#!&u+v+v+v+v+v+v+v+v+v+v+v+v+v+v+v+v+v+v+v+U$,@T$S$:$:$:$%%o+~&{&]&(.T P @&a * .         ",
"                . - 0 q N N q 3 ^&!$`.B$:$:$:$/&L#<+t+v+v+v+v+v+v+v+v+v+v+v+v+v+v+v+v+i%W#G%.$v+v+v+v+v+v+v+V%:$n%K%v+v+v+v+v+v+v+v+v+v+v+v+v+v+v+v+v+v+v+(&o#w$a%:$:$:$l$_&w$:&<&%+Q Q x R.- .         ",
"                . = 0 @&Q Q q 5 [&!$`.B$:$:$l$^%:+j$u+v+v+v+v+v+v+v+v+v+v+v+v+v+v+v+v+P#W#G%}&v+v+v+v+v+v+v+Q#:$Q#v+v+v+v+v+v+v+v+v+v+v+v+v+v+v+v+v+v+v+v+V+<+L#y$:$:$:$:$y$:+X.|&%+R R %+3 ; .         ",
"                  = | *#O -.v 6 1&!$`.2%:$:$F$e$o+E$v+v+v+v+v+v+v+v+v+v+v+v+v+v+v+v+v+P#W#G%}&v+v+v+v+v+v+v+Q#:$Q#v+v+v+v+v+v+v+v+v+v+v+v+v+v+v+v+v+v+v+v+t+q+:+/&:$:$:$:$y$Z.2&3&x T T %+5 ) .         ",
"                  ! a l O -.t 7 4&:+d$%%:$:$}%e$o+|%v+v+v+v+v+v+v+v+v+v+v+v+v+v+v+v+v+P#W#G%}&v+v+v+v+v+v+v+Q#:$Q#v+v+v+v+v+v+v+v+v+v+v+v+v+v+v+v+v+v+v+v+u+<+L#^%:$:$:$:$'&@$(%5&@&N V s 5 > .         ",
"                  ! < j X %#t H.6&Y.e$F$:$:$R$`.p+)@v+v+v+v+v+v+v+v+v+v+v+v+v+v+v+v+K%i%W#h$.$v+v+v+v+v+v+v+;&:$Q#K%v+v+v+v+v+v+v+v+v+v+v+v+v+v+v+v+v+v+v+u+j$:+^%l$:$:$|$y$w$(%7&m %.*.(.9 ) .         ",
"                  % : 8&P V P H.9&Y.e$A$:$:$y$L#<+V+v+v+v+v+v+v+v+v+v+v+v+v+v+v+v+v+.$h$W#i%K%v+v+v+K%.$}&.$[$X#H%%&v+v+v+v+v+v+v+v+v+v+v+v+v+v+v+v+v+v+v+v+r+o+e$%%:$:$0&d$L#a&b&@&O -.s e@; .         ",
"                  $ : o.X %#X o.c&Y.e$A$:$:$^%:+q+u+v+v+v+v+v+v+v+v+v+v+v+v+v+v+v+v+.$;&d&j%t+;&h$h$n%A%e&h%X%f&/$g&y%v+v+v+v+v+v+v+v+v+v+v+v+v+v+v+v+v+v+v+U+p+`.p%2%h&X$s#H$i&j&/.V T @&g.Z%.         ",
"                  $ <@A W V W 8&c&Y.e$A$:$l$d$:+j$v+v+v+v+v+v+v+v+v+v+v+v+v+v+v+v+v+K%k&l&G%m&/$_$($:$($($($_$=%W#n&y%v+v+v+v+v+v+v+v+v+v+v+v+v+v+v+v+v+v+v+*%p+`.&%d$,@b#o&p&q&u V =.v s%T@* .         ",
"                  $ <@S@t V %.j r&s&Z.z$F$A$e$o+E$v+v+v+v+v+v+v+v+v+v+v+v+v+v+v+v+v+.&Q#W#X#:$_$_$_$_$:$:$_$_$_$:$h$t&v+v+v+v+v+v+v+v+v+v+v+v+v+v+v+v+v+v+v+9%p+`./&d$q%u&v&w&s d.=.u k | , &           ",
"                  . b S@u &.W k x&Y.Y.y&^%z&Z.o+|%v+v+v+v+v+v+v+v+v+v+v+v+v+v+v+v+v+%&A&_$:$($_$_$:$:$:$:$:$_$_$_$=%B&v+v+v+v+v+v+v+v+v+v+v+v+v+v+v+v+v+v+v+V+<+C&/&D&E&F&G&q &.=.X k 1 <@* $           ",
"                  . > 9 t *.N n H&r%I&w$L#`.n#p+U+v+v+v+v+v+v+v+v+v+v+v+v+v+v+v+v+M%n%^$:$:$_$_$_$:$_$_$:$_$_$_$:$:$n%K%v+v+v+v+v+v+v+v+v+v+v+v+v+v+v+v+v+v+u+q+:+J&! _ 0 m R U@O m R.<@* &             ",
"                  . ; 3 w %#Q %+7 K&L&M&N&O&n#p+9%v+v+v+v+v+v+v+v+v+v+v+v+v+v+v+v+P&f&($:$:$:$_$:$_$($($:$:$:$_$_$^$A%.$v+v+v+v+v+v+v+v+v+v+v+v+v+v+v+v+v+v+v+T+:+J#Q&} >.t &.*.R&4 <@= %               ",
"                  . = } n X d.R 0$7 } _ S&T&>#<+V+v+v+v+v+v+v+v+v+v+v+v+v+v+v+v+v+P&X%/$_$_$:$:$:$:$:$:$:$:$:$:$X#X#;&.$v+v+v+v+v+v+v+v+v+v+v+v+v+v+v+v+v+v+v+,#N@I&U&e@q &.S r 7 T@- % .               ",
"                  . ! : 3 @&Q U@U w o.1 _ V&:+q+u+v+v+v+v+v+v+v+v+v+v+v+v+v+v+v+v+L%W&e&_$_$_$:$:$:$:$:$:$:$_$/$/%X&N#K%v+v+v+v+v+v+v+v+v+v+v+v+v+v+v+v+v+v+v+*%N@I&Y&S@X S O f.g.) & .                 ",
"                    & - < 8 x N S S ^.>.g.X.:+q+v+v+v+v+v+v+v+v+v+v+v+v+v+v+v+v+v+v+v+l&m&^$($:$_$_$_$_$_$($=%m&;&N#v+v+v+v+v+v+v+v+v+v+v+v+v+v+v+v+v+v+v+v+v+9%N@I&Z&n P T (.7 [ * $                   ",
"                    . & > < B n O =.S v 9 `&:+q+v+v+v+v+v+v+v+v+v+v+v+v+v+v+v+v+v+v+v+K%W& *R#`#]$]$i$!&A%h$l&W&u+K%v+v+v+v+v+v+v+v+v+v+v+v+v+v+v+v+v+v+v+v+v+)&<+Y..*x Q Q %+8 b &                     ",
"                      $ ! ; : B o R d.N >.+*:+q+v+v+v+v+v+v+v+v+v+v+v+v+v+v+v+v+v+v+v+v+v+v+v+K%.$}&}&}&}&.$K%v+v+v+v+v+v+v+v+v+v+v+v+v+v+v+v+v+v+v+v+v+v+v+v+@*<+Y.#*B#R R (.6 b $                     ",
"                        . % - | j M d.R m +*:+q+v+v+v+v+v+v+v+v+v+v+v+v+v+v+v+v+v+v+v+v+v+v+v+v+v+v+v+v+v+v+v+v+v+v+v+v+v+v+v+v+v+v+v+v+v+v+v+v+v+v+v+v+v+v+v+t+[+`.$*%*W =.^.s%<@&                     ",
"                          . ! T@A W V N l &*:+q+v+v+v+v+v+v+v+v+v+v+v+v+v+v+v+v+v+v+v+v+v+v+v+v+v+v+v+v+v+v+v+v+v+v+v+v+v+v+v+v+v+v+v+v+v+v+v+v+v+v+v+v+v+v+v+t+l@`.**w&X V W H.T@! .                   ",
"                            ! T@>.X %#t H.=*:+q+u+v+v+v+v+v+v+v+v+v+v+v+v+v+v+v+v+v+v+v+v+v+v+v+v+v+v+v+v+v+v+v+v+v+v+v+v+v+v+v+v+v+v+v+v+v+v+v+v+v+v+v+v+v+v+u+-*`.W.;*r Q X m a = .                   ",
"                            ! } l O -.t 7 >*Y.<+t+v+v+v+v+v+v+v+v+v+v+v+v+v+v+v+v+v+K%u+W&O#O#O#O#O#O#O#O#O#O#O#O#,*,*,*O#W&u+K%v+v+v+v+v+v+v+v+v+v+v+v+v+v+v+u+E$`.'*)*w O O R&3 - .                   ",
"                            = | *#O -.v 6 !*Y.<+@*v+v+v+v+v+v+v+v+v+v+v+v+v+v+v+.&l&V%G%T#T#T#T#T#T#T#T#T#T#T#T#T#D$W#D$8%D$A%~*y%v+v+v+v+v+v+v+v+v+v+v+v+v+v+v+{*o+]*7&@&*.*.s :@> $                   ",
"                          . = 0 @&Q Q q 5 !*Y.<+@*v+v+v+v+v+v+v+v+v+v+v+v+v+.$^*h$W#:$W#T#T#T#T#T#T#T#T#T#T#T#T#T#D$W#D$8%/$^$U#X&u+v+v+v+v+v+v+v+v+v+v+v+v+v+v+{*o+/*(*m P %#(.7 <@* .                 ",
"                          . - 0 q N N q 3 _*Y.<+@*v+v+v+v+v+v+v+v+v+v+v+v+v+y%G%^$W#G%&&j%O#O#O#O#O#O#O#O#O#O#O#O#,*,*,*B&g&e&/$8%W&v+v+v+v+v+v+v+v+v+v+v+v+v+v+{*o+:*<*A W U P l 1 ) &                 ",
"                          . ; 3 x *.*.x 3 [*Y.<+)&v+v+v+v+v+v+v+v+v+v+v+v+v+y%P#e&[$.&v+v+v+v+v+v+v+v+v+v+K%u+u+y%v+v+v+v+v+t+X&i$W&v+v+v+v+v+v+v+v+v+v+v+v+v+v+{*o+m+}*:@q d.*.s 6 T@= .               ",
"                        . ! _ 4 w R R q 1 |*!$p+9%v+v+v+v+v+v+v+v+v+v+v+v+v+w%.$.$1*v+v+v+v+K%.$}&t+^*,*j%&&h$]$&&t+y%v+v+v+v+y%y%y%v+v+v+v+v+v+v+v+v+v+v+v+v+.#E$o+2*3*[ k X )+N @&0 > * .             ",
"                      $ ! ) a H.s U Q f.a 4*!$p+*%v+v+v+v+v+v+v+v+v+v+v+v+v+v+v+v+v+w%K%^*X&h$i$T#V#^$X#X#($($X#^$$&5*P&v+v+v+v+v+v+v+v+v+v+v+v+v+v+v+v+v+v+v+(&'@6*7*8*9*R.o T =./.A | ) ! .           ",
"                    . & > [ 7 o Q S _.S@: 0*a*b*c*v+v+v+v+v+v+v+v+v+v+v+v+v+v+v+v+v+y%N%m&_$_$_$_$_$_$:$:$:$:$:$:$X#X#;&t+v+v+v+v+v+v+v+v+v+v+v+v+v+v+v+v+v+d*T+:+y&:+Y.e*K&7 (.d.V v 6 [ - $           ",
"                    & - < 7 o *.U@Q *#2 , f*g*s#<+h*t+u+v+v+v+v+v+v+v+v+v+v+v+v+v+v+y%i$:$_$:$:$:$:$_$_$_$_$_$_$:$/$W#/%%&v+v+v+v+v+v+v+v+v+v+v+v+v+v+v+v+.#i*L#^%/&Z.b#j*^&g.l _.%#Q o e@, &           ",
"                  $ * T@3 B#U d.Q p 8 T@k*l*:+b#b#B%<+j$E$7@i*h*t+u+v+v+v+v+v+v+v+v+.$;&1%($_$:$:$_$_$_$_$_$_$($W#X#h%V%%&v+v+v+v+v+v+v+v+v+v+v+v+v+v+v+8@,#_&e$p%l$0%w$T$m*n*2 B#W =.X A T@* .         ",
"                  % ) g.@&W l#R B#9 [ o*p*:+`.T$q*T$L#:+o+@$,@B%[+E$r*7@p#8@.#v+v+v+v+y%t+X&H%T#m&s*s*s*S#H%`#t*P#O#W&K%K%v+v+v+v+v+v+v+v+v+v+v+v+.#O@r+u*o+`.p%A$:$A$k$L#v*w*x*y*z*A*Q.@&g.) %         ",
"                  * <@8 (.;.*.q 9 < B*C*L#N@0%B$a%k$/&^%e$v*T$T$L#o+@$L#o#p+q+q+q+j$E${*|%U+*%*%9%V+u+v+v+v+v+v+v+v+v+v+v+v+v+v+v+v+v+u+t+t+V+O@|%E$'@o+:+`.a%A$:$:$:$2%h&v*D*E*F*G*H*I*r 7 : !         ",
"                . = | m *.T X H.} ; I#J*w$p%l$:$:$:$:$l$F$u%f%k$/&B%v*L#w$`.:+:+:+:+o+o+o+p+p+p+p+<+j$E${*{*{*{*{*{*{*{*{*{*{*{*{*|%r+T+<+<+q+p+o+L#`.e$k$p%A$:$:$:$:$:$%%N@@$K*L*M*N*O*O m a * .       ",
"                . P*Q*R**.*.o B _ S*T*:+y&A$:$:$:$:$:$:$:$:$:$:$l$F$U*u%p%}$k$d$d$d$e$e$e$`.`.`.`.L#:+o+o+o+o+o+o+o+o+o+o+o+o+o+o+o+p+:+L#L#:+`.e$^%0%%%l$:$:$:$:$:$:$:$l$}$Z.V*W*X*Y*Z*-.q 1 = .       ",
"              + @ `* =.=+=P @&R.> @=#=T$z&:$:$:$:$:$:$:$:$:$:$:$:$:$:$:$:$:$:$:$:$l$F$A$}%>&B$B$0%y$^%e$e$e$e$e$e$e$e$e$e$e$e$e$e$e$`.^%/&/&y$0%}%F$l$:$:$:$:$:$:$:$:$:$:$h&v*$=U&:@q T T q 3 = .       ",
"              + %=&=*===I*Q x 0 t@-=;=v*}%:$:$:$:$:$:$:$:$:$:$:$:$:$:$:$:$:$:$:$:$:$:$:$:$:$:$:$:$:$l$F$A$A$A$A$A$A$A$A$A$A$A$A$A$}%%%A$:$:$:$:$:$:$:$:$:$:$:$:$:$:$:$:$l$/&:+>=n*B G@Q Q G@0 = .       ",
"              + @ ,='=3@)=I*o R.!=~=:+e$>&:$:$:$:$:$:$:$:$:$:$:$:$:$:$:$:$:$:$:$:$:$:$:$:$:$:$:$:$:$:$:$:$:$:$:$:$:$:$:$:$:$:$:$:$:$:$:$:$:$:$:$:$:$:$:$:$:$:$:$l$%%>&{=]=Z.w$r%a o.(.-.*.*#| * .       ",
"                . ; ^=/=(=_=:=5 <=[=}=|=1=/&/&'&0%B$B$B$B$2%A$:$:$:$:$:$:$:$:$:$:$:$:$:$:$:$:$:$:$l$l$l$l$F$A$A$A$A$A$A$A$A$A$A$A$A$A$}%}%}%A$}%>&B$B$B$B${=>%2=N@x$ +.+,@Y$3=4=6 w *.d.M H.: !         ",
"                . = g.5=6=7=8=9=0=a=b=c=L#:+L#L#`.`.`.`.`.`.^%/&&%'&0%B$B$B$B$B$B$B$B$B$B$B$B$B$B$}$^%d$d$e$e$e$e$e$e$e$e$e$e$e$e$e$e$e$`.d=d=d=Z.Z.Z.Z.Z..+w$,@:+Y$H$e=f=g=h=>.0$N )+&.0$R., %         ",
"                  * < i=j=k=l=m=n=o=p=q=V&>=r=9#!$!$!$!$!$`.:+L#L#L#`.`.`.`.`.`.`.`.`.`.`.`.`.`.`.`.L#:+:+C&C&C&C&C&Y.Y.Y.Y.Y.Y.Y.Y.Y.Y.!$Y.Y.Y.I&2&2&2&s=t=u=v=w=x=y=z=A=:.(._.*.S S u A [ = $         ",
"                  & ' 4 B=C=D=g@E=F=G=H=I=J=K=L=0*M=N=N=N=O=P=Q=Q=Q=!$!$!$!$!$!$!$!$!$!$!$!$!$!$!$R=J&J&J&S=T=U=U=U=U=V=W=W=_*_*!*!*!*X=X=Y=c&Z=`= -.-+-@-#-$-%-&-%+r /.W U -.U@U P o o.1 , ! .         ",
"                  $ ; } *-=---&@;->-,-0$l 9 3 } T@, ; Z%* * '-)-!-~-0*4*4*4*4*4*4*4*4*4*4*4*4*4*{-]-^-; > , , b <@: T@[ | 0 R.5 B 6 6 6 S@S@o.>.n @&o w /.M O O Q R T U@&.U Q %.(.l B } _ = $           ",
"                  . ! ) a /-(-_-:-<-[-U M /.0$m s@5 R.g.a a a } } a a } } } } } } } } } a a } a g.2 0 3 4 9 7 7 o.H.>.>.n R&q q (.s ^.^.s W M N M W R U -.%#-.-.Q R T P /.G@@&>.9 g.b ; ! $ .           ",
"                    . * , }-|-O.1-2-3-U =.*.T P /.G@x m k k z k y m y z z z k k k z z z y m y k n @&o q %+r _.%./.P M N X O *.T *.&.-.-.&.*.4-V Q W R U R t t v w %+B#m s@5 1 [ ' ; * % .               ",
"                      $ ! = 5-6-7-8-9-(.e.P T U@&.U Q O W M M N P N W O O %.O X O %.O O W N P N M W R U *.U V V =.*.4-V Q O *.T N W O O W N t X r q o 0$n >.7 6 5 3 1 [ T@> - * & $ .                   ",
"                        . . 0-a-b-c-d-3 s@n G@/.W U U S U R Q V =.*.&.-.-.&.Q d.Q &.-.-.&.*.=.V Q W R U *.U W %./.P t X r w q 0$x y z z y j A 6 8 4 3 1 e-[ b , > t@= * & % . .                         ",
"                              f-g-h-i-) T@g.e@7 y p (.(.u v s /.u t s ^.^.s /.v /.s ^.^.s t u /.r q o q %+B#f.A o.H.A 8 7 5 3 0 1 1 } } [ T@: b , , t@= * ! & $ . . .                                   ",
"                              { d%j-k-& ! = ) <@} R.4 9 9 8 7 6 7 7 s%6 6 7 6 7 6 7 6 6 s%7 7 9 9 4 3 3 0 2 a } : <@b _ , , ; - = = * ! & & % $ . . . .                                                 ",
"                              &+{ { l-  . . $ & = - ; > , _ ' ' ' ' b ' ' ' ' ' ' ' ' ' b ' , , > > ) ; Z%= * ! & $ $ $ . . . . . .                                                                     ",
"                                                . . . . . . . . . . . $ . . . . . . . $ . . . . . . . . . .                                                                                             ",
"                                                                                                                                                                                                        ",
"                                                                                                                                                                                                        "};
