/* XPM */
static char * item_xpm[] = {
"100 100 420 2",
"  	c #FFFFFF",
". 	c #E8FAEA",
"+ 	c #E1F9E4",
"@ 	c #FAFEFA",
"# 	c #CDF5D1",
"$ 	c #65E97C",
"% 	c #B5F2BD",
"& 	c #F1FCF2",
"* 	c #2AE65A",
"= 	c #BCF3C3",
"- 	c #DBF8DE",
"; 	c #84EC93",
"> 	c #D0F6D5",
", 	c #F4F5F4",
"' 	c #D7DBD7",
") 	c #BDC3BD",
"! 	c #AEB7AE",
"~ 	c #C6CBC6",
"{ 	c #E1E3E1",
"] 	c #C6F4CC",
"^ 	c #5BE874",
"/ 	c #A1EFAB",
"( 	c #E7FAE9",
"_ 	c #A5AFA5",
": 	c #798B79",
"< 	c #5B755B",
"[ 	c #486948",
"} 	c #647B64",
"| 	c #BBC2BB",
"1 	c #D5F7D8",
"2 	c #BFF3C5",
"3 	c #EFFCF0",
"4 	c #C2C8C2",
"5 	c #8E9C8E",
"6 	c #839283",
"7 	c #9CAD9D",
"8 	c #D4E1D5",
"9 	c #CBD0CB",
"0 	c #335E34",
"a 	c #075209",
"b 	c #19551A",
"c 	c #2C5C2D",
"d 	c #366037",
"e 	c #C7F4CC",
"f 	c #F0F2F0",
"g 	c #A5AEA5",
"h 	c #6C816C",
"i 	c #285A28",
"j 	c #366738",
"k 	c #4F9056",
"l 	c #B3CBB5",
"m 	c #95A195",
"n 	c #1F5720",
"o 	c #125413",
"p 	c #245825",
"q 	c #7C8D7C",
"r 	c #E9EBE9",
"s 	c #64E97B",
"t 	c #7F907F",
"u 	c #2D5E2E",
"v 	c #28642C",
"w 	c #0E5A13",
"x 	c #115715",
"y 	c #779479",
"z 	c #ABB4AB",
"A 	c #39613A",
"B 	c #285A29",
"C 	c #305D30",
"D 	c #CDD2CD",
"E 	c #E3F9E6",
"F 	c #506E50",
"G 	c #3A693C",
"H 	c #115E18",
"I 	c #0F5A14",
"J 	c #29602B",
"K 	c #597459",
"L 	c #919E91",
"M 	c #C3F4C9",
"N 	c #2F5D2F",
"O 	c #0D530F",
"P 	c #135F1A",
"Q 	c #0E5410",
"R 	c #1B571D",
"S 	c #8A988A",
"T 	c #B3BBB3",
"U 	c #5F7860",
"V 	c #9DA89D",
"W 	c #DDF8E0",
"X 	c #C6DCC8",
"Y 	c #2E6130",
"Z 	c #07530A",
"` 	c #1B581D",
" .	c #7D8E7D",
"..	c #768976",
"+.	c #4E6D4E",
"@.	c #8D9B8E",
"#.	c #B5F2BC",
"$.	c #89C691",
"%.	c #105411",
"&.	c #849384",
"*.	c #5C765D",
"=.	c #A1ACA1",
"-.	c #95EDA1",
";.	c #87EC96",
">.	c #A4EFAE",
",.	c #54E870",
"'.	c #8DED9A",
").	c #41B355",
"!.	c #1D5C20",
"~.	c #4C6C4C",
"{.	c #46E768",
"].	c #44E766",
"^.	c #80EB90",
"/.	c #CFF6D4",
"(.	c #C8F5CD",
"_.	c #9AC39F",
":.	c #326133",
"<.	c #577358",
"[.	c #3C633C",
"}.	c #D8F7DC",
"|.	c #68E97E",
"1.	c #2EE65B",
"2.	c #57E872",
"3.	c #738673",
"4.	c #466846",
"5.	c #436944",
"6.	c #436744",
"7.	c #547054",
"8.	c #ECFBED",
"9.	c #C2F4C7",
"0.	c #EFFCF1",
"a.	c #86EC95",
"b.	c #37E660",
"c.	c #3FE764",
"d.	c #4EE76D",
"e.	c #ACF0B4",
"f.	c #0A550D",
"g.	c #426E44",
"h.	c #185519",
"i.	c #DFF9E2",
"j.	c #CFF6D3",
"k.	c #C9F5CE",
"l.	c #8BEC99",
"m.	c #B1F1B9",
"n.	c #E3F9E5",
"o.	c #0F5411",
"p.	c #0F5612",
"q.	c #4B734C",
"r.	c #879787",
"s.	c #F7FDF8",
"t.	c #E6FAE8",
"u.	c #1D571E",
"v.	c #235B24",
"w.	c #267D32",
"x.	c #77B17E",
"y.	c #D3EED6",
"z.	c #96AC97",
"A.	c #91C297",
"B.	c #B0F1B9",
"C.	c #CBCEC9",
"D.	c #899587",
"E.	c #325C30",
"F.	c #1A541A",
"G.	c #A9B2A9",
"H.	c #D4D7B8",
"I.	c #A9CF85",
"J.	c #C5AD75",
"K.	c #EBB7AE",
"L.	c #F9BBC0",
"M.	c #F6BBBD",
"N.	c #C4D4A5",
"O.	c #86CA56",
"P.	c #FFFCFD",
"Q.	c #FEF6F7",
"R.	c #FDF1F2",
"S.	c #FDEBEC",
"T.	c #FBDBDD",
"U.	c #DCB7B6",
"V.	c #A1877C",
"W.	c #746A52",
"X.	c #616244",
"Y.	c #305621",
"Z.	c #105109",
"`.	c #0C5109",
" +	c #285620",
".+	c #175314",
"++	c #265825",
"@+	c #375F37",
"#+	c #757D69",
"$+	c #BD9691",
"%+	c #EB868E",
"&+	c #F20A46",
"*+	c #F58A94",
"=+	c #FCE1E3",
"-+	c #FEFAFA",
";+	c #FCDEE0",
">+	c #F9BCC1",
",+	c #F6969F",
"'+	c #F35B6E",
")+	c #D52A3D",
"!+	c #A93E2F",
"~+	c #5A4D18",
"{+	c #25510C",
"]+	c #30500E",
"^+	c #15510A",
"/+	c #085209",
"(+	c #0A5209",
"_+	c #325826",
":+	c #0D5109",
"<+	c #3C5523",
"[+	c #9C412B",
"}+	c #F2888E",
"|+	c #E7B6A8",
"1+	c #A5EFAF",
"2+	c #FDEEEF",
"3+	c #FACCD0",
"4+	c #BC3735",
"5+	c #A53F2E",
"6+	c #70491F",
"7+	c #14510A",
"8+	c #0E5109",
"9+	c #724A1F",
"0+	c #BBAA61",
"a+	c #FEF4F4",
"b+	c #FAD0D3",
"c+	c #F57C89",
"d+	c #E20A42",
"e+	c #AE2A33",
"f+	c #2E4F0F",
"g+	c #085109",
"h+	c #19510B",
"i+	c #6D4B1D",
"j+	c #CC303A",
"k+	c #EC8683",
"l+	c #F1DED7",
"m+	c #F7ABB1",
"n+	c #D70A3F",
"o+	c #BC0B39",
"p+	c #AB0B35",
"q+	c #6C4220",
"r+	c #364E11",
"s+	c #2E500E",
"t+	c #714A1F",
"u+	c #D00B3D",
"v+	c #C00B3A",
"w+	c #A70B34",
"x+	c #AC0B35",
"y+	c #B11F35",
"z+	c #BB2A37",
"A+	c #C72A39",
"B+	c #E41E42",
"C+	c #D7F7DA",
"D+	c #75EA87",
"E+	c #BEF3C4",
"F+	c #F9C0C4",
"G+	c #A50B33",
"H+	c #B70B37",
"I+	c #C60B3B",
"J+	c #DD0A41",
"K+	c #CBF5CF",
"L+	c #59E873",
"M+	c #F9C4C8",
"N+	c #BF0B39",
"O+	c #A80B34",
"P+	c #61E979",
"Q+	c #C0F3C6",
"R+	c #FBD7DA",
"S+	c #B20B36",
"T+	c #A90B34",
"U+	c #D10B3E",
"V+	c #6EEA83",
"W+	c #F69BA3",
"X+	c #CA0B3C",
"Y+	c #A60B33",
"Z+	c #AF0B35",
"`+	c #56E871",
" @	c #C5F4CA",
".@	c #6DEA82",
"+@	c #83EB92",
"@@	c #B90B38",
"#@	c #A2EFAC",
"$@	c #A6F0B0",
"%@	c #76EA88",
"&@	c #3AE761",
"*@	c #6CE981",
"=@	c #52E86F",
"-@	c #FBDADD",
";@	c #EC0A44",
">@	c #D50A3F",
",@	c #5CE876",
"'@	c #3DE762",
")@	c #B3F1BB",
"!@	c #D8F7DB",
"~@	c #90ED9D",
"{@	c #F8B3B9",
"]@	c #C90B3C",
"^@	c #AB0B34",
"/@	c #BA0B38",
"(@	c #B2F1BA",
"_@	c #AAF0B3",
":@	c #89EC97",
"<@	c #96EEA2",
"[@	c #7CEB8D",
"}@	c #FCDDE0",
"|@	c #F5848F",
"1@	c #B80B38",
"2@	c #CCF5D0",
"3@	c #D6F7DA",
"4@	c #ABF0B4",
"5@	c #73EA86",
"6@	c #FAC8CC",
"7@	c #F3425D",
"8@	c #B00B36",
"9@	c #FCFEFD",
"0@	c #D7F7DB",
"a@	c #BAF2C1",
"b@	c #CEF6D3",
"c@	c #F7A0A7",
"d@	c #E60A43",
"e@	c #AF0B36",
"f@	c #B40B37",
"g@	c #F46072",
"h@	c #D80A3F",
"i@	c #BE0B39",
"j@	c #FACCCF",
"k@	c #F22D52",
"l@	c #C30B3A",
"m@	c #F7A1A9",
"n@	c #FDF0F1",
"o@	c #F57986",
"p@	c #F35469",
"q@	c #F9C6CA",
"r@	c #F8B1B7",
"s@	c #C20B3A",
"t@	c #F7A5AC",
"u@	c #C70B3B",
"v@	c #F7A8AE",
"w@	c #CD0B3D",
"x@	c #AA0B34",
"y@	c #E10A42",
"z@	c #B60B37",
"A@	c #B10B36",
"B@	c #B30B36",
"C@	c #F34861",
"D@	c #F6919B",
"E@	c #CF0B3D",
"F@	c #D30A3E",
"G@	c #FACFD2",
"H@	c #F46475",
"I@	c #CC0B3C",
"J@	c #B50B37",
"K@	c #AE0B35",
"L@	c #B7F2BE",
"M@	c #5FE978",
"N@	c #85EC94",
"O@	c #B8F2BF",
"P@	c #AD0B35",
"Q@	c #F46D7C",
"R@	c #F04E5D",
"S@	c #D28E5E",
"T@	c #F23757",
"U@	c #F23455",
"V@	c #F8B7BC",
"W@	c #E5EBD9",
"X@	c #FCE7E9",
"Y@	c #F57D8A",
"Z@	c #F3566B",
"`@	c #F2204C",
" #	c #F46F7E",
".#	c #F9C3C7",
"+#	c #FEF3F4",
"@#	c #FBDADC",
"##	c #F6949D",
"$#	c #F47482",
"%#	c #F46A7A",
"&#	c #F35E71",
"*#	c #F35268",
"=#	c #F35067",
"-#	c #F34660",
";#	c #F33D5A",
">#	c #F34F65",
",#	c #F35D70",
"'#	c #F46979",
")#	c #F5808B",
"!#	c #BDF3C4",
"~#	c #FACBCF",
"{#	c #FAC7CB",
"]#	c #FBDDDF",
"^#	c #FDE9EA",
"/#	c #FCE6E7",
"(#	c #FBDCDE",
"_#	c #81EB91",
":#	c #91ED9E",
"<#	c #42E765",
"[#	c #8EED9C",
"}#	c #7AEB8C",
"|#	c #4CE76B",
"1#	c #9CEEA7",
"2#	c #AEF1B6",
"3#	c #A8F0B1",
"4#	c #94EDA0",
"5#	c #C1F3C7",
"6#	c #8FED9C",
"7#	c #DAF8DD",
"8#	c #C2F4C8",
"9#	c #DEF8E1",
"0#	c #F8FDF8",
"a#	c #98EEA4",
"b#	c #ADF1B5",
"c#	c #AEF1B7",
"d#	c #4AE76A",
"e#	c #92ED9F",
"f#	c #BEF3C5",
"g#	c #50E86E",
"h#	c #71EA84",
"i#	c #A0EFAB",
"j#	c #99EEA4",
"k#	c #D9F8DC",
"l#	c #F3FDF4",
"m#	c #F8FEF9",
"                                                                                                                                                                                                        ",
"                                                                                                                                                                                                        ",
"                                                                                                                                                                                                        ",
"                                                                                                                                                                                                        ",
"                                                                                                                                                                                                        ",
"                                                                                                                                                                                                        ",
"                                                                                                                                                                                                        ",
"                                                        . + + @                                                                                                                                         ",
"                                                        # $ % @                                                                                                                                         ",
"                                                      & % * = @                                                                                                                                         ",
"                                                      - ; ; >                                                       , ' ) ! ~ {                                                                         ",
"                                      + + +           ] ^ / (                                                   { _ : < [ [ } |                                                                         ",
"                                      + * 1 &         2 ^ / 3           , 4 5 6 7 8 &                         9 : 0 a b c 0 d : | ,                                                                     ",
"                                      + = ; e &       2 ^ / 3         f g h i a j k l                       { m n o b a 0 p n n q r                                                                     ",
"                                        1 s ; 1       2 ^ / 3         t c o u v w x y z ,                 ~ : A B p p C a a a o < D                                                                     ",
"                                        E = * = +     2 ^ / 3       , F a a G H I J a K |               , L c n d b n B a a a o [ )                                                                     ",
"                                          + M * e .   2 ^ / 3       r N a O P O Q R o b S |           , T U n A o a a o a a a o [ V                                                                     ",
"                                            W % ^ # + 2 ^ / 3     @ X Y a Z ` a a a o 0 a  .|         T ..p +.p o a a a a a a b c @.                                                                    ",
"                                            @ + = * e #.^ / 3   & 1 $.P a Q %.o a a o b p a h |     { &.a *.C o a a a a a a a p C =.  . + + @                                                           ",
"                                                1 -.;.>.,./ 3 & 1 '.).!.Q a d o a a p p o o a ~.~   z 0 c [ C a a a a a a a a b : 9   # $ % @                                                           ",
"                                                & + M {.].^./.(.;.;._.:.o b A o a a a b n o a o t ~ q o o n b a a a a a C <.c [._   @ % * % @                                                           ",
"                                                    }.|.1.2.-.^ '.1 8 t n b c a a a a a o p o a 0 3.4.p o a a a a a a 5.3.6.7.V '   8./ ^ 9.                                                            ",
"                                                    0.a.b.c.d.e.1 &   ~ : n a a a a a a a b n a o c n d o a a a a a f.g.h.[ _ {     i.; ; j.                                                            ",
"                                                    @ k.l.^ m.n.@       { 7.a a c o o a a a a a a a b c o a a a a o.p.a q.r.{       j.; ; i.                                                            ",
"                                                      s.i.i.t.            S [ 0 a 7.6.b a a a a a a a a a a a a a u.v.w.x.y.        9.^ / 8.                                                            ",
"                                                                              | m c B a n a a a a a a a a a a a a *.z.A.* M &       % * B.@                                                             ",
"                                                                                C.D.E.a a F.a a a a a a a a o a 6.G.  H.I.J.K.L.L.M.N.O.%                                                               ",
"                                                                        P.Q.R.S.T.U.V.W.X.Y.Z.`. +.+a a ++@+a #+$+%+&+&+&+&+&+&+&+&+&+&+&+*+L.=+    @ 8.8.&                                             ",
"                                                                    -+R.;+>+,+'+&+&+&+&+)+!+~+{+]+^+/+(+_+:+<+[+&+&+&+&+&+&+&+&+&+&+&+&+&+&+&+&+}+|+9.1+-.+                                             ",
"      & + + &                                                   -+2+3+,+'+&+&+&+&+&+&+&+&+&+4+5+6+7+a /+8+{+9+)+&+&+&+&+&+&+&+&+&+&+&+&+&+&+&+&+&+&+&+0+-.+                                             ",
"      E -.-.E                                               P.a+b+c+&+&+&+&+&+&+&+&+&+&+&+&+&+d+e+f+g+a h+i+j+&+&+&+&+&+&+&+&+&+&+&+&+&+&+&+&+&+&+&+&+&+k+l+                                            ",
"      k.; ; E                                             -+=+m+'+&+&+&+&+&+&+&+&+&+&+&+&+&+n+o+p+q+r+s+t+4+&+&+&+&+&+&+&+&+&+&+&+&+&+&+&+&+&+&+&+&+&+&+&+&+L.                                          ",
"    & = * = &                                           Q.b+c+&+&+&+&+&+&+&+&+&+&+&+&+&+&+u+v+w+x+y+z+A+B+&+&+&+&+&+&+&+&+&+&+&+&+&+&+&+&+&+&+&+&+&+&+&+&+&+&+*+                                        ",
"    C+D+D+E+                                          Q.F+'+&+&+&+&+&+&+&+&+&+&+&+&+&+&+u+o+G+H+I+J+&+&+&+&+&+&+&+&+&+&+&+&+&+&+&+&+&+&+&+&+&+&+&+&+&+&+&+&+&+&+*+                                      ",
"    K+L+L+K+                                        Q.F+'+&+&+&+&+&+&+&+&+&+&+&+&+&+&+n+v+G+o+u+&+&+&+&+&+&+&+&+&+&+&+&+&+&+&+&+&+&+&+&+&+&+&+&+&+&+&+&+&+&+&+&+&+*+                                    ",
"+   K+D+D+K+                @ @ @                 Q.F+'+&+&+&+&+&+&+&+&+&+&+&+&+&+&+d+o+w+H+u+&+&+&+&+&+&+&+&+&+&+&+&+&+&+&+&+&+&+&+&+&+&+&+&+&+&+&+&+&+&+&+&+&+&+&+*+                      + + +       ",
"# . K+D+D+K+              & 1 e.e +             -+M+'+&+&+&+&+&+&+&+&+&+&+&+&+&+&+&+N+O+w+N+&+&+&+&+&+&+&+&+&+&+&+&+&+&+&+&+&+&+&+&+&+&+&+&+&+&+&+&+&+&+&+&+&+&+&+&+&+L.                    + * > 8.@   ",
"P+1 Q+L+L+K+          & - 9.;.^ * +           P.R+c+&+&+&+&+&+&+&+&+&+&+&+&+&+&+&+d+S+G+T+U+&+&+&+&+&+&+&+&+&+&+&+&+&+&+&+&+&+&+&+&+&+&+&+&+&+&+&+&+&+&+&+&+&+&+&+&+&+&+=+                  + e ; % +   ",
"e.; >.V+D+M       & 1 = ; ^ ;.% # +           S.W+&+&+&+&+&+&+&+&+&+&+&+&+&+&+&+&+X+w+Y+Z+d+&+&+&+&+&+&+&+&+&+&+&+&+&+&+&+&+&+&+&+&+&+&+&+&+&+&+&+&+&+&+&+&+&+&+&+&+&+&+*+                    + -.`+= 1 ",
" @L+.@+@^ ]     + e ; * ; e.1 &             -+M+'+&+&+&+&+&+&+&+&+&+&+&+&+&+&+&+&+@@Y+Y+X+&+&+&+&+&+&+&+&+&+&+&+&+&+&+&+&+&+&+&+&+&+&+&+&+&+&+&+&+&+&+&+&+&+&+&+&+&+&+&+&+L.                  & - #@* $@",
"C+%@&@*@=@2 & 1 = * ; = > 8.@               -@c+&+&+&+&+&+&+&+&+&+&+&+&+&+&+&+&+;@S+G+x+>@&+&+&+&+&+&+&+&+&+&+&+&+&+&+&+&+&+&+&+&+&+&+&+&+&+&+&+&+&+&+&+&+&+&+&+&+&+&+&+&+&+                      = `+=@",
"& = ,@'@{.)@!@~@* = 1 &                   -+{@&+&+&+&+&+&+&+&+&+&+&+&+&+&+&+&+&+]@^@Y+/@&+&+&+&+&+&+&+&+&+&+&+&+&+&+&+&+&+&+&+&+&+&+&+&+&+&+&+&+&+&+&+&+&+&+&+&+&+&+&+&+&+&+L.                    E (@$ ",
"  8._@b.c.:@<@[@e +                       }@|@&+&+&+&+&+&+&+&+&+&+&+&+&+&+&+&+&+1@G+O+]@&+&+&+&+&+&+&+&+&+&+&+&+&+&+&+&+&+&+&+&+&+&+&+&+&+&+&+&+&+&+&+&+&+&+&+&+&+&+&+&+&+&+*+                      E 2@",
"    3@4@=@5@d.k.&                       P.6@7@&+&+&+&+&+&+&+&+&+&+&+&+&+&+&+&+;@8@Y+^@J+&+&+&+&+&+&+&+&+&+&+&+&+&+&+&+&+&+&+&+&+&+&+&+&+&+&+&+&+&+&+&+&+&+&+&+&+&+&+&+&+&+&+&+=+                    9@@ ",
"      . 0@a@b@W                         2+c@&+&+&+&+&+&+&+&+&+&+&+&+&+&+&+&+&+d@e@w+f@;@&+&+&+&+&+&+&+&+&+&+&+&+&+&+&+&+&+&+&+&+&+&+&+&+&+&+&+&+&+&+&+&+&+&+&+&+&+&+&+&+&+&+&+L.                        ",
"                                        }@g@&+&+&+&+&+&+&+&+&+&+&+&+&+&+&+&+&+h@Z+w+i@&+&+&+&+&+&+&+&+&+&+&+&+&+&+&+&+&+&+&+&+&+&+&+&+&+&+&+&+&+&+&+&+&+&+&+&+&+&+&+&+&+&+&+&+*+                        ",
"                                        j@k@&+&+&+&+&+&+&+&+&+&+&+&+&+&+&+&+&+U+p+p+l@&+&+&+&+&+&+&+&+&+&+&+&+&+&+&+&+&+&+&+&+&+&+&+&+&+&+&+&+&+&+&+&+&+&+&+&+&+&+&+&+&+&+&+&+&+                        ",
"                                      P.m@&+&+&+&+&+&+&+&+&+&+&+&+&+&+&+&+&+&+X+p+p+X+&+&+&+&+&+&+&+&+&+&+&+&+&+&+&+&+&+&+&+&+&+&+&+&+&+&+&+&+&+&+&+&+&+&+&+&+&+&+&+&+&+&+&+&+&+=+                      ",
"                                      n@o@&+&+&+&+&+&+&+&+&+&+&+&+&+&+&+&+&+&+X+p+p+X+&+&+&+&+&+&+&+&+&+&+&+&+&+&+&+&+&+&+&+&+&+&+&+&+&+&+&+&+&+&+&+&+&+&+&+&+&+&+&+&+&+&+&+&+&+=+                      ",
"                                      2+p@&+&+&+&+&+&+&+&+&+&+&+&+&+&+&+&+&+&+X+p+p+X+&+&+&+&+&+&+&+&+&+&+&+&+&+&+&+&+&+&+&+&+&+&+&+&+&+&+&+&+&+&+&+&+&+&+&+&+&+&+&+&+&+&+&+&+&+L.                      ",
"                                      =+&+&+&+&+&+&+&+&+&+&+&+&+&+&+&+&+&+&+&+X+p+p+X+&+&+&+&+&+&+&+&+&+&+&+&+&+&+&+&+&+&+&+&+&+&+&+&+&+&+&+&+&+&+&+&+&+&+&+&+&+&+&+&+&+&+&+&+&+L.                      ",
"                                      q@&+&+&+&+&+&+&+&+&+&+&+&+&+&+&+&+&+&+&+X+p+p+X+&+&+&+&+&+&+&+&+&+&+&+&+&+&+&+&+&+&+&+&+&+&+&+&+&+&+&+&+&+&+&+&+&+&+&+&+&+&+&+&+&+&+&+&+&+r@                      ",
"                                      q@&+&+&+&+&+&+&+&+&+&+&+&+&+&+&+&+&+&+&+s@O+O+s@&+&+&+&+&+&+&+&+&+&+&+&+&+&+&+&+&+&+&+&+&+&+&+&+&+&+&+&+&+&+&+&+&+&+&+&+&+&+&+&+&+&+&+&+&+r@                      ",
"                                      t@&+&+&+&+&+&+&+&+&+&+&+&+&+&+&+&+&+&+&+u@Y+Y+o+&+&+&+&+&+&+&+&+&+&+&+&+&+&+&+&+&+&+&+&+&+&+&+&+&+&+&+&+&+&+&+&+&+&+&+&+&+&+&+&+&+&+&+&+&+t@                      ",
"                                      v@&+&+&+&+&+&+&+&+&+&+&+&+&+&+&+&+&+&+&+w@x@Y+1@&+&+&+&+&+&+&+&+&+&+&+&+&+&+&+&+&+&+&+&+&+&+&+&+&+&+&+&+&+&+&+&+&+&+&+&+&+&+&+&+&+&+&+&+&+q@                      ",
"                                      r@&+&+&+&+&+&+&+&+&+&+&+&+&+&+&+&+&+&+&+y@Z+w+@@&+&+&+&+&+&+&+&+&+&+&+&+&+&+&+&+&+&+&+&+&+&+&+&+&+&+&+&+&+&+&+&+&+&+&+&+&+&+&+&+&+&+&+&+&+q@                      ",
"                                      {@&+&+&+&+&+&+&+&+&+&+&+&+&+&+&+&+&+&+&+d@Z+w+z@&+&+&+&+&+&+&+&+&+&+&+&+&+&+&+&+&+&+&+&+&+&+&+&+&+&+&+&+&+&+&+&+&+&+&+&+&+&+&+&+&+&+&+&+&+=+                      ",
"                                      L.&+&+&+&+&+&+&+&+&+&+&+&+&+&+&+&+&+&+&+;@A@G+B@&+&+&+&+&+&+&+&+&+&+&+&+&+&+&+&+&+&+&+&+&+&+&+&+&+&+&+&+&+&+&+&+&+&+&+&+&+&+&+&+&+&+&+&+C@=+                      ",
"                                      =+&+&+&+&+&+&+&+&+&+&+&+&+&+&+&+&+&+&+&+&+B@G+A@;@&+&+&+&+&+&+&+&+&+&+&+&+&+&+&+&+&+&+&+&+&+&+&+&+&+&+&+&+&+&+&+&+&+&+&+&+&+&+&+&+&+&+&+o@n@                      ",
"                                      =+&+&+&+&+&+&+&+&+&+&+&+&+&+&+&+&+&+&+&+&+z@w+Z+d@&+&+&+&+&+&+&+&+&+&+&+&+&+&+&+&+&+&+&+&+&+&+&+&+&+&+&+&+&+&+&+&+&+&+&+&+&+&+&+&+&+&+&+D@n@                      ",
"                                        &+&+&+&+&+&+&+&+&+&+&+&+&+&+&+&+&+&+&+&+s@w+Z+E@&+&+&+&+&+&+&+&+&+&+&+&+&+&+&+&+&+&+&+&+&+&+&+&+&+&+&+&+&+&+&+&+&+&+&+&+&+&+&+&+&+&+&+L.                        ",
"                                        *+&+&+&+&+&+&+&+&+&+&+&+&+&+&+&+&+&+&+&+F@Z+w+i@&+&+&+&+&+&+&+&+&+&+&+&+&+&+&+&+&+&+&+&+&+&+&+&+&+&+&+&+&+&+&+&+&+&+&+&+&+&+&+&+&+&+C@G@                        ",
"                                        L.&+&+&+&+&+&+&+&+&+&+&+&+&+&+&+&+&+&+&+;@H+G+8@>@&+&+&+&+&+&+&+&+&+&+&+&+&+&+&+&+&+&+&+&+&+&+&+&+&+&+&+&+&+&+&+&+&+&+&+&+&+&+&+&+&+*+=+                        ",
"                                        =+&+&+&+&+&+&+&+&+&+&+&+&+&+&+&+&+&+&+&+&+N+O+Y+N+&+&+&+&+&+&+&+&+&+&+&+&+&+&+&+&+&+&+&+&+&+&+&+&+&+&+&+&+&+&+&+&+&+&+&+&+&+&+&+&+&+t@n@                        ",
"                                          *+&+&+&+&+&+&+&+&+&+&+&+&+&+&+&+&+&+&+&+>@O+Y+S+;@&+&+&+&+&+&+&+&+&+&+&+&+&+&+&+&+&+&+&+&+&+&+&+&+&+&+&+&+&+&+&+&+&+&+&+&+&+&+&+H@G@                          ",
"                                          L.&+&+&+&+&+&+&+&+&+&+&+&+&+&+&+&+&+&+&+d+1@w+8@F@&+&+&+&+&+&+&+&+&+&+&+&+&+&+&+&+&+&+&+&+&+&+&+&+&+&+&+&+&+&+&+&+&+&+&+&+&+&+&+*+=+                          ",
"                                            &+&+&+&+&+&+&+&+&+&+&+&+&+&+&+&+&+&+&+&+F@B@w+i@d+&+&+&+&+&+&+&+&+&+&+&+&+&+&+&+&+&+&+&+&+&+&+&+&+&+&+&+&+&+&+&+&+&+&+&+&+&+&+L.                            ",
"                                            L.&+&+&+&+&+&+&+&+&+&+&+&+&+&+&+&+&+&+&+;@l@p+x+I@&+&+&+&+&+&+&+&+&+&+&+&+&+&+&+&+&+&+&+&+&+&+&+&+&+&+&+&+&+&+&+&+&+&+&+&+&+*+=+                            ",
"                                              *+&+&+&+&+&+&+&+&+&+&+&+&+&+&+&+&+&+&+&+J+8@w+/@;@&+&+&+&+&+&+&+&+&+&+&+&+&+&+&+&+&+&+&+&+&+&+&+&+&+&+&+&+&+&+&+&+&+&+&+H@G@                              ",
"                                              =+&+&+&+&+&+&+&+&+&+&+&+&+&+&+&+&+&+&+&+;@v+w+8@I@&+&+&+&+&+&+&+&+&+&+&+&+&+&+&+&+&+&+&+&+&+&+&+&+&+&+&+&+&+&+&+&+&+&+&+t@n@                              ",
"                                                L.&+&+&+&+&+&+&+&+&+&+&+&+&+&+&+&+&+&+&+n+H+G+J@>@d+&+&+&+&+&+&+&+&+&+&+&+&+&+&+&+&+&+&+&+&+&+&+&+&+&+&+&+&+&+&+&+&+*+=+                                ",
"                                                  *+&+&+&+&+&+&+&+&+&+&+&+&+&+&+&+&+&+&+&+I+A@p+S+I+d+&+&+&+&+&+&+&+&+&+&+&+&+&+&+&+&+&+&+&+&+&+&+&+&+&+&+&+&+&+&+H@G@                                  ",
"                                                    *+&+&+&+&+&+&+&+&+&+&+&+&+&+&+&+&+&+&+d+u+o+K@K@I+d+&+&+&+&+&+&+&+&+&+&+&+&+&+&+&+&+&+&+&+&+&+&+&+&+&+&+&+&+H@G@  . + + @                           ",
"                                                      *+&+&+&+&+&+&+&+&+&+&+&+&+&+&+&+&+&+&+&+d+I+K@K@I+d+&+&+&+&+&+&+&+&+&+&+&+&+&+&+&+&+&+&+&+&+&+&+&+&+&+&+H@G@  E % ^ L@@                           ",
"                                                        *+&+&+&+&+&+&+&+&+&+&+&+&+&+&+&+&+&+&+&+d+I+K@p+o+u+&+&+&+&+&+&+&+&+&+&+&+&+&+&+&+&+&+&+&+&+&+&+&+&+H@G@  & k.^ M@k.@                           ",
"                                                          L.&+&+&+&+&+&+&+&+&+&+&+&+&+&+&+&+&+&+&+d+I+K@G+A@o+J+&+&+&+&+&+&+&+&+&+&+&+&+&+&+&+&+&+&+&+&+&+*+=+    - N@D+O@E                             ",
"                                                            =+*+&+&+&+&+&+&+&+&+&+&+&+&+&+&+&+&+&+&+d+I+J@Y+x+u@>@d+&+&+&+&+&+&+&+&+&+&+&+&+&+&+&+&+&+H@L.n@    & 9.^ e.8.                              ",
"                                                                L.&+&+&+&+&+&+&+&+&+&+&+&+&+&+&+&+&+&+&+I@o+A@P@A@u+&+&+&+&+&+&+&+&+&+&+&+&+&+&+&+&+}+=+        E ;.; k.@                               ",
"                                                                    {@Q@&+&+&+&+&+&+&+&+&+&+&+&+&+&+&+&+&+&+u+A@A@u+&+&+&+&+&+&+&+&+&+&+&+&+&+R@S@I.1 &       @ k.; ;.E                                 ",
"                                                                        j@c+T@&+&+&+&+&+&+&+&+&+&+&+&+&+&+&+d+>@>@d+&+&+&+&+&+&+&+&+&+&+U@o@V@W@k.N@'.1 &     8.e.^ 9.&                                 ",
"                                                                            X@L.Y@Z@T@`@&+&+&+&+&+&+&+&+&+&+&+&+&+&+&+&+&+&+&+&+C@ #D@.#=+      & 1 '.'.1 &   i.; ; j.      @ 8.8.&                     ",
"                                                                                +#@#L.##$#%#&#*#=#-#7@T@T@T@;#>#,#'#c+)#|@m@t@L.G@=+n@            & 1 ; '.1   C+; ; C+8.3@!#% / -.+                     ",
"                                                                                        +#X@@#~#~#{#{#b+]#^#/#/#(#(#=+=+=+n@n@                      & M * = . C+; _#2 m.V+=@* ^ -.+                     ",
"                                                                                                                                                      W (@^ k.L@%@*@:#=@<#[#% 9.- &                     ",
"                                                                                                                                                      @ W e.L+}#c.].|#1#!#3@@                           ",
"                                                                                                                                                        @ 1 }#|#1.<#2#n.@                               ",
"                  . + + @                             + + +                                                                                               & 3#&@<#4#i.                                  ",
"                  - $ % 8.      . + + @         @ n.(.% * +                                                                                                 5#$ 6#7#                                    ",
"                  - ;.; > @   & # $ 8#@     @ i. @#@^ * e +                                                                                                 t.9#9#0#                                    ",
"                  & 9.^ e.8.  - ;.; > @   & 1 a#L+=@/ e +                                                                                                                                               ",
"                    3@; ; 3@  9.^ / 8.@ + e ;.=@^ m.n.@                                                                                                                                                 ",
"                    8.#@=@4@E % * B.@ W % ^ l.L@j.E                                                                                                                                                     ",
"                    @ k.^ ^ k.b#* c#W 2 * = - &                                                                                                                                                         ",
"                      E #@d#; e#* b#f#* = +                                                                                                                                                             ",
"                        j.^ g#^ h#E+i#i#1                                                                                                                                                               ",
"                        E % d#|.j#k#. . l#                                                                                                                                                              ",
"                          . 9.M@> m#                                                                                                                                                                    ",
"                            . . .                                                                                                                                                                       ",
"                                                                                                                                                                                                        ",
"                                                                                                                                                                                                        "};
