/* XPM */
static char * item2_xpm[] = {
"100 100 803 2",
"  	c #FFFFFF",
". 	c #FFFFFE",
"+ 	c #FFFFFD",
"@ 	c #FFFEFD",
"# 	c #FFFEFA",
"$ 	c #FEFDF7",
"% 	c #FEFDF5",
"& 	c #FEFCF2",
"* 	c #FEFCF1",
"= 	c #FFFEF9",
"- 	c #FFFEFC",
"; 	c #CBF2C0",
"> 	c #FEFBED",
", 	c #FDFAE6",
"' 	c #FDF8DB",
") 	c #FCF7D4",
"! 	c #FCF7D3",
"~ 	c #FCF7D7",
"{ 	c #FDF9DE",
"] 	c #FDFAE7",
"^ 	c #FEFBEC",
"/ 	c #FEFDF3",
"( 	c #FEFDF6",
"_ 	c #FEFEF8",
": 	c #FFFEFB",
"< 	c #A9EB94",
"[ 	c #79E446",
"} 	c #FDF8DD",
"| 	c #FBF5C6",
"1 	c #FBF3BA",
"2 	c #FAF2B4",
"3 	c #FAF2B7",
"4 	c #FBF3B9",
"5 	c #FAF2B5",
"6 	c #FBF3BE",
"7 	c #FCF6CF",
"8 	c #FCF6D0",
"9 	c #FCF7D5",
"0 	c #FCF8DA",
"a 	c #FDFAE3",
"b 	c #FDFAE8",
"c 	c #FDFBE9",
"d 	c #FEFCEF",
"e 	c #93E875",
"f 	c #7AE447",
"g 	c #95E876",
"h 	c #FEFCEE",
"i 	c #FDFAE5",
"j 	c #FCF8D9",
"k 	c #FBF5C8",
"l 	c #FBF3BD",
"m 	c #FAF1AC",
"n 	c #F9EFA0",
"o 	c #FAF0A8",
"p 	c #FBF2B8",
"q 	c #FAF2B6",
"r 	c #FBF3BC",
"s 	c #FBF4C1",
"t 	c #FEFDF4",
"u 	c #FFFEF8",
"v 	c #98E87C",
"w 	c #7BE447",
"x 	c #9BE877",
"y 	c #F6FAE9",
"z 	c #FAF1B0",
"A 	c #FAF1AD",
"B 	c #FBF5CA",
"C 	c #FCF6CD",
"D 	c #FCF5CA",
"E 	c #FBF4C2",
"F 	c #FBF3BF",
"G 	c #FAF1AE",
"H 	c #FAF2B2",
"I 	c #FAF1AB",
"J 	c #FAF1AF",
"K 	c #FBF4C0",
"L 	c #FCF6CE",
"M 	c #FEFBEB",
"N 	c #99E87C",
"O 	c #88E556",
"P 	c #A1E874",
"Q 	c #F7F8DC",
"R 	c #FBF5C7",
"S 	c #FAF0A4",
"T 	c #F3F2B4",
"U 	c #E9F0AF",
"V 	c #D1ED99",
"W 	c #C0EB8B",
"X 	c #C2EC95",
"Y 	c #D5F1B9",
"Z 	c #FDFAE4",
"` 	c #FBF5C9",
" .	c #FBF3BB",
"..	c #FCF5CB",
"+.	c #FDF9E3",
"@.	c #FEFFFE",
"#.	c #F6FDF4",
"$.	c #F7FDF6",
"%.	c #AEEC98",
"&.	c #90E555",
"*.	c #B8E980",
"=.	c #E7F0AF",
"-.	c #FAF0A9",
";.	c #F2F2B9",
">.	c #C3EB8C",
",.	c #A2E769",
"'.	c #98E661",
").	c #88E54F",
"!.	c #80E44A",
"~.	c #CCF2BF",
"{.	c #FAF0A5",
"].	c #FBF4C4",
"^.	c #FCF6D1",
"/.	c #FDF9E2",
"(.	c #CAF2BF",
"_.	c #A8EB93",
":.	c #B8EEA9",
"<.	c #D6F5CF",
"[.	c #C9F0B7",
"}.	c #ADE878",
"|.	c #C8E97A",
"1.	c #EBEE98",
"2.	c #FBF4C3",
"3.	c #EEF4C8",
"4.	c #C1EC95",
"5.	c #99E662",
"6.	c #82E44C",
"7.	c #83E556",
"8.	c #8FDE71",
"9.	c #9CD889",
"0.	c #A6C59D",
"a.	c #C0C0C0",
"b.	c #B2B2B2",
"c.	c #C0BFBF",
"d.	c #D9D8D8",
"e.	c #F4F4F3",
"f.	c #FEFCF0",
"g.	c #FDF9E0",
"h.	c #FAF2B3",
"i.	c #FCF7D6",
"j.	c #C0F0B3",
"k.	c #82E558",
"l.	c #7DE44E",
"m.	c #8DE76C",
"n.	c #CBF2C1",
"o.	c #E7F9E3",
"p.	c #F6FBEA",
"q.	c #C1EA82",
"r.	c #DAEB83",
"s.	c #EEED92",
"t.	c #D8EFA7",
"u.	c #B0EA85",
"v.	c #8CE55A",
"w.	c #81E550",
"x.	c #78BA5E",
"y.	c #759A69",
"z.	c #757C73",
"A.	c #6F6E6E",
"B.	c #696768",
"C.	c #5A5859",
"D.	c #777676",
"E.	c #888988",
"F.	c #8F928E",
"G.	c #9A9E99",
"H.	c #ACAEAB",
"I.	c #D0CFCE",
"J.	c #CFCFCD",
"K.	c #EAE9E6",
"L.	c #F4F2EB",
"M.	c #FCF6CC",
"N.	c #FBF4C5",
"O.	c #F9EFA1",
"P.	c #95E878",
"Q.	c #7BE44A",
"R.	c #87E661",
"S.	c #9EE986",
"T.	c #DFF7DA",
"U.	c #D5EB8B",
"V.	c #E6EC8A",
"W.	c #E5EC8F",
"X.	c #F7F5CB",
"Y.	c #BAEB90",
"Z.	c #8AE553",
"`.	c #7DDB50",
" +	c #81B072",
".+	c #7A8A75",
"++	c #4A4849",
"@+	c #484647",
"#+	c #453E41",
"$+	c #3E3A3C",
"%+	c #42443F",
"&+	c #61655F",
"*+	c #6C6B6B",
"=+	c #989797",
"-+	c #C8C8C7",
";+	c #FCF8D8",
">+	c #F9EE9A",
",+	c #BEEFB1",
"'+	c #A5EB8F",
")+	c #88E663",
"!+	c #80E555",
"~+	c #9AE97F",
"{+	c #D7F4CE",
"]+	c #E3ED91",
"^+	c #E8EC8C",
"/+	c #DAEB88",
"(+	c #D4EFAA",
"_+	c #A1E877",
":+	c #82E551",
"<+	c #75B35F",
"[+	c #768073",
"}+	c #4C4347",
"|+	c #4E4548",
"1+	c #564A4F",
"2+	c #605257",
"3+	c #67575D",
"4+	c #6F5D64",
"5+	c #5B4E53",
"6+	c #474042",
"7+	c #4B4346",
"8+	c #413F40",
"9+	c #444142",
"0+	c #666465",
"a+	c #AAAAAA",
"b+	c #E2E2E1",
"c+	c #D3F4C9",
"d+	c #A6EA8E",
"e+	c #A7EA8E",
"f+	c #C9F0B6",
"g+	c #FDF9E1",
"h+	c #FAF0A3",
"i+	c #F9EFA2",
"j+	c #FEFCF3",
"k+	c #C4F1B8",
"l+	c #84E55B",
"m+	c #7DE44C",
"n+	c #98E877",
"o+	c #C8EFA9",
"p+	c #EBEE99",
"q+	c #E3EC89",
"r+	c #CBEA7E",
"s+	c #AAE877",
"t+	c #88E558",
"u+	c #B1E4A2",
"v+	c #7F8F7B",
"w+	c #715E66",
"x+	c #8D757F",
"y+	c #937984",
"z+	c #997E89",
"A+	c #89717B",
"B+	c #846D76",
"C+	c #7F6972",
"D+	c #756269",
"E+	c #6D5C63",
"F+	c #494144",
"G+	c #3E393B",
"H+	c #3A3738",
"I+	c #504E4F",
"J+	c #5D7057",
"K+	c #6C9F5A",
"L+	c #77DB4A",
"M+	c #78DB4B",
"N+	c #BCEFAC",
"O+	c #F9EF9E",
"P+	c #BBEFAC",
"Q+	c #91E772",
"R+	c #80E552",
"S+	c #85E54E",
"T+	c #B1E877",
"U+	c #DBEC8E",
"V+	c #EAED91",
"W+	c #DEEB88",
"X+	c #B7E86D",
"Y+	c #A1E986",
"Z+	c #94A88F",
"`+	c #585757",
" @	c #584C51",
".@	c #7B666F",
"+@	c #615359",
"@@	c #4C4346",
"#@	c #3D393A",
"$@	c #3C3B39",
"%@	c #435C39",
"&@	c #46623B",
"*@	c #5A844B",
"=@	c #94BB89",
"-@	c #F9EF9D",
";@	c #D8F5D1",
">@	c #A2EA8A",
",@	c #A2E877",
"'@	c #B6E86C",
")@	c #DCEB84",
"!@	c #D4EA80",
"~@	c #A9E764",
"{@	c #87E551",
"]@	c #A3EA8C",
"^@	c #818080",
"/@	c #3D3A3B",
"(@	c #574B4F",
"_@	c #41413F",
":@	c #555553",
"<@	c #858484",
"[@	c #A3A2A2",
"}@	c #E1E0D9",
"|@	c #FAF0A6",
"1@	c #D3F1BA",
"2@	c #CFEB87",
"3@	c #E2EC89",
"4@	c #E4EC89",
"5@	c #CAE979",
"6@	c #9BE65B",
"7@	c #A2EA8B",
"8@	c #6C6B6C",
"9@	c #79656D",
"0@	c #605258",
"a@	c #463F41",
"b@	c #3C383A",
"c@	c #3F3C3D",
"d@	c #BFBEBC",
"e@	c #FDF9DF",
"f@	c #EFF1B4",
"g@	c #F1EFA0",
"h@	c #DFEC8B",
"i@	c #91E555",
"j@	c #7CE448",
"k@	c #7DCC60",
"l@	c #706F6F",
"m@	c #76636B",
"n@	c #463F42",
"o@	c #403B3D",
"p@	c #433D3F",
"q@	c #828181",
"r@	c #A3A29F",
"s@	c #BFBCB0",
"t@	c #F0E9B8",
"u@	c #FEFDF8",
"v@	c #DAEE9E",
"w@	c #A9E76C",
"x@	c #76DA46",
"y@	c #609A4B",
"z@	c #5C5C5B",
"A@	c #715F66",
"B@	c #6B5A61",
"C@	c #4A4245",
"D@	c #6C6A67",
"E@	c #A9A698",
"F@	c #DED7A6",
"G@	c #F9EF9B",
"H@	c #FEFBEA",
"I@	c #DBF4C8",
"J@	c #91E76B",
"K@	c #6DC247",
"L@	c #4F6D44",
"M@	c #474545",
"N@	c #5E5056",
"O@	c #453F41",
"P@	c #5A5855",
"Q@	c #8F8A70",
"R@	c #EFE6A0",
"S@	c #FDFBEA",
"T@	c #FAF1B1",
"U@	c #D0F3C6",
"V@	c #95B58D",
"W@	c #4D5549",
"X@	c #484143",
"Y@	c #68655D",
"Z@	c #E6DFB0",
"`@	c #FCF7D8",
" #	c #F4F4F4",
".#	c #52484B",
"+#	c #3C3839",
"@#	c #504D4C",
"##	c #B6B299",
"$#	c #BBEFAD",
"%#	c #7EE552",
"&#	c #FAF0AA",
"*#	c #F4F3EF",
"=#	c #EAEAE8",
"-#	c #E0E0DF",
";#	c #D0CFCF",
">#	c #D9D9D9",
",#	c #C1C0C0",
"'#	c #5E5156",
")#	c #444141",
"!#	c #AAA79A",
"~#	c #FBF4BF",
"{#	c #A9EB95",
"]#	c #B5EEA5",
"^#	c #AAAAA9",
"/#	c #5C5A5B",
"(#	c #3F3A3C",
"_#	c #63545A",
":#	c #957B86",
"<#	c #927983",
"[#	c #8F7780",
"}#	c #4C4A4A",
"|#	c #908E87",
"1#	c #9DE984",
"2#	c #F9EF9F",
"3#	c #BFBEBE",
"4#	c #919090",
"5#	c #575556",
"6#	c #88717A",
"7#	c #7B686F",
"8#	c #746369",
"9#	c #726268",
"0#	c #74646A",
"a#	c #76656B",
"b#	c #77666D",
"c#	c #7A686F",
"d#	c #816C74",
"e#	c #8A737C",
"f#	c #484646",
"g#	c #8A8984",
"h#	c #92E874",
"i#	c #EEFAEB",
"j#	c #3E3A3B",
"k#	c #464042",
"l#	c #484244",
"m#	c #4B4447",
"n#	c #77636B",
"o#	c #8C757E",
"p#	c #6D5F64",
"q#	c #6C5E63",
"r#	c #706066",
"s#	c #78666D",
"t#	c #7D6A72",
"u#	c #816D75",
"v#	c #7C6971",
"w#	c #8F7781",
"x#	c #52474B",
"y#	c #777674",
"z#	c #F3F0DE",
"A#	c #8FE76E",
"B#	c #E5F8E1",
"C#	c #3F3B3C",
"D#	c #4C4547",
"E#	c #62565A",
"F#	c #584E51",
"G#	c #8B737D",
"H#	c #7F6B73",
"I#	c #6D5E64",
"J#	c #6E5F64",
"K#	c #6F6066",
"L#	c #736369",
"M#	c #686767",
"N#	c #D8D6CC",
"O#	c #51494C",
"P#	c #3B3839",
"Q#	c #856F78",
"R#	c #6D5E63",
"S#	c #6E5F65",
"T#	c #6F5F65",
"U#	c #706166",
"V#	c #836E76",
"W#	c #4E4C4C",
"X#	c #A4A39F",
"Y#	c #DCD9C6",
"Z#	c #494244",
"`#	c #443E40",
" $	c #6F6065",
".$	c #89727B",
"+$	c #464344",
"@$	c #72706D",
"#$	c #B6B4AB",
"$$	c #CCCABC",
"%$	c #F9EE99",
"&$	c #C1F0B4",
"*$	c #7CE44C",
"=$	c #89E665",
"-$	c #C8C8C8",
";$	c #7D7C7C",
">$	c #4C4A4B",
",$	c #554B4F",
"'$	c #433E3F",
")$	c #79676E",
"!$	c #706F6E",
"~$	c #908F8B",
"{$	c #BEBCB2",
"]$	c #7AE448",
"^$	c #C3F0B7",
"/$	c #5A5053",
"($	c #716167",
"_$	c #857078",
":$	c #65565C",
"<$	c #403C3D",
"[$	c #443F41",
"}$	c #9B9A99",
"|$	c #CCCBC1",
"1$	c #9EE985",
"2$	c #3C393A",
"3$	c #6E6065",
"4$	c #7C6970",
"5$	c #544B4E",
"6$	c #685B60",
"7$	c #554C4F",
"8$	c #494245",
"9$	c #9B9A98",
"0$	c #CCCABD",
"a$	c #89E664",
"b$	c #FCF5CC",
"c$	c #E2E2E2",
"d$	c #8B8A8A",
"e$	c #5F5458",
"f$	c #474143",
"g$	c #574D51",
"h$	c #908E88",
"i$	c #DFD9B4",
"j$	c #EAF7D7",
"k$	c #C5F1B8",
"l$	c #B3EDA2",
"m$	c #4E4549",
"n$	c #4C4A49",
"o$	c #BEB99D",
"p$	c #D6F1B8",
"q$	c #7FE552",
"r$	c #A7EB92",
"s$	c #9F9E9F",
"t$	c #4E4649",
"u$	c #4F474A",
"v$	c #806C73",
"w$	c #484645",
"x$	c #A9A590",
"y$	c #D8F1B6",
"z$	c #8FE76F",
"A$	c #7FE553",
"B$	c #C5F1B9",
"C$	c #888787",
"D$	c #4A4346",
"E$	c #AAA799",
"F$	c #EDF5CD",
"G$	c #E2F6D5",
"H$	c #CCF2C1",
"I$	c #54494D",
"J$	c #77656C",
"K$	c #65585D",
"L$	c #5A5858",
"M$	c #B1AFA4",
"N$	c #E4F8DF",
"O$	c #807F7F",
"P$	c #413C3E",
"Q$	c #8E767F",
"R$	c #594D52",
"S$	c #A2A098",
"T$	c #96E87A",
"U$	c #D2F4C9",
"V$	c #977D87",
"W$	c #75646B",
"X$	c #7E6A72",
"Y$	c #5C5155",
"Z$	c #94928C",
"`$	c #E7F9E2",
" %	c #867079",
".%	c #826D75",
"+%	c #534A4D",
"@%	c #878681",
"#%	c #5F5D5E",
"$%	c #77666C",
"%%	c #8F7680",
"&%	c #8E7680",
"*%	c #7B6870",
"=%	c #878682",
"-%	c #75646A",
";%	c #846F77",
">%	c #917882",
",%	c #878684",
"'%	c #706167",
")%	c #87717A",
"!%	c #888685",
"~%	c #867179",
"{%	c #8B747D",
"]%	c #88707A",
"^%	c #888786",
"/%	c #806C74",
"(%	c #4D4447",
"_%	c #807F7E",
":%	c #F3F1E6",
"<%	c #877179",
"[%	c #696767",
"}%	c #E9E8DF",
"|%	c #9B9A9B",
"1%	c #433E40",
"2%	c #907781",
"3%	c #88727A",
"4%	c #947B85",
"5%	c #555354",
"6%	c #B8B7B1",
"7%	c #CDCDCD",
"8%	c #AAA9A5",
"9%	c #FAF0A7",
"0%	c #FDF8DC",
"a%	c #927A84",
"b%	c #79676D",
"c%	c #77656B",
"d%	c #7D6971",
"e%	c #9F9E9B",
"f%	c #8B757E",
"g%	c #826E75",
"h%	c #A2A19E",
"i%	c #868585",
"j%	c #74636A",
"k%	c #967C86",
"l%	c #949390",
"m%	c #726067",
"n%	c #8D767F",
"o%	c #716268",
"p%	c #856F77",
"q%	c #867078",
"r%	c #807E7C",
"s%	c #51484B",
"t%	c #3D393B",
"u%	c #9B9A97",
"v%	c #3B3738",
"w%	c #BEBEBB",
"x%	c #826E76",
"y%	c #8C747E",
"z%	c #FCF8DB",
"A%	c #88727B",
"B%	c #8F8E8F",
"C%	c #AFAFAF",
"D%	c #7D6A71",
"E%	c #736269",
"F%	c #4F464A",
"G%	c #C5C4C5",
"H%	c #D9D9D8",
"I%	c #89737C",
"J%	c #EAEAEA",
"K%	c #C0C0BF",
"L%	c #FCF6D2",
"M%	c #EAEAE9",
"N%	c #E0DFDD",
"O%	c #E0DFDB",
"P%	c #DFDEDA",
"Q%	c #F9EE98",
"R%	c #716267",
"S%	c #DFDED9",
"T%	c #9D9C9C",
"U%	c #423C3E",
"V%	c #7E6B72",
"W%	c #747373",
"X%	c #DFDFDA",
"Y%	c #C8C7C2",
"Z%	c #AAA9A9",
"`%	c #907882",
" &	c #5C6458",
".&	c #A5D991",
"+&	c #C3ED9C",
"@&	c #E8F0AE",
"#&	c #FAEFA2",
"$&	c #D8D7CF",
"%&	c #666464",
"&&	c #594F52",
"*&	c #7E6871",
"=&	c #5C6F56",
"-&	c #7FDB53",
";&	c #9BE664",
">&	c #DFEFAA",
",&	c #C8C7C4",
"'&	c #929191",
")&	c #423D3F",
"!&	c #4B5148",
"~&	c #3D3E3A",
"{&	c #527D41",
"]&	c #ACEA8A",
"^&	c #D8F0AE",
"/&	c #C8C6BF",
"(&	c #757474",
"_&	c #594F53",
":&	c #4D4548",
"<&	c #3D4339",
"[&	c #65815C",
"}&	c #F6FCF0",
"|&	c #F7F8DD",
"1&	c #F4F2EC",
"2&	c #40453C",
"3&	c #3B3D38",
"4&	c #747D70",
"5&	c #DAE0D8",
"6&	c #F4F3EE",
"7&	c #B7B7B6",
"8&	c #403B3C",
"9&	c #846E77",
"0&	c #826C75",
"a&	c #7F6A72",
"b&	c #3D3F3A",
"c&	c #434C3F",
"d&	c #B6B6B6",
"e&	c #EAE9E5",
"f&	c #3B3B38",
"g&	c #4E4648",
"h&	c #949494",
"i&	c #DFDDD2",
"j&	c #3C3F39",
"k&	c #E9E6D6",
"l&	c #858382",
"m&	c #4B4446",
"n&	c #F2EED3",
"o&	c #BEBDB6",
"p&	c #4D4648",
"q&	c #9C9B9B",
"r&	c #BEBDBA",
"s&	c #4E4C4D",
"t&	c #E5F2BB",
"u&	c #E4ED99",
"v&	c #F5EE97",
"w&	c #EFEFA5",
"x&	c #CDCCC8",
"y&	c #DDF3C6",
"z&	c #C8EA7C",
"A&	c #DCEB85",
"B&	c #F1EE95",
"C&	c #E8F0A8",
"D&	c #E1E0DA",
"E&	c #B6B6B4",
"F&	c #828780",
"G&	c #41523A",
"H&	c #FCF7D2",
"I&	c #DAF4C9",
"J&	c #BEEC95",
"K&	c #C8EA82",
"L&	c #D3EA7E",
"M&	c #ECED91",
"N&	c #E2EC90",
"O&	c #D7ED95",
"P&	c #ECF6D1",
"Q&	c #E7F7DA",
"R&	c #84CD65",
"S&	c #5D9944",
"T&	c #5F7F54",
"U&	c #3F3E3D",
"V&	c #40423D",
"W&	c #434840",
"X&	c #5E625B",
"Y&	c #F6FBEE",
"Z&	c #CEF0B4",
"`&	c #D4EE9F",
" *	c #D9EB84",
".*	c #EEED8F",
"+*	c #E5EC8B",
"@*	c #E3EE9C",
"#*	c #EDF2BB",
"$*	c #E6F4C7",
"%*	c #ABE877",
"&*	c #92E65C",
"**	c #A8EA8C",
"=*	c #ABAAAB",
"-*	c #EAF7D6",
";*	c #C7EA85",
">*	c #D3EA80",
",*	c #ECED8E",
"'*	c #F2ED92",
")*	c #EBED93",
"!*	c #E8EE9D",
"~*	c #CCEA84",
"{*	c #AEE76B",
"]*	c #B1EB8D",
"^*	c #949493",
"/*	c #949393",
"(*	c #949392",
"_*	c #91908F",
":*	c #ABAAA9",
"<*	c #C0BFBE",
"[*	c #F4F4F1",
"}*	c #E3F5D1",
"|*	c #DDF1B3",
"1*	c #E2ED96",
"2*	c #EEED91",
"3*	c #F4ED93",
"4*	c #F0ED95",
"5*	c #E6EC8C",
"6*	c #CFEA7E",
"7*	c #C6EB8B",
"8*	c #EEF5CB",
"9*	c #E7EFA4",
"0*	c #E8ED94",
"a*	c #E9EC8C",
"b*	c #EAEC8D",
"c*	c #E1EC8A",
"d*	c #F3F2B5",
"e*	c #DCF1B3",
"f*	c #D8ED9A",
"g*	c #D8EB82",
"h*	c #E7EC8B",
"i*	c #F4EF9E",
"j*	c #B7E871",
"k*	c #D1EA7D",
"l*	c #DDEB85",
"m*	c #E9ED91",
"n*	c #F9EF9C",
"o*	c #ACE982",
"p*	c #A1E65F",
"q*	c #AFE768",
"r*	c #C9EA7B",
"s*	c #F0F1B3",
"t*	c #C2F0B4",
"u*	c #83E54F",
"v*	c #8EE553",
"w*	c #99E65B",
"x*	c #C6EEA2",
"y*	c #90E76F",
"z*	c #7EE44C",
"A*	c #B7EEA5",
"B*	c #D2F4CA",
"                                                                                                                                                                                                        ",
"                                                                                                                                                                                                        ",
"                                                                                                                                                                                                        ",
"                                                                                                                                                                                                        ",
"                                                                                                                                                                                                        ",
"                                                                                                                                                                                                        ",
"                                                                                                                                                                                                        ",
"                                                                    . . . . . + + + + + + + + + + + . . . . .                                                                                           ",
"                                                              . + @ # $ % & * * * * * * * * * * * * * & % $ = - + . . .                                                                                 ",
"                                                ; ; ;     . . # & > , ' ) ! ) ) ! ! ) ) ! ! ) ) ! ! ) ! ~ { ] ^ * / ( _ : - + . . .                                                                     ",
"                                                < [ < . - = / > } | 1 2 2 3 4 4 3 3 4 4 3 3 4 4 3 3 4 4 5 6 | 7 8 9 0 a b c d & $ # . .                                                                 ",
"                                                e f g $ h i j k l m n o 2 3 4 4 3 3 4 4 3 3 4 4 3 3 4 4 5 m p 3 q 2 r s s k k ) { > t u : + . .                                                         ",
"                                                v w x y ~ 6 z A o m 5 r B ! ) ) ! ! ) ) ! ! ) ) ! ! ) ! C D E F q 2 5 G H I J G K L j a M d & u : + . .                                                 ",
"                                                N O P Q R S n z T U V W X Y * * * * * * * * * * * * * d h M Z 0 9 8 ` R K 1 J A m 2  .6 | ..j +.M * % # .                                               ",
"                          @.#.#.$.              %.&.*.=.J -.5 ;.>.,.'.).!.~.+ + + + + + + + + + + + + + @ : u % / h > c Z j 8 | 6 3 z H {.5 l 6 ].^./.* _ + .                                           ",
"                          #.(._.:.<.          . [.}.|.1.G 2.3.4.5.6.7.8.9.0.a.b.b.b.b.b.b.b.b.b.b.b.b.b.b.b.b.c.d.e.+ : u % f.c g.! ..s s 5 5 h.o m s i.^ & +                                           ",
"                          #.j.k.l.m.n.o.      - p.q.r.s.K t.u.v.w.x.y.z.A.B.C.C.C.C.C.C.C.C.C.C.C.C.C.C.C.C.C.C.D.E.F.G.H.I.J.K.L.& > c g.~ M.N.r o O.p R ^ = .                                         ",
"                          $.<.P.Q.l.R.S.T.  . = M U.V.W.X.Y.Z.`. +.+++@+@+@+#+#+#+#+#+#+#+#+#+#+#+#+#+#+#+#+#+#+$+#+%+%+&+C.B.*+=+-++ # $ / d b ;+E o >+q j h = .                                       ",
"                              ,+'+)+Q.!+~+:.{+% { ]+^+/+(+_+:+<+[+$+}+|+1+2+3+4+4+4+4+4+4+4+4+4+4+4+4+4+4+4+4+3+5+6+7+7+$+#+$+8+9+0+a+b+c+d+e+f+* g+p h+i+ .' j+.                                       ",
"                                  k+S.l+l.m+n+o+^.p+q+r+s+t+u+v+@+}+w+x+y+z+z+z+z+z+z+z+z+z+z+z+z+z+z+z+z+z+z+z+A+B+C+D+E+2+2+F+G+H+I+J+K+L+M+N+- > 0 4 O+S R > # .                                     ",
"                                    o.P+Q+R+S+T+U+V+W+X+&.Y+Z+`+8+ @y+z+z+z+z+z+z+z+z+z+z+z+z+z+z+z+z+z+z+z+z+z+z+z+z+z+z+z+z+.@+@@@#@$@%@&@*@=@. # h M.m -@p ' h @                                     ",
"                                      #.;@>@,@'@)@^+!@~@{@]@^@/@$+E+z+z+z+z+z+z+z+z+z+z+z+z+z+z+z+z+z+z+z+z+z+z+z+z+z+z+z+z+z+z+z+.@(@F+G+$@_@:@<@[@}@Z E |@|@r c : .                                   ",
"                                    . . . + 1@2@3@4@5@6@!.7@8@H+#+B+z+z+z+z+z+z+z+z+z+z+z+z+z+z+z+z+z+z+z+z+z+z+z+z+z+z+z+z+z+z+z+z+y+9@0@a@b@c@c@C.d@& ' h.>+2 e@d -                                   ",
"                                . . + & & & b f@g@h@X+i@j@k@l@@+(@z+z+z+z+z+z+z+z+z+z+z+z+z+z+z+z+z+z+z+z+z+z+z+z+z+z+z+z+z+z+z+z+z+z+z+z+m@+@n@o@p@q@r@s@t@m I l , u .                                 ",
"    o.o.o.                  . . : u@/ c ` B R 7 s v@w@).x@y@z@F+A@z+z+z+z+z+z+z+z+z+z+z+z+z+z+z+z+z+z+z+z+z+z+z+z+z+z+z+z+z+z+z+z+z+z+z+z+z+z+B+m@B@C@o@D@E@F@G@J ;+& @                                 ",
"    ; < ;                 . - $ * Z ;+k p -@N.e@c H@I@J@K@L@M@5+A+z+z+z+z+z+z+z+z+z+z+z+z+z+z+z+z+z+z+z+z+z+z+z+z+z+z+z+z+z+z+z+z+z+z+z+z+z+z+z+z+A+N@O@8+P@Q@R@|@N.S@_ .                               ",
"  o.< e P+              . + & ] ! E T@h.G r k h # : : U@V@W@#+3+z+z+z+z+z+z+z+z+z+z+z+z+z+z+z+z+z+z+z+z+z+z+z+z+z+z+z+z+z+z+z+z+z+z+z+z+z+z+z+z+z+z+A+A@X@c@Y@Z@{.3 `@* -                               ",
"  n.l+l+<               . $ ^ k H O.J K 8 { M * .      #=+C.6+.@z+z+z+z+z+z+z+z+z+z+z+z+z+z+z+z+z+z+z+z+z+z+z+z+z+z+z+z+z+z+z+z+z+z+z+z+z+z+z+z+z+z+z+z+.#+#@###5 -.2.b = .                             ",
"  $#%#Q.<           . + _ f.! p G@&#N.e@d ( *#=#-#;#>#,#D.@+5+A+z+z+z+z+z+z+z+z+z+z+z+z+z+z+z+z+z+z+z+z+z+z+z+z+z+z+z+z+z+z+z+z+z+z+z+z+z+z+z+z+z+z+z+z+'##@)#!#~#{.3 } ( + .                           ",
"#.{#!+k.]#          . u@M 9 l O+z s g+& # b+^#D.B.B./#/#9+(#_#z+z+z+z+z+z+z+:#<#[#[#<#:#z+z+z+z+z+z+z+z+z+z+z+z+z+z+z+z+z+z+z+z+z+z+z+z+z+z+z+z+z+z+z+z+B@o@}#|#` z z L M ( @ . .                       ",
"#.1#%#v T.          - f.9 5 2#m B c * : 3#4#C.+#+#+#5#/@H+#@B@z+z+z+z+z+6#7#8#9#9#9#9#0#a#b#c#d#e#<#:#z+z+z+z+z+z+z+z+z+z+z+z+z+z+z+z+z+z+z+z+z+z+z+z+z+B+7+f#g#0 q -.q ..a * % : . .                   ",
"#.1#%#h#i#        . = ] K n -@r i % + b+4#H+j#k#l#m#X@@+/@$+n#z+z+z+z+o#9#p#q#q#q#q#q#q#p#p#p#r#9#0#a#s#s#t#u#v#v#v#u#6#w#z+z+z+z+z+z+z+z+z+z+z+z+z+z+z+y+x#H+y#z#E h+2#&#6 L g+> $ + .                 ",
"  7@%#A#B#        + h j z O+A M.d - b+a+(#C#D#E#q#q#F#$+H+@@G#z+z+z+z+H#p#q#p#I#q#q#q#q#p#J#K#r#p#p#r#q#p#r#r#J#p#J#r#r#L#L#L#0#a#b#c#d#o#:#z+z+z+z+z+z+z+5+$+M#N#! G -@S S -.4 ^.c d # .               ",
"  7@%#A#B#      . # M 1 -.-.R b % e.a+0+C#O#E#q#q#q#D#P##@+@z+z+z+:#Q#8#q#I#q#q#q#q#q#q#q#q#q#I#p#I#q#R#R#I#p#q#q#R#S#T#q#q#q#q#p#p#I#J#U#s#V#z+z+z+z+z+z+2+p@W#X#Y#k 6 h.T@O.2#h.K g+( .               ",
"  7@%#A#B#      . % { p >+4 g.t + d.D.@+Z#E#q#q#q#q#`#H+#+.@z+z+z+o#L#q#q#q#q#q#q#q#q#q#q#q#q#q#q#q#q#q#q#q#q#q#q#q#q#I# $K#p#p#J# $p#p#R#q#0#.$z+z+z+z+z+N@+#/@+$@$#$$$e@D  .-.%$I 8 f.-               ",
"&$)+*$=$B#      + f.C I z K ^ : -$;$>$C#,$q#q#q#q#E#'$H+(@z+z+z+z+s#R#q#q#q#q#q#q#q#q#q#q#q#q#q#q#q#q#q#q#q#q#q#q#q#q#q#p#p#q#q#q#q#p#p#p#p#I#L#)$o#z+z+z+N@+#H+8+j##@!$~${$+.r -.h+s b = .             ",
"R.]$[ %#^$    . # S@s I l e@d + b.@+9+l#E#q#q#q#q#/$(##++@z+z+z+z+($q#q#q#q#q#q#q#q#q#q#q#q#q#q#q#q#q#q#q#q#q#q#q#q#q#q#q#q#q#q#q#q#q#q#q#p#r#q# $_$z+z+z+:$$+8+<$k#[$H+H+}$|${ s m p } $ .             ",
"R.]$[ ]$1$#.  . t } l z N.M : . 4#>$2$O#q#q#q#q#q#D#(##+.@z+z+z+z+S#q#q#q#q#q#q#q#q#q#q#q#q#q#q#q#q#q#q#q#q#q#q#q#q#q#q#q#q#q#q#q#q#q#q#q#q#3$J#J#4$z+z+z+4+#+(#5$6$7$8$'$2$9$0$..5 5 ! & .             ",
"&$a$]$[ l+i#  - f.b$2 2 9 * + c$d$@+[$e$q#q#q#q#E#f$H+(@A+z+z+z+z+ $q#q#q#q#q#q#q#q#q#q#q#q#q#q#q#q#q#q#q#q#q#q#q#q#q#q#R#R#q#q#q#q#q#q#q#q#q#p#q#s#:#z+z+.@#+(#D#q#q#q#g$[$f#h$i$T@T@..j$k$]#k+o.      ",
"  l$]$[ !+;@. u , | {.]./.$ . b.I+>$l#6$q#q#q#q#/$(##++@z+z+z+z+z+9#q#q#q#q#q#q#q#q#q#q#q#q#q#q#q#q#q#q#q#q#q#q#q#q#q#q#q#q#q#q#q#q#q#q#q#q#q#q#q#L#<#z+z+B+m$H+Z#q#q#q#6$O@f#n$o$I I ..p$n+q$R.v r$k+o.",
"  $#*$[ l.n.. $ ' p p ` ^ : . s$9+P#t$q#q#q#q#q#u$(##+m@z+z+z+z+z+v$ $J#p#q#q#q#q#q#q#q#q#q#q#q#q#q#q#q#q#q#q#q#q#q#q#q#q#q#q#q#q#q#q#q#q#q#q#q#q#9#[#z+z+x+7++#k#q#q#q#q#8$H+w$x$3 z ].y$x z$R.[ A$v B$",
"  ;@!+[ Q.l$+ & ) 3 3 ) d +   C$>$2$5$q#q#q#q#6$Z#+#|+B+z+z+z+z+z+w#)$p#p#p#q#q#q#p#p#q#q#p#p#I#p# $J#p#q#q#q#q#q#q#q#q#q#q#q#q#q#q#q#q#q#q#q#p#p#9#[#z+z+x+|++#k#6$q#q#q#D$2$n$E$E G K F$G$H$]#S.h#v B$",
"  B#!+[ ]$l$- > M.p p ~ % .   d$H+'$e$q#q#q#q#F#$+8+I$y+z+z+z+z+z+z+Q#J$9#9#9#9#9#9#($ $q#K#J#p#J#p#p#p#J#q#q#q#q#q#q#q#q#q#q#q#q#q#q#q#q#q#q#($p#a#<#z+z+y+1+@+p@K$q#q#q#5$C#L$M$k h. .' ( .   #.N$T.o.",
"  i#!+[ ]$l$: b R I 6 e@$ .   O$@+P$K$q#q#q#q#O#P##@N@z+z+z+z+z+z+z+:#<#[#[#[#[#[#[#Q$)$K#7#v$v#)$s#L#9#r# $q#q#q#q#q#q#q#q#q#q#q#q#q#q#q#q#J#p#L#V#:#z+z+z+R$@+P$E#q#q#q#F#(#L$S$8 3 3 9 t .           ",
"  #.T$[ k.U$# i 6 J ].] # .   C$@+P$E#q#q#q#q#D$2$o@B@z+z+z+z+z+z+z+z+z+z+z+z+z+z+z+V$V#q#V#V$z+z+:#<#e#_$t#W$K#p#q#q#q#q#q#q#q#q#q#q#q#q#p#q# $X$:#z+z+z+z+2+$+P$Y$q#q#q#Y$P$f#Z$! 3 3 ! & .           ",
"    P+< < `$= g.s 5 B c :     O$@+P$K$q#q#q#6$Z#+#|+B+z+z+z+z+z+z+z+z+z+z+z+z+z+z+z+z+ %($X$y+z+z+z+z+z+z+z+z+w#.%L#R#q#q#p#p#p#J#3$3$p#U#K#L#)$o#z+z+z+z+z+E+#+(#+%q#q#q#E#P$f#@%9 4 4 ! d +           ",
"          . u@e@K p k M @   -$#%H+`#6$q#q#q#e$p@@+5+y+z+z+z+z+z+z+z+z+z+z+z+z+z+z+z+z+e#$%$%%%z+z+z+z+z+z+z+z+V$&%X$K#)$*%v#u#u#u#v$7#7#t#6#w#z+z+z+z+z+z+z+m@7++#u$q#q#q#E#P$f#=%j  .p 7 > +           ",
"          . _ e@l m ` M +   b.9+9+l#q#q#q#q#F#(##+3+z+z+z+z+z+z+z+z+z+z+z+z+z+z+z+z+z+.$-%-%.$z+z+z+z+z+z+z+z+:#.%($;%>%z+z+z+z+z+z+z+z+z+z+z+z+z+z+z+z+z+z+C+#+(#m#q#q#q#E#P$f#,%g.6 T@k ^ -           ",
"          . _ e@ .J | M +   4#>$2$O#q#q#q#q#5$(##+4+z+z+z+z+z+z+z+z+z+z+z+z+z+z+z+z+z+.$'%'%.$z+z+z+z+z+z+z+z+>%X$($)%z+z+z+z+z+z+z+z+z+z+z+z+z+z+z+z+z+z+z+C+7++#m#q#q#q#E#P$f#!%, 2.m ].b :           ",
"          . u@{ 6 2 k S@@   d$@+P$e$q#q#q#q#5$(##+4+z+z+z+z+z+z+z+z+z+z+z+z+z+z+z+z+z+~%-%-%{%z+z+z+z+z+z+z+z+%%$%$%e#z+z+z+z+z+z+z+z+z+z+z+z+z+z+z+z+z+z+z+]%7++#l#q#q#q#E#P$f#^%H@| 2 K /._ .         ",
"          . u@e@~#2 k M @   D.H+'$6$q#q#q#6$D#(#6+.@z+z+z+z+z+z+z+z+z+z+z+z+z+z+z+z+y+/%K#v#y+z+z+z+z+z+z+z+z+o#$%$%o#z+z+z+z+z+z+z+z+z+z+z+z+z+z+z+z+z+z+z+x+(%8+<$/$q#q#K$P$@+_%^ C 5 l j % .         ",
"            = e@6 T@k M -   q@H+'$E#q#q#q#e$[$@+5+A+z+z+z+z+z+z+z+z+z+z+z+z+z+z+z+z+%%L#J#V#V$z+z+z+z+z+z+z+z+o#$%$%o#z+z+z+z+z+z+z+z+z+z+z+z+z+z+z+z+z+z+z+y+R$9+P#5$q#q#6$[$H+D.:%7 5 5 ) / .         ",
"            # /.6 z | ] = . a+#%(#O#6$q#q#F#(##+3+z+z+<%:#z+z+z+z+z+z+z+z+z+z+z+z+V$)%-%W$e#z+z+z+z+z+z+z+z+z+e#$%$%%%z+z+z+z+z+z+z+z+z+z+z+z+z+z+z+z+z+z+z+z+:$o@2$t$q#q#q#k#@+[%}%i.5 5 ^.f.+         ",
"            : b N.T@6 } ( + c$|%2$1%+%E#q#5$(##+4+z+z+V#w#z+z+z+z+z+z+z+z+z+z+z+z+2%/%($3%4%z+z+z+z+z+z+z+z+z+~%K#)${%z+z+z+z+z+z+z+z+z+z+z+z+z+z+z+z+z+:#z+z+4+#+(#5$q#q#q#f$8+5%6%0 K p C h +         ",
"            - f.C H H L b # . 7%4#+#<$Z#+%k#(#6+.@z+z+z+H#w#z+z+z+z+z+z+z+z+z+z+4%3%($X$.$o#%%>%:#:#V$V$z+z+z+~%'%'%{%z+z+z+z+z+z+z+z+z+z+z+z+z+z+z+z+6#V#z+z+4+#+(#5$q#q#q#D$P#9+8%e@s 5 B ^ +         ",
"            . % ;+J 9%H 0%$ .   3#<@(#(##@C#@+1+A+z+z+z+z+.$:#z+z+z+z+z+z+z+z+z+a%b%c%d%0#L#L#7#4$u#/%_${%%%V$o#W$-%_$V$z+z+z+z+z+z+z+z+z+z+z+z+z+.$<%w#z+z+z+m@#+(#u$q#q#q#t$2$>$e%g. .J R ^ +         ",
"            . = a 5 %$o L > +    #>#[@0+0+@+8+ @z+z+z+z+z+z+.$;%V$z+z+z+z+z+z+z+f%)$'%($S#p#K#p#S#q#3$($K#)$/%g%)$K#7#>%z+z+z+z+z+z+z+z+z+z+z+:#Q#z+:#z+z+z+z+B+7++#Z#q#q#q#F#(#C.h%e@l m ` M +         ",
"              - M 1 h+i+4 S@# .     c$>#i%9+#@_#z+z+z+z+z+z+:#&%V$z+z+z+z+z+z+4%6#K#p#I#p#p#p#S#q#p#p#R#p#p#J#p#($p#j%>%z+z+z+z+z+z+z+z+z+k%)%.$z+z+z+z+z+z+z+y+x#H+[$6$q#q#Y$P$f#l%e@K p k M @         ",
"              + h j 2 -@3 0%t -         <@8+p@m%z+z+z+z+z+z+z+z+z+z+z+z+z+z+z+n%s#o%p#q#q#q#q#q#q#q#q#q#q#p#p#p#p#$%p%y+z+z+z+z+z+z+z+z+z+x+q%z+z+z+z+z+z+z+z+z+5+@+P$e$q#q#E#<$f#r%e@s 5 B S@@         ",
"              . # c | q m B S@= +      #O$@+|+x+z+z+z+z+z+z+z+z+z+z+z+z+z+z+z+e#($L#q#q#q#q#q#q#q#q#q#q#q#q#3$S#'%X$&%z+z+z+z+z+z+z+z+z+z+z+z+z+z+z+z+z+z+z+z+z+E+#+(#s%K$s%6+t%H+u%g.1 J N.S@#         ",
"                @ & c N.m 3 j h -     >#A.@+5+y+z+.$.$.$.$>%>%z+z+z+z+z+z+z+z+e#W$K#q#q#q#q#q#q#q#q#q#q#q#q#q# $ $'%.$z+z+z+z+z+z+z+z+z+z+z+z+z+z+z+z+z+z+z+z+z+m@7++#k#f$j#v%P#4#w%a l -.E g+_ .       ",
"                . + / 9 z m r ] = .   a.C.#+3+z+z+:#:#:#:#V$V$z+z+z+z+z+z+z+z+2%$%p#p#q#q#q#q#q#q#q#q#q#q#q#q#($o%K#x%z+z+z+z+z+z+z+z+z+z+z+4%y%6#.$.$.$.$.$z+z+C+`#>$C#2$P#>$D.7%: b ` 5 3 ' ( .       ",
"                  . $ i K -@q z%& -   =+C.#+.@z+z+z+z+z+z+z+z+z+z+z+z+z+z+z+z+4%6#)$3$q#q#q#q#q#q#q#q#q#q#q#q#8#9#'%A%z+z+z+z+z+z+z+z+z+z+z+4%y%6#:#:#:#:#:#z+z+B+F+c@8+C$B%C%>#  - h )  . .9 / .       ",
"                  . - h B 1 J ` S@=  #q@H+x#A+z+z+z+z+z+z+z+z+z+z+z+z+z+z+z+z+z+V$%%)%D%0#q#q#q#q#q#q#q#q#q#K#E%U#Q#2%z+z+z+z+z+z+z+z+z+z+z+z+z+z+z+z+z+z+z+z+z+y+F%H+#%G%        + * ) r r ) * .       ",
"                    + & i b$5 r } = H%B.$+5+z+z+z+z+z+:#V#.$z+z+z+z+z+z+z+z+z+z+z+z+z+z+o#H#s#a#9#($ $p#3$9#U#s#I%>%z+z+z+z+z+z+z+z+z+z+z+z+z+z+z+z+z+z+z+z+z+z+z+1+@+B.J%        + * ! 5 5 ! * +       ",
"                    + $ c | 2 2 { = K%C.#+3+z+z+z+:#o#.$z+z+z+z+z+z+z+z+z+z+z+z+z+z+z+z+z+z+z+:#<#[#{%.$A%A%e#n%4%z+z+z+z+z+z+z+z+z+z+z+z+z+z+z+z+z+z+z+z+z+z+z+z+1+@+B.J%        + * L%5 5 L%* +       ",
"                  . - * ~ 6 h+].i # b.C.#+4+z+z+:#.$V#z+z+z+z+z+z+z+z+H#)$)$w#z+z+z+z+z+z+z+z+z+z+z+z+z+z+z+z+z+z+z+z+z+z+z+z+z+z+z+z+z+z+z+z+w#6#w#z+z+z+z+z+z+z+1+H+l@J%  . . + : h ^.p p L%f..       ",
"                  + ( b N.{.5 ^.* : [@C.#+m@z+z+.$z+z+z+z+z+z+z+z+z+z+X$q#r#V#z+z+z+z+z+z+z+z+z+z+z+z+z+z+z+z+z+z+z+z+z+z+z+z+z+z+z+z+z+z+z+z+z+w#o#.$.$:#z+z+z+z+1+@+B.M%- # $ t M } R h.5 ! t .       ",
"                . : > ^.2 |@].b ( . d$$+7+B+z+z+z+z+z+z+z+z+z+z+z+z+z+X$K#I#s#:#z+z+z+z+z+z+z+z+w#6#6#w#z+z+z+z+z+z+z+z+z+z+z+z+z+z+z+z+z+z+z+z+z+z+z+:#.$z+z+z+z+R$@+B.N%h ] 0%L%B r G 9%2 0%( .       ",
"              . + f.e@4 S 5 9 & - b+D.H+(@y+z+z+z+z+z+z+z+z+z+z+z+z+z+:#4$p#K#0#)$u#_$e#[#;%c#0#L#r#L#Q#z+z+z+z+z+z+z+z+z+w#Q#Q#w#z+z+z+z+z+z+z+z+z+z+z+z+.$o#z+z+R$@+B.O%, F T@I T@A O.{.k , = .       ",
"              + ( , 6 o 2#r c _ . b.>$o@R$z+z+z+z+z+z+z+z+z+z+z+z+z+z+z+.$)$q#q#J#r#r#9#9#L#p#p#q# $r#a#t#V#.$z+z+z+z+z+<#X$9#0#w#z+z+z+z+z+z+z+z+z+z+z+z+z+w#z+z+R$@+[%P%' T@%$9%z 5 3 E j & :         ",
"            . # H@M.I Q%{...d +   4#9+#@B@z+z+z+z+z+z+z+z+z+z+z+z+z+z+z+z+Q#L#p#J#r#r#p#p#J#L#9#W$$%8#R%R%J#0#0#L#L#L#L#9#K#p#4$w#z+z+z+z+z+z+z+z+z+z+z+z+z+z+z+z+R$@+[%S%9 -.|@G ` i.a H@d _ .         ",
"          . # / ' T@G@G@H { % e.T%I+/@U%m@z+z+z+z+z+z+z+z+z+z+z+z+z+z+z+z+z+o#_$v$u#t#c#b#V%<%:#:#w#Q#)$R%9#p#q#q#q#q#q#q#p#)$.$z+z+z+z+z+z+z+z+z+z+z+z+z+z+z+z+z+R$@+[%S%9 p z ].} / _ - + . .         ",
"      . . # h { 2.i+G@z 8 H@# 3#W%H+/@}+9@z+z+z+z+z+z+z+z+z+z+z+z+z+z+z+z+z+z+z+z+z+z+z+z+z+z+z+z+z+z+w#o#X$a#L#L#L#L#L#0#4$.$z+z+z+z+z+z+z+z+z+z+z+z+z+z+z+z+z+z+R$@+[%X%i E h.N.i % .                 ",
"    . + $ h 0%4 S O.p ..c Y%Z%q@+#j##@G+0@B+z+z+z+z+z+z+z+z+z+z+z+z+z+z+z+z+V$:#<#`%[#[#[#[#[#[#[#[#[#[#[#&%<#:#z+z+z+z+z+z+z+z+z+z+z+z+z+z+z+z+z+z+z+z+z+z+z+z+z+1+@+ &.&+&@&J r i.t .                 ",
"    + / M ^.p #&>+3 j > $&%&9+#@,$&&O#j#o@(@*&z+z+z+z+z+z+z+z+z+z+z+z+z+z+z+6#4$0#L#9#9#9#9#U#U#U#9#9#9#9#L#4$.$z+z+z+z+z+z+z+z+z+z+z+z+z+z+z+z+z+z+z+z+z+z+z+z+y+x#H+=&-&;&>&r I C h +                 ",
"    - > B 5 -@-@5 B > ,&'&P#H+)&E#q#E#8$P#$+2+A@A+z+z+z+z+z+z+z+z+z+z+z+z+z+H#S#p#q#q#q#q#q#q#q#q#q#q#q#q#q#p#)$z+z+z+z+z+z+z+z+z+z+z+z+z+z+z+z+z+z+z+z+z+z+z+z+3+!&~&{&g ]&^&F H E M +                 ",
"    : i  .G@O.q ^.M /&(&P#P#`#u$q#q#q#_&:&[$(#C@3+B+y+z+z+z+z+z+z+z+z+z+z+z+/%U#q#q#q#q#q#q#q#p#q#q#q#q#q#q#q#)$z+z+z+z+z+z+z+z+z+z+z+z+z+z+z+z+z+z+z+z+z+z+z+A+I$H+<&[&B$}&|&].m ].] @                 ",
"    = { G O.J 9 > 1&q@8+v%f$E#q#q#q#q#q#q#g$f$(##+|+5+N@B@m%x+y+z+z+z+z+z+z+w#V#s#0#L#L#L#L#a#a#0#9#9#9#9#($s#V#z+z+z+z+z+z+z+z+z+z+z+z+z+z+z+z+z+z+z+z+z+z+.@N@2&3&H+4&5&- ] F H F ] -                 ",
"    _ j 3 m K g+6&7&8&H+)&/$q#q#q#q#q#q#q#6$e$u$P$+#@+o@#@p@7+m$x#1+2+E+C+]%]%]%]%]%]%]%]%]%]%9&0&a&a&a&a&0&9&]%]%]%]%]%]%]%]%]%]%]%]%]%]%C+m@4+4+4+4+4+4+3+(%b&3&C#c&C.d&- , s {.s , -                 ",
"    _ 0  .T@2./.e&O$P#1%,$q#q#q#q#q#q#q#q#q#q#E#,$Z#p@2$P#P#+#H+H+@+$+#+7+7+7+7+7+7+7+7+7+7+7+7+7+7+7+7+7+7+7+7+7+7+7+7+7+7+7+7+7+7+7+7+7+7+#+#+#+#+#+p@o@o@f&P#'$g&<$@+h&- b K I K b -                 ",
"    # g.H o h.j i&M#+#l#q#q#q#q#q#q#q#q#q#q#q#q#q#6$e$O#D$f$k#[$'$P$P$(#+#+#+#+#+#+#+#+#+#+#+#+#+#+#@+@+@+@+@+@+@+@+@+@+@+@+@+@+@+@+@+@++#+#(#(#(#(#(#/@j&P#<$D#/$E#P$@+C$: , ].H ].] -                 ",
"    : ] p >+|@6 k&l&b@O@7$6$q#q#q#q#q#q#q#q#q#q#q#q#q#q#q#q#q#q#6$K$Y$+%m#l#l#l#l#l#l#l#l#l#l#l#l#l#l#l#l#l#l#l#l#l#l#l#l#l#l#l#l#l#l#l#l#m#u$5$5$5$5$t$l#m&F#6$q#Y$P$@+h&: a E 5 N.b -                 ",
"    @ > s {.>+h.n&o&4#H+[$u$e$6$q#q#q#q#q#q#q#q#q#q#q#q#q#q#q#q#q#q#q#q#q#q#q#q#q#q#q#q#q#q#q#q#q#q#q#q#q#q#q#q#q#q#q#q#q#q#q#q#q#q#q#q#q#q#q#q#q#q#q#q#q#q#q#q#q#p&2$>$q&= Z l m N.S@@                 ",
"    + f.} p {.9%k > r&4#+#(#P$f$O#e$K$K$6$q#q#q#q#q#q#q#q#q#q#q#q#q#q#q#q#q#q#q#q#q#q#q#q#q#q#q#q#q#q#q#q#q#q#q#q#q#q#q#q#q#q#q#q#q#q#q#q#q#q#q#q#q#q#q#q#q#q#q#u$(#/@s&K%u@e@F &#N.^ +                 ",
"    . # > t&u&v&w&j / x&}$#%+#H+(#'$P$P$[$Z#D$t$O#e$6$q#q#q#q#q#q#q#q#q#q#q#q#q#q#q#q#q#q#q#q#q#q#q#q#q#q#q#q#q#q#q#q#q#q#q#q#q#q#q#q#q#q#q#q#q#q#q#q#q#q#6$F#k#t%H+8+;$d.% '  .3 D ^ +                 ",
"      . # y&z&A&B&C&0%> D&E&F&L@G&H+@+@+H++#2$P#2$p@[$k#k#m#u$5$5$5$5$5$5$/$e$K$E#E#E#E#E#E#E#E#E#E#E#E#E#E#E#E#E#E#E#E#E#E#E#E#E#E#Y$Y$Y$E#E#E#E#E#Y$O#D$k#<$j&H+@+l@>#. t 9 4 4 H&h +                 ",
"        . I&J&K&L&M&N&O&P&& Q&R&S&T&O$O$D.B.>$9+>$@+@+H+@++#(#(#(#(#(#(#(#(#'$P$P$P$P$P$P$P$P$P$P$P$P$P$P$P$P$P$P$P$P$P$P$P$P$P$P$P$P$(#P$P$P$P$P$P$P$2$9+U&V&W&X&=+c$  + & ! 3 3 ! * +                 ",
"        . + Y&Z&`& *.*+*@*#*$*%*&***.    #>#=*s$4#d$A.l@B.B.C.C.C.C.C.C.C.C.H+@+@+@+@+@+@+@+@+@+@+@+@+@+@+@+@+@+@+@+@+@+@+@+@+@+@+@+@+C.@+@+@+@+@+@+@+>$9+`+d$d&c$  . . - M 7 5 5 8 & .                 ",
"          . . u -*;*>*,*'*)*!*~*{*]*# + .          # #J%J%;#a.b.b.b.b.b.b.=+d$O$C$C$C$C$C$C$C$C$C$C$C$C$C$C$C$C$C$C$C$C$C$C$C$C$C$C$^*^*/*^%^%^%^%^%(*_*:*<*[*: # = $ % d e@6 G J ^.t .                 ",
"              + u@}*|*1*2*3*4*5*6*7*^ f.$ : - - - - - - - : : : : : + + + + + + + + + + + + + + + + + + + + + + + - : # = _ _ u@( % t & * * d > c c b ] , b b , /.g+{ z%9 2.m 2#z ' $ .                 ",
"              . . # * 8*9*0*a*b*a*c*d*9 a i ] b b , ] b ] g.g./.a c * * * * * * * * * * * * * * * * * * * * * d > ^ b Z g.e@e@e@e@' ~ ) ) ! ^.C | K E E ].K E E 2. .r r p z i+S 6 i = .                 ",
"                  . # & M e*f*g*h*'*i*3 6 ].E E K ].E E F l 2 h.1 C ! ) ) ! ! ) ) ! ! ) ) ! ! ) ) ! ! ) ) ! ! ! 7 k ].K ~#6 6 ~#~#6 3 4 4 3 3 q h.&#|@5 H I |@5 h.J I 2 H 5 r k `@h -                   ",
"                    . + : $ y&j*k*l*m*-.&#H 5 |@I H 5 |@&#G {.n*-.h.3 4 4 3 3 4 4 3 3 4 4 3 3 4 4 3 3 4 4 3 3 4 p T@m 2 2 T@T@2 2 T@3 4 4 3 3 6 ~#F E E ].K E E R N.k R 7 i.Z h & $ .                   ",
"                        . + # o*p*q*r*s*s ].E E K ].E E F l T@I I h.3 4 4 3 3 4 4 3 3 4 4 3 3 4 4 3 3 4 4 3 3 4  .6 2.N.k ` ` ` ` M.8 ) ) ! i.0 g+, b ] , b b b b M H@^ f.% u@- . . .                   ",
"                            . t*u*v*w*x*M ] ] b b , ] b ] e@j ! C C ! ) ) ! ! ) ) ! ! ) ) ! ! ) ) ! ! ) ) ! ! 9 j g.i c S@M M M ^ h d f.* & t ( _ # - - - - - - - @ + + + . . .                         ",
"                                y*j@z*A*+ @ - - - - - - : = $ t & f.* * * * * * * * * * * * * * * * * * * * & / % u@# : @ @ + + + + + + + . . . .                                                       ",
"                                P+S.S.B*                    . . . . + + + + + + + + + + + + + + + + + + + . . . . .                                                                                     ",
"                                                                                                                                                                                                        ",
"                                                                                                                                                                                                        "};
