/* XPM */
static char * path2_xpm[] = {
"100 100 94 2",
"  	c #FFFFFF",
". 	c #CBF2C0",
"+ 	c #A9EB94",
"@ 	c #79E446",
"# 	c #93E875",
"$ 	c #98E87C",
"% 	c #F6FDF4",
"& 	c #7EE552",
"* 	c #8FE76E",
"= 	c #E7F9E3",
"- 	c #D2F4CA",
"; 	c #ADEC9B",
"> 	c #9EE986",
", 	c #FEFFFE",
"' 	c #F7FDF6",
") 	c #ACEC98",
"! 	c #D0F3C7",
"~ 	c #84E55B",
"{ 	c #80E555",
"] 	c #CAF2BF",
"^ 	c #A8EB93",
"/ 	c #B8EEA9",
"( 	c #D6F5CF",
"_ 	c #C5F1B9",
": 	c #B0EC9E",
"< 	c #C0F0B3",
"[ 	c #82E558",
"} 	c #7DE44E",
"| 	c #8DE76C",
"1 	c #CBF2C1",
"2 	c #BEEFB1",
"3 	c #9BE981",
"4 	c #7FE553",
"5 	c #90E770",
"6 	c #FBFEFA",
"7 	c #95E878",
"8 	c #7BE44A",
"9 	c #87E661",
"0 	c #DFF7DA",
"a 	c #A4EA8E",
"b 	c #7EE550",
"c 	c #A9EB95",
"d 	c #A5EB8F",
"e 	c #88E663",
"f 	c #9AE97F",
"g 	c #9DE984",
"h 	c #8CE76B",
"i 	c #BFEFB2",
"j 	c #91E772",
"k 	c #BBEFAC",
"l 	c #C4F1B8",
"m 	c #7CE44C",
"n 	c #B3EDA2",
"o 	c #8EE76D",
"p 	c #ECFAE9",
"q 	c #97E87B",
"r 	c #96E87A",
"s 	c #8BE668",
"t 	c #95E879",
"u 	c #85E65E",
"v 	c #7AE448",
"w 	c #92E874",
"x 	c #D8F5D1",
"y 	c #A1EA8A",
"z 	c #A2EA8B",
"A 	c #A0EA89",
"B 	c #81E557",
"C 	c #8CE669",
"D 	c #B5EEA5",
"E 	c #83E55A",
"F 	c #AEEC9B",
"G 	c #89E665",
"H 	c #D6F4CE",
"I 	c #BBEFAD",
"J 	c #89E664",
"K 	c #EEFAEB",
"L 	c #99E97E",
"M 	c #E5F8E1",
"N 	c #C1F0B4",
"O 	c #C3F0B7",
"P 	c #9EE985",
"Q 	c #A7EB92",
"R 	c #E4F8DF",
"S 	c #9FEA87",
"T 	c #86E660",
"U 	c #C8F1BD",
"V 	c #ABEC97",
"W 	c #B0ED9F",
"X 	c #8AE667",
"Y 	c #84E55D",
"Z 	c #D3F4CB",
"` 	c #BAEFAC",
" .	c #DEF6D8",
"..	c #BAEEAB",
"                                                                                                                                                                                                        ",
"                                                                                                                                                                                                        ",
"                                                                                                                                                                                                        ",
"                                                                                                                                                                                                        ",
"                                                                                                                                                                                                        ",
"                                                                                                                                                                                                        ",
"                                                                                                                                                                                                        ",
"                                                                                                                                                                                                        ",
"                                                                                                                                                                                                        ",
"                                                . . .                                                                                                                                                   ",
"                                                + @ +                                                                                                                                                   ",
"                                                # @ #                                                                                                                                                   ",
"                                                $ @ # %                                                                                                                                                 ",
"                                                $ & * %         = - ; > + .                                                                                                                             ",
"                          , % % '               ) @ # !       = > ~ { @ @ .                                                                                                                             ",
"                          % ] ^ / (             _ * & :     = + { @ { # + .                                                                                                                             ",
"                          % < [ } | 1 =         % # @ $   2 3 4 } 5 ; =                                           6 % % 6                                                                               ",
"                          ' ( 7 8 } 9 > 0         $ @ # % a 8 b c -                                               = _ _ =                                                                               ",
"                              2 d e 8 { f / (     g & h i j } # 0                                                 = ) $ k (             - a a l                                                         ",
"                                  l > ~ } m # k   n & ~ o 4 / (                                                   p ! q [ : %         k r m m k                                                         ",
"                                    = k j & @ s 3 t u v @ > (                                                       % : & w _         + @ } * k                                                         ",
"                                      % x y j @ 8 & 8 @ 8 z                                                           ( # @ d     % . # u 3 0 %                                                         ",
"                                            . # & 8 @ @ @ z                                                             3 @ 9 l   ! A B 2 =                                                             ",
"                                              0 1 | @ @ @ C                                                             D [ 8 a - ) & $ !                                                               ",
"    = = =                                         D E @ @ 9 %                                                           0 j & E F G 9 ; %                                                               ",
"    . + .                                           H C m 5 %                                                             l m & ~ 9 9 -                                                                 ",
"  = + # k                                             ! _ _ %                                                             ( # @ b @ $ =                                                                 ",
"  1 ~ ~ +                                                                                                                   D ~ @ v 3                                                                   ",
"  I & 8 +                                                                                                                   % ~ @ v d                                                                   ",
"% c { [ D                                                                                                                   % J @ v r                                                                   ",
"% g & $ 0                                                                                                                     | @ @ r                                                                   ",
"% g & w K                                                                                                                     L @ v L                                                                   ",
"  z & * M                                                                                                                     n ~ ~ N                                                                   ",
"  z & * M                                                                                                                     = . . =                                                                   ",
"  z & * M                                                                                                                                                                                               ",
"N e m G M                                                                                                                                                                                               ",
"9 v @ & O                                                                                                                                                                                               ",
"9 v @ v P %                                                                                                                                                                                             ",
"N J v @ ~ K                                                                                                                                                                             = l D l =       ",
"  n v @ { x                                                                                                                                                                             . # & 9 $ Q l = ",
"  I m @ } 1                                                                                                                                                                             . # * 9 @ 4 $ _ ",
"  x { @ 8 n                                                                                                                                                                             = 0 1 D > w $ _ ",
"  M { @ v n                                                                                                                                                                                     % R 0 = ",
"  K { @ v n                                                                                                                                                                                             ",
"  % r @ [ -                                                                                                                                                                                             ",
"    k + + =                                                                                                                                                                                             ",
"                                                                                                                                                                                                        ",
"                                                                                                                                                                                                        ",
"                                                                                                                                                                                                        ",
"                                                                      - - -                                                                                                                             ",
"                                                                  = : G 4 +                                                                                                                             ",
"                                                                  l 9 v b +                                                                                                                             ",
"                                                                = a m B S -                                                                                                                             ",
"                                                % % %           - G u c K                                                                                                                               ",
"                                                . 2 .           N 9 9 N                                                                                                                                 ",
"                                                . T # d i %     N 9 9 N     = 0 2 ! (                                                                                                                   ",
"                                                ( / 4 @ g .     N 9 9 N   = k | * ~ .                                                                                                                   ",
"                                                  ( + # & > k = N 9 9 N = + 9 ~ & A .                                                                                                                   ",
"                                                      ( : @ 9 + N G 9 3 D 9 E 3 2 ! %                                                                                                                   ",
"                                                        . > { G D h & E { G D -                                                                                                                         ",
"                                                          - k j b 4 @ b @ # %                                                                                                                           ",
"                                                              : b @ } v @ #                                                                                                                             ",
"                                                              ! d B @ v @ $ p                                                                                                                           ",
"                                                                  z 8 v { 7 =                                                                                                                           ",
"                                                                  - $ } * i =                                                                                                                           ",
"                                                                    ( U _ K 6                                                                                                                           ",
"                                                                                                                                                                                                        ",
"                                                                                                                                                                                                        ",
"                                                                                                                                                                                                        ",
"                                                                                                                                                        . . .                                           ",
"                                                                                                                                                        + @ +                                           ",
"                                                                                                                                                        # @ #                                           ",
"                                                                                                                                                        # @ #                                           ",
"                                                                                                                                                        $ @ # %                                         ",
"                                                                                                                                      % % %             g & * K       ( : : !                           ",
"                                                                                                                                      k A + =           z & * M     ( / 4 [ _                           ",
"                                                                                                                                      k & ~ > > - =     V & * x = . + E # A _                           ",
"                                                                                                                                      l : j @ 9 j 3 W 1 W 9 9 1 k # 9 W _ % %                           ",
"                                                                                                                                          k + # | m } * L { { Q > @ 3 0 %                               ",
"                                                                                                                                              = k G } } X 8 } 7 { { z                                   ",
"                                                                                                                                                % 1 W A 8 8 } X } } I                                   ",
"                              - + + -                                                                                                                 ! Y @ } J m Y 1                                   ",
"                              N { { N                                                                                                                 % Y @ v u @ > %                                   ",
"                              z { { N                                                                                                                 % u @ @ } G k                                     ",
"                              > @ # =                                                                                                                   C @ @ v r =                                     ",
"          ( : : !           % # @ $                                                                                                                     > v @ v S                                       ",
"          ( ~ b d .         K * & g                                                                                                                     - w v B n                                       ",
"          ( + * @ j 3 + =   M * & z                                                                                                                       Z ` ` R                                       ",
"            % _ D { v B D 0  .* & z                                                                                                                                                                     ",
"                = # & & 9 A ..* & z                                                                                                                                                                     ",
"                  0 1 c | & y Y & g                                                                                                                                                                     ",
"                      = l a @ & @ e =                                                                                                                                                                   ",
"                          . : v @ } -                                                                                                                                                                   ",
"                            ( { @ v r                                                                                                                                                                   ",
"                              L @ @ { 0                                                                                                                                                                 ",
"                              N 8 @ v D                                                                                                                                                                 ",
"                                * @ 8 D                                                                                                                                                                 ",
"                                k > > -                                                                                                                                                                 ",
"                                                                                                                                                                                                        ",
"                                                                                                                                                                                                        "};
