/* XPM */
static char * path_xpm[] = {
"100 100 145 2",
"  	c #FFFFFF",
". 	c #E8FAEA",
"+ 	c #E1F9E4",
"@ 	c #FAFEFA",
"# 	c #CDF5D1",
"$ 	c #65E97C",
"% 	c #B5F2BD",
"& 	c #F1FCF2",
"* 	c #2AE65A",
"= 	c #BCF3C3",
"- 	c #DBF8DE",
"; 	c #84EC93",
"> 	c #D0F6D5",
", 	c #C6F4CC",
"' 	c #5BE874",
") 	c #A1EFAB",
"! 	c #E7FAE9",
"~ 	c #D5F7D8",
"{ 	c #BFF3C5",
"] 	c #EFFCF0",
"^ 	c #C7F4CC",
"/ 	c #DFF9E2",
"( 	c #C5F4CA",
"_ 	c #96EEA2",
": 	c #64E97B",
"< 	c #59E873",
"[ 	c #E3F9E6",
"} 	c #54E870",
"| 	c #5FE978",
"1 	c #C3F4C9",
"2 	c #D8F7DB",
"3 	c #B2F1BA",
"4 	c #5CE876",
"5 	c #BCF3C2",
"6 	c #CFF6D3",
"7 	c #DDF8E0",
"8 	c #E3F9E5",
"9 	c #C8F5CD",
"0 	c #A2EFAC",
"a 	c #B5F2BC",
"b 	c #ACF0B4",
"c 	c #95EDA1",
"d 	c #87EC96",
"e 	c #A4EFAE",
"f 	c #8DED9A",
"g 	c #A5EFAF",
"h 	c #46E768",
"i 	c #44E766",
"j 	c #80EB90",
"k 	c #CFF6D4",
"l 	c #D8F7DC",
"m 	c #68E97E",
"n 	c #2EE65B",
"o 	c #57E872",
"p 	c #C9F5CE",
"q 	c #ECFBED",
"r 	c #C2F4C7",
"s 	c #EFFCF1",
"t 	c #86EC95",
"u 	c #37E660",
"v 	c #3FE764",
"w 	c #4EE76D",
"x 	c #8BEC99",
"y 	c #B1F1B9",
"z 	c #F7FDF8",
"A 	c #E6FAE8",
"B 	c #B0F1B9",
"C 	c #D6F7DA",
"D 	c #B9F2C0",
"E 	c #DEF8E1",
"F 	c #99EEA4",
"G 	c #73EA86",
"H 	c #76EA88",
"I 	c #9EEFA9",
"J 	c #AAF0B3",
"K 	c #52E86F",
"L 	c #D7F7DA",
"M 	c #75EA87",
"N 	c #BEF3C4",
"O 	c #CCF5D0",
"P 	c #3AE761",
"Q 	c #CBF5CF",
"R 	c #E2F9E5",
"S 	c #69E97F",
"T 	c #5EE877",
"U 	c #D6F7D9",
"V 	c #F2FCF3",
"W 	c #91ED9E",
"X 	c #FCFEFD",
"Y 	c #61E979",
"Z 	c #C0F3C6",
"` 	c #FAFEFB",
" .	c #6EEA83",
"..	c #56E871",
"+.	c #6DEA82",
"@.	c #83EB92",
"#.	c #A6F0B0",
"$.	c #6CE981",
"%.	c #3DE762",
"&.	c #B3F1BB",
"*.	c #90ED9D",
"=.	c #89EC97",
"-.	c #7CEB8D",
";.	c #ABF0B4",
">.	c #D7F7DB",
",.	c #BAF2C1",
"'.	c #CEF6D3",
").	c #B8F2BF",
"!.	c #72EA85",
"~.	c #81EB91",
"{.	c #F4FDF5",
"].	c #77EA89",
"^.	c #7AEB8C",
"/.	c #9CEEA7",
"(.	c #50E86E",
"_.	c #79EB8B",
":.	c #A7F0B0",
"<.	c #62E97A",
"[.	c #A6F0AF",
"}.	c #7FEB8F",
"|.	c #F3FDF4",
"1.	c #B7F2BE",
"2.	c #85EC94",
"3.	c #BDF3C4",
"4.	c #42E765",
"5.	c #8EED9C",
"6.	c #4CE76B",
"7.	c #AEF1B6",
"8.	c #A8F0B1",
"9.	c #94EDA0",
"0.	c #C1F3C7",
"a.	c #8FED9C",
"b.	c #DAF8DD",
"c.	c #C2F4C8",
"d.	c #F8FDF8",
"e.	c #98EEA4",
"f.	c #ADF1B5",
"g.	c #AEF1B7",
"h.	c #4AE76A",
"i.	c #92ED9F",
"j.	c #BEF3C5",
"k.	c #71EA84",
"l.	c #A0EFAB",
"m.	c #D9F8DC",
"n.	c #F8FEF9",
"                                                                                                                                                                                                        ",
"                                                                                                                                                                                                        ",
"                                                                                                                                                                                                        ",
"                                                                                                                                                                                                        ",
"                                                                                                                                                                                                        ",
"                                                                                                                                                                                                        ",
"                                                                                                                                                                                                        ",
"                                                        . + + @                                                                                                                                         ",
"                                                        # $ % @                                                                                                                                         ",
"                                                      & % * = @                                                                                                                                         ",
"                                                      - ; ; >                                                                                                                                           ",
"                                      + + +           , ' ) !                                                                                                                                           ",
"                                      + * ~ &         { ' ) ]                   & & &                                                                                                                   ",
"                                      + = ; ^ &       { ' ) ]               @ / ( _ +                                                                                                                   ",
"                                        ~ : ; ~       { ' ) ]               + ) < ; +                                                                                                                   ",
"                                        [ = * = +     { ' ) ]           @ + ^ } | = &                                                                                                                   ",
"                                          + 1 * ^ .   { ' ) ]         @ 2 3 4 5 6 [                                                                                                                     ",
"                                            7 % ' # + { ' ) ]     @ 8 9 0 * ^ .                                                                                                                         ",
"                                            @ + = * ^ a ' ) ]   & ~ b ' ' ^ +                                                         . + + @                                                           ",
"                                                ~ c d e } ) ] & ~ f ' g # .                                                           # $ % @                                                           ",
"                                                & + 1 h i j k 9 d d 9 8 @                                     @ + + .               @ % * % @                                                           ",
"                                                    l m n o c ' f ~ &                                         @ p $ # .             q ) ' r                                                             ",
"                                                    s t u v w b ~ &                                           @ 7 b 4 # &           / ; ; 6                                                             ",
"                                                    @ p x ' y 8 @                                               @ ~ d d ~ @         6 ; ; /                                                             ",
"                                                      z / / A                                                     & # ' b 7         r ' ) q                                                             ",
"                                                                                                                    . = * 1 &       % * B @                                                             ",
"                                                                                                                      p ; ; [     @ B * %                                                               ",
"                                                                                                                      [ f ; p &   q ) ' r           @ q q &                                             ",
"                                                                                                                      & > ; f -   C ; ; C       & - r g c +                                             ",
"      & + + &                                                                                                           q b ' r & r ' ) q   & ~ = ; ' ' c +                                             ",
"      [ c c [                                                                                                           @ ~ d d p y * D E 9 % ; * ; g r - &                                             ",
"      p ; ; [                                                                                                             & 9 ' F G H I g ' * ; = > q @                                                 ",
"    & = * = &                                                                                                               8 J h < o K ' ) = ~ &                                                       ",
"    L M M N                                                                                                                 @ O K * P c 9 8 @                                                           ",
"    Q < < Q                                                                                                                   R S * T U @                                                               ",
"+   Q M M Q                 @ @ @                                                                                             V W | _ &                                                     + + +       ",
"# . Q M M Q               & ~ b ^ +                                                                                           @ 7 O 8 X                                                     + * > q @   ",
"Y ~ Z < < Q           & - r d ' * +                                                                                             @ @ `                                                       + ^ ; % +   ",
"b ; e  .M 1       & ~ = ; ' d % # +                                                                                                                                                           + c ..= ~ ",
"( < +.@.' ,     + ^ ; * ; b ~ &                                                                                                                                                               & - 0 * #.",
"L H P $.K { & ~ = * ; = > q @                                                                                                                                                                     = ..K ",
"& = 4 %.h &.2 *.* = ~ &                                                                                                                                                                           [ 3 $ ",
"  q J u v =._ -.^ +                                                                                                                                                                                 [ O ",
"    C ;.K G w p &                                                                                                                                                                                   X @ ",
"      . >.,.'.7                                                                                                                                                                                         ",
"                                                                                                                                                                                                        ",
"                                                                                                                                                                                                        ",
"                                                                                                                                                                                                        ",
"                                                                                                                                                                                                        ",
"                                                                                                                                                                                                        ",
"                                                                                                                                                                                                        ",
"                                                                  & + + &                                                                                                                               ",
"                                                                  [ c c [                                                                                                                               ",
"                                                                  L ; ; L                                                                                                                               ",
"                                                  @ @ @           L ; ; L                                                                                                                               ",
"                                                  ~ b = [         L ; ; L                                                                                                                               ",
"                                                  ~ i o ).q       L ; ; L                                                                                                                               ",
"                                                  - ;.K !.~       L ; ; L                                                                                                                               ",
"                                                    [ = < = + @   L ; ; L                                                                                                                               ",
"                                                      . , 4 % q   L ; ; L                                                                                                                               ",
"                                                        - f f /   L ; ; L       . + + @                                                                                                                 ",
"                                                        & = ; = & L ; ; L     . # $ p @                                                                                                                 ",
"                                                          ~ S ~.> , ; ; L {.7 9 | % 7 @                                                                                                                 ",
"                                                          [ p -.].b ^.; 1 > /.4 # + @                                                                                                                   ",
"                                                            & 1 (.$ _.(._ j ..^ .                                                                                                                       ",
"                                                              8 :.} $ K <.Y r .                                                                                                                         ",
"                                                              ` - 6 [.$ }.p [                                                                                                                           ",
"                                                                    A - - |.                                                                                                                            ",
"                                                                                                                                                                                                        ",
"                                                                                                                                                                                                        ",
"                                                                                                                                                                                                        ",
"                                                                                                                                                                                                        ",
"                                                                                                                                          & + + &                     . + + @                           ",
"                                                                                                                                          q c c -                   [ % ' 1.@                           ",
"                                                                                                                                          / ) ' 6                 & p ' | p @                           ",
"                                                                                                                                          ! ; ; ,                 - 2.M ).[                             ",
"                                                                                                                                          q % Y 6 &             & r ' b q                               ",
"                                                                                                                                          @ + = d ^ &           [ d ; p @                               ",
"                                                                                                                                              ~ S ; ~ &       @ p ; d [                                 ",
"                                                                                                                                              [ p 2.f ~ &     q b ' r &                                 ",
"                                                                                                                                                & ~ f f ~ &   / ; ; 6       @ q q &                     ",
"                                                                                                                                                  & ~ ; f ~   L ; ; L q C 3.% ) c +                     ",
"                                                                                                                                                    & 1 * = . L ; ~.{ y  .K * ' c +                     ",
"                                                                                                                                                      7 3 ' p 1.H $.W K 4.5.% r - &                     ",
"                                                                                                                                                      @ 7 b < ^.v i 6./.3.C @                           ",
"                                                                                                                                                        @ ~ ^.6.n 4.7.8 @                               ",
"                  . + + @                             + + +                                                                                               & 8.P 4.9./                                   ",
"                  - $ % q       . + + @         @ 8 9 % * +                                                                                                 0.$ a.b.                                    ",
"                  - d ; > @   & # $ c.@     @ / ( 0 ' * ^ +                                                                                                 A E E d.                                    ",
"                  & r ' b q   - d ; > @   & ~ e.< K ) ^ +                                                                                                                                               ",
"                    C ; ; C   r ' ) q @ + ^ d K ' y 8 @                                                                                                                                                 ",
"                    q 0 K ;.[ % * B @ 7 % ' x 1.6 [                                                                                                                                                     ",
"                    @ p ' ' p f.* g.7 { * = - &                                                                                                                                                         ",
"                      [ 0 h.; i.* f.j.* = +                                                                                                                                                             ",
"                        6 ' (.' k.N l.l.~                                                                                                                                                               ",
"                        [ % h.m F m.. . |.                                                                                                                                                              ",
"                          . r | > n.                                                                                                                                                                    ",
"                            . . .                                                                                                                                                                       ",
"                                                                                                                                                                                                        ",
"                                                                                                                                                                                                        "};
