/* XPM */
static char * path1_xpm[] = {
"100 100 85 1",
" 	c #FFFFFF",
".	c #F6FDF4",
"+	c #CBF2C0",
"@	c #D6F5CF",
"#	c #A0EA89",
"$	c #A9EB94",
"%	c #DFF7DA",
"&	c #84E55B",
"*	c #C4F1B8",
"=	c #81E557",
"-	c #79E446",
";	c #E7F9E3",
">	c #BEEFB1",
",	c #87E661",
"'	c #A4EA8E",
")	c #82E558",
"!	c #BBEFAC",
"~	c #7EE552",
"{	c #98E87C",
"]	c #9EE986",
"^	c #8FE76E",
"/	c #89E665",
"(	c #8DE76C",
"_	c #7BE44A",
":	c #D2F4CA",
"<	c #ADEC9B",
"[	c #ECFAE9",
"}	c #FBFEFA",
"|	c #7EE550",
"1	c #B8EEA9",
"2	c #A5EB8F",
"3	c #EEFAEB",
"4	c #B0ED9F",
"5	c #88E663",
"6	c #A2EA8B",
"7	c #7DE44E",
"8	c #8CE76B",
"9	c #E5F8E1",
"0	c #C1F0B4",
"a	c #80E555",
"b	c #93E875",
"c	c #A3EA8C",
"d	c #D4F4CC",
"e	c #B0EC9E",
"f	c #C5F1B9",
"g	c #B3EDA2",
"h	c #B5EEA5",
"i	c #CBF2C1",
"j	c #BBEFAD",
"k	c #92E874",
"l	c #8AE667",
"m	c #ACEC99",
"n	c #7FE553",
"o	c #85E65E",
"p	c #7CE44C",
"q	c #84E55D",
"r	c #95E879",
"s	c #9BE981",
"t	c #91E772",
"u	c #7AE448",
"v	c #9EE985",
"w	c #D8F5D1",
"x	c #ABEC97",
"y	c #96E87A",
"z	c #D0F3C7",
"A	c #B9EEAA",
"B	c #90E770",
"C	c #F7FDF6",
"D	c #FEFFFE",
"E	c #83E55A",
"F	c #A9EB95",
"G	c #9FEA87",
"H	c #9DE984",
"I	c #C9F2BE",
"J	c #ACEC98",
"K	c #CDF3C4",
"L	c #CAF2BF",
"M	c #B1EDA0",
"N	c #95E878",
"O	c #C0F0B3",
"P	c #89E664",
"Q	c #ADEC9A",
"R	c #9AE97F",
"S	c #B6EEA7",
"T	c #AAEB96",
"                                                                                                    ",
"                                                                                                    ",
"                                                                                                    ",
"                                                                                                    ",
"                                                                                                    ",
"                                                                                                    ",
"                                                                                                    ",
"                                                                                                    ",
"                                                                                                    ",
"                                                                                                    ",
"                 ...         .++@                                                                   ",
"                 +#$+        %#&*                                                                   ",
"                 +=-$;       >,,>                                                                   ",
"                 @'),!      ;'~{%                                                                   ",
"                  ;]-^>.   ;!/(!.                                                                   ",
"                   !,_{+   :(,<;                              [;;}                                  ",
"                   ;$/|$;  <,,:                               1{23                                  ",
"                    .45/: ;]-];       ;!!+                    6789                                  ",
"                     :/,<.0aa6    ;*'{b,-+                    c|/d      ;;;                         ",
"                     ;e~{fg77g .%>'/~--,$+                    h,,i     +$b+                         ",
"                      @2-2{aaj@ek,~,^b]!;                     0,,0    @e-b+                         ",
"                       f{~l|/m'n~,{h%.                        0,,0  ;!]~]!;                         ",
"                       .hop_aq|k'>%.                          0,,0 ;$,-#+                           ",
"                        %,--_7rf.                             i,,h !,7sf.                           ",
"                        .t--uvi.                              w^~x!y-]:                             ",
"                         $7ulz                                9^~6$-b+                              ",
"     ;++;                ;e6A.                                9^~Bb/$                               ",
"    ;!b];                 C..D                                9^7E=h;                               ",
"    h&aF;                                                     9^pp,>                                ",
"   ;s_)i                                                      35uu^%                                ",
"  .!o)]%                                                      .b-uG.                                ",
"  3{~H;                                                        $aaj                                 ",
"  I^~g                                                         ;++;                                 ",
"  J~^z                                                                                      D..C    ",
"K {-b.                                                                                      .LM*;   ",
"N*b-b                                                                                       .O8t!;  ",
"u],-b                                                                                       C@e,,$; ",
"q-a-b                                                                                         ;<&,!+",
"J~p-b                                                                                          :!B-b",
"@$--,                                                                                            <~p",
" f7-)                                                                                            :]a",
" .~-)                                                                                             ;$",
" .b-{                                                                                              ;",
"  +++                                                                                               ",
"                                                                                                    ",
"                                                                                                    ",
"                                                                                                    ",
"                                                                                                    ",
"                                                                                                    ",
"                                      ;;;                                                           ",
"                            +!!;      +$+                                                           ",
"                            +-,$.    +$b+                                                           ",
"                            +N_^z   @$-h;                                                           ",
"                             >/|J   e~^f                                                            ",
"                             .$-{+ +{-$.                                                            ",
"                              +{-$%$-]+                                                             ",
"                               '~^F,,!                                                              ",
"                               *&na-{; :0g0:;                                                       ",
"                               ;y-u_s +b7a,b+                                                       ",
"                                6_-_4+$-7a,b+                                                       ",
"                                ip-72$-y6g0:;                                                       ",
"                                %|-p{ne+                                                            ",
"                                .n-u|'@                                                             ",
"                                 E-u^*                                                              ",
"                                 {-,f;                                                              ",
"                                 +++                                                                ",
"                                                                                                    ",
"                                                                                                    ",
"                                                                                                    ",
"                                                                                                    ",
"                                                                                 ...                ",
"                                                                                ;$#!                ",
"                                                                       [;;}     :,p<                ",
"                                                                      ;e{h.    .<)Eh                ",
"                                                                      ;t)s%    z{~J;                ",
"                                                                      ;eoP1.   g~^I                 ",
"                                                                       ;J~{z  ;H~{3                 ",
"                                                                        zk~J. :/,<.                 ",
"                                                                        .J~kz h,,i    .%i0:;        ",
"                                                                         z^~J;'~{%  .%h{,,b+        ",
"                                                                         .]-{0/,<. @ek,~,,b+        ",
"         ...      ;++;                                                    h,,],,0 +$~~/'h0:;        ",
"       .+$cf.    @!b2;                                                    %^~(,,0+$-k'*;            ",
"       .>&n#+    e=^f;                                                    .]-E&5Q$-2f.              ",
"       .+eHn$+  @{-2.                                                      hE_pkHne+                ",
"          @'-$; e~^f                                                       %l-_o~2@                 ",
"           !(,!:{-].                                                       .67p|Rf                  ",
"           ;6~=y,,h                                                         :${Ff3                  ",
"            07_o~^w                                                                                 ",
"            :taa7^9                                                                                 ",
"             %Hp_8w                                                                                 ",
"             .'__Ei                                                                                 ",
"              *au|j                                                                                 ",
"              ;/-_S                                                                                 ",
"               t-_T                                                                                 ",
"               $77j                                                                                 ",
"               :$$:                                                                                 ",
"                                                                                                    ",
"                                                                                                    ",
"                                                                                                    "};
