/* XPM */
static char * wall1_xpm[] = {
"100 100 153 2",
"  	c #4B3F44",
". 	c #45383D",
"+ 	c #44373C",
"@ 	c #43363B",
"# 	c #43353A",
"$ 	c #45363C",
"% 	c #4A3A41",
"& 	c #544149",
"* 	c #503E46",
"= 	c #48383E",
"- 	c #45373C",
"; 	c #46393E",
"> 	c #43353B",
", 	c #44363B",
"' 	c #473A3F",
") 	c #4A3D42",
"! 	c #483B40",
"~ 	c #4A3E43",
"{ 	c #493D42",
"] 	c #4D3C43",
"^ 	c #5A5054",
"/ 	c #5E5458",
"( 	c #6E6469",
"_ 	c #71686C",
": 	c #756C70",
"< 	c #6B6266",
"[ 	c #4D4145",
"} 	c #493D41",
"| 	c #493940",
"1 	c #4B3B41",
"2 	c #46383D",
"3 	c #483B3F",
"4 	c #44373B",
"5 	c #46393D",
"6 	c #44353B",
"7 	c #52474B",
"8 	c #5C5256",
"9 	c #60565A",
"0 	c #554A4E",
"a 	c #4F4448",
"b 	c #4D4146",
"c 	c #4C4045",
"d 	c #51454A",
"e 	c #62585C",
"f 	c #52464B",
"g 	c #493C41",
"h 	c #46373C",
"i 	c #47383E",
"j 	c #4B3A41",
"k 	c #4E3C43",
"l 	c #4B3F43",
"m 	c #5E5357",
"n 	c #63595D",
"o 	c #47373D",
"p 	c #48393F",
"q 	c #6A6165",
"r 	c #4B3E43",
"s 	c #46373D",
"t 	c #53484C",
"u 	c #574C50",
"v 	c #483C41",
"w 	c #5A4F53",
"x 	c #4A3D41",
"y 	c #49393F",
"z 	c #4C3F44",
"A 	c #504549",
"B 	c #5B5155",
"C 	c #4B4044",
"D 	c #4F4348",
"E 	c #5A4F54",
"F 	c #655B5F",
"G 	c #6E6569",
"H 	c #595053",
"I 	c #51464B",
"J 	c #62585D",
"K 	c #685F63",
"L 	c #44373D",
"M 	c #4E4247",
"N 	c #4E4246",
"O 	c #504449",
"P 	c #584D51",
"Q 	c #52464A",
"R 	c #54494D",
"S 	c #645B5F",
"T 	c #564B4F",
"U 	c #685E63",
"V 	c #473B3F",
"W 	c #4D4246",
"X 	c #4A3A40",
"Y 	c #4C3B42",
"Z 	c #534048",
"` 	c #513F47",
" .	c #503E45",
"..	c #4F3D45",
"+.	c #4E3D44",
"@.	c #564C50",
"#.	c #44353A",
"$.	c #473A3E",
"%.	c #45373D",
"&.	c #52474C",
"*.	c #53494C",
"=.	c #44363C",
"-.	c #5D5357",
";.	c #47383D",
">.	c #50454A",
",.	c #463A3F",
"'.	c #5B5154",
").	c #605659",
"!.	c #574D51",
"~.	c #4F3D44",
"{.	c #4D4045",
"].	c #45363B",
"^.	c #70676B",
"/.	c #675E62",
"(.	c #594E52",
"_.	c #4C4044",
":.	c #53474C",
"<.	c #5F5559",
"[.	c #48393E",
"}.	c #564B4E",
"|.	c #483C40",
"1.	c #6A6064",
"2.	c #51464A",
"3.	c #736A6E",
"4.	c #544B4E",
"5.	c #645C5F",
"6.	c #45383E",
"7.	c #72696D",
"8.	c #473B40",
"9.	c #584D52",
"0.	c #594F53",
"a.	c #4F4347",
"b.	c #5F575A",
"c.	c #43363C",
"d.	c #54484D",
"e.	c #524047",
"f.	c #4E3D43",
"g.	c #696064",
"h.	c #6B6166",
"i.	c #53484D",
"j.	c #54494E",
"k.	c #695F63",
"l.	c #4C4145",
"m.	c #47393E",
"n.	c #625B5D",
"o.	c #655B60",
"p.	c #675D61",
"q.	c #6D6467",
"r.	c #756C6F",
"s.	c #6E6468",
"t.	c #4E4348",
"u.	c #4E3C44",
"v.	c #493B40",
"  . + @ + # # # # # $ % & & & & & & & & & & & & & & & & & & * = - ; . @ @ @ @ @ @ @ @ @ > > # # # # # # # # # # # # # # # # # # # # - - - , @ , - - ; + + . ' ' ' + ' ' ' ' ' ' '             ) ! @ @ ~ ",
"' + + ; )     { ' # # $ ] & & & & & & & & & & & & & & & & & * , # # # > > > > > > > > > > # # , # , , , , , , , , , , , , , , , , , , @ # , # # # # # # @ - ' ' ' ) ' ' ' ' ' ' ' # # # # # # + # > # > ",
". ~ ^ / ( _ : : < [ } # | * & & & & & & & & & & & & & & & & 1 - # 2 ' ; } } } } } } } 3 + , 4 5 # # # , , , , , , , , , , , , , , , , 6 # # # # # # # # , 2 7 8 9 9 9 8 8 8 8 8 0 a         b b c @ # # ",
"+ d : : : : : : : e f g , h i j * & & & & & & & & & & & & k i # l m : : : : : : : : : n ' . # 6 , - o p j j j j j j j j j j j j j j j j j j j j j j j - # , 8 : : : : : : : : : : : : : : : : : q ; # # ",
"+ d : : : : : : : : _ m r # # , s s o p j j j j = = = | = $ # # t _ : : : : : : : : : u - # h j ] * & & & & & & & & & & & & & & & & & & & & & & & & & = # - u : : : : : : : : : : : : : : : : : ( v > # ",
"+ d : : : : : : : : : < w x , 6 # # # , , , , , 6 # 6 , # } # ) 9 : : : : : : : : : : d } # y & & & & & & & & & & & & & & & & & & & & & & & & & * ] j s 6 ; 8 : : : : : : : : : : : : : : : : : _ b # ! ",
"+ d : : : : : : : : : : : n 8 d [ z z ' ' ' ' ' . - . ' ) g A B _ : : : : : : : : : : 0 C # s j j j j j j j j j j j j j j j j j j j j ] ] ] | i s , , 6 C ' n : : : : : : : : : : : : : : : : : : D + ) ",
"+ D _ : : : : : : : : : : : : _ _ _ < n 8 8 8 8 E E E 9 F G _ : : : : : : : : : : : : n a ; , , , , , , , , , , , , , , , , , , , , , , - , , # # , ' H ' t < : : : : : : : : : : : : : : : : : : D + ) ",
"+   ( : : : : : : : : : : : : : : : : : : : : : : : : : : : : : : : : : : : : : : : : : < w x ' ' ' ' ' ' ' ' ' ' ' ' ' ' ' ' ' ' ' ' , # , ' ) a 0 8 8 n < : : : : : : : : : : : : : : : : : : : I #   ",
"@ ; J : : : : : : : : : : : : : : : : : : : : : : : : : : : : : : : : : : : : : : : : : : < n 8 8 8 8 8 8 8 8 8 8 8 8 8 8 8 8 8 8 8 8 0 0 0 9 K _ : : : : : : : : : : : : : : : : : : : : : : : : 0 ' ' ",
"@ L / : : : : : : : : : : < K F q q q q q q q q q q q q G _ : : : : : : : : : : : : : : : : : : : : : : : : _ G q q q q G _ : : : : : : : : : : : : : : : : : _ G F 9 8 8 n < : : : : : : : : : : 9 ' ' ",
". . ^ : : : : < n u t M [ z ' ) ) ) ) ) ) ) ) ) ) ) ) ) l D d d d d d d d N O P < : : : : : : : : : < n P Q [ ) ) ) ) ) l D R P 8 8 8 u u 8 < : : : : : : : S T l ) ' ' ' x 0 n < : : : : : : : : U ) + ",
"' ' 8 : : : < t ' - C # # # , # # # # # # # # # # # # # # # # a a a a a a } V ' 9 : : : : : : : : : 9 z ' # # # # # # # # # # ' ' ' ' . , ; w < : : : : : 9 t # # # , , , , , ! z t m : : : : : : _ b # ",
"' ' 8 : : _ w ' W # # , - o i = i i i i i i i i i i i i s - $ $ $ $ $ $ $ , # , t 9 < : : : : : : 9 t , , $ s s i i i i s - $ , , , , 6 # # ' t < : : : n z # , s = | j j p $ , # # f 9 : : : : : : D + ",
"' ' 8 : : G [ # $ = X Y Z & & & & & & & & & & & & & & & Z `  . . . . . . .] 1 X $ z w : : : : : S t # = Y ..Z & & & & & Z ` +.Y j j j y y - # 2 P : : : P , # i Z & & & & * ] | o $ # t < : : : : : d + ",
". . @.: _ B ) #.X & & & & & & & & & & & & & & & & & & & & & & & & & & & & & & ..- # Q : : : : : T # $ 1 & & & & & & & & & & & & & & & & & y # . d : : : M # , Y & & & & & & & & & X , ' w : : : : : D + ",
"+ + @.: K D # i k & & & & & & & & & & & & & & & & & & & & & & & & & & & & & & ` $ # D : : : : : [ # - Z & & & & & & & & & & & & & & & & & j 6 a d : : < [ # o Z & & & & & & & & & ..- # Q : : : : < b # ",
"+ + @.: 9 ' , | & & & & & & & & & & & & & & & & & & & & & & & & & & & & & & &  .$ a d : : : : _ z # s & & & & & & & & & & & & & & & & & & j , $.E : : n ' , p & & & & & & & & & & Z $ # [ : : : : 9 . . ",
"@ %.9 : 8 ' , j & & & & & & & & & & & & & & & & & & & & & & & & & & & & & & & ` $ # D : : : : G ) # s & & & & & & & & & & & & & & & & & & j , ' 8 : : u . 6 y & & & & & & & & & & Z s # [ _ : : : T L @ ",
"# %.U : 0 , , ] & & & & & & & & & & & & & & & & & & & & & & & & & & & & & & & Z - # [ : : : : q ) # i & & & & & & & & & & & & & & & & & Z p , ! n : : u , # y & & & & & & & & & & & s # ) G : : : &.@ ; ",
"# L _ : a # - * & & & & & & & & & & & & & & & & & & & & & & & & & & & & & & & * - # a : : : : q ) # i & & & & & & & & & & & & & & & & & Y - # Q < : : t *.6 X & & & & & & & & & & & i # ) q : : : D =.; ",
"# . : : [ # s & Z `  . . .` ` Z Z & & & & & & & & & & & & & & & & & & & & & & 1 , ' P : : : : G ) # s & & & & & & & & & & & & & & & & ..- # 2 -.: : : R a $ +.& & & & & & & & & & & i # ) q : : : M # > ",
"# ; : : t , = Y = $ $ $ $ $ - $ o X * & & & & & & & & & & & & & & & & & & & Z i # l K : : : : _ a # s * & & & & & & & & & & & & Z ..% ;.# # [ < : : : d a $  .& & & & & & & & & & & i # ) q : : : >.> # ",
"> ,.: : 9 '.).).# # a a a # # # # , y k & & & & & & & & & & & & & & & & & & Y , # M _ : : : : : !.x $ ~.& & & & & & & & Z ..Y p o $ , # ; a -.: : : : R a $ +.& & & & & & & & & & & i # ) q : : : @.@ # ",
"# ' : : _ _ _ 9 T D d d d D D [ [ $.# = k & & & & & & & & & & & & & & & & & X # C t : : : : : : n {.].s s s - - - - - - - $ , , # # ' [ w < : : : : : Q , , ..& & & & & & & & & & & i # ) q : : : 8 + # ",
"# ; : : : : : : : : : : : : : : < P g # y * & & & & & & & & & & & & & & & & i 6 . 8 : : : : : : < a , # # # # # # # # # # # ' ' [ Q B K _ : : : : : : a # - * & & & & & & & & & & Z s # l G : : : 9 + # ",
"> ! _ : : : : : : : : : : : : : : G P g , X * & & & & & & & & & & & & & & Y o # t < : : : : : : ^.w x g ) z z z z z z z [ Q P n < : : : : : : : : : : r # - & & & & & & & & & & & ..- # Q _ : : : F . # ",
"@ ! _ : : : : : : : : : : : : : : : < w ' $ X & & & & & & & & & & & & & k y # t 9 : : : : : : : : < K F G _ : : : : : : : : : : : : : : : : : : : : : x # , * & & & & & & & & & & | , ' -.: : : : q + # ",
"# t _ : : : : : : : : : : : : : : : : < a # o * & & & & & & & & & & & Y = # t 9 : : : : : : : : : : : : : : : : : : : : : : : : : : : : : : : : : : : a V , ] & & & & & & & & & & i # z K : : : : q @ # ",
"z x z z z z z z z z [ M P n : : : : : : w z , 1 k & & & & & & & Z ..| o # O 9 : : : : : : : : : : : : : : : : : : : : : : : : : : : : : : : : : : : : -.r #.$ X * & & & & & & & Z s # l _ : : : : q @ # ",
"- # # # # # # # # # # # , z S : : : : : < 9 t , s i i i i i i s s $ , # f m _ : : : : : : : : : : : : : : : : : : : : : : : : : : : : : : : : : : : : : w - C $ * & & & & & & & Y $ # Q _ : : : : /.@ # ",
"= o - - - - - - - - - , V , (.: : : : : : : 9 O # # # # # # # # # # ' t 9 : : : : : : : : : : : : : : : : : : _ G F 9 8 8 8 8 8 8 8 8 9 K _ : : : : : : n ' # , ..& & & & & & & = # . P : : : : : /.@ # ",
"& & & & & & & & & & Z X , C d : : : : : : : _ m D ) ) ) ) ) ) ) [ Q -.< : : : : : : : : : : : : : : < n u t M [ ) ) ' ' ' ' ' ' ' ' ' ' [ a a _.:.<._ : : r V , ..& & & & & & Z h # 2 n : : : : _ 9 . # ",
"& & & & & & & & & & &  .$ a d : : : : : : : : _ G q q q q q q G _ : : : : : : : : : : : : : : : < w a ' . C # # # # , , , , , , , , , , # , # # } ) 9 : : Q } # = & & & & & & ] - # A < : : : < w _.+ + ",
"& & & & & & & & & & &  .$ a d : : : : : : : : : : : : : : : : : : : : : : : : : : : : : : : : < t ' # , 6 # , s s = | j j j j j j j j | i , - , # # t _ : n x # h * & & & Z Y p #.O e : : S T [ ' # , , ",
"& & & & & & & & & & &  .$ a d : : : : : : : : : : : : : : : : : : : : : : : : : : : : : : : : 8 . V ].p y X Y Z & & & & & & & & & & & & * * * ] h # l K : : t ' , s i i s s , # z 9 _ : < t # # , i p j ",
"& & & & & & & & & & &  .$ a d : : : : : : : < w Q D d d d d d d d d (.S _ _ _ : : : : : : : : u , # = & & & & & & & & & & & & & & & & & & & & & | , ' 9 : : < w x # # # # # # . t : : _ w ' 6 h X * & & ",
"& & & & & & & & & & & Y $ - u : : : : : : S t ' # # a a a a a a a # - z z 3 {.0 < : : : : : : u . 6 y & & & & & & & & & & & & & & & & & & & & & j , ' 8 : : : < w [ ) ) ) [ M P n : : _ D # h +.& & & & ",
"& & & & & & & & & & & [.# ) e : : : : : S T # , - $ $ $ $ $ $ $ $ $ - # # } # ' 9 : : : : : : 8 ' , j & & & & & & & & & & & & & & & & & & & & & j , ' 8 : : : : _ G q q G _ : : : : : _ D # - ` & & & & ",
"& & & & & & & & & & & s # z G : : : : < T #.- | +.`  . . . . . . . .Y i s , #.# [ -.: : : : : 8 ' , j & & & & & & & & & & & & & & & & & & & & * j $ z n : : : : : : : : : : : : : : : : d # $  .& & & & ",
"& & & & & & & & & * 1 h #.O _ : : : : n ! , p Z & & & & & & & & & & & & & * X 6 V Q : : : : : 8 ' , j & & & & & & & & & & & & & & & & & & * X $ , [ 9 < : : : : : : : : : : : : : : : : d a $  .& & & & ",
"j j j j j j j y y ;., # [ 9 _ : : : : 8 ' , j & & & & & & & & & & & & & & & +., } _.: : : : : n g , y  .`  . . . . . . . . . .1 X = i s - - #.# # T : : : : : : : : : : : : : : : : : : (.- $ % & & & & ",
", , , , , , , 6 # #.# + T : : : : : : 8 ' , j & & & & & & & & & & & & & & Z % $ - u : : : : : < f , - y ;.$ $ $ $ $ $ $ $ $ $ , # 6 # # # # #., x -.: : : : : : : : : : : : : : : : : : -.z # | & & & & ",
"; ; ' ' ' ' ' . , ; M P e : : : : : : 8 ' , j & & & & & & & & & & & & & & 1 s # T S : : : : : : m r [ }.; # a a a a a a a a a } C . ) z z a d 8 n : : : : : : : n 8 u 8 8 n < : : : : : < ' , o & & & & ",
"- |.8 8 8 8 8 u u 8 < : : : : : : : : 8 ' , j & & & & & & & & & & Z Z ..X s # t S : : : : : : : 1.n n <.(.d d d d d d d d d d O t E K _ : : : : : : : : : : : < a - . ' 2 ; a K : : : : < z # $ Y +.` Z ",
"# L n : : : : : : : : : : : : : : : : 8 ' , j & & & & & & & & Z +.y - , 6 # t 9 : : : : : : : : : : : : : : : : : : : : : : : : : : : : : : : : : : : : : K m f , # 6 , #.. - P : : : : : t # # 6 , $ - ",
"# > 8 : : : : : : : : : : : : : : : : 8 ' , j & & & & & & & * X , # # # V [ 9 : : : : : : : : : : : : : : : : : : : : : : : : : : : : : : : : : : : : : : w ) , $ i y j o # # M _ : : : : 9 a C C W # # ",
"> @ t : : : : : : : : : : : : : : : : m ! , 1 & & & Z Z 1 i , 6 V V 3 r a -.: : : : : : : : : : : : : : : : : : : : : : : : : : : : : : : : : : : : : : 9 a # o ] * & & * h # r G : : : : : n 0 z g g ) ",
"@ @ P : : : : : : : : : : : : : : : : n r ].= y i h - $ - # V C g R -.: : : : : : : : _ K 9 8 8 8 8 8 8 8 8 8 8 8 u u E F G _ : : : : : : : : : : : : B r # ;.k & & & & & = # ) F : : : : : : : n . L c ",
"> + P : : : : : : : : : : : : : : : : < f , , 6 # # # # # r x a 9 : : : : : : : : : S T l ' ' ' ' ' ' ' ' ' ' ' ' . , . ) ) [ M P n : : : : : : : : _ 2.. 6 | & & & & & & | , ' 9 : : : : : : : 8 @ # ,.",
"> =.8 : : : : : : : : : : : : : : : : 3.m r ' . , ' [ [ T 9 : : : : : : : : : : : K f # # , , , , , , , , , , , , 6 # 6 # # # # - z 9 < : : : : : : _ D 4.].p j j j j p s , *.5.n : : : : : : : P @ # 6.",
"# @ ^ : : : : : : : : : : : : : : : : : < n 8 u 8 n : : : : : : : : : : : : : : : w , 6 s | j j j j j j j j j j j y y = = s s , # 6 z n : : : : : : 7.S T ]., , , , , , # # a T < : : : : : : : I @ > 8.",
"# > W : : : : : : : : : : : : : : : : : : : : : : : : : : : : : : : : : : : : : : a # - ..& & & & & & & & & & & & & & & & & Z Y s # *.u : : : : : : : : 9 z ' ' ' ' ' ' r z t S : : : : : : : : I # @ ; ",
"# # v _ : : : : : : : _ K 9 8 8 8 8 8 9 K _ : : : : : : : : : : : : : : : : : : : [ # s & & & & & & & & & & & & & & & & & & & & y # , u : : : : : : : : < n 8 8 8 8 8 n < : : : : : : : : : : : 0 L > . ",
"> # - 9.u u 8 8 8 0.8 0 a.b.b.b.b.' ' ' ) a w < : : : : : : : : : : : : : : : : : z # - & & & & & & & & & & & & & & & & & & & & y 6 . u : : : : : : : : : : : : : : : : : : : : : : : : : : : : 8 L > L ",
"+ > - 2 C *.b.' ' ; ; $ 6 , , , , , , , # # ! t 9 _ : : : : : : : : : : : : : : : z # - & & & & & & & & & & & & & & & & & & & & j , ' 8 : : : : : : : < -.R d d d d d d d d d d d d d R t 8 n : @.c.> + ",
"+ > @ # # 6 , , , , , - | | j j j j j | i s , # O e : : : : : : : : : : : : : : : z # - & & & & & & & & & & & & & & & & & & & & j , ' 8 : : : : ^.< -.d.! a a a a a a a a a a a a a a a *.- {.n 7 @ > + ",
"L > # # s y j j j X j ] e.& & & & & & & & * % , # R : : : : : : : : : : : : : : : r # $ Z & & & & & & & & & & & & & & & & & & & | , ' 9 : : : : < w a 6 , $ $ $ $ $ $ $ $ $ $ $ $ $ $ $ 6 # # ' |.+ > @ ",
"L # # # Y & & & & & & & & & & & & & & & & & Z o # [ < : : : : : : : : : : : : : : z # , Y & & & & & & & & & & & & & & & & & & & = # ) F : : : : n a $ s | +. . . . . . . . . . . . . .+.X i 6 # $.- @ @ ",
"L # # , +.& & & & & & & & & & & & & & & & & & X , ' w : : : : : : : : : : : : : : t } # = & & & & & & & & & & & & & & & Z Z ` ` - # ! q : : : : 9 x ].1 Z & & & & & & & & & & & & & & & & * p - # , @ @ ",
"L # # ,  .& & & & & & & & & & & & & & & & & & * - # a : : : : : : : : : : : : : : S D # - p j j j j j j j j j j j j | = s - - $ 6 V ) G : : : : P ' , Y & & & & & & & & & & & & & & & & & & & ;.# # # @ ",
"L # # , +.& & & & & & & & & & & & & & & & & & & - # z : : : < -.t R -.F < < : : : : 9 t # , , , , , , , , , , , , , , # # # # # C ' t _ : : : _ Q # - ..& & & & & & & & & & & & & & & & & & & = # # # # ",
"L # # # y & & & & & & & & & & & & & & & & & & & - # z : : S t ' W a [ T a P K _ : : : 9 t ' ' ' ' ' ' ' ' ' ' ' ' ' ' ) l [ D D R -.< : : : : K l # i Z & & & & & & & & & & & & & & & & & & & = #.# # # ",
"+ > # # h * & & & & & & & & & & & & & & & & & & - # z : : (.- V , $ s y - ' ) a Q -.S : < n 8 8 8 8 8 8 8 8 8 8 8 8 9 F G _ : : : : : : : : : 9 ' , | & & & & & & & & & & & & & & & & & & & & j , , # # ",
"+ > # # , ] & & & & & & & & & & & & & & & & & Y , # {.: : D } # j +...f.X $ C # ' 2 t 9 < : : : : : : : : : : : : : : : : : : : : : : : : : : 9 ' , | & & & & & & & & & & & & & & & & & & & & j , , # # ",
"L > @ - , p & & & & & & & & & & & & & Z Y X = - # C 0 : : [ # - Z & & & * 1 ;.h , g *.' 8 : : : : : : : : : : : : : : : : : : : : : : : : : : K O # i Y & & & & & & & & & & & & & & & & & & & p #.# # > ",
"+ > + c # - = | Y +. . . . .+.y i s = s , # 6 # # z n : g.{ # h & & & & & & & * ..i C , u : : : : : : : : : : : : : : : : : : : : : : : : : : _ 9 t # s i % +. .` Z & & & & & & & & & & * j y $ V # # > ",
"+ # L !.O # #., , $ $ $ $ $ $ , # # # # # C . l T S : : 9 - + s & & & & & & & & & y 6 . u : : : : : : : : : : : : : : : : : : : : : : : : : : : : 9 t # # , $ $ $ - - - - - - - - - - - - 6 # C } + > > ",
"+ # L h.9 t l ' ' a a a a a a 2 . . g l M t E K _ : : : E - # = & & & & & & & & & j , ' 8 : : : : < w 0 u 8 8 8 8 8 8 8 8 8 8 8 9 F G _ : : : : : : 9 t ) ' a a a # # # # # # # # # # # # 6 , 2 T ~ > > ",
"@ # 6._ : _ K 9 P R d d d d R P 8 9 F G _ : : : : : : : T - # [.& & & & & & & & & j , ' 8 : : : < w ' a ; ' ' ' ' ' ' ' 2 . . $.' ) r d E F q G _ : : _ K B R d D [ z z z z z z z z z z a d u 8 < d > > ",
"@ # ; : : : : : : : : : : : : : : : : : : : : : : : : : 8 + V $ 1 Z & & & & & & & j , ' 8 : : : n x W 6 , , , , , , , , , # # , , # # C . ) ) ) {.d 8 < : : : : : : : : : : : : : : : : : : : : : i.@ > ",
"@ # ; : : : : : : : : : : : : : : : : : : : : : : : : : n [ ' ' =.p | j j j | = i $ a 2 8 : : : 8 ' 6 i j j j j j j j j = i i X | = $ # 6 # # # # } . t < : : : : : : : : : : : : : : : : : : : : j.@ > ",
"@ # ' : : : : : : : : : : : : : : : : : : : : : : : : : : S b - 2.# , , , , , a a C V ' n : : : 8 ' , j & & & & & & & & & & & & & & ] j = = i s , # V ' n : : : : : : : : : : : : : : : : : : : : i.@ > ",
"# # ! u u 8 < : : : : : : : : : : : : : : : : : : : : : : : k.P g ) ' ' ' ' ' ) ) ! ) t < : : : 8 ' , j & & & & & & & & & & & & & & & & & & & & ] s #.; 8 : : : : : : : : : : : _ G q q q q q q q R , + ",
"@ , 2 . , ' 9 : : : : : : : : : : : : : : : : : : : : : : : : < K 9 9 8 8 8 9 F q q G _ : : : : 8 ; , j & & & & & & & & & & & & & & & & & & & & & j , ' 8 : : : : : : : < n 8 P Q l ) ) ) ) ) ) ) ; . g ",
", , , 6 # 6 t 9 : : : : : : : < -.Q [ z r 5 l.; z z f m _ : : : : : : : : : : : : : : : : : : : 8 } , j & & & & & & & & & & & & & & & & & & & & & | , ' 9 : : : : < -.Q [ ' ' ' # # # # # # # # # # # s ",
"1 j j y = $ # w : : : : : _ m f 3 # # # # # # # # # # r d 8 < : : : : : : : : : : : : : : : : : 8 ' , j & & & & & & & & & & & & & & & & & & & & Z i # l K : : : n a ; # # , , , - s i i i i i i i s i X ",
"& & & & ] , , 0 : : : : : K ) # #.$ - - - 6 # , - - - # # ; w < : : : : : : : : : : : : : : : : 8 ' , j & & & & & & & & & & & & & & & & & & & & Y , # M _ : : : Q C V , o p j Y ..Z & & & & & & & & & & ",
"& & & & j , ' 8 : : : : : B . # h ..Z & & * * * & & k s # 6 z w n 8 8 8 8 8 8 n < : : : : : : : 9 ' , | & & & & & & & & & & & & & & & & & & Z ..i # - P : : : < r # , 1 Z & & & & & & & & & & & & & & & ",
"& & & & j , ' 8 : : : : : R C , X & & & & & & & & & & ] j i $ z ' ' ' ' ' ' m.r 9 : : : : : : : K l # i Z & & Z ..Y j j j j j j j j y y y j = - 6 , a n : : : 8 - # s Z & & & & & & & & & & & & & & & & ",
"& & & & y , ; 8 : : : : : d a $  .& & & & & & & & & & & & * X # , , , , , , } a T : : : : : : : _ T #.h % | s - $ , , , , , , , , , 6 # 6 , , # # T < : : : : u , # y & & & & & & & & & & & & & & & & & ",
"& & & & i # . 8 : : : : : d a $  .& & & & & & & & & & & & & Y X p j j j j | ].2.R : : : : : : : : S t ; i , # # # ' ' ' ' ' ' ' ' ' . , . ' 3 [ T S : : : : : 8 . 6 i & & & & & & & & & & & & & & & & & ",
"& & & & s # . 9 : : : : : d a $  .& & & & & & & & & & & & & & & & & & & &  .$ a d : : : : : : : : : 9 B t ' - ! Q P 8 8 8 8 8 8 8 8 u u u 8 n < : : : : : : : < z # o & & & & & & & & & & & & & & & & & ",
"& & & & ;.# ! F : : : : : D # $ ` & & & & & & & & & & & & & & & & & & & &  .$ a d : : : : : : : : : _ _ K 9 9 K : : : : : : : : : : : : : : : : : : : : : : : : [ # , ] & & & & & & & & & & & & & & & & ",
"& & & ] $ # r G : : : : : Q # - ..& & & & & & & & & & & & & & & & & & & &  .$ a d : : : : : : : : : : : : : : : : : : : : : : : : : : : : : : : : : : : : : : : T W # i * Z Z Z & & & & & & & Z `  .` Z ",
"= - - ].} a 0 _ : : : : : 0 , 6 y e.& & & & & & & & & & & & & & & & & & &  .$ a d : : : : : : : : : : : : : : : : : : : : : : : : : : : : : : : : : : : : : : : S a m., o - $ - - - - - - - - - $ $ ;.Y ",
"# # # V *.a n : : : : : : n ; } $ Y Y j j j j j Y +. . . .+.X y y j | = s - , - (.: : : : : : : _ K 9 8 8 8 9 K _ : : : : : : : : : : : : : : : : : : : : : : : : K m Q # # # # # # # # # # # # # # ; [ ",
"' - n.) t < : : : : : : : < a ; , s , , , , , , , $ $ $ $ $ 6 # 6 , , # # # # T S : : : : < w a z ) ' ' ' ' ' [ 0 9 F q q q q G _ : : : : : : : : : : : : : : : : : : 9 t [ [ [ z z z z z z z [ D d a.N ",
"+ { o._ _ : : : : : : : : : p.n 0 5 ' ' ' ' ' ' ' a a a a a *., . ' ' ) g z t S : : : : < t ' # # # , , , , , # , ' ) ) ) ) ) O 9 : : : : : : : : : : : : : : : : : : : : : : : : : : : : : : : : <   # ",
"=.! g.: : : : : : : : : : : : : S -.P 8 8 8 8 8 P R d d d R t u u 8 9 F G _ : : : : : < w ' # $ s i | j j j | i , , # # # # # # t 9 : : : : : : : < n 8 8 8 8 8 8 8 8 8 8 8 8 8 n < : : : : : : : n + # ",
"+ { q : : : : : : : : : : : : : : : : : : : : : : : : : : : : : : : : : : : : : : : < w x , p ] & & & & & & & * ] | = i i i i $ # t : : : : : n t z ! ' ' ' ' ' W ' ' ' ' ' ' ' ' [ Q -.< : : : : ^ @ > ",
"+ ) q : : : : : : : : : : : : : : : : : : : : : : : : : : : : : : : : : : : : : : : K x , i * & & & & & & & & & & & & & & & & = # z 9 : : : : 8 . # , , , , , , # , , , , , , , , # # ' t < : : : I @ > ",
"@ g ( : : : : : : : : : : : : : : : : : : : : : : : : : : : : : : : : : : : : : : : 9 ) # | & & & & & & & & & & & & & & & * % - , # 9 : : : : u . # s j j j j j j j j j j j j j p o , C b.n : : : c > @ ",
"# ~ _ : : : : : : : : : < w d d E F q q q q q q F F K _ : : : : : : : : : : : : : : u $., j & & & & & & & & & & & & & & & Y - # # T 9 : : : : u . 6 y & & & & & & & & & & & & & & Z p , ; 8 : : : { # > ",
"# ! : : : : : : _ K B Q [ ' # C . ) ) ) ) ) ) ) ) ' ) a w < : : : : : : : : : : : : 0 # - ] & & & & & & & & & & & & Z ..% o , g t S : : : : : u C # p & & & & & & & & & & & & & & & p , ' n : : _ ) # > ",
"# 8.: : : : : < w [ ' a # C , # C } V } } } } } } 2.W # ' t < : : : : : : : : : : : w s s * & & & & & & & & & Z ` +.= , , #.R F _ : : : : : : w 6 #.= & & & & & & & & & & & & & ] p $ # t < : : U v > # ",
"# ; : : : : < t ' W , $ s $ j X h s ]., , , ].- h - - - C ' w : : : : : : : : : : : q.k 1 1 j j j j j j y y i s $ , #.# |.z -._ : : : : : : r...;.$ 1 & & & & & & & & & & & * p , # # t 9 : : n t . > # ",
"# ; ( q ( s.w ' a s % ..Z & & & & & & & & Z * & & & & j $ # 0 _ ( q q q F ^ 7 7 @.9 F  .% - , , , , , , # # # # # - # @ , ' ~   c t.7 0 9.9./ u.y i h s i p X | y = ;.s s h $ # # ; } 0.q ( _ a + + @ # ",
"# @ L L ,.b ! C - ] & & & & & & & & & & & & & & & & & * - ' x b ) ) ' . + @ > > @ , > > > # # # # # # # # # # # # # > =.@ > # > > > > @ @ @ =.,.v.# # # # # # # # # # # # # # # # # @ @ @ =.@ > # > > > ",
"> # # # > , . *.i & & & & & & & & & & & & & & & & & & * s ! , # + + @ > # > # # > > # # # # # # # # # # # # # > > @ @ @ @ # # @ > > > # > > > > , + 5 5 V , # , , , + + , # # # # # # # # # # # # # # > "};
