/* XPM */
static char * wall2_xpm[] = {
"100 100 115 2",
"  	c #44363B",
". 	c #473A3F",
"+ 	c #473A3E",
"@ 	c #46393E",
"# 	c #48383E",
"$ 	c #4D3C43",
"% 	c #544149",
"& 	c #49393F",
"* 	c #44353A",
"= 	c #43353A",
"- 	c #44373C",
"; 	c #45373C",
"> 	c #45383D",
", 	c #46383D",
"' 	c #47383E",
") 	c #4E3C43",
"! 	c #503E46",
"~ 	c #45363B",
"{ 	c #47393E",
"] 	c #5C5256",
"^ 	c #5A5054",
"/ 	c #584D51",
"( 	c #4D4145",
"_ 	c #47373D",
": 	c #4A3A40",
"< 	c #513F47",
"[ 	c #493940",
"} 	c #44353B",
"| 	c #60565A",
"1 	c #5A4F54",
"2 	c #594E53",
"3 	c #574C50",
"4 	c #52474B",
"5 	c #53484C",
"6 	c #52464A",
"7 	c #4B3E43",
"8 	c #483B40",
"9 	c #493C41",
"0 	c #4C4044",
"a 	c #4F4348",
"b 	c #756C70",
"c 	c #6B6266",
"d 	c #5A4F53",
"e 	c #48393E",
"f 	c #534048",
"g 	c #4F3D45",
"h 	c #45363C",
"i 	c #5D5357",
"j 	c #473B3F",
"k 	c #564B50",
"l 	c #62585C",
"m 	c #6A6165",
"n 	c #6E6569",
"o 	c #71686C",
"p 	c #4F4448",
"q 	c #54494D",
"r 	c #5E5357",
"s 	c #52464B",
"t 	c #4B3B41",
"u 	c #48393F",
"v 	c #645B5F",
"w 	c #46373D",
"x 	c #4B3A41",
"y 	c #46393D",
"z 	c #554A4E",
"A 	c #493D41",
"B 	c #564B4F",
"C 	c #4B4044",
"D 	c #4C3B42",
"E 	c #4B3F43",
"F 	c #503E45",
"G 	c #685F63",
"H 	c #4C3F44",
"I 	c #4A3D42",
"J 	c #63595D",
"K 	c #47383D",
"L 	c #51454A",
"M 	c #504449",
"N 	c #665F62",
"O 	c #584F52",
"P 	c #4A3D41",
"Q 	c #4E4247",
"R 	c #504448",
"S 	c #4E3D44",
"T 	c #46373C",
"U 	c #5E5458",
"V 	c #4A3A41",
"W 	c #594F53",
"X 	c #4D4246",
"Y 	c #655B5F",
"Z 	c #4E4246",
"` 	c #5B5155",
" .	c #736A6E",
"..	c #483C40",
"+.	c #4A3E42",
"@.	c #4C3F43",
"#.	c #4D4045",
"$.	c #564D50",
"%.	c #483B3F",
"&.	c #594E52",
"*.	c #53494C",
"=.	c #53474C",
"-.	c #544B4E",
";.	c #504549",
">.	c #4E4146",
",.	c #6D6468",
"'.	c #72696D",
").	c #584D52",
"!.	c #70676B",
"~.	c #4D4146",
"{.	c #4F3E45",
"].	c #4D3C42",
"^.	c #6C6367",
"/.	c #55494E",
"(.	c #4E4347",
"    . . . . . . + @ + # $ % % % % % % % % % % % % % % % % % & *   +   = = = = = = = = = = = = = = = = = = = = = = = = =     - - - - ; ; ; > , > , ; ; ; ; ; ; ; ; ; ; ; ; ; ; ; ; ; ; -       = = = =   ",
"=   . . . . . . . , > * ' ) % % % % % % % % % % % % % % % ! ~ > ; +         ; ; ; ;       ; ; { { { { ; -       = = = = = = = = = = = = = = = = = = = = = = = = = = = = = = = = = = = = = = = = = = = = ",
"= @ ] ] ] ] ] ] ^ / ( . - _ : ! % % % % % % % % % % % % < [ }   ( | 1 2 1 ] ] ] ] ] 3 3 3 3 4 4 5 6 7 8 @ @ ; ; ; ;     = = = = = = = = = = = = = =                                   - ; > . 9 0 7 ;   ",
"; a b b b b b b b b c d ( =   e $ f % % % % % % % % f g & h   a i b b b b b b b b b c i 6 ( >   > ; = = = =                 } = = = * * * = = = j { k l m m m m m m m m m m m m m m m n o b b b b o p = ",
"; q b b b b b b b b b o r s . ; ; ' t ! % % % % % $ u ;   ; 5 v b b b b b b b b b c 5 . - = } = } h ; w w # [ x x x x x x x x x x x x x x x & w   } y ( i b b b b b b b b b b b b b b b b b b b b b z . ",
". / b b b b b b b b b b b c d ( ; =   ; w ' [ x [ ; = A 8 B v b b b b b b b b b b d . C   _ ' & : g f % % % % % % % % % % % % % % % % % % % % ! D w =   6 b b b b b b b b b b b b b b b b b b b b b ] . ",
". z o b b b b b b b b b b b o l q E . = = =       A - 7 i c b b b b b b b b b b b p = ~ D f % % % % f < F F F F F F F F < f % % % % % % % % % % % D * > 7 b b b b b b b b b b b b b b b b b b b b b ] . ",
"; ( G b b b b b b b b b b b b b o G / p H I . . . 7 z J b b b b b b b b b b b b b p = ; ! % % ! ! t & ; h h h h h h h h h ; ; ; ; ; ; ; ; ; ; ; ; ; A = 0 b b b b b b b b b b b b b b b b b b b b b ] . ",
". . | b b b b b b b b b b b b b b b b b o G | ] | G o b b b b b b b b b b b b b b d . } K u #   }   ; ; ; ; ; ; ; ; ; ; ; = = = = = = = = = = = = = = = 5 b b b b b b b c J / q L M / J b b b b b b ] . ",
". . ] b b b b b b b b b b b b b b b b b b b b b b b b b b b b b b b b b b b b b b c 5 = = = = = =   ( a L L L L L L L L a ( H H H H H H H H H H N 9 H 5 | b b b b b o | 5 8 . ; ;     H | b b b b b ] . ",
". . ] b b b b b b b b b b b b b b b b b b b b b b b b b b b b b b b b b b b b b b b | H       O P Q l o b b b b b b b b b b b b b b b b b b b b b b b b b b b b b c r R ,     h h   = = p d c b b b ] . ",
". . ] b b b b b b b b b b b b b b b b b b b b b b b b b b b b b b b b b b b b b b b b J / p / J b b b b b b b b b b b b b b b b b b b b b b b b b b b b b b b b b i 7   # [ D S F t # T = . 5 | b b ] . ",
". . ] b b b b b b b c J ] ] ] ] ] ] ] ] ] ] ] ] ] ] ] ] ] ] ] ] ] ] ] 3 3 ] c b b b b b b b b b o | 1 3 / q L L L L L L L L L L L L L q i c b b b b b b b b b b v 6 ; w g % % % % % % D #   = ( i b ] . ",
". . ] b b b b b o l q 8 . . . . . . . . . . . . . . . . . . . . . . . >   , B v b b b b b b b c 5 {   > . ; ; ; ; ; ; ; ; ; ; ; ; ; ; ; P d c b b b b b b b b J (   ; t f % % % % % % % ! u *   p o ] . ",
". . ] b b b b v 5 I ;                                                 } = C   H J b b b b b c d . > = }   h h h h h h h h h h h h h h h   . 5 c b b b b b b b / - = # f % % % % % % % % % ! h A 8 n ] . ",
". . ] b b b o B ; = T u x x x x x x x x x x x x x x x x x x x x x x x & & h j   ] b b b b c d P   ; _ & D S F F F F F F F F F F F F F S ' = . i b b b b b b c Q     D % % % % % % % % % % % K = ; m ] . ",
". . J b b b G E C ; D f % % % % % % % % % % % % % % % % % % % % % % % % % : * ; L b b b b J P   u ! % % % % % % % % % % % % % % % % % % u     5 b b b b b o d 8   : f % % % % % % % % % % % ' = p m ] . ",
"= H G b b b G .   ' % % % % % % % % % % % % % % % % % % % % % % % % % % % ! w = p o b b b ] .   x % % % % % % % % % % % % % % % % % % % & =   B b b b b b r ( ; & ! % % % % % % % % % % % % ' = @ m ] . ",
"; I n b b b c H = _ % % % % % % % % % % % % % % % % % % % % % % % % % % % % ' = I G b b b | .   [ % % % % % % % % % % % % % % % % % % % K = { U b b b b J 7 = T ) % % % % % % % % % % % % % ' = I m / . ",
"; I m b b b b H = ; % % % % % % % % % % % % % % % % % % % % % % % % % % % % [   . | b b b G 8 = w % % % % % % % % % % % % % % % % % % ! w ; ( n b b b b /   = # % % % % % % % % % % % % % g h A 9 n / ; ",
"; I m b b b b H = ; % % % % % % % % % % % % % % % % % % % % % % % % % % % % D   . / b b b o P =   ! % % % % % % % % % % % % % % % % % :   . d o b b b c Q     D % % % % % % % % % % % % t K =   6 o 6 . ",
"; I m b b b b ( = ; f % % % % % % % % % % % % % % % % % % % % % % % % % % % D h ; / b b b b Q   } t % % % % % % % % % % % % % % % f t w = 5 c b b b b d 8   : f % % % % % % % % % % f D _ = > p i o p = ",
"; I m b b b b 6 ; h g % % % % % % % % % % % % % % % % % % % % % % % % % % % D   . / b b b b | 9 = ' f % % % % % % % % % % % % f D # ; = 5 | b b b b o p = w ! % % % % % % % % % % g V w ; E 5 c b n I ; ",
"; I m b b b b 3 @ } ' & : t F F F < f % % % % % % % % % % % % % % % % % % % [   . | b b b b o q ; ; $ % f < F F F F F S D [ # w   =   5 | b b b b b n I = w % % % % % % % % % % % : h . / l o b b n I ; ",
"  { W b b b b | + X   } =   h h h ; w [ $ % % % % % % % % % % % % % % % % % # = I Y b b b b b l Z   ~ h ; h h h h h h h     = =   - ( v b b b b b b m I = ' % % % % % % % % % % D _ ; 5 c b b b b o H = ",
";   W b b b b G s 8 + >     ; ; ; ; = = ; D % % % % % % % % % % % % % % % % ' = I m b b b b b o d 8 = = = ; ; ; ; ; ; ; . . I E Q / J b b b b b b b m I = ' % % % % % % % % % ) # = q v b b b b b b p = ",
"- I ` b b b b  .c J r 3 5 M L L L a .   = # D % % % % % % % % % % % % % % % ' = I m b b b b b b c s 7 P ( a L L L L L q / | Y n o b b b b b b b b b n 9 = w % % % % % % % % % & = I r b b b b b b b z . ",
"@ ..i b b b b b b b b b b b b b b o | 5 +.= # ! % % % % % % % % % % % % % f w = E n b b b b b b  .o o  .b b b b b b b b b b b b b b b b b b b b b b o 0 =   $ % % % % % % % % w = H o b b b b b b b ] . ",
"=   H | Y n n o o b b b b b b b b b b b d .   # g % % % % % % % % % % ! x '   ; q o b b b b b b b b b b b b b b b b b b b b b b b b b b b b b b b b b q - = e % % % % % % % f ; = ( b b b b b b b b ] . ",
"  = A . I I H I ( q l o b b b b b b b b c 5 = = h ' ' ' ' ' ' ' ' w w w   =   M l b b b b b b b b b b b b b b b b b b b b b b b b b b b b b b b b b b J 8 = w % % % % % % % < h ; a b b b b b b b b / . ",
"D #     = = = = = ; E B v b b b b b b b b | H   A = = = = = = = = = = ; > - H | o b b b b b b b b o | 1 3 ] ] ] ] ] ] 3 3 3 ] ] ] | G o b b b b b b b o E = w f % % % % % % t     M b b b b b b b b q ; ",
"% ! $ [ # w w w w h = , @.5 d b b b b b b b i 6 9 I I I I I I I I I H ( L ] J b b b b b b b b b v 5 {   > . . . . . . >   > . . . . E a M / J b b b b o Q     D % % % % % % # =   / b b b c G G o b a ; ",
"% % % % % % % % f $ e w } = 6 b b b b b b b b o n m m m m m m m m n n o o b b b b b b b b b b c B ; j = }             } = }         = ;     H | b b b b B   = ' % % % % ! : h = H J b b c d P I #.z Q = ",
"% % % % % % % % % % f $     0 b b b b b b b b b b b b b b b b b b b b b b b b b b b b b b b b / , X ~ ' & x x x x x x & & & x x x [ ' ;   j = H G b b b | , >   $ F < $ &   = 5 | b b o 5 . $.= = - , ( ",
"% % % % % % % % % % % S h ; q b b b b b b b b b b b b b b b b b b b b b b b b b b b b b b b o Q   } D % % % % % % % % % % % % % % % f < t ; > ; / o b b o p   C   h h ; ; . 5 | b b b G I j h '   = >   ",
"% % % % % % % % % % f [   8 i b b b b b b b b b b b b b b b b b b b b b b b b b b b b b b b G 9 A ; g % % % % % % % % % % % % % % % % % % t ~ j %.| b b b J p - - ; ; = ( d c b b b b / @   [ % $ u   = ",
"% % % % % % % % % % < w ; a c b b b b b o n Y U z p H H H H H ( 6 / | G o b b b b b b b b b 1 > } # % % % % % % % % % % % % % % % % % % % % # =   1 b b b b v &.L L a q r o b b b b G P = ; ! % % f V & ",
"% % % % % % % % % % t     M b b b c J z p @ A ; . = = = = = = = ; . . M | b b b b b b b b b L   = x % % % % % % % % % % % % % % % % % % % % : } > 5 b b b b b b b b b b b b b b b b | ; = w % % % % % % ",
"% % % % % % % % % % : =   5 b b b | H . = = = }   ; ; ; ; ; ; ; h     ; 5 v b b b b b b b b #.=   $ % % % % % % % % % % % % % % % % % % % % t     M b b b b b b b b b b b b b b b b 5 > } [ % % % % % % ",
"% % % % % % % % % % # } *.1 b b v 5 .   w w # [ $ ! % % % % % f g D u h ; &.b b b b b b b b H = ; % % % % % % % % % % % % % % % % % % % % % : =   =.b b b b b b b b b b b b b b b b 6 = ; g % % % % % % ",
"% % % % % % % % % % # = I Y b b B , ; D ! % % % % % % % % % % % % % < ; ; a o b b b b b b b ( = A   ' # g f % % % % % % % % % % % % % % f : h j 8 ` b b b b b b b b b b b b b b b b 6 ; h g % % % % % % ",
"% % % % % % % % % f w = E n b b 6 = ; g % % % % % % % % % % % % % % f ' = E G b b b b b b b B ; = j = } h w w ' ' ' ' ' ' ' ' ' ' ' ' w w   > > d o b b b b b b b b b b b b b b b b 5 > } : % % % % % % ",
"& x ! % % % % % % < ; ; a o b b d .   : % % % % % % % % % % % % % % % [   . | b b b b b b b v 5 H - > > ; = = = = = = = = = = = = = = = =     H c b b b b b b b b b b b b b b b b b 1   = # % % % % % % ",
"= } w & D f % % f $   ; q b b b c #.= h $ % % % % % % % % % % % % % % x   . ] b b b b b b b b b c J ] / 6 ( I I I I I I I I I I I I I I ( Q / J b b b b b b b b b b b b b b b b b b | . = w f % % % % % ",
"= ; = =   ' [ [ K   = 8 i b b b b z   = u % % % % % % % % % % % % % % [   . | b b b b b b b b b b b b b b o n m m m m m m m m m m m m n o b b b b b b b b b b b b b b b b b b b b b o Q     g % % % % % ",
". ..8     =     =   ; B c b b b b J H = w ) % % % % % % % % % % % % f ' = E G b b b b b b b b b b b b b b b b b b b b b b b b b b b b b b b b b b o G | ] | Y n o b b b b b b b b b b i -.= ' V g f % % ",
"= M U B Q E . . 7 ( B v b b b b b b | 5 ; _ : g % % % % % % % % % % S     0 o b b b b b b b b b b b b b b b b b b b b b b b b b b b b b b b b b | 5 I . . . I I ( a M B | o b b b b b c 2 C     h _ ' & ",
"; I n b o G | | G o b b b b b b b b b | 4 ;   K t ! % % % % % % % % t =   M b b b b b b b c J ] / q L q ` G o b b b b b b b b b b b b b b b b J H = C       = = = ;     { ( 6 ` Y n o b b k a . ; = * = ",
"; I m b b b b b b b b b b b b b b b b o l s . ;   h w : f % % % % % # } > / b b b b b b b | H . . ; ; ; . I H ( a L q 5 3 1 G o b b b b b b b /   j ; [ x [ # w w h   = = = ; . I I 7 ;.W m Y ` 6 ( ; = ",
"; I m b b b b b b b b b b b b b b b b b b c d ( 8 C = ~ : ! % f g [ T = 5 c b b b b b o | 5 8     h h h   = = = ; ; ; >   > M | b b b b b b b M     t % % % % % f < t & w w h   = = =   { M | b b d >.  ",
"; I m b b b b b b b b b b b b b b b b b b b o G 1 P >   h _ [ # w   = 5 | b b b b b b r M , [ x D S F S V ' w ; h h h } = } ; 5 | b b b b b c a ; w < % % % % % % % % % % f g V # w   = = ; B v v p = ; ",
"; I m b b b b b b b b b b b b b b b b b b b b b b c i 6 7 @ = = = y 5 | b b b b b b c s = _ ) % % % % % % % % f < F S : & # h = H G b b b b J 8   u f % % % % % % % % % % % % % % % g V # ~   H B     = ",
"; I n b b b b b b b b b b b b b b b b b b b b b b b b c J #.  > > q c b b b b b b b i .   [ % % % % % % % % % % % % % % % % ' = ; / b b b b ] .   x % % % % % % % % % % % % % % % % % % % w = ; Q , = = ",
"= H o b b b b b b b b b b b b b b b b b b b b b b b b b b J ;.7 a v b b b b b b b o 6 ; ; g % % % % % % % % % % % % % % % % t   = Q b b b b | .   [ % % % % % % % % % % % % % % % % % % % u * ; H @ = = ",
"= H b b b b J ] B ] J ,.b b b b b b b b b b b b b b b b b b b o o '.b b b b b b b n E = w f % % % % % % % % % % % % % % % % % _ = H c b b b G I = ' % % % % % % % % % % % % % % % % % % % g h ; P @ = = ",
"= p b b o r 7   ; + + 9 #.] b b b b b b b b b b b b b b b b b b b b b b b b b b b m I = ' % % % % % % % % % % % % % % % % % % ' } > ] b b b o p = w ! % % % % % % % % % % % % % % % % % % f ; = . @ = = ",
". z b b | M = = *     = = + B b b b b b b b b b b b b b b b b b b b b b b b b b b n I = w % % % % % % % % % % % % % % % % % % & =   3 b b b b / .   t % % % % % % % % % % % % % % % % % % ! ; = . ; = = ",
"> 5 b J H   ~ ' & x '   = = + 6 G b b b b b b b b b b b b b b b b b b b b b b b b o ( = w f % % % % % % % % % % % % % % % % % & } > 3 b b b b G 8 A   # # # & : S < f % % % % % % % % f t K } 8 (   = = ",
"= Q b / - = & % % % % $ T } = ; s c b b b b b b b b b b o n m n o b b b b b b b b b 6 ; h S % % % % % % % % % % % % % % % % % x   . ] b b b b o p = j ; = } = } h ; w w ' u x x x [ # w   =   B / , = = ",
"= 7 b Q     D % % % % % f e   = + d o b b b b b c d p #.+ -.p 9 6 / | G o b b b b b i .   & f % % % % % % % % % % % % % % % f [ * + ] b b b b b d 5 H ( I >   > ; ; = = =           = =     H v n 9 = = ",
"= H o a = ; < % % % % % % f D w - ( l b b b b c d . ; = = = = = ; . . E B v b b b b c 5 ; T u x : x $ ! % f < F F F F F t : ' ~ A . J b b b b b b b o n Y 1 3 5 q a E I H . . . . . I E Q / J b o I = = ",
"= + n ( ; h f % % % % % % % % $ h ; q b b b o d P     h w w ' w ;     = ; 5 v b b b b v B y h         ; ; ; h h h h h h   = } - ; 5 c b b b b b b b b b b b b b b o n n G J ] ] ] | Y n o b b b b 0 = = ",
"= @ Y ( = ; f % % % % % % % % f _ = ( c b b G ( ; w $ ! % % % f g D [ K h ; 6 d G b b b v i 7 @ @ . . = = = ; ; ; ; ; ;     , a &.v b b b b b b b b b b b b b b b b b b c J ] J c b b b b b b b b a = = ",
"=   ).( = ; f % % % % % % % % % [   . i b b | .   [ % % % % % % % % % < t e   ; 7 J b b b !.J ] W ] z p H ( a L L L L L M 5 ] c b b b b b b b b b b b b b b c J / q a ( H . + . 5 v b b b b b b b a = = ",
"= = z B ; h t % % % % % % % % % g ; ; 6 o b ] .   x % % % % % % % % % % % ) T =   #.J b b b b b b b b b b b b b b b b b b b b b b b b b b b b b b b b b b | 5 . . ; ; = =       ; B v b b b b b b 6 = = ",
"= = z v p = ' ! % % % % % % % % f ' = E G b ] .   x % % % % % % % % % % % % x ~ >   ] b b b b b b b b b b b b b b b b b b b b b b b b b b b b b b b b b c 5 =     h h ; _ u : #   ; B b b b b b b L   = ",
"=   / b d H . u u x D g f % % f < #   + | b ] .   x % % % % % % % % % % % % % x } C +.J b b b b b b b b b b b b b b b b b b b b b b b b b b b b b b b b J .   w D S < f % % % f ; = ( b b b b b b 3   = ",
"= = / b c | 5 =       h ; ; ; ; h   p . J b J .   # f % % % % % % % % % % % % ! ' = ; ] b b b b b b b b b b b b b b b b b b b b b b b b b b b b b b b b J .   u % % % % % % % % ; = H b b b b b b 3 > > ",
"=   5 b b b | 5 . . . ; = = = = ; - ; 5 c b c p = ; & : D f % % % % % % % % % % : } > 5 b b b b b b b b b b b b b b b b b b b b b b b b b b b b b b b b c p = T $ % % % % % % $ h = p b b b b b b ] . . ",
"=   1 b b b b c J ] / 6 ( H H ( a L &.v b b b d ( 8   =   ; K V f % % % % % % % g h ; 6 b b b b b b b b o G | ] ] ] ] ] ] ] ] ] ] J c b b b b b b b b b b d . } : % f f D x # T = + d b b b b b b ] . . ",
"= , | b b b b b b b b b b b b b b b b b b b b ,.v B {     = =   e $ f % % % % % f w = ( o b b b b b G 5 H 9 . . . . . . . . . . . 8 ( 6 d c b b b b b b b c H X } ; ; ;   =   - { s c b b b b b b ] . . ",
"= ~.o b b b b b b b b b b b b b b b b b b b b b b c ] 5 Q 8 ;   = h w w ' u x & #   A 7 o b b b b | / { = =                         ; = . p d c b b b b b b d = = = = ;     , p d G b b b b b b b | . . ",
"  5 b b b b b o o o b b b b b b b b b b b b b b b b b b b G ` ;.E ; = = =     } = j > z o b b b c 5 = h w K [ x x x x x x x x x x u w ;   = . s l o b b b b | 5 H H ( ( 0 L ] c b b b b b b b b b G I ; ",
"; L / 6 ( H H H I H H 5 | b b b b b b b b b b b b b b b b b b o l q ( I H . . >   . 5 J b b b b J .   u % % % % % % % % % % % % % f f g : w   ; a d c b b b b b b b b o o o b b b b b b b b b b J q { = ",
"> @ . ; = = = = = = = = H i b b b b b b b b b b b b b b b b b b b b o o G J ] 3 ] J b b b b b b ] .   x % % % % % % % % % % % % % % % % % g : _ ; 8 B v b b b b b b b b b b b b b o n Y 1 3 5 6 8   = y ",
"      h ; ; ; w w w   A   / b b b b b o n Y | ] ] ] ] ] ] J c b b b b b b b b b b b b b b b b b ] .   x % % % % % % % % % % % % % % % % % % % ) &   ; 5 | o b b b b b b b b b b v B E I >   > ; = =   K ",
"x x D g f % % % % % : } > 5 b b b b c d ( I . . . . . . . 8 B v b b b b b b b b b b b b b b b b ] .   x % % % % % % % % % % % % % % % % % % % % ! : T ; M G b b b b b b b b b v B ; = = } = } h T # t < ",
"% % % % % % % % % % D   . / b b b c 5 . - =                 ; 5 c b b b b b b b b b b b b b b b ] .   x % % % % % % % % % % % % % % % % % % % % % f #   . Y b b b b b b b b b B ;   w # # & : g f % % % ",
"% % % % % % % % % % S h ; q b b b d . = T # [ x x x x x x '   > 7 0 ( ( Q / J b b b b b b b b b ] C   x % % % % % % % % % % % % % % % % % % % % % % # = I Y b b b b b b b b b ( - h < % % % % % % % % % ",
"% % % % % % % % % % F h ; L b b b p = h $ % % % % % % % % g e = = ; = =   - ( v b b b b b b b b | .   [ % % % % % % % % % % % % % % % % % % % % % % # = { W b b b b b b b b o 0 = T f % % % % % % % % % ",
"% % % % % % % % % % F h ; L b b b H = ; % % % % % % % % % % ) # ; h ; ;   j   5 c b b b b b b b G (   w D % % % % % % % % % % % % % % % % % % % % % ' = = s b b b b b b b b o I = w % % % % % % % % % % ",
"% % % % % % % % % % S h ; q b b b H = ; % % % % % % % % % % % % f f f f D ~ A . G b b b b b b b o d > =   # t S f % % % % % % % % % % % % % % % % f # =   p b b b b b b b b o ( = w f % % % % % % % % % ",
"% % % % % % % % % % [   . i b b b H = ; % % % % % % % % % % % % % % % % % & = 9 | b b b b b b b b c H   = } =   w ' ' ' ' ' ' ' ' ' ' ' ' ' ' ' w w ~ > . ] b b b b b b b b b a ; h < % % % % % % % % % ",
"% % % % % % % % % $ h = #.c b b b H = ; % % % % % % % % % % % % % % % % % #   . Y b b b b b b b b b i 6 7 >     = = = = = = = = = = = = = = = = = = , 5 | c b b b b b b b b b L ; h F % % % % % % % % % ",
"% % % % % % % % f u = - z b b b b H = ; % % % % % % % % % % % % % % % % f K = I G b b b b b b b b b b b c / M 0 E I I I I I I I I I I I I I I I I ( B v b b b b b b b b b b b &.;   w x ! % % % % % % % ",
"[ [ x x x [ # w T     ( J b b b b E =   D g f % % % % % % % % % % % % $ u   = 5 o b b b b b b b b b b b b b b o n m m m m m m m m m m m m m m m n o b b b b b b b b b b b b b v 5 = = } w [ [ x x x x [ ",
"=           = = = ; B v b b b b b p = C   h w ' # & & x D S F < g $ _   =   5 | b b b b b b b b b b b b b b b b b b b b b b b b b b b b b b b b b b b b b b b b b b b b b b b b | H     . ,             ",
"@ { . . . . I 9 H 5 v b b b b b b d 8 - @ ; = = } = }     h h h ; h   =   ( v b b b b b b b c G Y m m m m m m m m m m n o b b b b b b b b b b b b b b b b b b b b b b b b b b b b J 3 L p ( . . . . . . ",
"+ z ] ] ] | Y n o b b b b b b b b ,.i / q 6 ( I >   > . . ; ; ; = P H #.L J b b b b b b b J z . I I I I I I I I I I I I p d c b b b b b b b b b b d p 7 a q q / / ] ] ] J J G G o b b b o G | ] ] 3 L 5 ",
"+ ] b b b b b b b b b b b b b b b b b b b b o G 1 3 3 ] / q L a 6 d c b b b b b b b b c 5 .   A = = = = = = = = = = = = = . s r o b b b b b b c | H = = ; ; . ; . . . . 8 ( 8 I 5 | b b b b b b b z . . ",
"+ q b b b b b b b b b b b b b b b b b b b b b b b b b b b b b b b b b b b b b b b b v d . = = ; # ' ' ' ' ' ' ' ' ' ' w w   = M | b b b b b b i H *.    h h   h           ;   = = 5 | o b b b b b 9 =   ",
"= p b b b b b b b c ] 5 5 / J c b b b b b b b b b b b b b b b b b b b b b b b b b c B ,   ; ' $ % % % % % % % % % % % % ! : _ ; B v b b b b c 6 ; ; D g < S S D D x x x u ' ' ' w ; M r o b b b b > =   ",
"= H b b b b b G / Q >     , @ #.| c b b o n U 1 5 q L q i c b b b b b b b b b b o d 8   : f % % % % % % % % % % % % % % % % [     z b b b b ] , } ' f % % % % % % % % % f f f % ) w ; a n b b b o , = = ",
"= H c b b b b 5 { = } =     = ; %.6 i G r a {   > ; ;   > H G b b b b b b b b b n ( ; w ! % % % % % % % % % % % % % % % f S K =   z b b b b 5   = : % % % % % % % % % % % % % % ! K = I Y b b b n @ = = ",
"> > ] b b b c H j   ' : : & T       > . 9 ; = = } h h   = ; / b b b b b b b b b m 8 = w % % % % % % % % % % % % ! g D [ _ h *   0 | b b b b Z   } V % % % % % % % % % % % % $ [ w   . H G b b b m 8 = = ",
"    3 b b b i +   & % % % % ! $ u h = = * w K # : S F u   = Q o b b b b b b b b n I j h D {.F < f f < S D & # w w   h   = ; . 5 v b b b b b +.> = K & : t < f % % f < S V # h = = P 5 | c b b b n 9 = = ",
"> > 1 b b b q ; h S % % % % % % f V w ; e ) % % % % % % ' = P G b b b b b b b b o 5 .   h       h ; h h   } = = = . p . ( 6 i c b b b b b b a = >   } =   h ; ; ; ; h h   = A   8 d c b b b b b m I = = ",
"  { 1 b b b 4 X   ].% % % % % % % % % % % % % % % % % % [   $.U n ^.m m m m m m m l /.7     > = = =     @ -   ; H a / i c b o n Y | ] ] ] ] (.9 @ ; >   =   = = = =     ; @ @ ( / m n o b b b o ` 8 =   ",
"    P ( ( ( %.  } D % % % % % % % % % % % % % % % % % % x     { %.8 8 I I I I I I I 9 + >           - ;     = =   > . H H H H I I . . . . . . . @ , -                   ; , { + H I ( 6 q L L I > = - = ",
". > = = ; = = ; ~ D % % % % % % % % % % % % % % % % % % $   =   -     ; ; ; ; ; ; ; ; ; ; ; ; ; ; ; ; ;   = = = = = = = = = = ; ; . . . . . . . . . . . . . . . . . . . . . . . = ; ; . ; ; ;   = =   . "};
