/* XPM */
static char * Untitled_xpm[] = {
"100 100 698 2",
"  	c #FFFFFF",
". 	c #FEFEFE",
"+ 	c #F2F2F2",
"@ 	c #FDFDFD",
"# 	c #E7E7E7",
"$ 	c #F0F0F0",
"% 	c #F1F1F1",
"& 	c #F9F9F9",
"* 	c #FAFAFA",
"= 	c #F3F3F3",
"- 	c #A3A3A3",
"; 	c #E6E6E6",
"> 	c #797979",
", 	c #9B9B9B",
"' 	c #9D9A9A",
") 	c #A8A8A8",
"! 	c #C5C5C5",
"~ 	c #CBCBCB",
"{ 	c #CFCFCF",
"] 	c #E5E5E5",
"^ 	c #DEDEDE",
"/ 	c #DFDFDF",
"( 	c #CECECE",
"_ 	c #C7C7C7",
": 	c #AFAFAF",
"< 	c #DADADA",
"[ 	c #E8E8E8",
"} 	c #E9E9E9",
"| 	c #EEEEEE",
"1 	c #6D6D6D",
"2 	c #787878",
"3 	c #979292",
"4 	c #857979",
"5 	c #735C5C",
"6 	c #8E8686",
"7 	c #A1A0A0",
"8 	c #9F9F9F",
"9 	c #7A7A7A",
"0 	c #777777",
"a 	c #F6F6F6",
"b 	c #D0D0D0",
"c 	c #A4A4A4",
"d 	c #CACACA",
"e 	c #EDEDED",
"f 	c #E3E3E3",
"g 	c #ECECEC",
"h 	c #555555",
"i 	c #6E6E6E",
"j 	c #757575",
"k 	c #767575",
"l 	c #6F6464",
"m 	c #6A5959",
"n 	c #695555",
"o 	c #716969",
"p 	c #979797",
"q 	c #585858",
"r 	c #8C8C8C",
"s 	c #C4C4C4",
"t 	c #E0E0E0",
"u 	c #F5F3F3",
"v 	c #EAE8E8",
"w 	c #E5E3E3",
"x 	c #EBE9E9",
"y 	c #D3D2D2",
"z 	c #544F4F",
"A 	c #C4C2C2",
"B 	c #EEEDED",
"C 	c #E7E5E5",
"D 	c #C7C2C2",
"E 	c #AFA5A5",
"F 	c #A09393",
"G 	c #6C4949",
"H 	c #705151",
"I 	c #A29595",
"J 	c #B5ACAC",
"K 	c #D8D5D5",
"L 	c #DDDCDC",
"M 	c #D1CDCD",
"N 	c #C0C0C0",
"O 	c #7C7C7C",
"P 	c #969696",
"Q 	c #949494",
"R 	c #A1A1A1",
"S 	c #7E7E7E",
"T 	c #C9C9C9",
"U 	c #6C6C6C",
"V 	c #4F4F4F",
"W 	c #535353",
"X 	c #F7F7F7",
"Y 	c #DDDBDB",
"Z 	c #BEB7B7",
"` 	c #938383",
" .	c #643B3B",
"..	c #715353",
"+.	c #E4E4E4",
"@.	c #D9D7D7",
"#.	c #C8C3C3",
"$.	c #CCC8C8",
"%.	c #DCDADA",
"&.	c #ABABAB",
"*.	c #EDECEC",
"=.	c #ABA0A0",
"-.	c #9C8D8D",
";.	c #A59898",
">.	c #8E8080",
",.	c #664E4E",
"'.	c #9F9292",
").	c #ACA1A1",
"!.	c #897474",
"~.	c #6A4545",
"{.	c #5D2828",
"].	c #745656",
"^.	c #795D5D",
"/.	c #715151",
"(.	c #C6BFBF",
"_.	c #E0DDDD",
":.	c #F5F4F4",
"<.	c #D2CDCD",
"[.	c #F8F8F8",
"}.	c #D5D5D5",
"|.	c #818181",
"1.	c #9C9C9C",
"2.	c #CDCDCD",
"3.	c #EAEAEA",
"4.	c #E5E4E4",
"5.	c #DAD7D7",
"6.	c #E4E3E3",
"7.	c #A6A6A6",
"8.	c #C3C2C2",
"9.	c #B5B5B5",
"0.	c #737373",
"a.	c #696969",
"b.	c #EDEBEB",
"c.	c #DEDADA",
"d.	c #B9B0B0",
"e.	c #836D6D",
"f.	c #643939",
"g.	c #7C6262",
"h.	c #BDB5B5",
"i.	c #F2F1F1",
"j.	c #D9D5D5",
"k.	c #B5ABAB",
"l.	c #8B7878",
"m.	c #765A5A",
"n.	c #CDC7C7",
"o.	c #FAF9F9",
"p.	c #9D9D9D",
"q.	c #B7ADAD",
"r.	c #654040",
"s.	c #735555",
"t.	c #6E4B4B",
"u.	c #7E6464",
"v.	c #6B4747",
"w.	c #816969",
"x.	c #E1DEDE",
"y.	c #CEC8C8",
"z.	c #ADA2A2",
"A.	c #948383",
"B.	c #623636",
"C.	c #A7A7A7",
"D.	c #ECEAEA",
"E.	c #E6E3E3",
"F.	c #DBD7D7",
"G.	c #C8C1C1",
"H.	c #978686",
"I.	c #A29494",
"J.	c #E4E1E1",
"K.	c #B7B2B2",
"L.	c #948C8C",
"M.	c #908B8B",
"N.	c #DBD8D8",
"O.	c #4D4D4D",
"P.	c #D2D1D1",
"Q.	c #DAD6D6",
"R.	c #C9C3C3",
"S.	c #B4ABAB",
"T.	c #877272",
"U.	c #856F6F",
"V.	c #C1B9B9",
"W.	c #725353",
"X.	c #816A6A",
"Y.	c #BAB2B2",
"Z.	c #D4D4D4",
"`.	c #F8F7F7",
" +	c #B5ADAD",
".+	c #6F6060",
"++	c #9A9191",
"@+	c #B8AFAF",
"#+	c #9F9191",
"$+	c #694343",
"%+	c #846E6E",
"&+	c #A09292",
"*+	c #907D7D",
"=+	c #602F2F",
"-+	c #663E3E",
";+	c #7B6060",
">+	c #755858",
",+	c #917F7F",
"'+	c #B1A6A6",
")+	c #C2BBBB",
"!+	c #E1E0E0",
"~+	c #C9C2C2",
"{+	c #DDDADA",
"]+	c #704F4F",
"^+	c #928080",
"/+	c #A89C9C",
"(+	c #9B8C8C",
"_+	c #806767",
":+	c #8E7B7B",
"<+	c #A79B9B",
"[+	c #AFA4A4",
"}+	c #DCD8D8",
"|+	c #9E9E9E",
"1+	c #A19E9E",
"2+	c #C3BDBD",
"3+	c #C7C0C0",
"4+	c #684040",
"5+	c #613333",
"6+	c #785B5B",
"7+	c #A19393",
"8+	c #8F7C7C",
"9+	c #B3A9A9",
"0+	c #C4BCBC",
"a+	c #E4E2E2",
"b+	c #7A5F5F",
"c+	c #A99D9D",
"d+	c #A39696",
"e+	c #979595",
"f+	c #A59999",
"g+	c #CBC4C4",
"h+	c #E9E7E7",
"i+	c #6F4D4D",
"j+	c #8A7575",
"k+	c #948282",
"l+	c #826B6B",
"m+	c #9A8A8A",
"n+	c #D5D0D0",
"o+	c #D2CECE",
"p+	c #958484",
"q+	c #D0CACA",
"r+	c #867070",
"s+	c #968585",
"t+	c #CCCBCB",
"u+	c #5E2C2C",
"v+	c #998989",
"w+	c #D6D1D1",
"x+	c #CEC9C9",
"y+	c #7A7777",
"z+	c #867E7E",
"A+	c #B9B3B3",
"B+	c #D7D3D3",
"C+	c #F9F8F8",
"D+	c #653B3B",
"E+	c #A99E9E",
"F+	c #717171",
"G+	c #D6D2D2",
"H+	c #B2A8A8",
"I+	c #C5BEBE",
"J+	c #988787",
"K+	c #CAC6C6",
"L+	c #CBC6C6",
"M+	c #7D6363",
"N+	c #C2BABA",
"O+	c #907E7E",
"P+	c #DBDBDB",
"Q+	c #D3CECE",
"R+	c #CCC6C6",
"S+	c #F5F5F5",
"T+	c #6A6A6A",
"U+	c #5A5A5A",
"V+	c #F1EFEF",
"W+	c #A49797",
"X+	c #C9C4C4",
"Y+	c #7F6666",
"Z+	c #E2DFDF",
"`+	c #A0A0A0",
" @	c #5D5D5D",
".@	c #CDC8C8",
"+@	c #CECACA",
"@@	c #DEDBDB",
"#@	c #D5D3D3",
"$@	c #C9C6C6",
"%@	c #BAB6B6",
"&@	c #BBBBBB",
"*@	c #838383",
"=@	c #C4BDBD",
"-@	c #BBB2B2",
";@	c #A39595",
">@	c #887373",
",@	c #9E8F8F",
"'@	c #9E9090",
")@	c #808080",
"!@	c #878787",
"~@	c #D4D0D0",
"{@	c #ECEBEB",
"]@	c #BAB1B1",
"^@	c #AEA3A3",
"/@	c #B1A7A7",
"(@	c #F4F4F4",
"_@	c #C1C1C1",
":@	c #626262",
"<@	c #DBD9D9",
"[@	c #DCDCDC",
"}@	c #424242",
"|@	c #AAAAAA",
"1@	c #848484",
"2@	c #D7D7D7",
"3@	c #909090",
"4@	c #BFBFBF",
"5@	c #B6B6B6",
"6@	c #565656",
"7@	c #E1DFDF",
"8@	c #C2C2C2",
"9@	c #979696",
"0@	c #989696",
"a@	c #787575",
"b@	c #736D6D",
"c@	c #877D7D",
"d@	c #755F5F",
"e@	c #725959",
"f@	c #A8A1A1",
"g@	c #D7D5D5",
"h@	c #D6D3D3",
"i@	c #D2CFCF",
"j@	c #B8B1B1",
"k@	c #828282",
"l@	c #CAC7C7",
"m@	c #C0BABA",
"n@	c #D6D4D4",
"o@	c #D8D7D7",
"p@	c #BFBABA",
"q@	c #9E9494",
"r@	c #653D3D",
"s@	c #623535",
"t@	c #603232",
"u@	c #6C5C5C",
"v@	c #554848",
"w@	c #574343",
"x@	c #544D4D",
"y@	c #959292",
"z@	c #8C7979",
"A@	c #B4AAAA",
"B@	c #C0B8B8",
"C@	c #757272",
"D@	c #B9B2B2",
"E@	c #918080",
"F@	c #7A6060",
"G@	c #AFA7A7",
"H@	c #A79C9C",
"I@	c #816B6B",
"J@	c #CDCACA",
"K@	c #969191",
"L@	c #897E7E",
"M@	c #897676",
"N@	c #B7B6B6",
"O@	c #746A6A",
"P@	c #8A7777",
"Q@	c #8A7676",
"R@	c #C1BABA",
"S@	c #B6ACAC",
"T@	c #7B6868",
"U@	c #613535",
"V@	c #CBC7C7",
"W@	c #736767",
"X@	c #7D6666",
"Y@	c #AA9E9E",
"Z@	c #A69999",
"`@	c #D9D6D6",
" #	c #664242",
".#	c #D2D2D2",
"+#	c #7F6767",
"@#	c #BFB6B6",
"##	c #E8E6E6",
"$#	c #B3ACAC",
"%#	c #5E4747",
"&#	c #A69E9E",
"*#	c #DCD9D9",
"=#	c #E3E0E0",
"-#	c #A39898",
";#	c #5D3434",
">#	c #765B5B",
",#	c #898989",
"'#	c #623838",
")#	c #FBFBFB",
"!#	c #B6AEAE",
"~#	c #663D3D",
"{#	c #5F3232",
"]#	c #674040",
"^#	c #AB9F9F",
"/#	c #E2E2E2",
"(#	c #E7E6E6",
"_#	c #837171",
":#	c #654444",
"<#	c #6E4D4D",
"[#	c #B8B0B0",
"}#	c #767676",
"|#	c #B9B9B9",
"1#	c #9E9D9D",
"2#	c #9A9797",
"3#	c #918A8A",
"4#	c #928D8D",
"5#	c #777474",
"6#	c #5A5050",
"7#	c #AEA7A7",
"8#	c #D6D6D6",
"9#	c #7D7D7D",
"0#	c #D3CFCF",
"a#	c #8E7C7C",
"b#	c #D1CECE",
"c#	c #AEA4A4",
"d#	c #858585",
"e#	c #EBEBEB",
"f#	c #959090",
"g#	c #938181",
"h#	c #B2B2B2",
"i#	c #777676",
"j#	c #747070",
"k#	c #747272",
"l#	c #D1CCCC",
"m#	c #D5D2D2",
"n#	c #AAA0A0",
"o#	c #B1A8A8",
"p#	c #C8C4C4",
"q#	c #C2BDBD",
"r#	c #B4ADAD",
"s#	c #ADA6A6",
"t#	c #B7B3B3",
"u#	c #BEBEBE",
"v#	c #DAD8D8",
"w#	c #8D7A7A",
"x#	c #9B8B8B",
"y#	c #BCBCBC",
"z#	c #D1D1D1",
"A#	c #707070",
"B#	c #CAC3C3",
"C#	c #ADADAD",
"D#	c #B3B3B3",
"E#	c #727272",
"F#	c #EFEFEF",
"G#	c #686868",
"H#	c #FCFCFC",
"I#	c #7B7A7A",
"J#	c #AAA2A2",
"K#	c #A5A5A5",
"L#	c #777070",
"M#	c #B4AFAF",
"N#	c #B0A5A5",
"O#	c #5F5F5F",
"P#	c #BEBBBB",
"Q#	c #BEB8B8",
"R#	c #BAB5B5",
"S#	c #B6B3B3",
"T#	c #8F8F8F",
"U#	c #766F6F",
"V#	c #554141",
"W#	c #7D6E6E",
"X#	c #A9A9A9",
"Y#	c #988888",
"Z#	c #DBDADA",
"`#	c #888888",
" $	c #989898",
".$	c #5C5C5C",
"+$	c #A8A7A7",
"@$	c #A2A2A2",
"#$	c #DDDDDD",
"$$	c #D8D4D4",
"%$	c #DFDBDB",
"&$	c #BCB7B7",
"*$	c #958585",
"=$	c #D3D3D3",
"-$	c #574C4C",
";$	c #726B6B",
">$	c #989393",
",$	c #F3F2F2",
"'$	c #C3BCBC",
")$	c #E8E7E7",
"!$	c #CAC4C4",
"~$	c #959595",
"{$	c #636363",
"]$	c #D1D0D0",
"^$	c #D7D4D4",
"/$	c #D5D4D4",
"($	c #919191",
"_$	c #353535",
":$	c #939393",
"<$	c #C1C0C0",
"[$	c #8A8A8A",
"}$	c #E1E1E1",
"|$	c #606060",
"1$	c #474747",
"2$	c #6C5E5E",
"3$	c #654A4A",
"4$	c #716B6B",
"5$	c #B4B4B4",
"6$	c #D4D3D3",
"7$	c #8F8D8D",
"8$	c #918F8F",
"9$	c #CDC9C9",
"0$	c #ACA2A2",
"a$	c #6D4B4B",
"b$	c #897575",
"c$	c #AFA6A6",
"d$	c #8D7C7C",
"e$	c #968787",
"f$	c #9A9A9A",
"g$	c #685050",
"h$	c #9D9494",
"i$	c #B8B8B8",
"j$	c #D8D8D8",
"k$	c #654B4B",
"l$	c #7F7F7F",
"m$	c #7B7878",
"n$	c #000000",
"o$	c #515151",
"p$	c #DFDEDE",
"q$	c #6A5858",
"r$	c #6D4D4D",
"s$	c #766E6E",
"t$	c #664949",
"u$	c #644545",
"v$	c #746969",
"w$	c #AEAEAE",
"x$	c #8E8E8E",
"y$	c #6D5F5F",
"z$	c #6A4747",
"A$	c #C3C1C1",
"B$	c #ABA2A2",
"C$	c #694545",
"D$	c #735656",
"E$	c #867474",
"F$	c #C8C5C5",
"G$	c #656565",
"H$	c #B1B1B1",
"I$	c #684545",
"J$	c #C3C3C3",
"K$	c #C5BFBF",
"L$	c #787272",
"M$	c #A59F9F",
"N$	c #D8D3D3",
"O$	c #8B8B8B",
"P$	c #A59A9A",
"Q$	c #B3A8A8",
"R$	c #D7D2D2",
"S$	c #A29F9F",
"T$	c #9F9494",
"U$	c #A69A9A",
"V$	c #B8B2B2",
"W$	c #BDB4B4",
"X$	c #706262",
"Y$	c #775F5F",
"Z$	c #9C8F8F",
"`$	c #B2ACAC",
" %	c #323232",
".%	c #555050",
"+%	c #BDBDBD",
"@%	c #BCB4B4",
"#%	c #999999",
"$%	c #D0CDCD",
"%%	c #FCFEFD",
"&%	c #F1FCF2",
"*%	c #F3FDF4",
"=%	c #A29E9E",
"-%	c #FAFEFA",
";%	c #D8F7DB",
">%	c #B5F2BC",
",%	c #E8FAEA",
"'%	c #F4FDF5",
")%	c #BEF3C5",
"!%	c #A0EFAB",
"~%	c #D2F6D7",
"{%	c #E1F9E4",
"]%	c #E3F9E6",
"^%	c #D7F7DA",
"/%	c #7A7676",
"(%	c #B6B0B0",
"_%	c #E0DFDD",
":%	c #E8EBE7",
"<%	c #98928A",
"[%	c #938783",
"}%	c #929292",
"|%	c #F2FCF3",
"1%	c #ACF0B4",
"2%	c #61E979",
"3%	c #C9F5CE",
"4%	c #B5F2BD",
"5%	c #5CE876",
"6%	c #C7F4CC",
"7%	c #2AE65A",
"8%	c #CDF5D1",
"9%	c #84EC93",
"0%	c #75EA87",
"a%	c #95EDA1",
"b%	c #CFF6D3",
"c%	c #5BE874",
"d%	c #A1EFAB",
"e%	c #DFF9E2",
"f%	c #494949",
"g%	c #CAD8CC",
"h%	c #ADD4B0",
"i%	c #A3CBA5",
"j%	c #B6C3B4",
"k%	c #CCCACA",
"l%	c #EFFCF0",
"m%	c #BFF3C5",
"n%	c #ECFBED",
"o%	c #50E86E",
"p%	c #4AE76A",
"q%	c #E2F9E4",
"r%	c #BAF2C1",
"s%	c #B0F1B9",
"t%	c #65E97C",
"u%	c #C3F4C9",
"v%	c #59E873",
"w%	c #55E770",
"x%	c #B9E2BE",
"y%	c #2A2A2A",
"z%	c #719F77",
"A%	c #53CB68",
"B%	c #3B3B3B",
"C%	c #E7FAE9",
"D%	c #C6F4CC",
"E%	c #D6F7DA",
"F%	c #69E97F",
"G%	c #6DEA82",
"H%	c #81EB91",
"I%	c #98EEA4",
"J%	c #52E86F",
"K%	c #97EEA3",
"L%	c #85EC94",
"M%	c #8DED9A",
"N%	c #DBF8DE",
"O%	c #D2F6D6",
"P%	c #6EE782",
"Q%	c #7EC688",
"R%	c #222222",
"S%	c #666666",
"T%	c #6DA875",
"U%	c #48D463",
"V%	c #C6C6C6",
"W%	c #D9D9D9",
"X%	c #8D8D8D",
"Y%	c #C2F4C7",
"Z%	c #9FEFA9",
"`%	c #7AEB8C",
" &	c #AFE3B5",
".&	c #B4DBB9",
"+&	c #6FE281",
"@&	c #CBF5CF",
"#&	c #BCF3C3",
"$&	c #D0F6D5",
"%&	c #A2EFAC",
"&&	c #A3EFAD",
"*&	c #57E872",
"=&	c #AAF0B3",
"-&	c #8CEC99",
";&	c #A5EFAF",
">&	c #7CEB8D",
",&	c #B3F1BB",
"'&	c #D5F7D8",
")&	c #86EC95",
"!&	c #7FEB8F",
"~&	c #B7F2BE",
"{&	c #78EA8A",
"]&	c #72EA85",
"^&	c #48E769",
"/&	c #31E65D",
"(&	c #8EED9C",
"_&	c #6EEA83",
":&	c #77EA89",
"<&	c #54E870",
"[&	c #B4F2BC",
"}&	c #76EA88",
"|&	c #3FE764",
"1&	c #5FE978",
"2&	c #BBF3C2",
"3&	c #68E97E",
"4&	c #D1F6D6",
"5&	c #5EE877",
"6&	c #F0FCF1",
"7&	c #87EC96",
"8&	c #4EE76D",
"9&	c #CAF5CF",
"0&	c #56E871",
"a&	c #9EEFA9",
"b&	c #B8F2BF",
"c&	c #83EB92",
"d&	c #64E97B",
"e&	c #D0F6D4",
"f&	c #E9EEEA",
"g&	c #D3ECD5",
"h&	c #D9EDDB",
"i&	c #EEEFEE",
"j&	c #F0F4F0",
"k&	c #DAF8DD",
"l&	c #C8C8C8",
"m&	c #BABABA",
"n&	c #4B4B4B",
"o&	c #454545",
"                                                                                                                                                                                                        ",
"                                                                                                                                                                                                        ",
"                                                                                  . + + . @ # $ % % % % % % % % + & * * * * * * * * *                                                                   ",
"                          * * * * * * * * * * & = .                               % - - % ; > , - ' ' ' - - - - ) ! ~ ~ ~ ~ ~ ~ ~ ~ { ] + .                         * % % % % % % % + *                 ",
"                . $ ^ # / ( ~ ~ _ _ _ ~ ~ ~ ~ ! : < [ } $ | &                     ] 1 2 # ; > , 3 4 5 6 7 7 - - 8 9 0 0 0 0 0 0 0 0 0 > 8 ; .                     a b c - - - - - - ) d e *             ",
"] f ] @       & g 8 h i h j k l m n o 0 0 0 0 9 p q j 9 , r s t $ + .     u v w x y z A B C D E F G H I J K % % $ } L D D M } } } } ] N O 8 |                   * { P Q R - - - - - 8 S - T t $ % % + . ",
"U V W ;     X _ d - r s / Y Z `  ...M } +.@.#.$.%.t ( ! , h i q , &./ &   *.=.-.;.>.,.'.).).!.~.{.].^.{./.(._.* * :.(.!.{.<.          [.}.|.s &               . +.1.2.3.% % % 4.5.5.6./ 7.2 q , - , - % ",
"8.9.0.[     +.a.s g | b.c.d.e.f.g.h.v i.j.k.l.m.n.o.* & $ ^ # < &.p.0.! & *.q.]...r.r.].s.G ].{.t.~.u.v.w.v.).x.y.z.A.B.~.z.j.v i.i.i.  [.N S 3.              + C.C.| D.E.F.j.G.H.I.J.. + @.K.L.M.0.> # ",
"N.~ 0 }   . }.O.P.Q.R.S.T.~.f.U.h.G.V.S.A.W.X.t.Y.*           . + Z.h r | `._.y. +.+++@+#+m.{.$+%+&+*+$+/.=+A.d.v.$+-+;+>+^.s.h.n.I.J.  * ~ 0 }               } 9 ! & j.l.-.,+s.!.A.j.i.j.'+g.{.)+!+; @ ",
"~+! 9 }   + 7.p.{+-.]+$+G {.^+/+(+_+f.{.:+<+]+[+}+*   * *.*.i.    $ |+, g       $ 8 1+2+!.f._+;.3+[+t.4+5+_+w.{.6+{._+{.^.G {.-.{.#+J.  * ~ 0 }               } 0 ~ {+7+W.-+8+#+w.U.9+0+A.{.f.G k.*     ",
"J ) 8 $   } 9 ! a+*+~.f.^.H.b+s.5+{.s.c+S.>+k._.:.*.Q.d.d+,+G.c.v . / S d *     + &.e+` ^.f+g+*.h+#+w.i+$+{.j+k+4+v.%+-+l+m+~.-+<+n+i.  * ~ 0 }               ] 0 { o+t.=+p+q+)+W.t.r+{.A.s+b+_+n+*     ",
")+, &.+ . ^ 9 t+n.d+{.T.w.$+G {.u+e.z.g+H.v+g+w+G./+w.4+u+>+^./.x+  $ 8 ) +     . t y+z+A+B+C+  i._.A.f.^.Y.q.^.D+E+*+A.G.S.D+b+n.*     * ~ j [             * ( F++.G+!.T.(.:.H+^.$+U.0+I+J+=+H.*.      ",
"K+q < . + &.8 L+&+f.M+v.6+G {.].I.N+g+*+!.z./+O+t.-+D+{.v.{.f.i+x+  % - - %       @ / - S 7.P+[.  * d.{.S.i.n+m.d.Q+J.J.i.R+m.c+a+* * * S+_ T+]             * ! U+( V+J.J.i.n+H.{.l+x+i.n+G {.W+*       ",
"s 9 3.  + ) 8 X+4+]+;+%+B.B.;.G.E.g+Y+~.X.s./.^.i+=+{.s.m.6+Y+q.Z+  + ) 8 $         . | d `+ @N ] } .@+@+@% @@@@@@% % $ } #@$@%@_ ~ ~ ~ ~ &@S 3.              g , *@< @     =@{.g.-@i.  n+w.]+=@        ",
"S N [.  [.N S #.k.z.;@{.4+'+c.i.h.w.v.{.T.*+>@4+u+>+,@'@].8+j.i.    & ! 9 }             * % Z.)@0 9 8 - - - - - - - - 8 9 j h j 0 0 0 0 0 )@< @               . | s !@}.@   G.m.).*.    h+~@~@w * * * * ",
"0 { *   + ) 8 {@* _.m.j+]@w * j.!.5+w.H+^@e.{.t.;./@/@]+8+n.i.      * ~ 0 }                 @ ; { ! ) - - - - - - - - ) ! ( / [ } } } } } 3.@                     (@_@:@< P+<@K K *.$ ] { ~ ~ ~ ~ ~ ~ b ",
"9 ]     % - - %   J.~+j.i.  * ~+s.7+I+E.I.>+J+Y.E.j.v.T.x+i.        & ! 9 }                     * & + % % % % % % % % + & *                                         [.[@- }@Q - - - 8 9 0 0 0 0 0 0 0 |.",
"- %     + ) 8 $   * * *     * J._.w * i.j.n+Z+*   j.Y.R.*.          + ) 8 $                                                                                           . $ b |@- - - ) T ] } } } } } } 3.",
"! &     * ~ 1@2@] $ + .                           * * *             + &., $                                                                                               . + % % % + *                 ",
"b *       & < )@1 3@C.< [ } } } } } } } } } } } } } } } } } } } } } # 4@U+]         & & . * * * * * * * *                         . + % + & *                                                           ",
"|           @ ; 5@U+|.6@j 0 0 0 0 0 0 0 0 0 0 0 0 0 0 0 0 0 0 0 0 0 F+q p %       & 2@2@= b ~ ~ ~ ~ ~ ~ ( / +.% .             . $ 2@|@- ) ! ( / +.} {@7@7@*.                                            ",
".               [./ 3.t ( ~ ~ ~ ~ ~ ~ ~ ~ ~ ~ ~ ~ ~ ~ ~ ~ ~ ~ ~ ~ ~ d ! g .       a 8@}.; |.0 0 0 k k k j W 6@, ; .           % 1.O.9@' 0@a@j W W b@c@d@e@f@/ f f +.[ } $ + *                           ",
"                        * * * * * * * * * * * * * * * * * * * * * * * *         . P+ @t {@g@h@@.i@Z j@M [ +.( 2 - +           | p k@l@m@<+n@[ o@p@q@r@s@t@u@v@w@w@x@j 9 8 ) T / ] @                     ",
"                                                                                + &.y@.@=@z@A@B@l.%+/.g+i.  $ 1.- %           & 8@C@D@].W+v i.j.(+{.E@F@l+G@H@ .I@J@( ! ) 8 2 W q }.@                   ",
"                                                                                *.K@L@M@{.8+>@{.b+B.>+A.J.  $ 8 ) +           [.N@O@P@Q@R@n.0+A.A.S@^@{.S@B@{.~.H.j.* & + $ } / &@)@3.                  ",
"                                                                                K T@U@H Y+]+^+H+/.]+U.#+J.  } 2 ! &         . V@W@X@O+q.Y@A.{.(+G.0+{.Z@H.{.*+$+u.}+          * ~ 0 }                   ",
"                                                                                `@ #{.G ,+G.c.F.n.0+q+E.V++ .#T+~ *       * 7@L@ #+#c+8+m.A.0+x+@#i+l.].B.^.U.u+6+f+n.E.      & ! 9 }                   ",
"                                                                                ##$#%#&#*#i.    * % } [ < 7.> 0 ;         =#-#;#>#X.{.H.G.c.E.G.X.t.{.4+{.*+-+]+{.t.Y+E.      + ) 8 $                   ",
"                                                                                  [._@,#Z.[ } ] T - 9 j q `+T ; @     * J.E '#r.G 8+0+j.i.i.G.T.f.M+O+-+~.F Y.p+{.$+h.E.      $ 8 ) +                   ",
"@ )#+ % % % % % % % % % % % % + & *                                                 & }. @j 0 0 9 - ! ( t % *         b.!#~#{#]#).j.i.  Z+R@r+D+,@3+^#D+g.Q+* (.{.d.v       @ Z.0 T *                   ",
"[ [@|@- - - - - - - - - - - - ) ! ( / [ 3.&                                           @ /#( ~ { ] % & *               (#_#:#<#[#w * i.Q+,@~.{.d.j.:.d.m.h.*.  J.J.J.        # }#j f                     ",
"s |#7.- - - - - - 7 1#1#2#3 3#4#5#j h j S s t % .                                         * * *                       n@6#7#j.E.    n.!.5+=+/+J.  * J.J.v               @ | 8#9#Z.@                     ",
"S+(#5.5.4.% % 4.0#Z F '@c+a#a#(+b#[ / ( N 9 q - t @                                                                 * ( j [       J.d.{.>+z.Q+                * % } +.[ P+P |.! &                       ",
"c.@#X.!.0+*.c.G.A.G $+f.{.j+_+!.x+    * [.3.< 7.1@< @                                                               * ~ }#.#$ % % K {.c#R@7@% % % % % % % $ ] T - 2 h j > - / &                         ",
"d.~.v.5+z.n+(+s.w.^.{.g.z.Y@s.b+G+:.:.*     . g 9.d#e#                      * * * * * * * *                         * b j q , - - f#f#f#- - - - - - - - - 8 9 9 - T [@( b | .                           ",
"=.r+{.^+I.^+^+k+M+B.(+V.x+g#U.Z@H+c+Y._.    @ < k@h#(@              @ ; [ / ( ~ ~ ~ ~ ~ ~ { ] } } } $ + *             & 3.< &.- - - - - - - - - - - - - - ) T ] % * . * *                               ",
"-@v.z@T.{.v+).j+=+W+j.x.=.t.p+8+{.$+~.0+    ; )@s $ .               /#h F+h j i#j#j#k#0 0 0 0 0 0 9 8 ) T / +.[ ; [.      . + % % % % % % % % % % % % % % + *                                           ",
"l.]+{.^+0+l#(+=+m.G.  n+/.G ]+j+e.=+B.@#  & s S ;                 * ( F+N / [ m#n#E@o#p#q#r#s#t#~ ! ) 8 2 W W F+0.u#/#@                                                                                 ",
"A.>+H+j.i.:.;.-+).*.  j.l.%+@#@#i+u+u.Q+  ; S s &                 * ~ }#]   * Q+_+~.T.A.^+/.{.x+* & v#+@p#o@/ u#0.F+h /#                                                                                ",
"j.j.E.    * j.j.c.    *.}+}+*.j.w#x#B@i.[.N )@;                   [.y#0.[   _.S@g.T.Q@w#e.e.W.y.*.Q./@/.!.<.  [.; }.0.( *                                                                               ",
"@ 3.} } } } [ ; % & *         i.*.*.* @ z# @Z.@                   # }#A#; * B#{.d.n.S.m+6+t.=./@/+A.t.$+f.@#i.    } 9 ! &                                                                               ",
"g |.0 0 0 0 0.A#8 ! ( t $ % $ ; $ + X z#2 , %                     $ , , $ w ).s./@H+].5+f.m.i+B.t.A.-.M+M+^+J.    $ , C#=                 & 3.} } } } } } } } } 3.&                                     ",
"& b ~ ~ ~ ~ y#}#P 9 j q , - , 0., C.D#U E#[@.                     % - - 4.=@i+,+>@{.u+{.5+{.{.=+#+Q.G+g#%+*+j.  . / S d *             * e s S 0 0 0 0 0 0 0 0 0 S s /#@                                 ",
"  * * * * * [.# F#} [ < &.- , 0., 1.G#h ~ @                       + ) 1..@l./.{.X.;+u+{.u+u+u+~.R.* w+[+s.p+E.  | &.8 e         . % t T - |.N ~ ~ ~ ~ ~ ~ ~ ~ ~ N 9 q P+.                               ",
"                      . + % $ ; $ $ +./ H#                        * d I#J#m.l.f+,+{.]+>@A.>+B.(+h+J.).v.!.n.V+| d ) C#+       @ t - q 2 7.t [.*.Q.R.o+w :.:.:.* [.^ 8 K## .                             ",
"                                                                    | 1.L#M#(.N#f.v.A@*.*.<.n.j.* J.m.]+B@6.}.- 1@/ + .   . % Z.*@7.o@L v#}+x+0+A./.>+S@R.h.J.    * ~ S C.] / $ .                       ",
"                                                                    . ; , O#P#{.G c+h@% % % % $ ; <@Q#R#S#, q T#[@@     )#] -  @N | C+}+=.H.A.{.O+%+{.>@{./.d.E.    & / &.P q p.P+$ + *                 ",
"                                                                      . % }.U#V#W#f#- - - - - , 0.Q 6@W 2 |+|+/#@     H#[@1.X#P+[.  * }+=.H.A.Y.Y#W.{.~.f+/.m.F.    i.V+Z#C.`# $.$, ) ~ &               ",
"                                                                          @ 3.P.+$7 - - - - - , 0.@$< +.} $ + .       a |#,##$$ # [.X *.7@$$Z+y.e.{.W.S.B@!.!.(.j.G.h.;@%$e e $ P+&.8 *@}.@             ",
"                                                                              . + % % % % % % $ ; % .                 . (@3.$ - }#y#~ ~ ~ ~ ( &${.*$S.*.Z+A.T.f+8+{.s.!.).j.    . + $ =$U+]             ",
"                                                                                                                            + - A#0.0 0 0 0 j -$;$>$P+@ h+).t.D+X.S@z.8+G j.          +.6@< .           ",
"                            . % | @                                                                                         . % ; [ } } } } [ +.^ - O#z#,$h.W.!.'$a+)$!$x+Q.* * & + F#d ~$h#=           ",
"                            % c Q e                                                         * * & a & * * * * * * * * * * * * * * * * *         . % b {$]$^$+@o+/$( ~ ~ ~ ~ ~ ~ ! ) ($_$F+t .           ",
"                          & [@:$U .#@                                       )#            & b d 8@: _ ~ ~ ~ <$<$<$~ ~ ~ ~ ~ ~ ~ ~ ~ ~ ( t ; @       @ }.*@8 - , q j 0 0 0 0 0 0 9 8 @$ $^ @             ",
"                        [._@[$2@u#*@t .                                 [.}$Z.&           g |.0.|$1$i 0 k o 2$3$o 0 j#4$4$j#0 0 0 0 0 j A#> #         & ~ ) - &.< [ } } } } } } } $ % + .               ",
"                      @ b q Z.@ | C.5$[ .                         . + ] 4@6@2 e#          @ 3.6$7$8$< } 9$0$a$b$H@j@c$d$e$M } } } } } #$f$, $           * + % + .                                       ",
"                      # j F+;   . + ] C.g                     . % P+7.9 > Q P F#              n@g$h$N.J.R.{.w#~.W.-+~.%+A.<.i.i.i.    $ 8 ) +                     * e#^ 8#8#8#8#8#T _@5$i$~ #           ",
"                      [ F+u#[.      t :@&@(@              )## 8#- .$`+T ] j$6@+.              h@k${.Z@S.{.Z@>+5+f.u+i+z@G f+d.;.J.    ] 9 T *                 f 2.5$@$l$m$L#L#m$l$i V 1$n$W ~ #         ",
"                      +.W /         H#b `#}.)#          H#2@E#O.8 P+% *   f o$( @             p$q$r$5+v.A@l.5+f.$+-+_+-+D+{.G A.J.  [.N )@;               * e#5@6@1$o$l$s$t$u$v$m$i V [$w$x$o$! *       ",
"                      +.W /       @ # )#g &             a N c { $ .       ] 1 2 #             } y$z$=+%+H.f.=+]+v.,+B.u+=+f.{.-@i.@ b q Z.@             $ Z.X#i V x$N A$B$C$D$E$F$T z#^ | : 1$@$*       ",
"                      3.S _ 2@F#F#_ G$#                 . f *@H$[ % % F#^ 2@~$@$%             } l I$v.^+{.{.f.v.z.7+=+{.W.{._+l#@ j$2 0.;           * /#_ k@o$)@J$$@K$'+z@X.i+c+h+      * 5$.$_ *       ",
"                      @ t `+}@Q Q }@_ @                   @ < |.8 - - P W G$9 t .             3.L$M$).{.B.{.6+H.j.B@-+$+g#m.).D.[@~$8 [@@         $ Z.X#o$k@N < 6.g+W.$+t.#+s.;.N$J.i.  * t t #         ",
"                        . $ b |@@$, $                       @ t &.- - 8 O$N ; @               [.N S P$4+=+{.Q$J.i.w <.<.R$=#K /$l$9 / .         # ~ k@o$S$P#^$*.j.:+G 5+Y+[+>+,+:+H.E.$ t t $           ",
"                            . + % + .                         . + % % % | &                   * b > T$D+{.U$N.* * * * [.; < 7.|.s ; @       $ Z.&@o$k@_ V$^+A.R+;.4+-+{.Y#W$]+g.f.l.F.^ l$l$2.          ",
"                                                                                                | 8 X$Y$Z$`$~ ~ ~ ~ ~ y#F+6@`+d (@        # ! l$n$X#Z.{+H+{.U.N#].-+u+=+z.d.v.{.b+l.F.^ G# %5$*         ",
"                    . a H#                                                                      . ; 0@j#.%j 0 0 0 0 0 0.j b % *           ~ o${$+%o@N.y.G b+Y+I.i+b+u+e.@%m+B.i+g.8+Z+e#@$1$#%(@        ",
"                    S+s [ @                                                                       . + } +.[ } } } } } [ # @               D#n$7 $%g+z.{.7+{.p+s.W$:+A.G.N+m.5+].-+).*.  +%o$|+|         ",
"                  @ ^ 8@[ @               H#/#3.@                                 %%&%&%*%                                                w$n$=%z.>+]+R.7+{.$+/+n+J.J.i.S@=+Y+U.A.n.*   ! o$|+;         ",
"                . P+|$#$H#              . 2@V 0 t .               @ ; ; @         -%;%>%,%                                                &@n$=%%+s.]@Q.;.D+U.n+:.      R@{.'+c.E.i.    ! l$l$;         ",
"                + &., $                 + |@3@~$&.+               [ 9#}##         '%)%!%~%      ,%,%,%  {%{%{%      &%]%^%]%&%    ,%{%{%-%{ l$/%(%Q+_%:%<%[%G.i.        J.J.J.        * &@V |+e#        ",
"                % - - %                 % - }%x$@$%               X 5@0 }         |%1%2%3%  -%{%4%5%6%'%6%7%8%      6%9%0%a%{%    b%c%d%e%; P f%C.8#g%h%i%j%k%8#8#8#^ e#(@* *       $ Z.#%n$! *         ",
"                + C#&.P+% .           . +.O${$W 8 +               $  $P F#        l%d%c%m%  n%4%o%p%d%q%d%c%r%    -%s%7%t%9%6%&%  u%v%w%x%|#F+y%.$l$z%A%A%z%l$l$l$l$l$|+w$@$i$! 2._ &@l$o$! t           ",
"                . + P+|$- t @ * * [.3.< , B%G$C#e#.             @ ( h 0.#         C%d%c%D%  E%9%F%G%H%3%d%c%D%    n%I%J%K%L%M%N%  O%0%P%Q%[$n$R%S%l$T%U%U%T%l$l$l$l$l$o$n$o$o$o$l$l$n$k@~ #             ",
"                    @ P+7.*@b ( ~ N 9 q @$V%- : / } } } } } } } W%X%p P+@         e%9%9%b%{%Y%c%Z%`%9%>%9%9%b%    O%0%0%>%d%c%Y%  C%d%w% &8@C#C#u#8#.&+&+&.&8#8#8#8#2.N i$D#@$|+l$l$&@Z.$               ",
"                      . | N U+j 0 S s t % @ + / )@0 0 0 0 0 0 0 A#U+}..           ^%9%9%@&6%7%#&$&%&c%&&H%9%^%    u%*&J%=&-&7%;&-%l%d%c%m%          ^%9%9%^%              * (@; ^ f $                   ",
"                          [.] [ } 3.&         & b ~ ~ ~ ~ ~ ~ ~ ( [@H#            ^%9%>&,&9%M%'&-%r%c%)&!&9%e%  -%~&o%{&]&^&/&(&'%l%d%c%m%          ^%9%9%^%                                            ",
"                                                * * * * * * * * *                 ^%9%_&:&9%'&&%  D%c%`%<&d%n%  '%;&v%&&[&}&|&!&q%C%d%c%D%          ^%9%9%^%                                            ",
"                                                                                  e%9%_&7%6%&%    b%9%1&7%s%-%  l%d%c%2&'%~&|&3&4&O%0%0%u%          ^%9%9%^%                                            ",
"                                                                                  n%4%c%Y%{%      ]%H%5&7%4%    6&;&5%u%  m%7&8&9&@&0&8&a&m%D%N%&%  ^%9%9%^%                                            ",
"                                                                                  -%{%{%,%        &%m%7%8&r%    '%b&c&~%  $&d&9%N%^%0%o%8&c%0&9%6%&%^%9%9%^%                                            ",
"                                                                                                    ;%d%c%~%    -%e%e&,%  '&a%6%&%&%6%9%I%d%I%d&a%&%^%>&}&>%^%^%^%]%&%                                  ",
"                                                                            * (@| | | | | | | | | | f&g&g&h&| | i&f&f&j&* &%&%&%    &%n%C%l%k&$&'&&%]%9%v%}&9%9%9%a%{%                                  ",
"    * e#^ 2.! +%+%+%+%+%+%! 2.8#f $                           * ^ l&m&+%i$D#w$|+|+|+|+|+|+|+|+|+|+|+|+|+|+|+|+|+|+|+|+|+D#i$2.#$; ^ f $             &%6%9%>&9%9%9%a%{%                                  ",
"f d &@|+l$l$o$o$o$o$o$o$o$o$l$l$l$w$D#N }.e#*             e#Z.&@x$V 1$o$o$n$n$o$o$o$o$o$o$o$o$o$o$o$o$o$o$o$o$o$o$o$o$o$n$o$o$|+|+l$l$&@{ e#*         &%]%^%^%^%^%]%&%                                  ",
"p.k@n$o$l$l$|+|+|+|+|+|+|+|+l$l$l$n$n$o$l$|+w$&@_ f $   $ { 9 o$f%V [$|+|+w$D#i$+%+%+%+%+%+%+%+%+%+%+%+%+%+%+%+%+%+%+%i$D#|+|+o$o$l$l$n$l$|+&@_ 8#^ e#*                           $ < ! +%+%+%+%+%! < $ ",
"p.k@D#N 2.^ ; | 3.j$j$#$| ; ^ 8#_ 5@|@, l$o$n$n$l$k@D#D#w$O l$D#m&m&s j$F#*                                             * (@#$2.! 2._ &@l$o$n$l$l$l$@$N ! 2.2.^ ; | | | | | }${ &@D#l$o$o$o$o$o$o$o$l$D#",
"f ; $           (@5@S z#        * ^ d }.}.N D#w$l$l$n&n$n$d#Z.$   # S 5@[@                                                            $ < N D#l$l$l$o$o$l$o$l$l$|+|+|+|+|+|+f$E#o$n$l$|+|+|+|+|+|+|+l$n$",
"                | 1.f%+%        (@5@S z#      $ f _ |.f%0.u#$     # c n$_@*       [.$ $ [.      [.$ $ [.                                    $ f 8#2.N @$l$|+l$l$o$o$o$o$o$o$V l$w$N { ; | | | | | ; { &@",
"                | f$V |#        F#@$W 8@          * 5@y%{$W%      * 5$V p.(@      $ ! ! $       $ ! ! $                                             * e#; ^ ^ 2.! +%+%+%+%+%! < $                     * ",
"                | |+o$+%        (@|+o$i$            u#U U z#        m&1$[$W%      f w$w$f       f w$w$f             H#* * H#                                                                            ",
"                | |+o$+%        * D#n$D#*           8#l$l$8#        2.o$V J$*     ] `#`#Z.      3.`#`#(             $ 2@2@$                                                                             ",
"                ; |+o$!           i$o$|+(@          8#l$l$8#        f p.1$8 *     e#@$o$N *     $ w$n$&@            $ : p.Z.#                                               * * *                       ",
"                ^ l$l$2.          +%o$|+|           8#l$l$8#          D#n$w$*     * N o$@$e#      w$n$w$            = /#w$q ~ $         = # # =         $ $ $             * ^ ( #                       ",
"                f ($($f           ! n&Q W%          T i i T           w$n$w$        2.l$l$^       _@n$w$#             * Z.l$k@Z.        $ h#R < #       t Q ~ #           * d S ~ #                     ",
"                $ t t $           < l$.${           T V V T           w$n$w$        8#l$l$8#      [@@$o$~ *             $ &@n$&@$       $ 2@h#q ! $     t ($W ~ #         * /#5$6@~ #                   ",
"                                  $ ! ($Z.          8#l$l$8#          D#n$w$*       8#l$l$8#      * i$o$@$(@              _ l$l$f       H#* { j l$Z.*   $ Z.X#W ~ #         * [@@$W ~ *                 ",
"                                    $ $ $           $ t t $           i$o$|+(@      8#l$l$8#        z#o$|+2@              ^ l$l$2.          e#&@V X#e#    * [@8 o$! *         * N o$@$e#                ",
"                                                                      z# @D#(@      8#l$l$8#        # D#n$_@*             e#8 1$) f           < l$l${       * 8@1$|+/#          }.l$l$}.                ",
"                                                                      # t t *       8#l$l$8#          ~ o$|+[@            * _ V o$_           $ ! n$Z.        #$, o&: f         e#X#o$N $               ",
"                                                                                    8#l$l$8#          # ! n$[@              f Q n$f$e#          t t t         * _ V o$_         * Z.l$k@Z.              "};
