/* XPM */
static char * what_xpm[] = {
"100 100 452 2",
"  	c #FFFFFF",
". 	c #EEBEBC",
"+ 	c #E58E89",
"@ 	c #E16B63",
"# 	c #E2736C",
"$ 	c #E37B75",
"% 	c #E4857F",
"& 	c #E9A4A1",
"* 	c #F2CDCB",
"= 	c #FCF4F4",
"- 	c #F9EAE9",
"; 	c #F6DFDF",
"> 	c #ECB3B1",
", 	c #E4827D",
"' 	c #DC2C00",
") 	c #DD3F2B",
"! 	c #DC3820",
"~ 	c #DD3B25",
"{ 	c #E17069",
"] 	c #EFBFBD",
"^ 	c #F7E1E1",
"/ 	c #E4827C",
"( 	c #E06359",
"_ 	c #DD4635",
": 	c #DC2F08",
"< 	c #DC3111",
"[ 	c #DC351A",
"} 	c #DC361B",
"| 	c #DC3418",
"1 	c #DC3921",
"2 	c #DD4434",
"3 	c #DE4B3C",
"4 	c #DC3519",
"5 	c #DD3F2C",
"6 	c #DE5043",
"7 	c #E79995",
"8 	c #DC3316",
"9 	c #DC2F0A",
"0 	c #DC2D02",
"a 	c #DC2E07",
"b 	c #DC2E05",
"c 	c #DC2D04",
"d 	c #DC2D03",
"e 	c #DE4F41",
"f 	c #DF5E54",
"g 	c #DD4939",
"h 	c #E27972",
"i 	c #EAA8A5",
"j 	c #F0C7C6",
"k 	c #E6928D",
"l 	c #DC3417",
"m 	c #DC3110",
"n 	c #DC3212",
"o 	c #DC300C",
"p 	c #DC300F",
"q 	c #DC2D01",
"r 	c #DC2E04",
"s 	c #DD412F",
"t 	c #DE493A",
"u 	c #DD3E2A",
"v 	c #DD4535",
"w 	c #E69591",
"x 	c #F4F4F4",
"y 	c #E9E9E9",
"z 	c #DFDFDF",
"A 	c #BFFFBC",
"B 	c #91FF89",
"C 	c #70FF63",
"D 	c #73FF67",
"E 	c #76FF6A",
"F 	c #7EFF74",
"G 	c #6BFF5D",
"H 	c #67FF57",
"I 	c #88FF7F",
"J 	c #C6FFC3",
"K 	c #ECB5B3",
"L 	c #DD4331",
"M 	c #DC300D",
"N 	c #E4837D",
"O 	c #DD4332",
"P 	c #DC2F09",
"Q 	c #DD3A23",
"R 	c #DC3922",
"S 	c #DC381F",
"T 	c #FEFEFE",
"U 	c #B3B3B3",
"V 	c #777777",
"W 	c #595959",
"X 	c #898989",
"Y 	c #BCBCBC",
"Z 	c #F4FFF4",
"` 	c #3BFF00",
" .	c #3CFF07",
"..	c #3BFF03",
"+.	c #3BFF02",
"@.	c #42FF1D",
"#.	c #95FF8E",
"$.	c #DF6056",
"%.	c #DD3D28",
"&.	c #DD402E",
"*.	c #DE4E40",
"=.	c #DC361C",
"-.	c #ECB0AE",
";.	c #BABABA",
">.	c #7E7E7E",
",.	c #303030",
"'.	c #2B2B2B",
").	c #000000",
"!.	c #6C6C6C",
"~.	c #959595",
"{.	c #CBCBCB",
"].	c #EAFFE9",
"^.	c #68FF59",
"/.	c #53FF3C",
"(.	c #6CFF5E",
"_.	c #46FF25",
":.	c #3BFF01",
"<.	c #3CFF06",
"[.	c #E2FFE1",
"}.	c #F4D8D7",
"|.	c #DE5347",
"1.	c #DD3922",
"2.	c #DD3A24",
"3.	c #DC2E06",
"4.	c #E89C99",
"5.	c #ACACAC",
"6.	c #5D5D5D",
"7.	c #7F7F7F",
"8.	c #757575",
"9.	c #202020",
"0.	c #E0FFDF",
"a.	c #49FF2B",
"b.	c #49FF2C",
"c.	c #3CFF08",
"d.	c #4CFF30",
"e.	c #C9FFC6",
"f.	c #E16A61",
"g.	c #DF5D52",
"h.	c #E16F67",
"i.	c #DD4231",
"j.	c #DC361D",
"k.	c #DC2F0B",
"l.	c #DC300E",
"m.	c #DE4B3D",
"n.	c #DD3E2B",
"o.	c #F5F5F5",
"p.	c #D8D8D8",
"q.	c #787878",
"r.	c #2C2C2C",
"s.	c #151515",
"t.	c #828282",
"u.	c #85FF7C",
"v.	c #73FF66",
"w.	c #87FF7D",
"x.	c #43FF20",
"y.	c #3BFF04",
"z.	c #3CFF09",
"A.	c #3EFF0F",
"B.	c #43FF1F",
"C.	c #9FFF99",
"D.	c #DD4230",
"E.	c #E0655D",
"F.	c #E0685F",
"G.	c #DE4A3B",
"H.	c #DC351B",
"I.	c #DD3B24",
"J.	c #DF594E",
"K.	c #DC3419",
"L.	c #D7D7D7",
"M.	c #838383",
"N.	c #424242",
"O.	c #1F1F1F",
"P.	c #55FF40",
"Q.	c #3EFF11",
"R.	c #3EFF12",
"S.	c #6EFF61",
"T.	c #DD3D29",
"U.	c #E1E1E1",
"V.	c #BDBDBD",
"W.	c #484848",
"X.	c #0C0C0C",
"Y.	c #9D9D9D",
"Z.	c #58FF43",
"`.	c #4CFF31",
" +	c #61FF4F",
".+	c #E48782",
"++	c #DF5F55",
"@+	c #DF554A",
"#+	c #DD4534",
"$+	c #DD3E29",
"%+	c #DE5245",
"&+	c #E0675E",
"*+	c #969696",
"=+	c #727272",
"-+	c #5E5E5E",
";+	c #636363",
">+	c #4D4D4D",
",+	c #1E1E1E",
"'+	c #060606",
")+	c #141414",
"!+	c #A1A1A1",
"~+	c #676767",
"{+	c #A5A5A5",
"]+	c #98FF91",
"^+	c #66FF56",
"/+	c #4AFF2E",
"(+	c #3DFF0D",
"_+	c #75FF69",
":+	c #767676",
"<+	c #313131",
"[+	c #121212",
"}+	c #474747",
"|+	c #2A2A2A",
"1+	c #1C1C1C",
"2+	c #565656",
"3+	c #C6C6C6",
"4+	c #555555",
"5+	c #272727",
"6+	c #252525",
"7+	c #3D3D3D",
"8+	c #D9FFD7",
"9+	c #B8FFB4",
"0+	c #7EFF73",
"a+	c #60FF4F",
"b+	c #4DFF32",
"c+	c #54FF3E",
"d+	c #7C7C7C",
"e+	c #919191",
"f+	c #999999",
"g+	c #AEAEAE",
"h+	c #585858",
"i+	c #666666",
"j+	c #222222",
"k+	c #F2F2F2",
"l+	c #646464",
"m+	c #C2C2C2",
"n+	c #4E4E4E",
"o+	c #6F6F6F",
"p+	c #454545",
"q+	c #1D1D1D",
"r+	c #878787",
"s+	c #363636",
"t+	c #3F3F3F",
"u+	c #616161",
"v+	c #404040",
"w+	c #262626",
"x+	c #A6A6A6",
"y+	c #B4B4B4",
"z+	c #C4C4C4",
"A+	c #171717",
"B+	c #525252",
"C+	c #8A8A8A",
"D+	c #797979",
"E+	c #232323",
"F+	c #4A4A4A",
"G+	c #9A9A9A",
"H+	c #B9B9B9",
"I+	c #6D6D6D",
"J+	c #AAAAAA",
"K+	c #0E0E0E",
"L+	c #505050",
"M+	c #8D8D8D",
"N+	c #9E9E9E",
"O+	c #3A3A3A",
"P+	c #696969",
"Q+	c #111111",
"R+	c #2F2F2F",
"S+	c #161616",
"T+	c #DDDDDD",
"U+	c #F9F9F9",
"V+	c #E4E4E4",
"W+	c #434343",
"X+	c #CDCDCD",
"Y+	c #3C3C3C",
"Z+	c #3E3E3E",
"`+	c #868686",
" @	c #E7E7E7",
".@	c #929292",
"+@	c #D4D4D4",
"@@	c #F0F0F0",
"#@	c #9B9B9B",
"$@	c #7D7D7D",
"%@	c #191919",
"&@	c #131313",
"*@	c #CACACA",
"=@	c #494949",
"-@	c #343434",
";@	c #212121",
">@	c #5F5F5F",
",@	c #FFF9E1",
"'@	c #FFF0AB",
")@	c #FFEC8D",
"!@	c #FFEEA1",
"~@	c #FFF7D8",
"{@	c #FFF2BC",
"]@	c #FFE649",
"^@	c #FFE414",
"/@	c #FFE524",
"(@	c #FFE75C",
"_@	c #FFED95",
":@	c #FFF5CB",
"<@	c #737373",
"[@	c #8E8E8E",
"}@	c #FFEE9D",
"|@	c #FFE866",
"1@	c #FFE527",
"2@	c #FFE40E",
"3@	c #FFE402",
"4@	c #FFE403",
"5@	c #FFE408",
"6@	c #FFE420",
"7@	c #FFFDF4",
"8@	c #FFEFA5",
"9@	c #FFE64B",
"0@	c #FFE400",
"a@	c #FFE404",
"b@	c #FFE406",
"c@	c #FFE40A",
"d@	c #FFE645",
"e@	c #FFF1B3",
"f@	c #FFE64D",
"g@	c #FFE409",
"h@	c #FFE405",
"i@	c #FFE40B",
"j@	c #FFE523",
"k@	c #FFE53F",
"l@	c #FFE40C",
"m@	c #FFE52F",
"n@	c #D3D3D3",
"o@	c #FFF4C6",
"p@	c #FFE869",
"q@	c #FFE416",
"r@	c #FFE648",
"s@	c #FFE534",
"t@	c #FFE525",
"u@	c #FFE539",
"v@	c #FFE53C",
"w@	c #3B3B3B",
"x@	c #FFEA82",
"y@	c #FFE417",
"z@	c #FFE755",
"A@	c #FFE641",
"B@	c #FFE410",
"C@	c #FFE40D",
"D@	c #FFE401",
"E@	c #FFE75E",
"F@	c #FFE411",
"G@	c #FFE41C",
"H@	c #FFE521",
"I@	c #FFE52B",
"J@	c #FFE413",
"K@	c #808080",
"L@	c #6E6E6E",
"M@	c #FFE978",
"N@	c #FFE53D",
"O@	c #FFE759",
"P@	c #FFE861",
"Q@	c #545454",
"R@	c #292929",
"S@	c #B5B5B5",
"T@	c #FFF7D7",
"U@	c #FFF5CD",
"V@	c #FFF8DF",
"W@	c #FFFAE9",
"X@	c #5A5A5A",
"Y@	c #ABABAB",
"Z@	c #070707",
"`@	c #2D2D2D",
" #	c #CECECE",
".#	c #020202",
"+#	c #707070",
"@#	c #101010",
"##	c #010101",
"$#	c #A2A2A2",
"%#	c #353535",
"&#	c #181818",
"*#	c #CBD2FF",
"=#	c #A1AFFF",
"-#	c #758EFF",
";#	c #8EA0FF",
">#	c #ABB7FF",
",#	c #DFE2FF",
"'#	c #E9EBFF",
")#	c #F4F5FF",
"!#	c #BCC5FF",
"~#	c #899CFF",
"{#	c #2B66FF",
"]#	c #2564FF",
"^#	c #005DFF",
"/#	c #2363FF",
"(#	c #0F5FFF",
"_#	c #1D62FF",
":#	c #4D75FF",
"<#	c #E1E4FF",
"[#	c #95A5FF",
"}#	c #2965FF",
"|#	c #1260FF",
"1#	c #055EFF",
"2#	c #015EFF",
"3#	c #2F67FF",
"4#	c #5277FF",
"5#	c #6382FF",
"6#	c #1B61FF",
"7#	c #0D5FFF",
"8#	c #0B5FFF",
"9#	c #3E6DFF",
"0#	c #C2CAFF",
"a#	c #3D6DFF",
"b#	c #035EFF",
"c#	c #1760FF",
"d#	c #0A5FFF",
"e#	c #1F62FF",
"f#	c #5177FF",
"g#	c #085EFF",
"h#	c #3F6EFF",
"i#	c #4571FF",
"j#	c #095EFF",
"k#	c #105FFF",
"l#	c #396BFF",
"m#	c #B4BEFF",
"n#	c #6684FF",
"o#	c #1560FF",
"p#	c #2063FF",
"q#	c #025EFF",
"r#	c #075EFF",
"s#	c #91A2FF",
"t#	c #7F95FF",
"u#	c #A5B2FF",
"v#	c #1C61FF",
"w#	c #6A6A6A",
"x#	c #4771FF",
"y#	c #3F6DFF",
"z#	c #416FFF",
"A#	c #879BFF",
"B#	c #D7DCFF",
"C#	c #CDD3FF",
"D#	c #DCDCDC",
"E#	c #989898",
"F#	c #0A0A0A",
"G#	c #C7C7C7",
"H#	c #8F8F8F",
"I#	c #414141",
"J#	c #040404",
"K#	c #0D0D0D",
"L#	c #030303",
"M#	c #0F0F0F",
"N#	c #4B4B4B",
"O#	c #656565",
"P#	c #848484",
"Q#	c #909090",
"R#	c #5B5B5B",
"S#	c #1A1A1A",
"                                                                                                                                                                                                        ",
"                                                                                                                                                                                                        ",
"                      . + @ # $ % % % & *                                                                                                                                                               ",
"              = - ; > , ' ' ' ) ) ) ! ~ { ] ^                                                                                                                                                           ",
"              . / ( _ : < [ } | 1 2 3 4 5 6 + .                                                                                                                                                         ",
"              7 ~ 8 9 0 ' a b c d [ e f g g ' h i j                                                                                                                                                     ",
"              k l m n a o p 9 < 9 q r ~ 6 s t u v w ^                                 x y z z y x                                                             A B C C C D E F E G H I J                 ",
"              K L M r M [ ' 6 N O ' ' ' P ! Q R l S @ j                           T x U V W W W X Y                                                         Z B ` ` ` ` `  .....+...@.#.                ",
"              j $.' ' d 0 ' a %.9 ' ' ' 0 &.*.! a r =.-.                          x ;.>.,.'.'.'.).!.~.{.                                                    ].^.@./.(._.` :.` ` ` ..<.(.[.              ",
"              }.|.L 5 8 q ' ' ' ' ' ' ' 0 p 1.2.P 3.2.4.                          x 5.6.7.7.7.8.!.).9.!.U                                                   0.^.a.I ].b.:.:.:.` ` ` c.d.e.              ",
"              }.f.~ g.h.i.j.0 q 0 r k.[ l.' [ m.n.! t -.                          o.{.{.p.      Y q.r.s.t.{.                                                ].u.a.v.w.x.`  .y.z.A.:.` B.C.              ",
"              = 7 ) D.E.$ F.G.1.l l.H.I.P ' } J.v K.L -.                                          L.M.N.O.q.L.                                              Z A B ` P.Q...:.:.<.R...`  .S.              ",
"                * + |.T.) ) T.Q 8 o b ' q 0 n ) ' n |.j                                           U.V.W.X.9.Y.            x y z z z y x                         A B Z.`.` ` ` ` ` ` ` `  +              ",
"                  ^ K .+f.( ( ( ++@+#+$+I._ %+( &+# 7 ^                             x L.*+=+-+;+!.!.>+,+'+)+Y.      p.!+8.~+W W W W !.{+U.                        [.e.]+^+/+A.<.` ` ` (+_+              ",
"                      = - ; ; ; ; ; ; ; ; ; ; - =                                 x U :+<+[+).).).'.}+|+1+2+3+      {.4+5+).'.'.'.'.6+7+q.3+                            Z 8+9+0+a+b+c+_+e.              ",
"                                                                                  Y d+'.<+r.}+;+;+!.e+f+g+3+        {.>.h+~+8.7.7.7.i+O.j+q.U.                                                          ",
"                                                                                Y X ,.t.*+V.L.  x x x               o.y y k+        3+l+1+7+U                                                           ",
"                                                                                ~.).!.m+                                              V.n+6+t.                                                          ",
"                                                                                !.'.W x                                               x ;+).!.                                                          ",
"                                                                                !.).;+x                                               x -+).;+                                                          ",
"                                                                              U.;+).q.                                    U.3+X d+o+7.8.p+).X                 x L.V.g+3+U.                              ",
"                                                                              U.}+}+q.                          U.Y.=+-+!.!.>+<+[+q+'.'.'.X Y               Y X W }+7+}+X U.                            ",
"                                                                              U.X ).-+~.r+t.t.m+              {.~.s+[+).).'.}+<+r.t+W u+~.{.                Y ).'.}+7+<+}+{+Y                           ",
"                                                                                Y ~.6+9.v+)+w+U               ~.'.j+|+}+;+!.e+x+y+z+z y x                   Y ~.t.Y.f+e+q.).X Y x                       ",
"                                                                                  {.q.r.A+|+W U               8.9.v+5.L.x x x                                           Y 8.'.d+y                       ",
"                                                                                    L.M.B+C+L.x               D+E+F+z+                                                    G+'.W H+                      ",
"                                                                                      U.U.U.                  !+9.6+I+L.                                                  J+W '.J+                      ",
"                                                                                                              {.!.K+O.L+o+M+Y.3+U.                                      x N+O+7+Y.                      ",
"                                                                                                                U P+1+Q+6+'.}+;+Y                         U.{+q.;+;+;+;+2+R+S+7+3+                      ",
"                                                                          x T+L.U.U+                              3+q.n+n+W }+;+Y                       3+q.7+).).).).).).K+j+q.U.                      ",
"                            U+x y V+z z z z z z y x                       Y :+W+B+M.Y                               x y z X+V.3+U.                      t.j+S+B+;+;+;+;+-+-+t.3+                        ",
"                            U.U M.!.W W W W W W d+Y                       Y ,.6+).).Y                                                                 x -+K+Y+V.                                        ",
"                            U.~.!.s+'.'.'.'.'.'.Z+Y                       {.`+W+2+`+Y                                                                 x 4+6+-+x                                         ",
"                             @{.!+.@7.7.7.7.7.7.!+{.                        U.U.U.                                  +@3+3+@@                          L.;+).t.                                          ",
"                                                                                                                  Y q.7+q.U.                          3+}+}+e+                                          ",
"                                                                                                                  Y ).7+q.U.                          g+}+}+g+                                          ",
"                                                                                                                  Y #@e+3+@@                          3+}+}+e+                                          ",
"                                                                                                                                                      U.X ).q.Y                                         ",
"                                              x H+$@-+M.Y                                                                                               Y X ).P+7.g+U.                                  ",
"                                              Y u+%@).).X Y                                                                                               Y X ).j+}+Y                                   ",
"                                          x {+q.,+q+}+B+).X U.                                                                                              Y ;+j+}+Y                                   ",
"                                          x !.&@Z+r+*@t.}+}+L.                                                                                                3+g+g+U.                                  ",
"                                          x q.6+6+6.~+=@q+W X+                                                                                          U.Y Y U.                                        ",
"                                            3+t.-@;@).).'.d+y                                                                                           e+<+<+e+                                        ",
"                                              p.~.u+>@!.X Y x                                                                                           e+).).e+                                        ",
"                                                x x x                                                                                                   {+;+;+{+                                        ",
"                                                                                                                                                                                                        ",
"                                                                                                                                                                                                        ",
"                                                                                                                                                                                                        ",
"                                                                                                                                                                                                        ",
"                                                                                                                                                                                                        ",
"                                                                                                                                                                      ,@'@)@!@~@                        ",
"                                                                                                                                                                      {@]@^@/@(@_@:@                    ",
"                                              U.U M+7.7.<@[@U U+                                                                                                  }@|@1@2@3@4@5@6@_@7@                  ",
"                                          U.{+q.}+'.'.'.6+).M.U.                                                                                                8@9@4@3@0@a@b@3@c@d@7@                  ",
"                                          Y ;+).}+W W W n+>+!.U.                                                                                              e@f@0@g@h@i@j@k@l@0@m@7@                  ",
"                                      x Y X >+q.Y.X+z z n@m+{. @                                                                                            o@p@5@q@r@s@t@u@v@b@0@m@                    ",
"                                    x U d+w@U U.                                                                                  T x x o.                  x@y@2@s@z@A@B@C@c@D@C@E@                    ",
"                                    L.:+'.t.{.                                                                  x x x             x ;.5.{.                  x@F@G@H@I@6@y@B@C@J@E@o@                    ",
"                                    V.}+}+Y.                                                                U t.-+K@Y             V.L@F+U                   e@M@N@z@O@O@O@O@P@_@:@                      ",
"                                    V.}+W+*+x                                                           U.~.Q@Q+%@R@X Y           $@6+s+S@                    ,@T@U@V@V@V@V@W@7@                        ",
"                                    L.!.q+4+{+            x x x                                       x {+}+K+|+p+~+).X Y       x -+[+p+L.                                                              ",
"                                    x {+s+K+X@H+x         Y@:+M.{.                                    y !.q+N.C+L.d+>+).{+      L.4+6+=+x                                                               ",
"                                      U.8.9.A+~+e+g+g+g+u+'.Z@6+{.              x Y Y {.              y V `@D+ #{.t.s.}+{+      Y.}+}+U                                                                 ",
"                                        {.X W ,+<+<+W+}+)+)..#X@{.              x r+Z+~.x             x U >.6.{.Y s+W X U.      t.).;+L.                                                                ",
"                                          x m++#s.r.W+}+@###s.*+                L.!.'.:+x               x ;.5.{.Y $#U x         t.'.W L.                                                                ",
"                                              U e+7.x+g+P+`@%#Y.                3+>+}+e+x               T x x o.x x x           U ;+;+L.                                                                ",
"                                                        U.q.).q.U.              e+}+}+3+                                        U.Y Y U.                                                                ",
"                                                          {+;+>+Y.U U.        U.q.).q.U.                                                                                                                ",
"                                                          U.Y X s+B+*+X+x   x Y.W+}+{+                                                                                                                  ",
"                                                              Y d+<+r.W+D+7.q.4+).X U.                                                                                                                  ",
"                                                              x L.=+&#[+9.r.'.,.X Y                                                                                                                     ",
"                                                                  U M+=@E+<+!.!+{.                                                                                                                      ",
"                                                                      3+g+g+U.                                                                                                                          ",
"                                                                                                                                                                *#=#-#;#>#,#'#)#                        ",
"                                                                                                                                                              !#~#{#]#^#/#(#_#:#<#                      ",
"                                                                                                                                                              [#^#}#|#1#^#^#^#2#3#4#5#~#*#              ",
"                                                                                                                                                              [#6#7#8#^#^#^#^#^#^#^#^#9#*#              ",
"                                                                                                                                                              0#a#^#b#^#c#d#^#^#2#e#4#~#*#              ",
"                                                                                                                                                              )#f#g#b#^#h#i#j#b#k#l#m#                  ",
"                                                                                                                                                              )#n#o#2#^#e#p#q#q#r#{#s#                  ",
"                U.Y Y U.                                                                                                                                        t#6#j#^#2#^#^#^#d#}#u#                  ",
"                3+;+;+3+                                            @@U.U.@@      U.Y X {+Y             x x x                                                   =#{#v#j#^#^#^#o#i#[#*#                  ",
"                g+}+}+g+                      Y Y Y   L.X X U       U.{+{+U.      e+}+<+).X Y        @{.~.w#X@X@-+;+;+;+;+;+;+X Y                               *#~#x#y#{#p#z#A#'#)#                    ",
"                g+}+}+g+                    x X ).~.U.Y.t+6+U       L.q.q.U       P+).j+P+).X Y x   U.~.!.6+).).).).).).).).).).Y                                 <#B#C#,#,#'#)#                        ",
"                V.}+}+Y.                    L.W '.t.U.B+<+2+U       D#!.s+E#    U.2+).2+{+t.'.d+L.  U.U [@-+K+F#<+-+;+;+;+;+;+X Y                                                                       ",
"                L.-+q+-+3+      m+M.M.U     *+7+7+J+3+;+).e+        z+t+q+o+    {+}+}+{+  U }+}+Y.  U+x x G#u+A+p+V.                                                                                    ",
"                x 7.j+6+g+  x {+-+@#).M.x Y -+[+W L.{+}+}+{+        *+r.[+M+    q.).;+U.  U.q.).q.U.        X j+j+x+                                                                                    ",
"                  f+<+<+f+U.U W Q+Z@[+4+y X ).s+X L.q.).q.U.      x =+).>+U   x 2+).t+M+7.8.t+)+S+-+{.      x+<+<+X                                                                                     ",
"                  V.}+W+M.C+B+<+W+,.).}+H#W 6+d+U.g+|+;@I#q.;+;+;+X@q+[+Q@    Y@,.J#)+&#&#s.).).).Q+Y.      L.-+q+-+3+                                                                                  ",
"                  L.u+q+Y+O+).q.3+o+j+1+>@'.!.m+  X )+Z@'.).).).).).).).i+    C+F#F#@#6+6+q+K#J#L#M#C+      x C+j+6+Y.                                                                                  ",
"                  x ~.'.1+W+X Y   g+%#1+j+N#{+x x =+Q+F#v+=+;+;+;+O+S+j+M.    I+E+1+O#P#Q#$@~+B+&#j+R#x       V.n+q+=+U.                                                                                ",
"                    {.~.t.J+U.    U.e+1+1+P+U.  x r+,.!.U x       q.).;+U.  {.u+S#4+L.    x y X+L+).n+y       x {+;+!.U.                                                                                ",
"                                    3+;+).e+    x Y Y {.          X ).X     Y ,.'.X x           8.'.W y         U.Y Y U.                                                                                ",
"                                      Y Y Y                       Y Y Y     Y r+~.{.            {.Y Y x                                                                                                 ",
"                                                                            x x x                                                                                                                       ",
"                                                                                                                                                                                                        ",
"                                                                                                                                                                                                        ",
"                                                                                                                                                                                                        ",
"                                                                                                                                                                                                        "};
