/* XPM */
static char * wins_xpm[] = {
"300 100 921 2",
"  	c #CAF04B",
". 	c #C9F045",
"+ 	c #C9F047",
"@ 	c #CAF04D",
"# 	c #CCF15C",
"$ 	c #CEF167",
"% 	c #D1F275",
"& 	c #DBF49C",
"* 	c #EFFAD7",
"= 	c #FFFFFF",
"- 	c #EDF9D2",
"; 	c #D4F382",
"> 	c #CCF159",
", 	c #C9F049",
"' 	c #EAF9CC",
") 	c #E6D9DE",
"! 	c #CFB2BD",
"~ 	c #B1748D",
"{ 	c #AE6E89",
"] 	c #AD6B87",
"^ 	c #B57F95",
"/ 	c #B78398",
"( 	c #DDF5A5",
"_ 	c #CAF04F",
": 	c #CBF052",
"< 	c #CCF15B",
"[ 	c #D3F381",
"} 	c #F9F7F7",
"| 	c #B2778F",
"1 	c #BD91A3",
"2 	c #B27890",
"3 	c #CAAAB7",
"4 	c #EBE1E5",
"5 	c #DFCED4",
"6 	c #CAAAB6",
"7 	c #C198A8",
"8 	c #C39BAB",
"9 	c #D4BBC4",
"0 	c #CAF051",
"a 	c #CDF15F",
"b 	c #CDF163",
"c 	c #D5F386",
"d 	c #E6F8BF",
"e 	c #EBF9CF",
"f 	c #EEFAD6",
"g 	c #F4FCE5",
"h 	c #FBFEF6",
"i 	c #F4EEF0",
"j 	c #BC8FA1",
"k 	c #F0E8EB",
"l 	c #E3D4DA",
"m 	c #C39DAC",
"n 	c #B1758E",
"o 	c #C7A4B2",
"p 	c #BA899D",
"q 	c #AD6986",
"r 	c #AB6483",
"s 	c #E1E1E1",
"t 	c #C6C6C6",
"u 	c #AEAEAE",
"v 	c #999999",
"w 	c #E2F6B3",
"x 	c #E0F6AD",
"y 	c #ECF9D1",
"z 	c #D2F279",
"A 	c #CEF166",
"B 	c #F1FBDE",
"C 	c #EFE7E9",
"D 	c #C6A2B0",
"E 	c #E7DADE",
"F 	c #AC6885",
"G 	c #B37991",
"H 	c #AD6C88",
"I 	c #B47C93",
"J 	c #B57E95",
"K 	c #DBC7CE",
"L 	c #CBCBCB",
"M 	c #959595",
"N 	c #4F4E4E",
"O 	c #494848",
"P 	c #353434",
"Q 	c #262525",
"R 	c #454444",
"S 	c #B3B3B3",
"T 	c #F4F4F4",
"U 	c #CFF26E",
"V 	c #CDF162",
"W 	c #C096A6",
"X 	c #BB8C9F",
"Y 	c #AA6382",
"Z 	c #AB6684",
"` 	c #C49FAE",
" .	c #D1B6C1",
"..	c #CEB1BC",
"+.	c #C9A8B5",
"@.	c #8A8A8A",
"#.	c #2E2D2D",
"$.	c #5B5B5B",
"%.	c #CFF26D",
"&.	c #D2B8C2",
"*.	c #C8A5B3",
"=.	c #BD8FA1",
"-.	c #D7D7D7",
";.	c #CDCDCD",
">.	c #DFDEDE",
",.	c #E9E9E9",
"'.	c #656464",
").	c #0D0809",
"!.	c #515050",
"~.	c #6F6F6F",
"{.	c #1C1A1A",
"].	c #A6A5A5",
"^.	c #D1F277",
"/.	c #E0CFD5",
"(.	c #BB95A4",
"_.	c #AA6884",
":.	c #A36981",
"<.	c #8D6E7A",
"[.	c #6D6C6C",
"}.	c #838383",
"|.	c #9E9D9D",
"1.	c #606060",
"2.	c #3D3C3C",
"3.	c #797979",
"4.	c #D8F491",
"5.	c #D5BEC6",
"6.	c #A5A1A2",
"7.	c #8F6D7B",
"8.	c #7C4F61",
"9.	c #703C53",
"0.	c #3E222E",
"a.	c #27151D",
"b.	c #919191",
"c.	c #BCBBBB",
"d.	c #403F3F",
"e.	c #E4F7BA",
"f.	c #D6F38C",
"g.	c #D3F380",
"h.	c #D0F273",
"i.	c #B9AEB2",
"j.	c #B78F9F",
"k.	c #AF728C",
"l.	c #563141",
"m.	c #673B4F",
"n.	c #704056",
"o.	c #79465D",
"p.	c #6D3F53",
"q.	c #653A4D",
"r.	c #5D3547",
"s.	c #4E2C3B",
"t.	c #8E8E8E",
"u.	c #F5FCE7",
"v.	c #E0F6AE",
"w.	c #D2F27D",
"x.	c #7C7C7C",
"y.	c #676767",
"z.	c #875A6D",
"A.	c #A05C7A",
"B.	c #A3607D",
"C.	c #9B7182",
"D.	c #AEA9AB",
"E.	c #A6A6A6",
"F.	c #323030",
"G.	c #7C485F",
"H.	c #A96483",
"I.	c #C17295",
"J.	c #DB82AA",
"K.	c #D17CA2",
"L.	c #B86D8F",
"M.	c #A25F7D",
"N.	c #2A171F",
"O.	c #565656",
"P.	c #888888",
"Q.	c #E6F8C0",
"R.	c #D5F387",
"S.	c #807F7F",
"T.	c #6A6A6A",
"U.	c #1D1015",
"V.	c #582E41",
"W.	c #864763",
"X.	c #A15677",
"Y.	c #96506F",
"Z.	c #79435B",
"`.	c #3B393A",
" +	c #2A2929",
".+	c #543040",
"++	c #8E536D",
"@+	c #3C212D",
"#+	c #6E6E6E",
"$+	c #BDBDBD",
"%+	c #737373",
"&+	c #CEF165",
"*+	c #2D1821",
"=+	c #381F2A",
"-+	c #955773",
";+	c #874E68",
">+	c #7C445D",
",+	c #A35779",
"'+	c #8E4B69",
")+	c #522A3C",
"!+	c #190D12",
"~+	c #383737",
"{+	c #5C3446",
"]+	c #A05D7B",
"^+	c #A76281",
"/+	c #714156",
"(+	c #C5A0AE",
"_+	c #BB8B9E",
":+	c #BF95A6",
"<+	c #9F9F9F",
"[+	c #848484",
"}+	c #747474",
"|+	c #211218",
"1+	c #4B2A39",
"2+	c #77455B",
"3+	c #9B5B77",
"4+	c #B06888",
"5+	c #AF6285",
"6+	c #A4587B",
"7+	c #A15778",
"8+	c #884865",
"9+	c #492735",
"0+	c #76445A",
"a+	c #A15E7C",
"b+	c #432532",
"c+	c #878787",
"d+	c #A5A5A5",
"e+	c #AC6785",
"f+	c #A75B7D",
"g+	c #A95F80",
"h+	c #FCF8F9",
"i+	c #F6E5EC",
"j+	c #F0D5E0",
"k+	c #ECC7D6",
"l+	c #E9BCCE",
"m+	c #E7B5C9",
"n+	c #EAC0D0",
"o+	c #EECCD9",
"p+	c #F2DBE4",
"q+	c #F8ECF0",
"r+	c #424141",
"s+	c #161313",
"t+	c #24141A",
"u+	c #D17BA2",
"v+	c #BC6A8E",
"w+	c #AC5D81",
"x+	c #AE5F82",
"y+	c #985573",
"z+	c #482836",
"A+	c #4B4A4A",
"B+	c #AF6F8A",
"C+	c #A85D7F",
"D+	c #A7597C",
"E+	c #F1D6E0",
"F+	c #EABFD0",
"G+	c #E4A9C1",
"H+	c #DF97B6",
"I+	c #DD8AAE",
"J+	c #DC88AD",
"K+	c #DC85AC",
"L+	c #DC86AC",
"M+	c #DD8BAF",
"N+	c #E09AB8",
"O+	c #E9BBCD",
"P+	c #F2D9E3",
"Q+	c #474646",
"R+	c #222020",
"S+	c #AE6687",
"T+	c #C9749A",
"U+	c #B7668A",
"V+	c #C47297",
"W+	c #7A475E",
"X+	c #361E28",
"Y+	c #925571",
"Z+	c #140B0E",
"`+	c #DCC8D0",
" @	c #BE92A3",
".@	c #D7C0C8",
"+@	c #CFB3BD",
"@@	c #C7A5B2",
"#@	c #CCAEB9",
"$@	c #D5BCC6",
"%@	c #E2D2D8",
"&@	c #F8F4F5",
"*@	c #E8B9CC",
"=@	c #DD8DB0",
"-@	c #DB84AB",
";@	c #DB83AA",
">@	c #E3A4BE",
",@	c #F4DFE7",
"'@	c #522E3E",
")@	c #452634",
"!@	c #C07195",
"~@	c #D77FA7",
"{@	c #C57197",
"]@	c #B8678B",
"^@	c #AD5E82",
"/@	c #BE6B90",
"(@	c #C47196",
"_@	c #AD6586",
":@	c #5B3345",
"<@	c #7E7D7D",
"[@	c #C5A1AF",
"}@	c #A85C7E",
"|@	c #B0728C",
"1@	c #C49EAC",
"2@	c #AA6281",
"3@	c #AF708B",
"4@	c #C8A6B3",
"5@	c #C199A9",
"6@	c #E2A1BC",
"7@	c #DC88AE",
"8@	c #DE92B3",
"9@	c #8E536E",
"0@	c #7F4A62",
"a@	c #2F1A23",
"b@	c #62384B",
"c@	c #C77399",
"d@	c #BB698E",
"e@	c #AF5F83",
"f@	c #B7668B",
"g@	c #C26F94",
"h@	c #777676",
"i@	c #AE6D89",
"j@	c #A96080",
"k@	c #B47B92",
"l@	c #CDB0BB",
"m@	c #555454",
"n@	c #B37A92",
"o@	c #B8869A",
"p@	c #D1B5C0",
"q@	c #CCADB9",
"r@	c #B68096",
"s@	c #402330",
"t@	c #3A202B",
"u@	c #D37CA3",
"v@	c #CE789F",
"w@	c #D67EA6",
"x@	c #CDAEBA",
"y@	c #BF94A5",
"z@	c #E2A2BD",
"A@	c #969696",
"B@	c #804A62",
"C@	c #995A76",
"D@	c #B0738C",
"E@	c #B9889B",
"F@	c #C39CAB",
"G@	c #BC8EA0",
"H@	c #B78499",
"I@	c #D8C2CA",
"J@	c #DE8FB1",
"K@	c #8D526D",
"L@	c #B9889C",
"M@	c #D8C3CB",
"N@	c #D4BCC5",
"O@	c #EBC3D3",
"P@	c #D6BFC8",
"Q@	c #DE91B2",
"R@	c #E4ABC3",
"S@	c #D7C1C9",
"T@	c #B68297",
"U@	c #B68197",
"V@	c #E09BB9",
"W@	c #B47D94",
"X@	c #DF95B5",
"Y@	c #462735",
"Z@	c #C7A3B1",
"`@	c #C197A8",
" #	c #DBC7CF",
".#	c #B86C8E",
"+#	c #A3607E",
"@#	c #D27DA3",
"##	c #C6A1AF",
"$#	c #D2B7C1",
"%#	c #DE91B3",
"&#	c #321B25",
"*#	c #341D27",
"=#	c #422431",
"-#	c #945772",
";#	c #D67FA6",
">#	c #BA8A9D",
",#	c #D4BBC5",
"'#	c #E5D8DD",
")#	c #DAC6CD",
"!#	c #DC89AE",
"~#	c #5F3648",
"{#	c #9A5A76",
"]#	c #CE7AA0",
"^#	c #854D67",
"/#	c #5D5C5D",
"(#	c #BB8D9F",
"_#	c #C9A7B4",
":#	c #B9879B",
"<#	c #DC87AD",
"[#	c #4C2B3A",
"}#	c #DA81A9",
"|#	c #E3A7C0",
"1#	c #C6759A",
"2#	c #C8769B",
"3#	c #BD6F92",
"4#	c #DA82A9",
"5#	c #818081",
"6#	c #C3C2C2",
"7#	c #6B3E52",
"8#	c #512D3D",
"9#	c #583243",
"0#	c #BD90A2",
"a#	c #C29BAA",
"b#	c #DE93B3",
"c#	c #D37DA4",
"d#	c #B1698A",
"e#	c #A2607E",
"f#	c #8A536B",
"g#	c #9A5C77",
"h#	c #A46280",
"i#	c #C8779B",
"j#	c #BE7194",
"k#	c #CA789D",
"l#	c #5E3547",
"m#	c #6A3D51",
"n#	c #E19FBB",
"o#	c #C67599",
"p#	c #9E5E7A",
"q#	c #834E65",
"r#	c #6E4356",
"s#	c #673E50",
"t#	c #663E4F",
"u#	c #76475C",
"v#	c #D880A7",
"w#	c #573142",
"x#	c #201B1B",
"y#	c #362F2E",
"z#	c #292323",
"A#	c #D780A7",
"B#	c #AD6786",
"C#	c #76475B",
"D#	c #673F51",
"E#	c #79495E",
"F#	c #EADFE3",
"G#	c #E6B1C7",
"H#	c #8B516B",
"I#	c #472936",
"J#	c #533140",
"K#	c #714357",
"L#	c #7C4B61",
"M#	c #724559",
"N#	c #6E4255",
"O#	c #643D4E",
"P#	c #653D4F",
"Q#	c #4C4442",
"R#	c #463F3D",
"S#	c #7E726F",
"T#	c #7F7370",
"U#	c #2C2726",
"V#	c #694052",
"W#	c #6B4153",
"X#	c #8A526B",
"Y#	c #BF7194",
"Z#	c #834C65",
"`#	c #EBC4D3",
" $	c #A66381",
".$	c #633C4D",
"+$	c #623C4D",
"@$	c #643D4F",
"#$	c #74465A",
"$$	c #875169",
"%$	c #D9C5C0",
"&$	c #C4B2AD",
"*$	c #90827F",
"=$	c #B56C8D",
"-$	c #7B4A60",
";$	c #A86483",
">$	c #965974",
",$	c #6C4154",
"'$	c #8B536C",
")$	c #A76382",
"!$	c #C57599",
"~$	c #695E5C",
"{$	c #AD9D99",
"]$	c #F6E0DA",
"^$	c #B5A4A0",
"/$	c #857875",
"($	c #D981A8",
"_$	c #925771",
":$	c #6B4154",
"<$	c #613B4D",
"[$	c #563444",
"}$	c #7E4A61",
"|$	c #6E3F54",
"1$	c #EFD0DC",
"2$	c #8C536C",
"3$	c #5F3A4A",
"4$	c #633C4E",
"5$	c #6F4356",
"6$	c #A86482",
"7$	c #534B49",
"8$	c #615755",
"9$	c #A0918D",
"0$	c #EBD6D0",
"a$	c #D17CA3",
"b$	c #935872",
"c$	c #714458",
"d$	c #979797",
"e$	c #E5AEC4",
"f$	c #422532",
"g$	c #915570",
"h$	c #C47498",
"i$	c #A4617F",
"j$	c #7A495F",
"k$	c #6A4052",
"l$	c #ECC6D5",
"m$	c #FAF1F4",
"n$	c #786C69",
"o$	c #B96E8F",
"p$	c #6B4053",
"q$	c #714457",
"r$	c #A9A8A8",
"s$	c #FAFAFA",
"t$	c #ABABAB",
"u$	c #8A7D79",
"v$	c #BCAAA6",
"w$	c #D47DA4",
"x$	c #5D5351",
"y$	c #AC9C98",
"z$	c #1B1616",
"A$	c #4A4240",
"B$	c #DD8CB0",
"C$	c #814B63",
"D$	c #25201F",
"E$	c #6F6461",
"F$	c #988A86",
"G$	c #BFADA9",
"H$	c #756966",
"I$	c #3D3635",
"J$	c #8D8D8D",
"K$	c #E19CB9",
"L$	c #75445A",
"M$	c #726764",
"N$	c #CFBDB8",
"O$	c #554C4A",
"P$	c #636363",
"Q$	c #B1768F",
"R$	c #584F4D",
"S$	c #8C7F7C",
"T$	c #332D2B",
"U$	c #151011",
"V$	c #CFB3BE",
"W$	c #E3A5BF",
"X$	c #9F5D7B",
"Y$	c #B7A6A1",
"Z$	c #A89995",
"`$	c #7B6F6C",
" %	c #665C5A",
".%	c #564E4B",
"+%	c #847774",
"@%	c #BE93A4",
"#%	c #E7B4C9",
"$%	c #3B3433",
"%%	c #C6A3B0",
"&%	c #EECDDA",
"*%	c #683C50",
"=%	c #897C78",
"-%	c #645A57",
";%	c #423B39",
">%	c #948682",
",%	c #827672",
"'%	c #7C706D",
")%	c #4A2937",
"!%	c #585758",
"~%	c #C097A7",
"{%	c #844D65",
"]%	c #E8D3CD",
"^%	c #91837F",
"/%	c #D0BDB8",
"(%	c #383230",
"_%	c #403937",
":%	c #532F3F",
"<%	c #7D4860",
"[%	c #4F2D3C",
"}%	c #514947",
"|%	c #918480",
"1%	c #302A29",
"2%	c #5B5250",
"3%	c #535252",
"4%	c #824C64",
"5%	c #8F8E8E",
"6%	c #ECD7D1",
"7%	c #C6B4AF",
"8%	c #663B4E",
"9%	c #504745",
"0%	c #766A67",
"a%	c #867976",
"b%	c #E1CDC7",
"c%	c #864E67",
"d%	c #8B8B8B",
"e%	c #B6A5A1",
"f%	c #4D4C4C",
"g%	c #CBACB8",
"h%	c #A59591",
"i%	c #443D3B",
"j%	c #AC6585",
"k%	c #E8B8CC",
"l%	c #F1DBD5",
"m%	c #D57EA5",
"n%	c #D47EA5",
"o%	c #E2D3D8",
"p%	c #E5AFC5",
"q%	c #D981A9",
"r%	c #E19EBA",
"s%	c #B85771",
"t%	c #D2556D",
"u%	c #EB617B",
"v%	c #F76F86",
"w%	c #FC788D",
"x%	c #FC758B",
"y%	c #FD738A",
"z%	c #FD7188",
"A%	c #FD748B",
"B%	c #FC798D",
"C%	c #FC7C90",
"D%	c #FC8596",
"E%	c #FB99A3",
"F%	c #F8C3C3",
"G%	c #F7D8D3",
"H%	c #DD8EB1",
"I%	c #C25973",
"J%	c #F8647F",
"K%	c #FC6682",
"L%	c #FD6682",
"M%	c #FD6783",
"N%	c #FD6A84",
"O%	c #FC8294",
"P%	c #FAB1B5",
"Q%	c #9D8F8B",
"R%	c #D5C2BD",
"S%	c #FAA6AD",
"T%	c #FC778D",
"U%	c #FD7189",
"V%	c #FD6D86",
"W%	c #FD6984",
"X%	c #FB929E",
"Y%	c #D880A8",
"Z%	c #F3EDEF",
"`%	c #F6637E",
" &	c #FD6883",
".&	c #FAA2AA",
"+&	c #796D6A",
"@&	c #8A7D7A",
"#&	c #AE9E9A",
"$&	c #FC7E91",
"%&	c #A25975",
"&&	c #E65D77",
"*&	c #FC6581",
"=&	c #FD6E86",
"-&	c #FAABB0",
";&	c #6D625F",
">&	c #FC7A8E",
",&	c #CCACB8",
"'&	c #BE4D63",
")&	c #E75F78",
"!&	c #F66C83",
"~&	c #FB778C",
"{&	c #FC8797",
"]&	c #FC8A99",
"^&	c #FB8E9B",
"/&	c #F8CAC9",
"(&	c #FD6B85",
"_&	c #BEA09D",
":&	c #ECC8D7",
"<&	c #EDE5E8",
"[&	c #612835",
"}&	c #7F3D47",
"|&	c #9E5A62",
"1&	c #A36168",
"2&	c #A8686E",
"3&	c #D29E9F",
"4&	c #F9BDBE",
"5&	c #5F5654",
"6&	c #FB9DA7",
"7&	c #FB9BA5",
"8&	c #EF98A0",
"9&	c #D3868D",
"0&	c #DECCD2",
"a&	c #E099B8",
"b&	c #D7C3BE",
"c&	c #393738",
"d&	c #514F50",
"e&	c #444243",
"f&	c #A59692",
"g&	c #F3F3F3",
"h&	c #FDFDFD",
"i&	c #ECE2E5",
"j&	c #261D20",
"k&	c #86596C",
"l&	c #AA6986",
"m&	c #694152",
"n&	c #523D46",
"o&	c #282121",
"p&	c #FCFCFC",
"q&	c #4F2C3B",
"r&	c #A76582",
"s&	c #7F5B6A",
"t&	c #66575D",
"u&	c #2B2424",
"v&	c #2A1E21",
"w&	c #291C20",
"x&	c #291B1F",
"y&	c #291B20",
"z&	c #302529",
"A&	c #221C1F",
"B&	c #332E30",
"C&	c #61374A",
"D&	c #9C5B78",
"E&	c #E0E0E0",
"F&	c #26151C",
"G&	c #B1728D",
"H&	c #8D5E72",
"I&	c #684956",
"J&	c #60444F",
"K&	c #423439",
"L&	c #463F42",
"M&	c #0E1D11",
"N&	c #0F2414",
"O&	c #2A2022",
"P&	c #23181C",
"Q&	c #302227",
"R&	c #402C34",
"S&	c #513942",
"T&	c #573745",
"U&	c #573342",
"V&	c #5D3748",
"W&	c #653C4F",
"X&	c #6D4055",
"Y&	c #6D3E53",
"Z&	c #7A485E",
"`&	c #77465B",
" *	c #844F67",
".*	c #875E6F",
"+*	c #A8798D",
"@*	c #CC799E",
"#*	c #31282C",
"$*	c #6E4456",
"%*	c #C17396",
"&*	c #875068",
"**	c #7D5566",
"=*	c #5B5256",
"-*	c #144F2A",
";*	c #196838",
">*	c #113A1F",
",*	c #0E190F",
"'*	c #5B5054",
")*	c #774A5E",
"!*	c #845168",
"~*	c #A46781",
"{*	c #BA7191",
"]*	c #D17DA3",
"^*	c #9D5C79",
"/*	c #B88599",
"(*	c #CAA9B5",
"_*	c #D0B5BF",
":*	c #755361",
"<*	c #201B1D",
"[*	c #11371D",
"}*	c #239954",
"|*	c #31D275",
"1*	c #16582F",
"2*	c #0D0F0B",
"3*	c #7B6D72",
"4*	c #A57689",
"5*	c #A7798C",
"6*	c #FAF8F9",
"7*	c #FEFEFE",
"8*	c #603749",
"9*	c #494747",
"0*	c #343132",
"a*	c #A15F7D",
"b*	c #4B2D3A",
"c*	c #120A0C",
"d*	c #10301A",
"e*	c #218F4E",
"f*	c #2BB966",
"g*	c #144E29",
"h*	c #7D626D",
"i*	c #B06E8A",
"j*	c #DF94B4",
"k*	c #E09BB8",
"l*	c #BC9FAB",
"m*	c #7B797A",
"n*	c #3E2630",
"o*	c #402A33",
"p*	c #412F36",
"q*	c #77475C",
"r*	c #A1617D",
"s*	c #7A465D",
"t*	c #27151C",
"u*	c #33262B",
"v*	c #26A259",
"w*	c #251D20",
"x*	c #653C4E",
"y*	c #9A5B77",
"z*	c #E1A0BC",
"A*	c #DE90B2",
"B*	c #939393",
"C*	c #C9C9C9",
"D*	c #F9F6F7",
"E*	c #D1B6C0",
"F*	c #F7F3F4",
"G*	c #8C516B",
"H*	c #A96484",
"I*	c #5D3546",
"J*	c #544A4E",
"K*	c #3B3235",
"L*	c #130B0D",
"M*	c #472B37",
"N*	c #C2799A",
"O*	c #E6B2C7",
"P*	c #9C9C9C",
"Q*	c #5F5E5E",
"R*	c #C1BDBE",
"S*	c #694C58",
"T*	c #0F2916",
"U*	c #20884A",
"V*	c #766F72",
"W*	c #2A1F23",
"X*	c #130B0E",
"Y*	c #714759",
"Z*	c #9F8891",
"`*	c #A3A3A3",
" =	c #685D61",
".=	c #533844",
"+=	c #76465B",
"@=	c #C27899",
"#=	c #E099B7",
"$=	c #FBFBFB",
"%=	c #F6F6F6",
"&=	c #BAB6B8",
"*=	c #D384A6",
"==	c #C690A7",
"-=	c #D3BFC7",
";=	c #2E282A",
">=	c #76686D",
",=	c #A9969E",
"'=	c #229451",
")=	c #7C6F74",
"!=	c #4C373F",
"~=	c #37222B",
"{=	c #484345",
"]=	c #36212A",
"^=	c #C37D9B",
"/=	c #CDAFBA",
"(=	c #E4D6DB",
"_=	c #A88091",
":=	c #423A3D",
"<=	c #10351C",
"[=	c #27A95D",
"}=	c #F1EDEE",
"|=	c #CBB4BD",
"1=	c #95848A",
"2=	c #685E61",
"3=	c #423238",
"4=	c #C4809E",
"5=	c #EDE4E7",
"6=	c #EEE6E9",
"7=	c #C49EAD",
"8=	c #D799B3",
"9=	c #817076",
"0=	c #171313",
"a=	c #2FC970",
"b=	c #E3A8C1",
"c=	c #A2A1A1",
"d=	c #DEB4C5",
"e=	c #868384",
"f=	c #196B3A",
"g=	c #29B162",
"h=	c #15512C",
"i=	c #DBD0D4",
"j=	c #E8D1DA",
"k=	c #D6D6D6",
"l=	c #123F22",
"m=	c #229250",
"n=	c #15502B",
"o=	c #175E32",
"p=	c #1E8146",
"q=	c #0E2112",
"r=	c #DAC6CE",
"s=	c #FCFBFB",
"t=	c #EEE5E8",
"u=	c #20874A",
"v=	c #F2ECEF",
"w=	c #DCC9D0",
"x=	c #1D7A42",
"y=	c #186235",
"z=	c #27A75C",
"A=	c #15552D",
"B=	c #D3BAC4",
"C=	c #1B703D",
"D=	c #2DC06B",
"E=	c #1B713D",
"F=	c #196637",
"G=	c #134A27",
"H=	c #0E150D",
"I=	c #D3B9C3",
"J=	c #10331B",
"K=	c #CEB0BB",
"L=	c #C2C2C2",
"M=	c #D9C5CC",
"N=	c #696868",
"O=	c #D6F38B",
"P=	c #F0F0F0",
"Q=	c #E3F7B9",
"R=	c #F8FDEE",
"S=	c #DAF49A",
"T=	c #CDF161",
"U=	c #CFF16B",
"V=	c #D8F492",
"W=	c #D9F497",
"X=	c #D0F270",
"Y=	c #D7F490",
"Z=	c #D5F389",
"`=	c #DFF6AC",
" -	c #D8F495",
"  . . . + + + + @ # $ % & * = = = = = = = = = = = = = = = = = = = = = = = = = = = = = = = = = = = = = = = = = = = = = = = = = = = = = = = = = = = = = = = = = = = = = = = = = = = = = = = = = = = = = = = = = = = = = = = = = = = = = = = = = = = = = = = = = = = = = = = = = = = = = = = = = = = = = = = = = = = = = = = = = = = = = = = = = = = = = = = = = = = = = = = = = = = = = = = = = = = = = = = = = = = = = = = = = = = = = = = = = = = = = = = = = = = = = = = = = = = = = = = = = = = = = = = = = = = = = = = = = = = = = = = = = = = = = = = = = = = = = = = = = = = = = = = = = = = - ; > @ , + . . . . . ",
". . . . . . . . . + ,   $ ' = = = = = = = = = = = = = = = = = = = = ) ! ~ { ] ^ / ! ) = = = = = = = = = = = = = = = = = = = = = = = = = = = = = = = = = = = = = = = = = = = = = = = = = = = = = = = = = = = = = = = = = = = = = = = = = = = = = = = = = = = = = = = = = = = = = = = = = = = = = = = = = = = = = = = = = = = = = = = = = = = = = = = = = = = = = = = = = = = = = = = = = = = = = = = = = = = = = = = = = = = = = = = = = = = = = = = = = = = = = = = = = = = = = = = = = = = = = = = = = = = = = = = = = = = = = = = = = = = = = = = = = = = = = = = = = = = = = = = = = = = = = = ( _ . . . . . . . . . ",
". . . . . . . . .   : < [ ' = = = = = = = = = = = = = = = = = = = } ! | ^ 1 1 ^ 2 ~ 3 4 5 6 7 8 9 ) = = = = = = = = = = = = = = = = = = = = = = = = = = = = = = = = = = = = = = = = = = = = = = = = = = = = = = = = = = = = = = = = = = = = = = = = = = = = = = = = = = = = = = = = = = = = = = = = = = = = = = = = = = = = = = = = = = = = = = = = = = = = = = = = = = = = = = = = = = = = = = = = = = = = = = = = = = = = = = = = = = = = = = = = = = = = = = = = = = = = = = = = = = = = = = = = = = = = = = = = = = = = = = = = = = = = = = = = = = = = = = = = = = = = = = = = = = = = = = = ( 0 ,   : > a _ . . . ",
"0 . . . b c ; c & d e f g h = = = = = = = = = = = = = = = = = = = i j ~ 8 } k l m n ^ o p q r { ~ 3 k = = = = = = = = = = = = = = = = = = = = = = = = = = = = = = s t u v v u s = = = = = = = = = = = = = = = = = = = = = = = = = = = = = = = = = = = = = = = = = = = = = = = = = = = = = = = = = = = = = = = = = = = = = = = = = = = = = = = = = = = = = = = = = = = = = = = = = = = = = = = = = = = = = = = = = = = = = = = = = = = = = = = = = = = = = = = = = = = = = = = = = = = = = = = = = = = = = = = = = = = = = = = = = = = = = = = = = = = = = = = = = = = = = = = = = = = = = = = = = - w x y h = = z + . . ",
"A . . , B = = = = = = = = = = = = = = = = = = = = = = = = = = = = C p ~ D = = = E / F G H q I J { ^ K = = = = = = = = = = = = = = = = = = = = = = = = = = = = = L M N O P Q R S T = = = = = = = = = = = = = = = = = = = = = = = = = = = = = = = = = = = = = = = = = = = = = = = = = = = = = = = = = = = = = = = = = = = = = = = = = = = = = = = = = = = = = = = = = = = = = = = = = = = = = = = = = = = = = = = = = = = = = = = = = = = = = = = = = = = = = = = = = = = = = = = = = = = = = = = = = = = = = = = = = = = = = = = = = = = = = = = = = = = = = = = = = = = = = = = = = = = = = = = = = = = = = = = U + . . ",
"V . .   B = = = = = = = = = = = = = = = = = = = = = = = = = = = = i W ~ 8 k = = } X Y Z `  .5 ..~ F +.= = = = = = = = = = = = = = = = = = = = = = = = = = = = = @.#.P O P Q #.$.@.s = = = = = = = = = = = = = = = = = = = = = = = = = = = = = = = = = = = = = = = = = = = = = = = = = = = = = = = = = = = = = = = = = = = = = = = = = = = = = = = = = = = = = = = = = = = = = = = = = = = = = = = = = = = = = = = = = = = = = = = = = = = = = = = = = = = = = = = = = = = = = = = = = = = = = = = = = = = = = = = = = = = = = = = = = = = = = = = = = = = = = = = = = = = = = = = = = = = = = = = = = = = = = = %.+ . . ",
"_ . . b g = = = = = = = = = = = = = = = = = = = = = = = = = = = = } &.^ / K = = = *.H =.) = } 6 q ]  .s -.;.>.>.>.>.>.>.>.>.>.,.T = = = = = = = = = = = = = = s '.).!.v v v ~.{.O ].= = = = = = = = = = = = = = = = = = = = = = = = = = = = = = = = = = = = = = = = = = = = = = = = = = = = = = = = = = = = = = = = = = = = = = = = = = = = = = = = = = = = = = = = = = = = = = = = = = = = = = = = = = = = = = = = = = = = = = = = = = = = = = = = = = = = = = = = = = = = = = = = = = = = = = = = = = = = = = = = = = = = = = = = = = = = = = = = = = = = = = = = = = = = = = = = = = = = = = = = = = = = = = ^., + + ",
". . @ ; h = = = = = = = = = = = = = = = = = = = = = = = = = = = = = 4 W ~ o k = = /././.= = } (._.:.<.'.O $.$.$.$.$.$.$.$.$.$.$.'.'.[.}.|.t -.T T = = = = = = s 1.2.2.@.s = S 1.).3.s = = = = = = = = = = = = = = = = = = = = = = = = = = = = = = = = = = = = = = = = = = = = = = = = = = = = = = = = = = = = = = = = = = = = = = = = = = = = = = = = = = = = = = = = = = = = = = = = = = = = = = = = = = = = = = = = = = = = = = = = = = = = = = = = = = = = = = = = = = = = = = = = = = = = = = = = = = = = = = = = = = = = = = = = = = = = = = = = = = = = = = = = = = = = = = = = = = = = = = = = = = = = = 4.< : > ",
". .   c h = = = = = = = = = = = = = = = = = = = = = = = = = = = = = } 5./ / 5.} = = = = = s 6.7.8.9.).).0.a.a.a.a.a.a.a.a.a.a.a.).).).a.0.O '.$.3.b.t s = = = s c.3.d.'.s = = |.O O S = = = = = = = = = = = = = = = = = = = = = = = = = = = = = = = = = = = = = = = = = = = = = = = = = = = = = = = = = = = = = = = = = = = = = = = = = = = = = = = = = = = = = = = = = = = = = = = = = = = = = = = = = = = = = = = = = = = = = = = = = = = = = = = = = = = = = = = = = = = = = = = = = = = = = = = = = = = = = = = = = = = = = = = = = = = = = = = = = = = = = = = = = = = = = = = = = = = = = = = = = = = = = e.f.g.%.",
". .   h.h = = = = = = = = = = = = = = = = = = = = s t u u u u u u u u i.j.k.W 4 = = = L M [.0.).0.0.l.m.n.o.p.p.p.p.p.p.p.p.p.q.r.l.l.s.0.0.).a.).0.N M L = = = = t ].].s = = ;.$.#.t.= = = = = = = = = = = = = = = = = = = = = = = = = = = = = = = = = = = = = = = = = = = = = = = = = = = = = = = = = = = = = = = = = = = = = = = = = = = = = = = = = = = = = = = = = = = = = = = = = = = = = = = = = = = = = = = = = = = = = = = = = = = = = = = = = = = = = = = = = = = = = = = = = = = = = = = = = = = = = = = = = = = = = = = = = = = = = = = = = = = = = = = = = = = = = = = = = = = = = = = = = = = = = u.u.v.% ",
". . @ w.h = = = = = = = = = = = = = = = = s |.x.y.[.O O O O O O O O O O z.A.B.C.D.E.].3.F.).0.m.G.H.I.J.J.J.J.J.J.J.J.J.J.J.J.J.J.J.K.L.M.G.n.r.r.0.0.N.3.].-.= = = = = = = = ;.O.#.P.= = = = = = = = = = = = = = = = = = = = = = = = = = = = = = = = = = = = = = = = = = = = = = = = = = = = = = = = = = = = = = = = = = = = = = = = = = = = = = = = = = = = = = = = = = = = = = = = = = = = = = = = = = = = = = = = = = = = = = = = = = = = = = = = = = = = = = = = = = = = = = = = = = = = = = = = = = = = = = = = = = = = = = = = = = = = = = = = = = = = = = = = = = = = = = = = = = = = = = = = = = = = = = = Q.% ",
". + : R.= = = = = = = = = = = = = = s u S.T.P {.U.).0.0.0.0.0.0.0.0.0.0.V.W.X.Y.Z.2.`. +.+m.++I.J.J.J.J.J.J.J.J.J.J.J.J.J.J.J.J.J.J.J.J.J.J.J.J.I.H.G.q.a.@+#+|.t = = = = = = $+P #.%+= = = = = = = = = = = = = = = = = = = = = = = = = = = = = = = = = = = = = = = = = = = = = = = = = = = = = = = = = = = = = = = = = = = = = = = = = = = = = = = = = = = = = = = = = = = = = = = = = = = = = = = = = = = = = = = = = = = = = = = = = = = = = = = = = = = = = = = = = = = = = = = = = = = = = = = = = = = = = = = = = = = = = = = = = = = = = = = = = = = = = = = = = = = = = = = = = = = = = = = = = = = = = = = Q.% ",
"b b &+( = c.c.c.= = = = = = = = = c.@.P Q ).*+a.=+m.G.-+-+-+-+-+-+-+-+;+n.>+Y.,+'+)+!+~+{+]+K.J.J.J.J.J.J.J.J.J.J.J.J.J.J.J.J.J.J.J.J.J.J.J.J.J.J.J.K.^+/+0.U. +[.L = = = = T E.2.{.b.= = = = = = = = = = = = = = = = = = = = = = = = = = = = = = = = = = = = = = k K (+_+_+:+3 ) = = = = = = = = = = = = = = = = = = = = = = = = = = = = = = = = = = = = = = = = = = = = = = = = = = = = = = = = = = = = = = = = = = = = = = = = = = = = = = = = = = = = = = = = = = = = = = = = = = = = = = = = = = = = = = = = = = = = = = = = = = = = = = = = = = = = = = = = = = = = = = = = = = = = = = = = = = = = = = = = = - % ",
"' e.' ' T '.).O.L = T ,.>.;.<+[+%+}+).*+|+1+2+3+4+K.J.J.J.J.J.J.J.J.J.J.J.K.5+6+7+8+9+).a.s.0+a+J.J.J.J.J.J.J.J.J.J.J.J.J.J.J.J.J.J.J.J.J.J.J.J.J.J.J.J.I.++b+|+U.c+d+t S u b.1.`.[.S = = = = = = = = = = = = = = = = = = = = = = = = = = = = = = = = = = = = = k 5.p e+f+f+g+/ ) = = = = = = = = = = = = = = = = = = = = = = = = = = = = = = = = = = = = = = = = = = = = = = = = = = = = = = = = = = = = = = = = = = = = = = = = = = = = = = = = = = = = = = = h+i+j+k+l+m+n+o+p+q+= = = = = = = = = = = = = = = = = = = = = = = = = = = = = = = = = = = = = = = = = = = = = = = = = = = = = = = = = = = = = = = = u.( ",
"= = = = ,.r+).s+'.'.'.$.$.N Q s+U.t+n.p.-+H.J.J.J.J.J.J.J.J.J.J.J.J.J.J.J.J.u+v+w+x+y+m.s.a.).0+a+K.J.J.J.J.J.J.J.J.J.J.J.J.J.J.J.J.J.J.J.J.J.J.J.J.J.J.J.K.M.2+z+).A+A+N O O #.'.c.= = = = = = = = = = = = = = = = = = = = = = = = = = = = = = = = = = = = } &.X B+C+D+D+f+g+/ ) = = = = = = = = = = = = = = = = = = = = = = = = = = = = = = = = = = = = = = = = = = = = = = = = = = = = = = = = = = = = = = = = = = = = = = = = = = = = = = = = = = = = = E+F+G+H+I+J+K+K+L+M+N+O+P+h+= = = = = = = = = = = = = = = = = = = = = = = = = = = = = = = = = = = = = = = = = = = = = = = = = = = = = = = = = = = = = = = ' ",
"= = = = ,.Q+{. +).).).a.a.R+s+).|+/+S+J.J.J.J.J.J.J.J.J.J.J.J.J.J.J.J.J.J.J.J.T+U+w+v+V+^+W+q.X+Y+K.J.J.J.J.J.J.J.J.J.J.J.J.J.J.J.J.J.J.J.J.J.J.J.J.J.J.J.J.J.K.;+*+Z+F.A+O N }.S s = = = = = = = = = = = = = = = = = = = = = = = = = = = = = = = = = = = } `+ @g+D+D+D+D+f+g+/ ) = = = = = = = `+3 3 3 3 ) = = = = = k l .@+@@@#@$@%@4 } = = = = = = = = = = &@k k k k &@= = = = = = = = = = = = = = = = = = = = = = = = = = = = = = = = = = = = = = = h+E+*@=@-@;@;@J.J.J.J.;@-@M+>@F+,@= = = = = = = = = = = = = = = = = = = = = = = = = = = = = = = = = = = = = = = = = = = = = = = = = = = = = = = = = = = = = = = ",
"= = = = T %+R+N.'@l.r.q.l.)@a.b+2+!@J.J.J.J.J.J.J.J.J.J.J.J.J.J.J.J.J.J.J.J.J.~@{@]@^@/@(@u+_@a+a+K.J.J.J.J.J.J.J.J.J.J.J.J.J.J.J.J.J.J.J.J.J.J.J.J.J.J.J.J.J.J.I.:@!+2.<@E.t s = = = = = = = = = = = = = = = = = = = = = = = = = = = = = = = = = = = = = /.D Z f+D+D+f+Y 2 =.3 ) = = = = = = ) [@Y }@}@|@9 = = = k 5.1@2 Z g+g+g+2@3@p 3 /.= = = = = = = = ) K 4@5@5@.@k = = = = = = = = = = = = = = = = = = = = = = = = = = = = = = = = = = = = = = = ,@6@7@;@J.J.J.J.J.J.J.J.J.;@-@8@*@h+= = = = = = = = = = = = = = = = = = = = = = = = = = = = = = = = = = = = = = = = = = = = = = = = = = = = = = = = = = = = = = ",
"= = = = = @.Q |+9@J.J.J.0@a@b@4+K.J.J.J.J.J.J.J.J.J.J.J.J.J.J.J.J.J.J.J.J.J.J.J.~@c@d@e@f@g@u+J.J.J.J.J.J.J.J.J.J.J.J.J.J.J.J.J.J.J.J.J.J.J.J.J.J.J.J.J.J.J.J.J.J.^+W+a.h@S = = = = = = = = = = = = = = = = = = = = = = = = = = = = = = = = = = = = = 4 5.1@F f+D+D+f+i@6 4 } = = = = = = = k ! e+f+D+D+j@9 = k 5.1@2 g+f+D+D+D+D+f+D+}@H 3 /.= = = = = = /.3 k@] 2@| l@k = = = = = = } } } } } = = = = = = = = = = = = = = = = = = = = = = = = = = = = F+=@J.J.J.J.J.J.J.J.;@;@J.J.J.-@>@P+= = = = = = = = = = = = = = = = = = = = = = = = = = = = = = = = = = = = = = = = = = = = = = = = = = = = = = = = = = = = = = ",
"= = = = = u `.*+p.K.J.I.r.t+r.K.J.J.J.J.J.J.J.J.J.J.J.J.J.J.J.J.J.J.J.J.J.J.J.J.J.J.c@/@f@g@u+J.J.J.J.J.J.J.J.J.J.J.J.J.J.J.J.J.J.J.J.J.J.J.J.J.J.J.J.J.J.J.J.J.J.J.S+'@).m@$+= = = = = = = = = = = = = = = = = = = = = = = = = = = = = = = = = = = k *.n@j@f+f+}@e+o@1@l = = = = = = = = = l / f+D+D+D+C+p@%@q@r@j@f+D+D+D+D+D+D+f+D+D+C+{ ! ) = = = = /.3 H C+f+g+| l@k = = = = = = `+D D D 3 ) = = = = = = = = = = = = = = = = = = = = = = = = = = ,@G+-@J.J.J.J.J.J.J.J.;@K+-@J.J.;@I+m+= = = = = = = = = = = = = = = = = = = = = = = = = = = = = = = = = = = = = = = = = = = = = = = = = = = = = = = = = = = = = = ",
"= = = = = s %+U.b+M.J.++s@t@;+K.J.J.J.J.J.J.J.J.J.J.J.J.J.J.J.J.J.J.J.J.J.J.J.J.J.J.~@u@v@u+w@J.J.J.J.J.J.J.J.J.J.J.J.J.J.J.J.J.J.J.J.J.J.J.J.J.J.J.J.J.J.J.J.J.J.J.J.n.!+!+[+-.= = = = = = = = = = = = = = = = = = = = = = = = = = = = = = = = = k 5.I }@D+D+j@n@! ) = = = = = = = = = = = x@F D+D+D+D+j@8 D 3@C+f+D+D+f+}@g+g+g+C+f+D+f+C+~ 3 k = = /.3 H }@D+}@Z y@.@k = = = = = = `+q g+g+~ ! = = = = = = = = = = = = = = = = = = = = = = = = = = F+=@J.J.J.J.J.J.J.J.J.J.-@J+-@J.J.;@z@q+= = = = = = = = = = = = = = = = = = = = = = = = = = = = = = = = = = = = = = = = = = = = = = = = = = = = = = = = = = = = = ",
"= = = = = = A@Q |+B@J.m.).l.I.J.J.J.J.J.J.J.J.J.J.J.J.J.J.J.J.J.J.J.J.J.J.J.J.J.J.J.J.J.J.J.J.J.J.J.J.J.J.J.J.J.J.J.J.J.J.J.J.J.J.J.J.J.J.J.J.J.J.J.J.J.J.J.J.J.J.J.J.C@l.|+N.%+-.T = = = = = = = = = = = = = = = = = = = = = = = = = = = = = = = K p j@D+D+f+|@9 ) = = = = = = = = = = = k j f+D+D+D+D+~ :+H }@D+D+f+g+D@E@W @@F@G@H@g+f+D+}@^ l = l 1@F }@D+f+Z W 5.k &@= = = = = = I@Y f+f+C+8 = = = = = = = = = = = = = = = = = = = = = = = = = = G+-@J.J.J.J.J.J.J.J.J.J.J.;@-@J.J.J.J@p+= = = = = = = = = = = = = = = = = = = = = = = = = = = = = = = = = = = = = = = = = = = = = = = = = = = = = = = = = = = = = ",
"= = = = = = $+$.U.b@K@l.).m.J.J.J.J.J.J.J.J.J.J.J.J.J.J.J.J.J.J.J.J.J.J.J.J.J.J.J.J.J.J.J.J.J.J.J.J.J.J.J.J.J.J.J.J.J.J.J.J.J.J.J.J.J.J.J.J.J.J.J.J.J.J.J.J.J.J.J.J.J.J.I.m.!+*+x.c.= = = = = = = = = = = = = = = = = = = = = = = = = = = = = = } o e+f+D+f+i@1@) = = = = = = = = = = = } 5.F D+D+D+D+}@D@H }@f+f+g+2 1@5.k = = = = /.L@}@D+D+q M@= 5.D@f+D+f+e+*.`+} = = = = = = = = N@j@D+D+f+p = = = = = = = = = = = = = = = = = = = = = = = = = = N+;@J.J.J.J.J.J.J.J.J.J.J.J.;@;@J.J.J+O@= = = = = = = = = = = = = = = = = = = = = = = = = = = = = = = = = = = = = = = = = = = = = = = = = = = = = = = = = = = = = ",
"= = = = = = T c.3.).1+X+0.++J.J.J.J.J.J.J.J.J.J.J.J.J.J.J.J.J.J.J.J.J.J.J.J.J.J.J.J.J.J.J.J.J.J.J.J.J.J.J.J.J.J.J.J.J.J.J.J.J.J.J.J.J.J.J.J.J.J.J.J.J.J.J.J.J.J.J.J.J.J.J.C@n.t@a.3.].s = = = = = = = = = = = = = = = = = = = = = = = = = = = = %@o@}@D+D+] 6 l = = = = = = = = = = = = 4 X f+D+D+D+f+Z j@}@f+C+{ W 5.k = = = = = = = W g+D+D+g++@} 1@j@D+D+C+1@/.= = = = = = = = = = P@r D+D+f+k@= = = = = = = = = = = = = = = = = = = = = = = = = = Q@J.J.J.J.J.J.J.J.J.J.J.J.J.;@-@J.J.-@R@= = = = = = = = = = = = = = = = = = = = = = = = = = = = = = = = = = = = = = = = = = = = = = = = = = = = = = = = = = = = = ",
"= = = = = = = = ].O {.).b+I.J.J.J.J.J.J.J.J.J.J.J.J.J.J.J.J.J.J.J.J.J.J.J.J.J.J.J.J.J.J.J.J.J.J.J.J.J.J.J.J.J.J.J.J.J.J.J.J.J.J.J.J.J.J.J.J.J.J.J.J.J.J.J.J.J.J.J.J.J.J.J.J.I.C@n.).O @.T = = = = = = = = = = = = = = = = = = = = = = = = = = = S@Z f+D+}@T@4 = = = = = = = = = = = = = $@e+D+D+D+D+j@F f+D+f+H p@%@} = = = = = = = = [@g+D+D+g+@@i U@f+D+f+H 5.= = = = = = = = = = = S@2@D+D+f+n@= = = = = = = = = = = = = = = = = = = = = = = = = = J@J.J.J.J.J.J.J.;@;@J.J.J.J.;@-@J.J.;@V@= = = = = = = = = = = = = = = = = = = = = = = = = = = = = = = = = = = = = = = = = = = = = = = = = = = = = = = = = = = = = ",
"= = = = = = = = s 3.).).1+J.J.J.J.J.J.J.J.J.J.J.J.J.J.J.J.J.J.J.J.J.J.J.J.J.J.J.J.J.J.J.J.J.J.J.J.J.J.J.J.J.J.J.J.J.J.J.J.J.J.J.J.J.J.J.J.J.J.J.J.J.J.J.J.J.J.J.J.J.J.J.J.J.J.J.a+r.!+$.S = = = = = = = = = = = = = = = = = = = = = = = = = = = ..g+D+D+g+y@} = = = = = = = = = = = = } o@f+D+D+D+}@n@Y D+D+}@L@) = = = = = = = = = = @@g+D+D+g+@@E B+f+f+}@W@k = = = = = = = = = = = o C+D+D+f+X = = = = = = = = = = = = = = = = = = = = = = = = = = J@J.J.J.J.J.J.J.-@L+J.J.J.J.;@-@J.J.;@X@= = = = = = = = = = = = = = = = = = = = = = = = = = = = = = = = = = = = = = = = = = = = = = = = = = = = = = = = = = = = = ",
"= = = = = = = = = 3.|+U.m.J.J.J.J.J.J.J.J.J.J.J.J.J.J.J.J.J.J.J.J.J.J.J.J.J.J.J.J.J.J.J.J.J.J.J.J.J.J.J.J.J.J.J.J.J.J.J.J.J.J.J.J.J.J.J.J.J.J.J.J.J.J.J.J.J.J.J.J.J.J.J.J.J.J.J.J.C@Y@).1.-.= = = = = = = = = = = = = = = = = = = = = = = = = = Z@C+D+D+j@`@k = = = = = = = = = = = } +.e+D+D+D+D+3@X g+D+D+g+W = = = = = = = = = = = 5@C+D+D+C+5@ #F D+D+C+y@= = = = = = = = = = = k / f+D+D+}@` = = = = = = = = = = = = = = = = = = = = = = = = = h+J@J.J.J.J.J.J.J.K+K+J.J.J.J.;@-@J.J.J.Q@h+= = = = = = = = = = = = = = = = = = = = = = = = = = = = = = = = = = = = = = = = = = = = = = = = = = = = = = = = = = = = ",
"= = = = = = = = s 3.).b@.#J.J.J.J.J.I.+#C@S+@#J.J.J.J.J.J.J.J.J.J.J.J.J.J.J.J.J.J.J.J.J.J.J.J.J.J.J.J.J.J.J.J.J.J.J.J.J.J.J.J.J.J.J.J.J.J.J.J.J.J.J.J.J.J.J.J.J.J.J.J.J.J.J.J.J.J.J.n.!+#.|.s = = = = = = = = = = = = = = = = = = = = = = = = = +.Y D+D+f+q E@(+S@} = = = = = = = k 5.~ D+D+D+D+g+##5@g+D+D+g+@@= = = = = = = = = = } X }@D+D+}@@@$#2@D+D+C+y@= = = = = = = = = = } `+B+D+D+D+Y  .= = = = = = = = = = = = = = = = = = = = = = = = = h+%#J.J.J.J.J.J.J.-@K+J.J.J.J.J.;@J.J.J.=@i+= = = = = = = = = = = = = = = = = = = = = = = = = = = = = = = = = = = = = = = = = = = = = = = = = = = = = = = = = = = = ",
"= = = = = = = = |.`.&#G.J.J.J.J.J.C@r.*#=#-#K.J.J.J.J.J.J.J.;#K.K.;#J.J.J.J.J.J.J.J.J.J.J.J.J.J.J.J.J.J.J.I.I.I.J.J.J.J.J.J.J.J.J.J.J.J.J.J.J.J.J.J.J.J.J.J.J.J.J.J.J.J.J.J.J.K.K.K.C@:@|+2.b.= = = = = = = = = = = = = = = = = = = = = = = = = M@D@}@D+D+D+f+C+] k@>#` ..,#'#,#(+_+H f+D+D+D+D+W@l +@Y D+D+C+L@S@4 } = = = = = = = 4 I f+D+D+g++@$@j@D+D+}@n@)#i } = = = = = } %@q@_+C+D+D+f+I l = = = = = = = = = = = = = = = = = = = = = = = = = h+8@J.J.J.J.J.J.J.-@-@J.J.J.J.J.;@J.J.J.!#j+= = = = = = = = = = = = = = = = = = = = = = = = = = = = = = = = = = = = = = = = = = = = = = = = = = = = = = = = = = = = ",
"= = = = = = = s T.!+X+H.J.J.J.J.H.1+Z+U.~#]+K.J.J.J.J.J.J.J.I.{#{#I.J.J.J.J.J.J.J.J.J.J.J.J.J.J.J.J.J.J.J.a+0+a+J.J.J.J.J.J.J.J.J.J.J.J.J.J.J.J.J.J.J.J.J.J.J.J.J.J.J.J.J.J.]#G./+^#J.H.X+)./#t = = = = = = = = = = = = = = = = = = = = = = = = l y@H }@D+D+D+D+D+f+f+}@C+2@F 2@C+f+D+D+D+D+D+e+q@= M@|@}@D+f+g+H G (#_#S@4 } = = k ..q D+D+D+F M@M@] f+D+D+}@i@G :#y@F@@@F@G@T@n Y }@D+f+C+D@3 = = = = = = = = = = = = = = = = = = = = = = = = = = h+H+;@J.J.J.J.J.J.;@-@J.J.J.J.J.;@;@J.J.<#k+= = = = = = = = = = = = = = = = = = = = = = = = = = = = = = = = = = = = = = = = = = = = = = = = = = = = = = = = = = = = ",
"= = = = = = = -.d.a.'@I.J.J.J.K.G.U.Z+[#M.K.}#J.J.J.J.J.J.I.++r.n.I.J.J.J.J.J.J.J.J.J.J.J.J.J.J.J.J.J.J.K.0+l.0@J.J.J.J.J.J.J.J.J.J.J.J.J.J.J.J.J.J.J.J.J.J.J.J.J.J.J.J.J.J.I.1+!+m.J.I.m.t+U.3.T = = = = = = = = = = = = = = = = = = = = = = = k /.3 ^ C+D+D+D+D+D+D+D+D+D+D+D+D+D+D+D+D+D+f+r@} = l =.q }@f+f+f+f+}@g+e+|@2 k@^ k@q f+D+D+g+_+l l / C+D+D+D+D+f+}@C+g+g+g+C+f+f+D+D+f+j@U@x@l = = = = = = = = = = = = = = = = = = = = = = = = = = h+|#-@J.J.J.J.J.J.;@-@J.J.J.J.J.;@;@J.J.K+l+= = = = = = = = = = = = = = = = = = = = = = = = = = = = = = = = = = = = = = = = = = = = = = = = = = = = = = = = = = = = ",
"= = = = = = = E.d.U./+J.J.J.J.L.'@U.s.M.J.J.J.J.J.J.J.J.J.C@[#b+Y+1#J.J.J.J.J.J.J.J.J.J.J.J.J.J.J.J.J.J.2#r.a@o.J.J.J.J.J.J.J.J.J.J.J.J.J.J.J.J.J.J.1#S+S+1#J.J.J.J.J.J.J.J.I.'@N.'@a+J.I.r.!+N S T = = = = = = = = = = = = = = = = = = = = = = = = k 5.o@q C+f+D+D+D+D+D+D+D+D+D+D+D+D+D+D+j@! = = k `+D H }@f+D+D+D+D+D+f+f+f+f+f+f+D+D+}@^ K = k ! ~ }@D+D+D+D+D+D+D+D+D+D+D+D+D+f+j@k@5.k = = = = = = = = = = = = = = = = = = = = = = = = = = = = l+-@J.J.J.J.J.J.;@-@J.J.J.J.J.;@;@J.J.K+m+= = = = = = = = = = = = = = = = = = = = = = = = = = = = = = = = = = = = = = = = = = = = = = = = = = = = = = = = = = = = ",
"= = = = = = = E.Q |+0+J.J.J.I.;+0.1+C@J.J.J.J.J.J.J.J.J.K.n.a..+L.J.J.J.J.J.J.J.J.J.J.J.J.J.J.J.J.J.J.J.3#b+|+~#J.J.J.J.J.J.J.J.J.4#J.J.J.J.J.J.J.J.I.r.r.++J.J.J.J.J.J.J.J.]#H.~#).l.H.J.C@n.a.5#6#= = = = = = = = = = = = = = = = = = = = = = = = = = 4 S@(+E@~ 2@}@f+f+f+f+f+f+}@f+D+D+D+q E = = = } /.3 ^ r f+f+D+D+D+D+D+D+D+D+D+D+}@H 3 k = = ) 3 p e+C+f+f+D+D+D+D+D+D+D+f+}@q j ! ) = = = = = = = = = = = = = = = = = = = = = = = = = = = = = k+<#J.J.J.J.J.J.-@K+;@J.J.J.J.;@;@J.J.K+m+= = = = = = = = = = = = = = = = = = = = = = = = = = = = = = = = = = = = = = = = = = = = = = = = = = = = = = = = = = = = ",
"= = = = = = = S.*+*+-+J.J.K.++1+b+++I.J.J.J.J.J.J.J.J.J.Y+@+U.7#K.J.J.J.J.J.J.J.J.J.J.J.J.J.J.J.J.J.J.J.;+a@).8#I.J.J.J.J.J.J.J.J.J.J.J.J.J.J.J.J.J.I.9#).m.K.J.J.J.J.J.J.J.J.J.2+|+|+;+J.J.S+m.|+y.S = = = = = = = = = = = = = = = = = = = = = = = = = = = = } 4 $@Z@0#/ J ^ J X a#Z D+D+D+{ i = = = = = k K o o@|@Z g+f+f+D+D+D+D+f+g+n@D /.= = = = } %@p@`@W@{ Z 2@g+g+g+2@e+G 1 q@%@} = = = = = = = = = = = = = = = = = = = = = = = = = = = = = = i+b#J.J.J.J.J.J.;@-@;@J.J.J.J.;@;@J.J.K+m+= = = = = = = = = = = = = = = = = = = = = = = = = = = = = = = = = = = = = = = = = = = = = = = = = = = = = = = = = = = = ",
"= = = = = = s 3.).m.I.J.J.L.r.a.n.I.J.J.J.J.J.J.J.J.J.J.7#!+a.Y+J.J.J.c#d#e#f#g#h#K.J.J.J.J.J.J.J.J.J.J.n.).!+a@;+2#J.J.J.J.}#J.c#i#L.j#k#J.J.J.J.J.;#l#U.X+M.J.J.J.J.J.J.J.J.J.3+=+U.m#J.J.J.++&#!+3.s = = = = = = = = = = = = = = = = = = = = = = = = = = = = = = = = = = = = = i { D+D+f+n } = = = = = = = } i E 9 8 E@n H F F H n@ @&.4 } = = = = = = = } i E  #$##@@@#@$@5 4 } = = = = = = = = = = = = = = = = = = = = = = = = = = = = = = = = = h+n#;@J.J.J.J.J.;@-@;@J.J.J.J.;@;@J.J.K+m+= = = = = = = = = = = = = = = = = = = = = = = = = = = = = = = = = = = = = = = = = = = = = = = = = = = = = = = = = = = = ",
"= = = = = = -.O 0.n.J.J.J.;+0.0.C@J.J.J.J.J.J.J.J.J.J.I.'@).1+L.J.o#p#q#r#s#s#t#u#o#J.J.v#J.J.J.J.J.J.I.w#x#y#z#.+{#J.J.J.J.A#J.B#C#D#s#E#B#J.J.J.J.J.0+|+|+9@J.J.J.J.J.J.J.J.J.2#r.a.q.I.J.J.L.b@X+d.].c.= = = = = = = = = = = = = = = = = = = = = = = = = = = = = = = = = = = = E q D+D+f+W@= = = = = = = = = = = = = } i C F#'#F#C i } = = = = = = = = = = = = = = = = = = = = = = = = = = = = = = = = = = = = = = = = = = = = = = = = = = = = = = = G#-@J.J.J.J.J.J.K+;@J.J.J.J.;@;@J.J.K+m+= = = = = = = = = = = = = = = = = = = = = = = = = = = = = = = = = = = = = = = = = = = = = = = = = = = = = = = = = = = = ",
"= = = = = = $+$.a.;+J.J.J.m.).l.I.J.J.J.J.J.J.J.J.J.K.H#I#J#K#L#M#N#D#O#O#P#O#t#u#o#J.J.J.J.J.J.J.J.J.++Q#R#S#T#U#/+a+J.J.J.J.J.B#V#O#O#O#t#W#X#Y#J.J.Z#*+*+Z#J.J.J.J.J.J.J.J.J.K.p.*+&#-+J.J.J.M.b@m@).c.= = = = = = = = = = = = = = = = = = = = = = = = = = = = = = = = = = = =  #r D+D+}@:#= = = = = = = = = = = = = = = = = = = = = = = = = = = = = = = = = = = = = = = = = = = = = = = = = = = = = = = = = = = = = = = = = = = = = = = = = = = = = `#I+J.J.J.J.J.J.-@;@J.J.J.J.;@-@J.J.K+l+= = = = = = = = = = = = = = = = = = = = = = = = = = = = = = = = = = = = = = = = = = = = = = = = = = = = = = = = = = = = ",
"= = = = = = E.P *+0+J.J.H.0.).:@J.J.J.J.J.J.J.J.J.J. $.$+$@$P#O#O#O#O#O#P#V##$$$h#K.J.J.J.J.J.J.J.J.S+m.).T#%$&$*$)./+{#K.J.J.J.=$q#W#P#O#O#O#O#W#-$;$9@0.0.-+J.J.J.J.J.J.J.J.J.J.9@|+|+0+J.K.L.;+1+).@.c.= = = = = = = = = = = = = = = = = = = = = = = = = = = = = = = = = = = = $#2@D+D+C+y@= = = = = = = = = = = = = = = = = = = = = = = = = = = = = = = = = = = = = = = = = = = = = = = = = = = = = = = = = = = = = = = = = = = = = = = = = = = = = i+b#J.J.J.J.J.J.;@;@J.J.J.J.-@;@J.J.<#O@= = = = = = = = = = = = = = = = = = = = = = = = = = = = = = = = = = = = = = = = = = = = = = = = = = = = = = = = = = = = ",
"= = = = = = S.Q |+-+J.J.-+|+|+p.J.J.J.J.J.J.J.J.J.J.>$O#O#O#O#O#P#s#,$E#'$)$!$J.J.J.J.J.J.J.J.J.J.I.0@U#~${$]$]$^$/$).r.++I.J.J.J.($i#_$:$P#O#O#O#O#P#@$<$[$}$J.J.J.J.J.J.J.J.J.J.M.b+U.b@.#|$s@a.t@@.c.= = = = = = = = = = = = = = = = = = = = = = = = = = = = = = = = = = = = = #@g+D+D+g+F@= = = = = = = = = = = = = = = = = = = = = = = = = = = = = = = = = = = = = = = = = = = = = = = = = = = = = = = = = = = = = = = = = = = = = = = = = = = = = h+n#J.J.J.J.J.J.J.J.J.J.J.J.-@;@J.J.7@1$= = = = = = = = = = = = = = = = = = = = = = = = = = = = = = = = = = = = = = = = = = = = = = = = = = = = = = = = = = = = ",
"= = = = = T T.).b+H.J.J.Z#*+*+Z#J.J.J.J.J.J.J.J.J.J.2$3$4$P#5$L#X#6$Y#c#J.J.J.J.J.J.J.J.J.J.J.K.^+Y+7$8$9$0$]$]$]$^$/$U#Q#0@S+J.J.J.J.J.a$b$c$P#O#O#O#O#O#O#D#B#J.J.J.J.J.J.J.J.J.K.p.*+a.l.*#).|+d$s = = = = = = = = = = = = = = = = = = = = = = = = = = = = = = = = = = = = = = @@g+D+D+g+@@= = = = = = = = = = = = = = = = = = = = = = = = = = = = = = = = = } `+`+`+`+/.= = = = = = = = = = = = = = = = = = = = = = = = = = = = = = = = = = = = = = = e$;@J.J.J.J.J.J.J.J.J.J.J.;@J.J.J.=@,@= = = = = = = = = = = = = = = = = = = = = = = = = = = = = = = = = = = = = = = = = = = = = = = = = = = = = = = = = = = = ",
"= = = = = ,.$.a.q.J.J.J.-+0.0.-+J.J.J.J.J.J.J.J.J.J.-+f$f$g$J.J.J.J.J.J.J.J.J.J.J.J.J.J.J.K.L.;+r.y#/$^$%$]$]$]$]$]$&$*$Q#U#/+{#K.J.J.J.J.J.h$i$j$k$P#O#O#O#O#B#J.J.J.J.J.J.J.J.J.J.9@|+!+U.U.~+$.;.= = = = = = = = = = = = = = = = = = = = = = = = = = = = = = = = = = = = = = = @@g+D+D+g+@@= = = = = = = = = = = = = = = = = = = = = = = = = = = = = = = = = /.D D@D@| /.= = = = = = = = = = = = = = = = = = = = = = = = = = = = = = = = = = = = = = = l$7@J.J.J.J.J.J.J.J.J.J.J.;@J.J.;@b#m$= = = = = = = = = = = = = = = = = = = = = = = = = = = = = = = = = = = = = = = = = = = = = = = = = = = = = = = = = = = = ",
"= = = = = ;.$.a.o.J.J.J.;+0.0.M.J.J.J.J.J.J.J.J.J.J.-+0.0.-+J.J.J.J.J.J.J.J.J.J.J.J.J.K.M.2+'@R#U#n$^$]$]$]$]$]$]$]$]$%$9$~$).r.++I.J.J.J.J.J.J.J.c#o$p$+$4$q$B#J.J.J.J.J.J.J.J.J.J.M.=+Z+F.h@r$s s$= = = = = = = = = = = = = = = = = = = = = = = = = = = = = = = = = = = = = = = @@g+D+D+g+@@= = = = = = = = = = = = = = = = = = = = = = = = = = = = = = = = /.3 H g+g+| /.= = = = = = = = = = = = = = = = = = = = = = = = = = = = = = = = = = = = = = = ,@=@J.J.J.J.J.J.J.J.J.J.J.;@J.J.;@V@h+= = = = = = = = = = = = = = = = = = = = = = = = = = = = = = = = = = = = = = = = = = = = = = = = = = = = = = = = = = = = ",
"= = = = = t$0.0.Y+J.J.J.n.a.s.L.J.J.J.J.J.J.J.J.J.J.-+0.0.-+J.J.J.J.J.J.J.J.J.K.2#3+2+:@=+|+x#Q#u$v$0$]$]$]$]$]$]$]$]$]$0${$T#z#&#'@;+I.J.J.J.J.J.J.J.q.a.s.2#J.J.J.J.J.J.J.J.J.J.J.K.:@).#.3.s = = = = = = = = = = = = = = = = = = = = = = = = = = = = = = = = = = = = = = = = = @@g+D+D+g+@@= = = = = = = = = = = = = = = = = = = = = = = = = = = = = = = l =.r f+D+}@| /.= = 4  # # # #4 = = = = = = = = = = = = = = = = = = = = = = = = = = = = = = = m$H+J.J.J.J.J.;@J.J.J.J.;@J.J.J.-@R@= = = = = = = = = = = = = = = = = = = = = = = = = = = = = = = = = = = = = = = = = = = = = = = = = = = = = = = = = = = = = ",
"= = = = = }.a.s.L.J.J.J.r.).l.K.J.J.J.J.J.J.J.J.J.J.H.b+0.G.w$J.J.J.J.K.L.M.G.m.s.=+|+).x#z#x$y$%$]$]$]$]$]$]$]$]$]$]$]$]$]$&$S#z#z$A$G.H.I.J.J.J.J.I.r.).m.K.J.J.J.J.J.J.J.J.J.J.J.J.p.U.s+!.S = = = = = = = = = = = = = = = = = = = = = = = = = = = = = = = = = = = = = = = = = F@g+D+D+g+#@= = = = = = = = = = = = = = = = = = = = = = = = = = = = = = =  .q D+D+D+q 3 /.= = 3 { Y 2@F 5@4 } = = = = = = = = = = = = = = = = = = = = = = = = = = = = = h+R@;@J.J.J.J.;@;@;@;@;@J.J.J.;@B$O@= = = = = = = = = = = = = = = = = = = = = = = = = = = = = = = = = = = = = = = = = = = = = = = = = = = = = = = = = = = = = ",
"= = = = s [.).m.K.J.J.J.l.).l.J.J.J.J.J.J.J.J.J.J.J.I.0@N.9#C$;+n.r.l.l.s.0.R#).U#x#D$Q#E$F$G$]$]$]$]$]$]$]$]$]$]$]$]$]$]$]$]$G$H$Q#I$R#0.l.:@p.-+H.++0.t@m.a+K.J.J.J.J.J.J.J.J.J.J.J.Z#a.s+R+J$T = = = = = = = = = = = = = = = = = = = = = = = = = = = = = = = = = = = = = = = = G@C+D+D+2@$@= = = = = = = = = = = = = = = = = = = = = = = = = = = = = = k 7 C+D+D+f+y@) = = k =.f+D+D+D+Z p 3 k = = = = = = = = = = = = = = = = = = = = = = = = = = = = = k+-@J.J.J.J.J.J.;@;@J.J.J.J.-@K$p+= = = = = = = = = = = = = = = = = = = = = = = = = = = = = = = = = = = = = = = = = = = = = = = = = = = = = = = = = = = = = ",
"= = = = -.O 0.n.J.J.J.J.r.).1+L.J.J.J.J.J.J.J.J.J.J.J.S+L$a.t@R#U#).).).U#R#R#~$M$n$F$G$]$]$]$]$]$]$]$]$]$]$]$]$]$]$]$]$]$]$]$]$0$N$F$O$R#).).|+*+Y@N.a@'.N.r.M.J.J.J.J.J.J.J.J.J.J.J.-+t@Q R+P$-.= = = = = = = = = = = = = = = = = = = = = = = = = = = = = = = = = = = = = = = k T@f+D+D+q 5 = } /./././.) = = = = = = = = = = = = = = = = = = = = = = = K Q$D+D+D+Y 6 = = = l 3@D+D+D+D+D+}@^ 5.= = = = = = = = = = = = = = = = = = = = = = = = = = = = = j+8@J.J.J.J.J.J.J.J.J.J.J.-@8@F+q+= = = = = = = = = = = = = = = = = = = = = = = = = = = = = = = = = = = = = = = = = = = = = = = = = = = = = = = = = = = = = ",
"= = = = E.N t+;+J.J.J.J.0@|+t+b@L.J.J.J.J.J.J.J.J.J.K.K.{#m#R#R#R$8$8$~$S#F$G$%$]$]$]$]$]$]$]$]$]$]$]$]$]$]$]$]$]$]$]$]$]$]$]$]$]$]$%$G$S$H$R#D$T$).U$R#/$R#z#7#S+J.J.J.J.J.J.J.J.J.J.-+0.N.F.O |.= = = = = = = = = = = = = = = = = = ) /./././.} = = = = = = = = = = = = = = = K B+f+D+f+J 4 = } V$| | / ! k = = = = = = = = = = = = = = = = = = = = = = 7 g+D+D+f+J 5 = = = 5 Y D+D+D+D+D+D+j@1@= = = = = = = = = = = = = = = = = = = = = = = = = = = = = h+l+J+J.J.J.J.;@;@;@;@K+M+W$*@,@= = = = = = = = = = = = = = = = = = = = = = = = = = = = = = = = = = = = = = = = = = = = = = = = = = = = = = = = = = = = = = ",
"= = = = %+|+*+C@J.J.J.J.S+r.!+a.l.p.Z#M.4+Y#Y#Y#X$Y+n.B@g$Y$9$y$N$0$]$]$]$]$]$]$]$]$]$]$]$0$N$N$%$]$]$]$]$]$]$]$]$]$]$]$]$]$]$]$]$]$]$]$]$]$G$Z$`$ %.%+%G$/$R#z#m.++I.J.J.J.J.J.J.J.J.-+0.X+)@).3.s = = = = = = = = = = = = = = = = = ! / | | D } = = = = = = = = = = = = = = ) 0#C+D+D+C+5@} = } *.Z g+2@/ l = = = = = = = = = = = = = = = = = = = = = /.G f+D+D+Z &.} = = = 5 Z D+D+D+D+D+D+f+@%= = = = = = = = = = = = = = = = = = = = = = k /./././.k = = p+W$7@L+-@M+Q@b#X@6@#%1$,@= = = = = = = = = = = = = = = = = = = = = = = = = = = = = = = = = = = = = = = = = = = = = = = = = = = = = = = = = = = = = = = = ",
"= = = t d.).=#I.J.J.J.J.J.C@m.X+).|+*+0.s.s.s.s.s.a.0.X+K@9$9$%$]$]$]$]$]$]$]$]$]$]$0$N$F$x$$%y#S#&$]$]$]$]$]$]$]$]$]$]$]$]$]$]$]$]$]$]$]$]$]$]$]$0$0$0$]$%$9$~$).1+G.H.I.J.J.J.J.J.J.M.0.0.l.O O ].= = = = = = = = = = = = = = = = = o r j@j@W } = = = = = = = = = = = = = 4 1@Z D+D+D+{ &.= = } *.g+f+f+] x@k = = = = = = = = = = = = = = = = = = = = 3 g+D+D+D+2 4 = = = = 5 n@}@D+D+D+D+D+f+o@= = = = = = = = = = = = = = = = = = = = = k 5.y@| | %%k = = = E+&%&%&%E+h+h+h+h+h+= = = = = = = = = = = = = = = = = = = = = = = = = = = = = = = = = = = = = = = = = = = = = = = = = = = = = = = = = = = = = = = = = = ",
"= = = |.R+U.*%J.J.J.J.I.I.I.I.++1+|+*+0.a.a.a.a.a.s.b+n.n.H$S$%$]$]$]$]$]$]$]$%$y$=%-%;%x#).).U$U#^$]$]$]$]$]$]$]$]$]$]$]$]$]$Z$>%,%G$%$]$]$]$]$]$]$]$]$]$]$0${$'%;%t@)%;+L.K.J.J.J.J.L.s.a.b@:@).!%t = = = = = = = = = = = = = = = = _+}@f+f+2 4 = = = = = = = = = = = = = `+n@f+D+D+f+p 4 = = } x@i@f+D+}@U@K = = = = = = = = = = = = = = = = = = = k =.f+D+D+f+=.} = = = = 4 D H }@f+D+D+D+}@=.= = = = = = = = = = = = = = = = = = = = = l p Z g+Z ~%k = = = h+h+h+h+h+= = = = = = = = = = = = = = = = = = = = = = = = = = = = = = = = = = = = = = = = = = = = = = = = = = = = = = = = = = = = = = = = = = = = = = = ",
"= = s %+R+b+M.J.K.M.B@b@r.L$a+a+H.-+Z#;+o.p.p.p.{%Y+L.Z#t@I$>%]%]$]$]$0$N$^%/$8$$%U$U$).).).).D$~$^$]$]$]$]$]$]$]$]$]$]$]$]$/%(%).).z$_%8$`$Z$%$]$]$]$]$]$]$]$]$G$E$2.X+0..+n.C@I.J.J.K.m.).r.p. +Q b.T = = = = = = = = = = = = = = = _+f+D+D+F &.k = = = = = = = = = = 5 x@j g+D+D+f+Z 3 } = = = l :#C+D+f+r o k = = = = = = = = = = = = = = = = = = K 3@D+D+D+] 3 = = = = = } /.3 ~ C+D+D+}@H 3 = = = = = /.5.5.5.5.k = = = = = = = = = = x@{ f+f+C+~%k = = = = = = = = = = = = = = = = = = = = = = = = = = = = = = = = = = = = = = = = = = = = = = = = = = = = = = = = = = = = = = = = = = = = = = = = = = = = = = = ",
"= = ].2.P :%<%p.[%&#U.U.l.r.).0+K.J.J.J.J.J.J.J.J.J.J.Z#|+D$>%]$%$G$^%x$y#z$).U$U$).).).).x#}%|%N$0$]$]$]$]$]$]$]$]$]$]$]$]$&$x#).).).).).z$1%E$/$Z$%$]$]$]$]$]$G$2%3%~#1+a.a.0.r.b@0+Z#:@*#t@4%9#U.1.6#= = = = = = = = = = = = = = = 1@Y f+D+C+p 5.} = = = = = = = = ) 1 q }@D+D+f+e+:+/.= = = = k &.D@f+D+}@I K = = = = = = = = = = = = = = = = = = o g+D+D+}@j k = = = = = = = ) ! / ] Z D@y@/.= = = = /.3 H Y Y p 5.k = = = = = = = = } @%C+D+D+r x@k = = = = = = = = = = = = = = = = = = = = = = = = = = = = = = = = = = = = = = = = = = = = = = = = = = = = = = = = = = k l M@M@5 4 } = = = = = = = = = = = = = = ",
"= = A@R+{.#.*+|+).Z+!+b+++b@a.s.L.J.J.J.J.J.J.J.J.J.J.p.T$T$Z$]$^$;%x#).).).).).).).).z#R$F$%$]$]$]$]$]$]$]$]$]$]$]$]$]$]$]$&$}%D$).).).).).U$U$z$1%~$u$v$0$]$]$v$Q#b+o.C@n..+0.).!+Z+!+t+|+0.H.^+.+a.5%T = = = = = = = = = = = = = = 5.k@C+D+f+Y W %@= = = = = } %@q@1 Y D+D+D+g+r@*.%@= = = = = = 4  @C+D+f+Y o k = = = = = = = = = = = = = = = = k _+f+D+D+q &.= = = = = = = = = k l M@M@M@l k = = = k 3 H }@D+f+j@^ 3 = = = = = = = = i n@f+D+f+H l = = = = = = = = = = = = = = = = = = = = = = = = = = = = = = = = = = = = = = = = = = = = = = = = = = = = = = = = = = k 5.p ^ ^ ^ D /.= = = = = = = = = = = = = = ",
"= = c.'. +P P Q  +t+b+M.K.;+0.0.M.J.J.J.J.J.J.J.J.J.J.m.).8$%$]$/$D$).).).).).U$).x#}%F$N$0$]$]$]$]$]$]$]$]$]$]$]$]$]$]$]$]$6%0$7%/$z#U$).U$).).).U$).U$7$9$]$]$7%R$U#o.J.K.L.;+m.|+).).s+Z+8%I.K.b@U.Q+$+= = = = = = = = = = = = = = l x@G }@D+f+q `@@@@@#@#@m j J r }@D+D+D+D+{ K k = = = = = = = } &.D@f+D+f+I K = = = = = = = = = = = = = = = = 5.B+f+D+f+U@4 = = = = = = = = = = = = = = = = = = = 5.^ }@D+D+D+D+}@=.k = = = = = = = E B+D+D+f+W@k = = = = = = = = = = = = = = = = = = = = = = = = = = = = = = = = = = = = = = = = = = = = = = = = = = = = = = = = = k 3 ^ 2 ^ ^ D@q =.l = = = = = = = = = = = = = ",
"= = = t u v v u '.).m.K.J.;+0.0.M.J.J.J.J.J.J.J.J.J.K.l.).~$]$]$9$).U$z$D$1%9%7$ %S$G$]$]$]$]$]$]$]$]$]$]$]$]$]$]$]$]$]$]$]$]$]$]$%$Z$0%O$z#).).).).).).U$a%]$]$b%~$U#q.I.J.J.J.K.l#!+s+s+N.c%J.J.;+a.Q d%s = = = = = = = = = = = = = = k q@3@}@f+}@j@g+g+g+2@2@C+f+D+D+D+D+}@q =.) = = = = = = = = = 4  @C+D+f+Y o = = = = = = = = = = = = = = = } 1@C+D+D+C+1@} = = = = = = = = = = = = = = = = = = } 1@j@D+D+D+D+D+D+3@5.k = = = = = = ! r D+D+}@0#= = = = = = = = = = = = = = = = = = = = = = = = = = = = = = = = = = = = = = = = = = = = = = = = = = = = = = = = = k 5.^ n ##M@M@1 F ] M@= = = = = = = = = = = = = ",
"= = = = = = = = }.a.s.L.J.;+a.s.M.J.J.J.J.J.J.J.J.J.L.s.U#S#]$]$^$*$S#F$Z$e%7%b%0$]$]$]$]$]$]$]$]$]$]$]$]$]$]$]$]$]$]$]$]$]$]$]$]$]$]$]$%$S$R#U#x#).).).U$;%^$]$0$9$8$)%C@S+J.J.J.X$b+Z+U.X+-+J.J.H.1+*+f%s = = = = = = = = = = = = = = = %@D H }@f+D+D+D+D+D+D+D+D+D+D+f+Y X x@l = = = = = = = = = = } &.q D+D+f+_+k = = = = = = = = = = = = = = i U@f+D+f+H 5.= = = = = ) ) ) ) ) = = = = = = = = = i U@f+D+D+C+f+D+D+C+p l = = = = = k :+C+D+D+2@g%= = = = = = = = ,@F+e$G+G+*@E+h+= = = = = = = = = = = = = = = = = = = = = = = = = = = = = = = = = = = = = = = = } 5.p I x@l = = +@3@3@+@= = = K 5.5.} = = = = = = ",
"= = = = = = = = |.0.0.M.J.;+0.0.M.J.J.J.J.J.J.J.J.J.M.0.R#F$]$]$]$]$]$]$]$]$]$]$]$]$]$]$]$]$]$]$]$]$]$]$]$]$]$]$]$]$]$]$]$]$]$]$]$]$]$]$]$0$b%7%h%~$i%x#U$).^$]$]$%$^$/$a@0+a+J.J.2#s.|+1+j%4+J.J.J.G.).'.t = = = = = = = = = = = = = = = } /.3 H }@D+D+D+D+D+D+D+f+}@Z o@*.`+} = = = = = = = = = = = = 4 n@f+D+f+B+l = = = = = = = = = = = = = = C B+D+D+f+2 k = = = = = ! / / / 3 } = = = = = = = = I@B+D+D+f+H ~ f+D+f+{ x@= = = = = l Q$f+D+f+D@K = = = = = = = 1$G+M+-@J.;@L+K$k%1$= = = = = = = = = = = = = = = = = = = = = = = = = = = = = = = = = = = = = = = i X { 0#k = = = M@^ ^ M@= = /.:+] D } = = = = = = ",
"= = = = = = = = u O 0.-+J.-+0.0.-+J.J.J.J.J.J.J.J.J.-+0.R#Z$]$]$]$]$]$]$]$]$]$]$]$]$]$]$]$]$]$]$]$]$]$]$]$]$]$]$]$]$]$]$]$l%0$0$l%]$]$]$]$]$]$]$]$]$%$F$E$S#^$]$]$]$]$^$n$).m.++L.K.l.).9#m%n%J.J.J.G.0.O t = = = = = = = = = = = = = = = = = /.y@D@Y g+g+g+C+C+j@|@1 q@%@} = = = = = = = = = = = = = = } L@}@D+D+r M@= = = = = = k k k k k = = = o%F D+D+f+U@= = = = = 4 1 j@C+C+W } = = = = = = = = [@C+D+D+C+0#x@Z D+D+C+@%k = = = } x@Z D+D+}@@%k = = = = = = = p%7@J.J.J.J.J.;@J+G+E+= = = = = = = = = = = = = = = = = = = = = = = = = = = = = = = = = = = = = = i p ] 8 = = = =  .^ ^ 5 = = 3 Z 3@3 } = = = = = = ",
"= = = = = = = = u O 0.-+J.-+0.0.-+J.J.J.J.J.J.J.J.J.-+0.R#Z$]$]$]$]$]$]$]$]$]$]$]$]$]$]$]$]$]$]$]$]$]$]$0$^$^$&$]$]$]$]$]$%${${$%$]$]$]$]$]$]$]$]$]$]$]$]$]$]$]$]$]$]$0${$u$D$a.'@H.l.).:%q%4#J.J.J.G.0.O t = = = = = = = = = = = = = = = = = k l M@+@@@@@F@F@+. .K k = = = = = = = = = = = = = = = = = = ##g+D+D+g+##= = = = l 1@o@D@D@U@5.k = = S@r D+D+}@X = = = = = 5.3@f+f+f+W } = = = = = = = k L@f+D+D+e+9 l Q$f+D+f+D@K = = = 4 X }@D+f+F x@= = = = = = = E+r%;@J.J.J.J.J.J.J.L+W$i+= = = = = = = = = = = = = = = = = = = = = = = = = = = = = = = = = = = = = } 3 y@! = = = k o ~ W 4 = } =.F _+k = = = = = = = ",
"= = = = = = = = |.O 0.M.J.-+0.0.-+J.J.J.J.J.J.J.J.J.s%t%u%v%w%x%y%z%A%B%C%D%E%F%G%]$]$0$^$^$&$]$]$]$]$]$7%_%x#-%]$]$]$]$]$y$~$~$N$]$]$]$]$]$]$]$]$]$]$]$]$]$]$]$]$]$]$]$]$&$ %U$|+G.:@)..+I.J.}#J.I.m.).3.s = = = = = = = = = = = = = = = = = = = = = = = = = = = = = = = = = = = = = = = = = = = = = = = $@Y D+D+}@G@= = = = 5.D@f+D+D+g+^ 3 = = $#2@D+D+C+y@= = = = ) 1@C+D+D+g+W } = = = = = = = 5.B+D+D+f+o@) k 5@C+D+D+2@o k = = &.B+f+D+f+I l = = = = = = i+W$K+J.J.J.J.J.J.J.J.J.H%j+= = = = = = = = = = = = = = = = = = = = = = = = = = = = = = = = = = = = = = k k k = = = k o@3@J #@M@$@X k@! = k 4 4 } = = = ",
"= = = = = = = = t.a.s.4+J.-+0.0.-+J.J.J.J.J.J.J.J.J.I%J%K%L%L%L%L%L%L%L%L%M%N%O%P%]$]$0$n$I$*$]$]$]$]$]$Q%z$).i%0$]$]$]$%$,%1%M$R%]$]$]$]$]$]$G%S%D%T%U%V%N%W%W%W%W%W%y%X%]$Z$A$#.=#p.0.0.H.J.Y%I.++0.1+].= = = = = = = = = = = = = = = = = = = = = = = = = = = = = = = = = = = = = = = = = = = = = = = = 5 q D+D+f+T@k = } /.1@j@D+D+D+D+}@=.) = m g+D+D+g++.= = = } ! { f+D+f+n@&.} = = = = = = k 1@C+D+D+g+1@= = &.n f+D+f+I 5.} k 5@C+D+D+2@o k = = = = = = j+H%J.J.J.J.J.J.J.J.J.J.<#k%= = = = = = = = = = = = = = = = = = = = = = = = = = = = = = = = = = = = = = = = = = = = k x@D@{ U@^ I ^ 3 ) = 5.| n@##Z%= = ",
"= = = = = = = T h@a..+2#J.H.0.0.G.J.J.J.J.J.J.J.J.J.I%`%L%L%L%L%L%M%M%W% &L%L%W%.&]$]$0$T#).~$&$]$]$]$%$+&U$).D$@&0$0$#&0%$%Q#9$0$]$]$]$]$]$]$P%$& &L%L%L%L%L%L%L%L%L%L%$&G%y$O$).b@9@0.0.;+J.J.C@1+0.|.s = = = = = = = = = = = = = = = = = = = = = = = = = = = = = = = = = = = = = = = = = = = = = = = = 4 ~ D+D+D+e+M@= `+D F f+D+D+D+D+D+q 9 k L@}@D+D+Z M@= = = 4 j C+f+f+Z *.k = = = = = = k 5.2 f+D+f+2 5.= = 4 W j@f+f+j@W E 5.Q$f+D+f+2 K = = = = = = = k+L+J.J.J.J.J.J.J.J.J.J.;@k%= = = = = = = = = = = = = = = = = = = = = = = = = = = = = = = = = = = = = = = = = = = = = l 3 =.U@^ ^ y@/.= = 5.F C+k@) = = ",
"= = = = = = = T P$a.r.K.J.I.l.).m.J.J.J.J.J.J.J.J.J.%&&&*&M% & & &W%=&L%W% & &U%-&]$]$]${$n$1%`$`$`$;&x$(%T$z$).I$M$M$;%z$x#*$%$]$]$]$]$]$]$P%$&M%M% & &M%M%L%L%L%L%L%L%>&G%=%z$a.C$L..+a.n.K.S+o.N.x.-.= = = = = = = = = = = = = = = = = = = = = = = = = = = = = = = = = = = = = = = = = = = = = = = = = } I f+D+D+C++@/.*.q }@D+g+j@D+D+D+C+8  .D@f+D+f+Q$l = = = 5 3@f+D+f+T@%@= = = = = = = 5.p g+D+f+Y 1@k = = } 5.G f+D+f+n ,&W g+D+f+j@1@k = = = = = = = k+-@J.J.J.J.J.J.J.J.J.J.-@k%= = = = = = = = = = = = = = = = = = = = = = = = = = = = = = = = = = = = = = = = = = = = = = = k l M@M@l k = = l E@i@^ ) = = ",
"= = = = = = = ,.'.).q.J.J.J.r.).l.K.J.J.J.J.J.J.J.J.-+'&)&!&~&~&>&>&y%O%{&]&^&.&/&]$]$]$0$^$/$1%U#U#U#).U#+&O$T$x#U#U#x#D$8$&$]$]$]$]$]$]$]$P%L%L%L%L%L%L%L%L%(&y%V%N%$&P%_&-%x#s.4+K.9#U.*+8%r.a@@.c.T = = = = = = = = = = = = = = = = = = = = = = = = = = = = = = = = = = = = = = = = = = = = = = = = = } X }@D+D+}@1 ! H }@f+C+k@0#B+f+D+f+| X 2@D+D+C+:+k = = = $@Y D+D+C+G@} = = = = = = /.1@Y f+D+j@p 5.= = = = k (+g+D+D+j@W@D@f+D+f+I 5.= = = = = = = = k+J+J.J.J.J.J.J.J.J.J.-@=@:&= = = = = = = = = = = = = = = = = = = = = = = = = = = = = = = = = = = = = = = = = = = = = = = = = = = = = = = = <&l l Z%= = ",
"= = = = = = = ,.$.a.q.J.J.J.b@U.=+M.J.J.J.J.J.J.J.J.Z#[&}&|&1&2&3&4&F%/&]$]$]$]$]$]$]$]$]$]$^$n$R$R$7$8$/$&$%$y$S#5&5&E$F$G$]$]$]$]$]$]$]$]$P%X%$&$&$&$&$&$&O%^&6&7&8&9&/$E$).0+a+K.J.m#!+U.t+a.c+c.= = = = = = = = = = = = = = = = = = = = = = = = = = = = = = = = = = = = = = = = = = = = = = = = = = = = 5@}@D+D+f+~ ~ C+f+}@H 3 0&j C+D+f+j@3@}@D+D+Z ! = = = = m g+D+D+g++.= = = = = = ) 3 F f+D+}@^ 5.k = = = = = S@F D+D+f+j@}@D+D+2@o k = = = = = = = = p+a&-@J.J.J.J.J.J.J.-@=@*@E+= = = = = = = = = = = = = = = = = = = = = = = = = = = = = = = = = = = = = = = = = = = = = = = = = = = = = = = = = = = = = = ",
"= = = = = = = ;.$.a.o.J.J.J.;+|+|+2+J.J.J.J.J.J.J.J.9@|+Q O$x#U#x$u$h%0$]$]$]$]$]$]$]$]$]$]$0$b%b&b&b%0$]$]$]$]$0$b%b%0$]$]$]$]$]$]$]$]$]$]$]$]$]$]$]$]$]$]$0$N$e%F$S#(%D$x#0+a+J.J.J.B@*+|+Q+[+6#T = = = = = = = = = = = = = = = = = = = = = = = = = = = = = = = = = = = = = = = = = = = = = = = = = = = = 5@C+D+D+f+j@}@D+f+] 3 /.} ! H D+D+}@j@D+D+f+|@E = = = } L@}@D+D+r M@= = = = = M@_+e+f+D+f+] 3 k = = = = = = 4 W@f+D+D+f+D+D+f+2 K = = = = = = = = = q+*@8@-@J.J.J.J.J.;@=@*@E+= = = = = = = = = = = = = = = = = = = = = = = = = = = = = = = = = = = = = = = = = = = = = = = = = = = = = = = = = = = = = = = ",
"= = = = = = = E.P *+0+J.J.J.H.1+).:@I.J.J.J.J.J.J.J.M.t@!+c&d&e&I$x#Q#T#f&b%0$]$]$]$]$]$]$]$]$]$]$]$]$]$]$]$]$]$]$]$]$]$]$]$]$]$]$]$]$]$0$b%b&b&7%9$>%>%F$S#~$R$R#R#U#T$|+s.a+J.J.J.J.L.s.t+x.g&h&= = = = = = = = = = = = = = = = = = = = = = = = = = = = = = = = = = = = = = = = = = = = = = = = = = = = = @@g+D+D+f+f+D+f+Z *./.= = E H@f+D+D+D+D+D+f+| i = = = i n@f+D+f+H l = = = = i&7 2@D+D+D+Y *./.= = = = = = = } 7 C+D+D+D+D+D+j@1@k = = = = = = = = = = ,@F+K$<#;@J.J.-@M+*@E+= = = = = = = = = = = = = = = = = = = = = = = = = = = = = = = = = = = = = = = = = = = = = = = = = = = = = = = k l l k = = = = = ",
"= = = = = = = S.Q |+-+J.J.J.J.++0.0.++J.J.J.J.J.J.J.K.p.|+j&k&l&m&n&o&).R$R$H$S$e%7%b&b&b&b&b&b&b&b&b&b&b&b&b&b&b&b&b&7%9$>%>%F$S#~$8$8$8$R$R$R$R$T$D$T$R#U#).U#_%=+w#p.9@M.K.J.J.J.J.K./+).[.L p&= = = = = = = = = = = = = = = = = = = = = = = = = = = = = = = = = = = = = = = = = = = = = = = = = = = = = @@g+D+D+D+D+f+j@=.`+= = = i D j@D+D+D+D+D+f+G@} = = = i |@D+D+f+n 4 = = = = ) I f+D+D+}@X `+= = = = = = = = =  .] f+D+D+D+}@^ 5.= = = = = = = = = = = = q+:&p%H%K+L+8@*@E+= = = = = = = = = = = = = = = = = = = = = = = = = = = = = = = = = = = = = = = = = = = = = = = = = = = = = = = = /.U@F J +@= = = = ",
"= = = = = = s f%).X+H.J.J.J.J.I.m.).:@H.J.J.J.J.J.J.J.-+a@|+q&H.K.r&s&t&u&U#).R#R#R$R$7$Q#Q#7$R$R$R$R$R$R$R$R$R$R$R$R$R$T$D$T$R#U#).).).).v&w&x&y&z&A&B&0.s.r.b@C&*%m#D&L.J.J.J.J.J.J.J.{#r.a.M E&= = = = = = = = = = = = = = = = = = = = = = = = = = = = = = = = = = = = = = = = = = = = = = = = = = = = = @@C+D+D+D+D+C+/ &.i = = = } /.I D+D+D+D+D+C++.= = = = i | f+f+f+^ } = = = = ) n f+D+D+F x@} = = = = = = = = = l :+q f+D+f+] 3 k = = = = = = = = = = = = = = ,@l$l$l$l$,@= = = = = = = = = = = = = = = = = = = = = = = = = = = = = = = = = = = = = = = = = = = = = = = = = = = = = = = k l x@n@f+f+~ ) = = = ",
"= = = = = = ].P ).m.J.J.J.J.J.J.++0.a.G.I.J.J.J.J.J.J.I.p.|+F&-+J.J.-@G&H&I&J&K&L&U#U#D$z$z$M&N&N&N&N&N&N&N&N&N&M&D$D$O&z&P&Q&R&S&T&U&U&V&W&X&Y&Z&`& *.*+*4+2#.#@*X$0.N.t@b@;+I.J.J.J.J.K.;+X+`.}.s = = = = = = = = = = = = = = = = = = = = = = = = = = = = = = = = = = = = = = = = = = = = = = = = = = = = @@C+D+D+D+D+B+&.k = = = = = = j f+D+D+D+D+Z M@= = = = i j 2@g+2@y@} = = = = ) n j@j@{ X l = = = = = = = = = = = ) 3 H q q 1@/.= = = = = = = = = = = = = = = = = = = = = = = = = = = = = = = = = = = = = = = = = = = = = = = = = = = = = = = = = = = = = = = = = = = = = = = = = = = = /.y@p W e+D+C+=./.= = ",
"= = = = = L }.).l.++J.J.J.J.J.K.M.b@X+t@b@;+H.J.J.J.J.J.-+0.#*$*a+J.;@-@<#-@%*H.&***=*~+{.N&-*;*;*;*;*;*;*;*;*;*>*,*#.'*)*!*!*~*{*]*J.J.J.;@J.J.J.J.;@L+Q@a+Y+^*J.a+0.Z+Z+!+&#C&m#p.p.p.p..+a.s+2.t = = = = = = = = = = = = = = = = = = = = = = = = = = = = = = = = = = = = = = = = = = = = = = = = = = = = #@}@D+D+D+D+L@4 = = = = = = = 6 r D+D+D+}@/*l = = = = } ! / | | (*} = = = = ) _*V$V$$@4 = = = = = = = = = = = = = /.`+`+`+`+} = = = = = = = = = = = = = = = = = = = = = = = = = = = = = = = = = = = = = = = = = = = = = = = = = = = = = = = = = = = = = = = = = = = = = = = = = = = = 3 ^ ^ /.x@2 }@j@1@) = ",
"= = = = -.'.R+'@a+J.J.J.I.C@o.q..+1+m.1+U.|+b+n.;+-+-+-+Z#p.f%).U&a+;@L+=@7@J.J.J.]*:*<*s+[*}*|*|*|*|*|*|*|*|*|*1*2*).3*4*K+K+<#L+J.J.J.;@;@;@J.J.J.;@J+M+5*@+0+a+.#;+l#*#a.t+U.|+a.a.a.a.a.).{.`.t = = = = = = = = = = = = = = = = = = = = = = = = = = = = = = = = = = = = = = = = = = = = = = = = = = = = $#}@D+D+D+}@6 } = = = = = = = 5 / g+f+}@i@9 = = = = = = ) /./././.} = = = = 6*} } } } 7*= = = = = = = = = = = = = = = = = = = = = = = = = = = = = = = = = = = = = = = = = = = = = = = = = = = = = = = = = = = = = = = = = = = = = = = = = = = = = = = = = = = = = = = = = = = = = = = 1@i@@%k = 6 { 2@] ! } ",
"= = = T |.Q s+b+M.M.9@0+8*s@t+a.a.l.K@++b+|+).a.0.0.0.0.0.9*0*).).a*-@z@1$e$K+J.J.^+b*c*R+d*e*|*|*|*|*|*|*|*|*f*g*).P ).h*i*;@-@7@<#j*k*M+7@;@J.J.J.L+I+n#l*m*|+s.M.J.K.3+:@P F.N $.$.$.$.$.!%O @.s = = = = = = = = = = = = = = = = = = = = = = = = = = = = = = = = = = = = = = = = = = = = = = = = = = = =  #2@D+D+D+Y 5 = = = = = = = = } `+3 3 3 ! ) = = = = = = = = = = = = = = = = = = = = = = = = = = = = = = = = = = = = = = = = = = = = = = = = = = = = = = = = = = = = = = = = = = = = = = = = = = = = = = = = = = = = = = = = = = = = = = = = = = = = = = = = = = = = = = = = = = = = = 3 H J ##+@W Q$e+] j 4 ",
"= = = T 5%R+{.#.0.s.*+|+!+N.X+)%n.C@I.K.M.2+:@s.0.n*n*o*R&p*o*T&q*r*H%:&= = k%J+J.s*t*u*P >*e*|*|*|*|*|*|*|*|*v*>*>*'.[.w*x*y*-@-@z*,@,@>@-@-@;@J.K+7@A*:&q+A@Q |+B@J.I./+&# +B*C*>.>.>.>.,.-.s s = = = = = = = = = = = = = = = = /././.= = = = = = = = = = = = = = = = = = = = = = = = = = = = = = = = = = E |@f+D+f+G 4 = = = = = = = = = = = = = = = = = = = = = = = = = = = = = = = = = = = = = = = = = = = = = = = = = = = = = = = = = = = = = = = = = = = = = = = = = = = = = = = = = = = = = = = = = = = = = = = = = = = = = = = = = = = = = = = = = = = = D*E*q@E*F*= = = = = = = = = = = /.3 r q 3@2 H T@2 ^ 5 ",
"= = = T c.@.P$O O #.P Q r+r+)%G*K.J.J.J.J.I..#M.~*-+-+-+-+-+H*%*-@K+z*q+= = = m+i*I*).J*R >*e*|*|*|*|*|*|*|*|*e*>*O E.].K*L*M*&*N*O*= = l+7@-@-@B$=@M+|#q+= $+N U.b@M.;+=+a.3.L = = = = = = = = = = = = = = = = = = = = = = = = k 3 | 5.= &@k k &@= = = = = = = = = = = = = = = = = = = = = = = = = = = = = i j H H ~ 8 } = = = = = = = = = = = = = = = = = = = = = = = = = = = = = = = = = = = = = = = = = = = = = = = = = = = = = = = = = = = = = = 6*) ) i&= = = = = = = = = = = = = = = = = = = = = = 6*) ) i&= = = = = = = = = = = = = = = = = = = = = = = = i k@g+B+`+= = = = = = = = = = = = /.=.q 3@^ 3 ##^ ^ M@",
"= = = = = T -.$+|.|.@.E.P*Q*N.<%J.J.J.J.a+0+l.a+Q@J.J.J.J.J.J.;@-@M+l+= = = T R*s&F&S*1.P T*U*|*|*|*|*|*|*|*|*e*>*O u s V*W*X*t@Y*Z*;.`* =.=+=@=#=X@6@:&= = T ].N b+:@s@X+b.t = = = = $=%== = = = = = = = = = = = = = = = = = = l ^ ^ x@= 4 ` ` K = = = = = = = = = = = = = = = = = = = = = = = = = = = = = } /./././.) = = = = = = = = = = = = = = = = = = = = = = = = = = = = = = = = = = = = = = = = = = = = = = = = = = = = = = } %@q@1 =.3 ) = = i %%X 9 = = = = = = = = = = = = = = = = = = = = = = `+%%X ) = = = = = = = = = = = = = = = = = = = = = = = = i I C+r `+= = = = = = ) 9 D 9 ) = = l M@+@l k M@^ ^ M@",
"= = = = = = = = = = = = ,.[.a.q.I.J.K.{#/+).l.&=p%7@J.J.J.J.J.L+*===-=,.= s ].h@;=>=,=h@{.N&'=|*|*|*|*|*|*|*|*e*>*O u = -.)=!=~=W*{=r+#.).).]=^=8@K$:&q+= = = s }.R+Q R+3.s = = = = = = = = = = = = = = = = = = = = = = = = = = M@^ ^ M@= E T@B+g%= = = = = = = = = = = = = = = = = = = = = = = = = = = = = = = = = = = = = = = = = = = = = = = = = = = = = = = = } &.1 =.5.} = = = = = = = = = = = = = = = = = = = = = = = = = = k 5.W ~ ] q / ) = = C L@3@D = = = = = = = = = = = = = = = = = = = = = } *.] =.) = = = = = = = = = = = = = = = = = = = = = = = = 6*/=W 8 (== &@k k &@/.3 ~ ~ { =.3 k = = = = = M@^ ^ M@",
"= = = = = = = = = = = = T S.*+&#-+J.a+m#).3.].s q+l+%#;@J.;@M+M+_=:=R+ +3%'.O F.@.c.T y.,*<=[=|*|*|*|*|*|*|*|*e*>*O u = = }=|=1=2=O {.).).).3=4=H%F+q+= = = = = |.#.).`.S = = = = = = = = = = = = = = = = = = = = = = = = = = = M@^ ^ M@= 5=U@{ W = = = = = = = = = = = = = = = = = = = = = = = = = = = = = = = = = = = = = = = = = = = = = = = = = = = = = = = = /.W j@r W 4 = = = = = = = = = = = = = = = = = = = = = = = = = = /.y@~ p X =.3 ) = = 6=o@|@7== = = = = = = = = = = = = = = = = = = = = 4 L@|@(+6*= = = = = = = = = = = = = = = = = = = = = = = = = = = = = = k .@.@k 3 H 2 p n@j@^ l = = = = = M@^ ^ M@",
"= = = = = = = = = = = = = u Q |+*%a+0+N.@.c.= = = q+`#J@7@7@J+8=9=0=).).).).N M L = T [.).1*a=|*|*|*|*|*|*|*|*v*>*>*b.= = = = T -.t$!.s+).~+9=b=*@,@= = = = = = t d.#.T.s = = = = = = = = = = = = = = = = = = = = = = = = = = =  .^ ^ 5 = } @%r r@l = = = = = = = = = = = = = = = = = = = = = = = = = = = = = = = = = = = = = = = = = = = = = = = = = = = = = = } 3 { F 2@i@$@= = = = = = = = = = = = = = = = = = = = = = = = = /.3 / q@%@} = = = = = C p ~ D = = = = = = = = = = = = = = = = = = = = = &.^ ^ K = k /.! K ) = = = = = = = = = = = = = = = = = = = = = = = = = k .@` 5.I ] L@C @@B+3@x@= = = = = M@^ ^ M@",
"= = = = = = = = = = = = = t N ).0.q.N.c=L = = = = = q+F+B$L+M+d=e=s+).s+r+3.].s = = -.$.N&f=|*|*|*|*|*|*|*|*|*g=h=).}.= = = = = = = L @.3.|.i=q+q+= = = = = = = s S S -.= = = = = = = = = = = = = = = = = = = = = = = = = = = } o ~ j 4 = = ##q q M@= = = = = = = = = = = = = = = = = = = = = = = = = = = = = = = = = = = = = = = = = = = = = = = = = = = = = = } F@H q 2@] M@= = = = = = = = = = = = = = = = = = = = = = = = ) 3 |@&.k = = = = = = = C p ~ D = = = = = = = = = = = = = = = = = = = = k 1@H 1@k = 4 1 ] F y@} = = = = = = = = = = = = = = = = = } } } = = &@k F#F#&.~ |@Z =.} k 3 | 5.= = = = } x@^ / l ",
"= = = = = = = = = = = = = = }. +~+).@.L = = = = = = = ,@|#7@z@j=c.3.Q*}.k== = = = T |.>*l=m=|*|*|*|*|*|*|*|*|*a=n=N&[.T = = = = = = = = = = = = = = = = = = = = = = = = = = = = = = = = = = = = &@k k &@= = = = = = = = = = = i j ~ 8 } = = +@3@3@+@= = = = = = = = = = = = = = = = = = = = = = = = = = = = = = = = = = = = = = = = = = = = = = = = = = = = = = } 5.^ g+e+=.l = = = = = = = = = = = = = = = = = = = = = = = k ! ~ W `+= = = = = = = = C p ~ D = = = = = = = = = = = = = = = = = = = = l ^ ^ x@= = 4 W g+}@U@} = = = = = = = = = = = = = = k l l 5.D 3 /.= M@E@E@M@`+W 2@r U@4 = /././.k /./.k %@W ~ q@k ",
"= = = = = = = = = = = = = = S O Q %+c.= = = = = = = = = E+E+E+= = T T T = = = = = T [.N&1*f*|*|*|*|*|*|*|*|*|*a=o=,*Q+$+= = = = = = = = = = = = = = = = = = = = = = = = = = = = = = = = = = = = 4 ` ` K = = = = = = = = = = = i p ~ 8 = = = 5 ^ ^  .= = = = = = = = = = = = = = = = = = = = = = = = = = = = = = = = = = = = = = = = = = = = = = = = = = = = = = = k 3 =.W /.= = = = = = = = = = = = = = = = = = = = = = = = K / ^ &.} = = = = = = = = C p ~ D = = = = = = = = = = = = = = = = = = = = x@^ ^ l = = } 5.~ 3@5@} = = = = = = = = = = = = = k 5.p y@3 k@H 3 k $@e+e++.} 5.i@j@i@ #= = = = k y@^ J W@q W %@= ",
"= = = = = = = = = = = = = = s @.'.].= = = = = = = = = = = = = = = = = = = = = = = -.'.).f=|*|*|*|*|*|*|*|*|*|*|*p=q=Q d%T = = = = = = = = = = = = = = = = = = = = = = = = = = = = = = = = = = = 4 :#B+o } = = = = = = = = = = 4 =.H o = = = E p ~ g%= = = = = = = = = = = = = = = = = = = = = = = = = = = = = = = = = = = = = = = = = = = = = = = = = = = = = = = = = } } } = = = = = = = = k l r=l k s== = = = = = = = = k o ~ W 4 = = = = = = = = = C p ~ D = = = = = = = = = = = = = = = = = = = k 1@H 1@k = = = Z%%@%@t== = = = = = = &@k k &@= = = /.y@^ y@! 7 ~ ^ l )#n e+y@} k y@g+Y y@k = = = k 3 H Z 2@^ 5.} = ",
"= = = = = = = = = = = = = = = s s s = = = = = = = = = = = = = = = = = = = = = = T ].>*l=u=|*|*|*|*|*|*|*|*|*|*|*v*1*N&[+T = = = = = = = = = = = = = = = = = = = = = = = = = = = = = = = = = = = v=7 { >#4 = = = = = = = = = = K ^ ^ &.= = = C p ~ D = = = = = = = = = = = = = = = = = = = = = = = = = = = = = = = = = = = = = = = = = = = = = = = = = = = = = = = = = = = = = = = = = = = /.3 ^ / 7 w=} = = = = = = = = =  .~ 3@6 } = = = = = = = = = C p ~ D = = = = = = = = = = = = = = = = = = = l ^ ^ x@= = = = = = = = = = = = = = = 5.` ` k = = ) 3 p 6 l k +@3@3@+@} 8 ~ j i = S@3@C+i@5 = = = = /.3 o@=.3 k = = ",
"= = = = = = = = = = = = = = = = = = = = = = = = = = = = = = = = = = = = = = = = S [.N&x=f*|*|*|*|*|*|*|*|*|*|*|*a=f=y=}.T = = = = = = = = = = = = = = = = = = = = = = = = = = = = = = = = = = = = S@^ ^ S@= = = = = = = = = } o ~ j 4 = = = C p ~ D = = = = = = = = = = = = = = = = = = = = = = = = = = = = = = = = = = = = = = = = = = = = = = = = = = = = = = = = = = = = = = = = = = } 3 H ~ / 7 w=} = = = = = = = = = 7 r { 5 = = = = = = = = = = C p ~ D = = = } } } = = = = = = ) ! 7 x@l = = x@^ ^ l = = = = = = = = = = = = = = ) 1@F H@5./.= 9 k@W E = = +.q q $@= g%~ p E = } 7 r 3@5 = = = = = = = = = = = = ",
"= = = = = = = = = = = = = = = = = = = = = = = = = = = = = = = = = = = = = = = = [+).h=z=|*|*|*|*|*|*|*|*|*|*|*|*[=A=M&M = = = = = = = = = = = = = = = = = = = = = = = = = = = = = = = = = = = = = 4 W ~ o k = = = = = = = = 4 j ~ o } = = = C p ~ D = = = = = = = = = = = = = = = = = = = = = = = = = = = = = = = = = = = = = k l M@M@ . .K k = = = = = = = = = = = = = s=k k Z%= = = = 4 p i@E@B=5 k s== = = = = = = = = _+r I 4 = = = = = = = = = = C p ~ D = ) 3 =.1@/.= = = = = /.3 ~ r q =./.} 1@H :+k = = = = Z%k k s== = = = = ) ! |@ @Q$Y I l D ~ p C = k +.{ p 5 = ..3@3@..= = K 3 3 4 = = = = = = = = = = = = ",
"= = = = = = = = = = = = = = = = = = = = = = = = = = = = = = = = = = = = = = = s '.).>*C=U*[=D=a=|*|*|*|*f*g=E=F=<=M&P M = = = = = = = = = = = = = = = = = = = = = = = = = = = = = = = = = = = = = } x@^ / l = = k /./.k = = 5 ^ ^  .= = = = C p ~ D = k k k = = = = = = l x@7 7  .l = = = = i&) ) 6*= = = = = = = = = = = k K o / ^ ^ ^ { ^ 3 k = = = = = = = = = = = = } w= .) = = = = 4 y@^ o@j o  .5 4 } = = = = = = = =.H =.= = = = = = = = = = = C p ~ D k ! ~ Z |@3 ) = = ) K :+H U@I F r 3 0&p ~ 8 = = = = = K 7 4@4 = = = = } ! | j `+G f+g+ .p@~ U@,&+@@%I 1@/.} = 5 3@r 7 } = = = = = = = = = = = = = = = = = ",
"= = = = = = = = = = = = = = = = = = = = = = = = = = = = = = = = = = = = = = = s '.O {.M&T*G=G=h=h=h=h=h=h=>*<=).H={.3.s = = = = = = = = = = = = = = = = = = = = = = = = = = = = = = = = = = = = = = l / ^ x@} = l =.^ x@) =  .^ ^ 5 = = = = E p ~ ` 5.1@/ ! ) = = = = k =.q 2@e+q =.k = = = K X %%4 = = = = = = = = = = k 5.p ~ ^ ^ ^ ^ U@{ ^ 5.k = = = = = = = = = = = } I=7 ! k = = = k /.3 k@~ ~ ^ ^ j ! ) = = = = = = =.H =.= = = = = = = = = = = C p ~ X 1@~ D@/*G | 9 } /.3 ^ ^ =.&.5 @@n@~ %%p ~ g%= = = = = +.] B+$@= = = = %@j ~ q@} I }@}@7 S@D ~ r@2 q D@5.= = = 4 :+~ F@} = = = = = = = = = = = = = = = = = ",
"= = = = = = = = = = = = = = = = = = = = = = = = = = = = = = = = = = = = = = = s c.@.#.s+{.M&N&).).).).).).J=2*Q P }.S = = = = = = = = = = = = = = = = = = = = = = = = = = = = = = = = = = = = = = = k 7 q U@5 = +@B+2@H ! i o ~ j 4 = = = = &.2 i@T@^ F 3@~ 5.= = = } 5.3@j@Q$3@g+3@K = = =  .k@J 5 = = = = = = = = = k 5.p ^ W x@M@M@5 $@m 2 p l = = = = = = = = = = = s=M@p _+l = = = = = ) 9 8 j ^ 2 q ~ 5.= = = = = = :+H =.} = = = = = = = = = = C p { n@{ { x@E j ~ 8 E D ~ 1 3 /.k = E p ~ L@^ ^ S@= = = = = +.Z Z K== = = = p@~ p 0&} X j@Y / 5 /.3 / 2 2 1@l = = = = ) /./.} = = = = = = = = = = = = = = = = = ",
"= = = = = = = = = = = = = = = = = = = = = = = = = = = = = = = = = = = = = = = = = L=R ).Q x.h@[.'.'.'.'.3.'.2.r+E.T = = = = = = = = = = = = = = = = = = = = = = = = = = = = = = = = = = = = = = = = = +.q q $@= +.F C+j@k@$#j ~ o } = = = l o@j@F F ^ L@i@n x@= = = M=I j@~ _+E@~ 3@K = = = 5.I I I@= k l M@l k = = k 5.p p &.4 } = = = =  .^ ^ 5 = = = = = = = = = = = = M@^ ^ M@= = = = = = = } 4 5 Z@B+3@o = = = = = = q@~ p %@= = = = = = = = = = E p e+q 3@1@l } 8 ~ j S@^ I ..} = = = S@^ ^ =.~ p 5 = = = = = ##3@3@M@= = = = 9 ~ U@! 4 p e+Y ^ M@= k l M@l k = = = = = = = = = = = = = = = = = = = = = = = u.' ' ",
"= = = = = = = = = = = = = = = = = = = = = = = = = = = = = = = = = = = = = = T T 6#M R+#.'.s = = = = = = = u O O u = = = = = = = = = = = = = = = = = = = = = = = = = = = = = = = = = = = = = = = = = = $@3@3@+.= 7 q e+Y F / ^ / K = = = = 6 Y g+] 1@5.+@I I $@= = = `@C+}@e+3@F 3@3 ) = = = M@^ ^ +@K o / ^ y@/.= k 3 I I q@%@C C C C E &.7 ~ D 4 = = = = = = = = = = = = M@^ ^ M@= = = = = = = = = = E o@|@_#= = = = = = %@W ~ q@k = = = = = = = = = 5 ~ r 2@*.k = = D ~ p ..^ ^ M@= = = /.o ~ D ..^ ^ &.= k /./.k o H =.4 = = = = ) 3 H r@1 r@r q ^  .= = = = = = = = = = = = = = = = = = = = = = = = = = = = = - % % ",
"e.u.= = = = = = = = = = = = = = = = = = = = = = = = = = = = = = = = = = = s b.[.'.~+N=|.-.= = = = = = = = |.O O $+= = = = = = = = = = = = = = = = = = = = = = = = = = = = = = = = = = = = = = = = = = 4 p ~ o k :+H L@/ 2@q { o k = = = l J }@2@+.k = M@^ ^ M@= = = p }@}@H 3@q ^ /.= = = = M@^ ~ L@^ |@^ ^ y@/.} 5.^ q n@r@o@p p p p p ^ { 3 /.} = = = = = = = = = = = = M@^ ^ M@= = = = = k l M@M@5 p@o@~ p@= = = = = = } 5./ I x@4 = = = = = = = = +@q C+I `+= = k 8 ~ W  #^ ^ x@= } `+*.{ 3 /.4 :+H 1@} k 5@5@S@:+~ j } = = = = = /.3 ^ ~ H :+2 ~ g%= = = = = = = = = = = = = = = = = = = = = = = = = = = = = Q.>   ",
"> O=' = = = = = = = = = = = = = = = = = = = = = = = = = = = = = = = = P=d+3.`.R+O 5%S T = = = = = = = = = t.#.$.;.= = = = = = = = = = = = = = = = = = = = = = = = = = = = = = = = = = = = = = = = = = } :+H 1 &.^ / 5.x@q C+]  .= = = = 5.F Y o@) = = l / ^ x@} = = a#r ] y@+@+@M@k = = = = M@2 q e+n  @x@M@l k 5 U@e+^ I 3@|@~ ~ ~ ~ ~ ^ 3 /.= = = = = = = = = = = = = = +@3@3@+@= = = = = /.y@^ ^ ^ _+~ D %@= = = = = = = k ! ~ n 1 o  .M@M@l k = = G@j@g+m } = = k 5@y@5.4 3 H o@=.=.p H 3 /.= = q@~ U@..+._+| +@j ~ 8 } = = = = = = k 5.W 3 ! p ~ g%= = = = = = = = = = = = = = = = = = = = = = = = = = = = = e.@ + ",
"+   ( h = = = = = = = = = = = = = = = = = = = = = = = = = = = = = = = s T.). +Q*5%-.T = = = = = = = = = = h@#.$.,.= = = = = = = = = = = = = = = = = = = = = = = = = = = = = = = = = = = = = = = = = = = o ~ G L@~ q@k l D@C+D@l = = = = 5.^ ^ 5.= = = k ! / V$} = = K ^ D@&.= = = = = = = = M@B+j@q @@E } = = = $@q q 7 9 D 7=D D D D g%K k = = = = = = = = = = = = = = = $@q q +.= = = = = /.y@^ ^ ^ | 3 /.} = = = = = = = = ) 3 ^ ] ~ ^ ^ ^ y@/.= k ~ f+F 5 = = = k /./.k = /.3 H H H ~ 3 /.= = = %@D ~ r@^ ~ D [@p ~ 9 = = = = = = = = } } } &.^ ^ K = = = = = = = = = = = = = = = = = = = = = = = = = = = = = Q=, . ",
". , w.R== = = = = = = = = = = = = = = = = = = = = = = = = = = = = = = s '.{.Q %+= = = = = = = = = = = = = [.).'.T = = = = = = = = = = = = = = = = = = = = = = = = = = = = = = = = = = = = = = = = = = = K n@e+r j %@= k 1@p 1@k = = = = k l l k = = = = ) /./.} = = k 3 ^ 5@`+} = 4 `+`+k = M@B+g+/ 4 = = = = = +@i@i@@@= = = = = = = = = = = = = = = = = = = = = = = = = 5 2 q 7 = = = = = k l M@M@ .K ) = = = = = = = = = = = k 5.1@p ^ ^ ^ y@/.= l q C+J } = = = = = = = = = /.3 =.:+! ) = = = = } /.3 / ^ 1@`+I@| 3 ) = = = = = = = = = = /.1@H 3 k = = = = = = = = = = = = = = = = = = = = = = = = = = = = = Q=+ . ",
". + w.g = = = = = = = = = = = = = = = = = = = = = = = = = = = = = = = P=$+r+).Q P$L = = = = = = = = = = = '.).!%t s s = = = = = = = = = = = = = = = = = = = = = = = = = = = = = = = = = = = = = = = = = k X g+e+! } = = } } } = = = = = = = = = = = = = = = = = = = = k 5.|@p 1@o 7 J y@k = l / ^ x@} = = = = = l ^ { ##k = = k /./.k = = = = = = = = = = = = = = = = = = } 3 | ! = = = = = = = = = = = = = = = = = = = = = = = = = } 4 5 M@M@l k = l ^ ^ x@= = = = = = = = = = = = = = = = = = = = = = k l 5 4 } /././.= = = = = = } 4 5  .o :+H 3 /.= = = = = = = = = = = = = = = = = = = = = = = = = = = = = u.S=+ . ",
". , w.g = = = = = = = = = = = = = = = = = = = = = = = = = = = = = = = = T %+{.).s+@.T = = = = = = = = = = Q*).s+Q+O.M L = = = = = = = = = = = = = = = = = = = = = = = = = = = = = = = = = = = = = = = = = *.~ =.) = = = = = = = = = = = = = = = = = = = = = = = = = = = /.3 ~ H ^ { ~ 3 k = k /./.k = = = = = = k 3 ^ I o  .M@+@(#~%l = = = = = = = = = = = = = = = = = = = /././.= = = = = = = = = = = = = = = = = = = = = = = = = = = = = = = = = k /./.k = = = = = = = = = = = = = = = = = = = = = = = = = = = = = = = = = = = = /.D ^ ^ ~ H 3 /.= = = = = = = = = = = = = = = = = = = = = = = = = = = = = = Q.T=. . ",
". + w.g = = = = = h h h = = = = = = = = = = = = = = = = = = = = = = = = = -.O {.s+x.T = = = = = = = = = = }.s+).{.O d.c.= = = = = = = = = = = = = = = = = = = = = = = = = = = = = = = = = = = = = = = = = ) ) ) = = = = = = = = = = = = = = = = = = = = = = = = = = = = = ) ! :+^ j ! ) = = = = = = = = = = = = = k 5.p ~ ^ ^ 2 3@^ 5.= = = = = = = = = = = = = = = = = = = = = = = = = = = = = = = = = = = = = = = = = = = = = = = = = = = = = = = = = = = = = = = = = = = = = = = = = = = = = = = = = = = = = = = = = = = = = = = /./ ^ ^ p 3 /.= = = = = = = = = = = = = = = = = = h R=g g R=h = = = = = = = v.  . . ",
". .   U=z g.c V=W=[ U=X=& * = = = = = = = = = = = = = = = = = = = = = = = = -.`*d$S T = = = = = = = = = = S !%`.!.3.A@c.= = = = = = = = = = = = = = = = = = = = = = = = = = = = = = = = = = = = = = = = = = = = = = = = = = = = = = = = = = = = = = = = = = = = = = = = = = = k 4 4 } = = = = = = = = = = = = = = = k 5.W ^ ^ ^ ^ y@/.= = = = = = = = = = = = = = = = = = = = = = = = = = = = = = = = = = = = = = = = = = = = = = = = = = = = = = = = = = = = = = = = = = = = = = = = = = = = = = = = = = = = = = = = = = = = = = = ) K  .5 4 } = = = = = = = = = = = = = = = = = = = ' c &+< < T=b T=# T=&+^.Y=Z=  . . ",
"+ . . + + + + ,     + , < `=g h = = = = = = = = = = = = = = = = = = = = = = = = = = = = = = = = = = = = = = T ,.,.,.T T = = = = = = = = = = = = = = = = = = = = = = = = = = = = = = = = = = = = = = = = = = = = = = = = = = = = = = = = = = = = = = = = = = = = = = = = = = = = = = = = = = = = = = = = = = = = = = = } 4 5 M@M@M@l k = = = = = = = = = = = = = = = = = = = = = = = = = = = = = = = = = = = = = = = = = = = = = = = = = = = = = = = = = = = = = = = = = = = = = = = = = = = = = = = = = = = = = = = = = = = = = = = = = = = = = = = = = = = = = = = = = = = = = = = = ' $   , , + . . . . . . + , . . . ",
". . . . . . . . . + . . + : [ ' = = = = = = = = = = = = = = = = = = = = = = = = = = = = = = = = = = = = = = = = = = = = = = = = = = = = = = = = = = = = = = = = = = = = = = = = = = = = = = = = = = = = = = = = = = = = = = = = = = = = = = = = = = = = = = = = = = = = = = = = = = = = = = = = = = = = = = = = = = = = = = = = = = = = = = = = = = = = = = = = = = = = = = = = = = = = = = = = = = = = = = = = = = = = = = = = = = = = = = = = = = = = = = = = = = = = = = = = = = = = = = = = = = = = = = = = = = = = = = = = = = = = = = = = = = = = = = = = = = = = = = = = = = = *  -$ < > @ . . . . . . . . . . + "};
